/* XPM */
static char *_35ddb07c5f8457ba815c3fed70076dfpHbrLGr3OF8yWZcc[] = {
/* columns rows colors chars-per-pixel */
"225 225 256 2 ",
"   c #020201",
".  c #0B0101",
"X  c #010A01",
"o  c #0B0B02",
"O  c #02020B",
"+  c #0B020B",
"@  c #030B0A",
"#  c #0A0B0B",
"$  c #130102",
"%  c #170407",
"&  c #051404",
"*  c #181604",
"=  c #020213",
"-  c #080715",
";  c #170315",
":  c #071516",
">  c #171718",
",  c #250207",
"<  c #251902",
"1  c #270216",
"2  c #370319",
"3  c #310E0C",
"4  c #0E2908",
"5  c #282703",
"6  c #352F0B",
"7  c #0C0C25",
"8  c #390525",
"9  c #300D29",
"0  c #0E2F2D",
"q  c #2E312F",
"w  c #4C0716",
"e  c #49370D",
"r  c #490327",
"t  c #520D31",
"y  c #6A0A37",
"u  c #4E2F30",
"i  c #6F1117",
"p  c #1C5921",
"a  c #524912",
"s  c #6A5215",
"d  c #726916",
"f  c #534E2A",
"g  c #6B562B",
"h  c #75682F",
"j  c #526C0F",
"k  c #1F3049",
"l  c #721247",
"z  c #712B4F",
"x  c #5E1E4D",
"c  c #195B5A",
"v  c #4F524F",
"b  c #6D7270",
"n  c #656457",
"m  c #9A0B1D",
"M  c #F6030C",
"N  c #DF0920",
"B  c #937116",
"V  c #A87818",
"C  c #997828",
"Z  c #8D7231",
"A  c #A67B27",
"S  c #AD7932",
"D  c #885723",
"F  c #8F1251",
"G  c #AB1359",
"H  c #8D2959",
"J  c #B3166A",
"K  c #923369",
"L  c #B22D70",
"P  c #9F2061",
"I  c #CB0B74",
"U  c #D80C77",
"Y  c #CA1677",
"T  c #D4147B",
"R  c #DA147D",
"E  c #DA1A7D",
"W  c #D51778",
"Q  c #CD0D6B",
"!  c #E60A79",
"~  c #E6177B",
"^  c #F61078",
"/  c #D7257B",
"(  c #C92B77",
")  c #EA267B",
"_  c #C9145B",
"`  c #8C774A",
"'  c #924A70",
"]  c #AC4876",
"[  c #8F6661",
"{  c #CD5C51",
"}  c #098F33",
"|  c #0AAA37",
" . c #6C8C1F",
".. c #129F5A",
"X. c #6F8576",
"o. c #07D14F",
"O. c #12DC5D",
"+. c #03C93D",
"@. c #AD8718",
"#. c #978731",
"$. c #A88528",
"%. c #A88837",
"&. c #B48F33",
"*. c #A09C26",
"=. c #C69536",
"-. c #CEAA39",
";. c #F6F837",
":. c #D8E230",
">. c #94884E",
",. c #B0924B",
"<. c #B6A752",
"1. c #B7AA6E",
"2. c #A29468",
"3. c #C6974B",
"4. c #CFAF54",
"5. c #D8B767",
"6. c #CEB26E",
"7. c #E6BA6D",
"8. c #E2B35C",
"9. c #F8FB4D",
"0. c #D8C66E",
"q. c #ECCC71",
"w. c #F9F270",
"e. c #DCCE57",
"r. c #B0CA3F",
"t. c #21768A",
"y. c #B43085",
"u. c #DC1B82",
"i. c #D91883",
"p. c #D01683",
"a. c #E21B84",
"s. c #E81885",
"d. c #F81988",
"f. c #F4138D",
"g. c #D92686",
"h. c #D3328A",
"j. c #E62689",
"k. c #F7268A",
"l. c #E7348C",
"z. c #FA2895",
"x. c #EA3895",
"c. c #F83899",
"v. c #EC2C92",
"b. c #FD39A4",
"n. c #F92BA7",
"m. c #F11DA4",
"M. c #B45187",
"N. c #B0698F",
"B. c #9B5E89",
"V. c #D14E90",
"C. c #EA4799",
"Z. c #F7469C",
"A. c #F8559C",
"S. c #EB5396",
"D. c #CE6A98",
"F. c #FD44A3",
"G. c #F44CA2",
"H. c #FD4CA4",
"J. c #FE4DAA",
"K. c #FA46A8",
"L. c #EB58A6",
"P. c #F453A4",
"I. c #FC53A6",
"U. c #FD5AA5",
"Y. c #FE55AB",
"T. c #F55BAB",
"R. c #FE5AAC",
"E. c #F556A8",
"W. c #FF4CB3",
"Q. c #FF54B2",
"!. c #FE5CB2",
"~. c #FF5CBA",
"^. c #F958B6",
"/. c #EB4FA9",
"(. c #D473AA",
"). c #E965A9",
"_. c #F963AC",
"`. c #FE62B4",
"'. c #FF64BA",
"]. c #FE6BBB",
"[. c #F869B4",
"{. c #FB78BA",
"}. c #EB71B3",
"|. c #E55CA1",
" X c #FE57C4",
".X c #FE68C4",
"XX c #FE79C4",
"oX c #F771CE",
"OX c #F659E6",
"+X c #19A2A1",
"@X c #788B85",
"#X c #60B3A3",
"$X c #10F7F8",
"%X c #1FE2DF",
"&X c #1DC4BC",
"*X c #8D918F",
"=X c #AFB2B0",
"-X c #9DA6A0",
";X c #FA86BC",
":X c #EF8EB8",
">X c #D39BA6",
",X c #B3C6BB",
"<X c #F1D489",
"1X c #F9EA92",
"2X c #FAF2AA",
"3X c #D3CEA2",
"4X c #FE84C3",
"5X c #FD8CC4",
"6X c #FE8CCB",
"7X c #F888C7",
"8X c #FD92C6",
"9X c #FE94CB",
"0X c #FD9ACD",
"qX c #F797C7",
"wX c #FE8AD4",
"eX c #FE94D2",
"rX c #FE9CD3",
"tX c #FC99D8",
"yX c #EB94C7",
"uX c #FDA7D9",
"iX c #FAB4DC",
"pX c #EFACD1",
"aX c #FEB4E3",
"sX c #FDBBE4",
"dX c #FDBBE9",
"fX c #FDACE8",
"gX c #EA9FD9",
"hX c #B9CDC6",
"jX c #D8D9D9",
"kX c #C9CFCB",
"lX c #D5E4DB",
"zX c #EFF0D6",
"xX c #FEC3EB",
"cX c #FBC8E9",
"vX c #FECAF4",
"bX c #FDD5F7",
"nX c #EFCEE9",
"mX c #DBEBE7",
"MX c #E4E5E4",
"NX c #ECEDED",
"BX c #E6EAE8",
"VX c #EEF0EF",
"CX c #E8F5E9",
"ZX c #F7F7EA",
"AX c #EFF1F0",
"SX c #EBFAF8",
"DX c #F3F3F3",
"FX c #F5F9F6",
"GX c #F6FBFA",
"HX c #FFFFFF",
"JX c #FCFDFD",
"KX c #FDFDFD",
"LX c #FAF9F8",
"PX c #F2ECF4",
"IX c #EAD2DA",
"UX c #BABEC2",
/* pixels */
"HXHXHXHXHXHXHXHXHXGXAXNXNXAXDXVXNXNXDXDXHXHXHXJXHXHXHXHXHXDXNXDXAXNXVXDXAXNXDXHXHXHXHXHXHXHXHXHXDXDXVXNXNXNXVXAXBXDXHXHXHXHXHXHXHXHXHXGXDXNXNXAXDXNXNXNXVXFXHXHXGXHXHXHXHXGXDXDXMXjXJXHXNXBXMXVXBXLXJXLXLXLXZXLXHXHXJXFXFXZXZXZXJXDXBX=Xb k q 0 > > q q q v -XlXSXSXGXAXAXGXAXSXJXFXLXJXLXJXHXHXFXDXAXVXDXDXDXAXAXNXVXDXHXHXHXHXHXHXHXHXHXDXNXNXNXNXDXAXNXAXFXHXHXHXHXHXHXHXHXHXAXAXAXAXVXVXNXNXNXNXHXHXHXHXGXHXHXHXHXGXDXNXNXDXNXNXNXVXDXFXJXHXHXHXHXHXHXHXHXDXVX",
"HXHXHXHXHXHXHXHXHXGXAXNXNXAXDXVXNXNXDXDXHXHXHXHXHXHXHXHXHXDXNXNXAXNXVXDXAXNXDXHXHXHXHXHXHXHXHXHXDXDXVXNXNXNXVXAXBXDXHXHXHXHXHXHXHXHXHXGXDXNXNXDXDXAXNXNXVXDXHXHXHXDXDXHXHXHXHXDXGXVXDXVXVXFXDXVXPXGXJXJXHXHXLXHXJXJXHXFXlX=X*Xb b n q :     X @ @ O O O O   : q b b =XjXJXJXAXDXHXJXJXHXHXHXJXNXGXHXHXGXDXVXDXGXJXBXMXGXHXHXGXHXHXHXHXHXHXDXNXNXNXNXDXAXNXAXFXHXHXHXHXHXHXHXHXHXAXAXAXAXVXVXNXNXNXNXHXHXHXHXGXHXJXHXHXGXDXNXNXDXNXNXNXVXDXFXJXHXHXHXHXHXHXHXHXDXVX",
"HXHXHXHXHXHXHXHXHXGXAXNXNXAXDXVXNXNXDXDXHXHXHXHXHXHXHXHXHXDXNXDXAXNXVXDXAXNXDXHXHXHXHXHXHXHXHXHXDXDXVXNXNXNXVXAXBXDXHXHXHXHXHXHXHXHXHXGXDXNXNXDXDXDXNXNXVXDXGXHXHXHXHXHXHXHXGXDXlXDXAXBXBXNXFXFXSXJXJXHXHXPXkXkXUX2.q   O O O O + # O     o     @ O O @ O O O O . . . # v -XkXkXHXHXFXGXHXHXHXHXHXDXMXBXAXDXAXBXBXVXGXJXHXGXJXHXHXHXHXHXHXDXNXNXNXNXDXAXNXAXFXHXHXHXHXHXHXHXHXHXAXAXAXAXVXVXNXNXNXNXHXHXHXHXGXHXJXHXHXGXDXNXNXDXNXNXNXNXDXFXJXHXHXHXHXHXHXHXJXNXVX",
"HXHXHXHXHXHXHXHXHXGXAXNXNXAXDXVXVXNXDXDXHXHXHXHXHXHXHXHXHXDXNXDXAXNXVXDXAXNXDXHXHXHXHXHXHXHXHXHXDXDXVXNXNXNXVXAXBXDXHXHXHXHXHXHXHXHXHXGXDXNXNXDXNXNXNXNXDXDXJXHXHXHXGXGXHXHXHXGXVXJXNXGXJXGXjX=X*X-X*X*Xb v >   @ @ O         # O + + . . . . .         @ @ O - O .   O     # q n -X=X*X-XjXVXFXDXHXHXHXGXBXBXBXGXNXMXVXGXJXHXHXHXHXHXHXHXDXNXNXNXNXDXAXNXAXFXHXHXHXHXHXHXHXHXHXAXAXAXAXVXVXNXNXNXNXHXHXHXHXGXHXJXHXHXGXDXNXNXDXNXNXNXNXDXFXJXHXHXHXHXHXHXHXGXNXVX",
"HXHXHXHXHXHXHXHXHXGXAXNXNXAXDXVXVXNXDXLXHXHXHXHXHXHXHXHXHXDXNXAXAXNXVXDXDXNXDXHXHXHXHXHXHXHXHXHXDXDXVXNXNXNXVXAXBXDXHXHXHXHXHXHXHXHXHXGXDXNXNXDXBXBXNXNXDXGXHXHXHXHXHXHXHXGXLXFXJXGXkX-Xb q : O   X     # o     O O             . . 5 f f g h h f a 5 o   . . . # > # O O = - O O           q *X*X*X*X*XUXMXHXHXGXNXAXJXHXDXNXGXHXGXHXHXHXDXNXNXNXVXDXAXNXAXFXHXHXHXHXHXHXHXHXHXAXAXAXAXVXVXNXNXNXNXHXHXHXHXGXHXHXHXHXGXDXNXNXDXNXNXVXVXDXFXJXHXHXHXHXGXHXHXJXAXVX",
"HXHXHXHXHXHXHXHXHXGXAXNXNXAXDXVXNXNXDXLXHXHXHXHXHXHXHXHXHXDXNXDXAXNXVXDXDXNXDXHXHXHXHXHXHXHXHXHXDXDXVXNXNXNXVXAXBXDXHXHXHXHXHXHXHXHXHXGXDXNXNXDXBXBXNXVXDXGXJXHXHXHXHXHXHXHXLXDXb v #   o       O - O O + + + + . o * * 5 g 1.3X2X1X2X2X1X2X2X1X2X2X2X2X2X3X1.>.f 5 .     O O O   o #         # # @     @ q n *XBXVXAXDXHXHXHXGXHXGXHXHXHXDXNXNXNXVXDXAXNXAXFXHXHXHXHXHXHXHXHXHXAXAXAXAXVXVXNXNXNXNXHXHXHXHXGXHXHXHXHXGXDXNXNXDXNXNXVXVXDXFXJXHXHXHXHXJXHXHXHXDXVX",
"HXHXHXHXHXHXHXHXHXGXAXNXNXAXDXVXNXNXDXDXHXHXHXHXHXHXHXHXHXDXNXVXAXNXVXDXDXNXDXHXHXHXHXHXHXHXHXHXDXDXVXNXNXNXVXAXBXDXHXHXHXHXHXHXHXHXHXGXDXNXNXDXVXAXDXDXDXDXDXDXGXGXHXHXDX=Xv # #               . . . . . . . % e g >.3X2XzXzX2X2X2X<X1X1X<X<X2X2X1X<X<X1X2X2X1X<X<X,.s < . . .           # # +         @ # @   q *XMXHXHXGXHXHXHXJXHXHXJXDXBXNXNXVXDXAXNXAXFXHXHXHXHXHXHXHXHXHXAXAXAXAXVXVXNXNXNXNXHXHXHXHXGXHXHXHXHXGXDXNXNXDXNXVXVXVXDXFXJXHXHXHXHXJXHXHXHXDXVX",
"HXHXHXHXHXHXHXHXHXGXAXNXNXAXDXNXAXNXDXLXHXHXHXHXHXHXHXHXHXDXNXVXAXNXVXDXAXNXDXHXHXHXHXHXHXHXHXHXDXDXVXNXNXNXVXAXBXDXHXHXHXHXHXHXHXHXHXGXDXNXNXDXFXFXDXDXDXNXNXBXjXMXjX*Xq     # O O + o > f v f f h h h >.1.3X1X2X2X2X2X1X6.h e < < f 3X2Xs % h <X<Xq.0.0.0.0.4.8.e.q.<X<X6.2.` f q * .     # O     @           #   > *XNXHXHXHXHXHXHXHXGXDXNXNXNXVXDXAXNXAXFXHXHXHXHXHXHXHXHXHXAXAXAXAXVXVXNXNXNXNXHXHXHXHXGXHXHXHXHXGXDXNXNXDXNXNXVXVXDXFXJXHXHXHXHXJXHXHXHXDXVX",
"HXHXHXHXHXHXHXHXHXGXDXNXNXNXDXDXNXNXDXDXGXHXHXHXHXHXHXGXDXDXNXBXBXBXBXNXNXDXDXDXHXHXHXHXHXHXHXHXNXNXNXNXNXNXVXDXBXNXJXGXHXJXHXHXHXGXHXHXDXBXBXBXGXGXMXMX-X> >                 @     5 n 3X2X2X2X2X2X2X2X2X2X1X,.,.6.1.>.f   O =   * s 6.<Xh * 4 <.6.5.0.5.4.8.8.q.q.q.q.q.q.q.q.<X7.4.,.#.Z Z #.a a < . + O   & +     = v kXZXGXHXHXGXHXHXNXVXBXDXBXDXNXNXDXDXHXHXHXHXHXHXHXHXHXDXAXDXDXDXDXDXDXAXDXGXHXHXHXJXGXHXHXHXGXDXDXNXBXDXDXDXDXDXGXHXHXHXHXHXHXHXHXJXJXDX",
"GXGXGXGXGXGXGXGXGXGXDXDXDXDXDXDXDXDXDXLXGXGXGXGXGXGXGXGXDXDXDXDXDXDXDXDXDXDXDXGXGXGXGXGXGXGXGXGXDXDXDXDXDXDXDXDXDXGXHXGXHXDXDXGXFXHXJXFXDXNXNXHXMX=Xq   >       @         . . . X   X 4 6 a f g ,.0.<X<X2XzX3Xe - =     o e C 4.0.1Xq.8.q.q.0.6.8.7.8.q.q.q.q.q.<Xq.7.7.5.5.7.7.5.0.q.1X1X<Xq.q.q.q.e.4.>.g 5 O . .   4   7 -XZXAXHXDXDXJXDXAXDXDXBXDXDXNXBXBXHXGXGXGXGXGXGXGXGXDXDXDXDXDXDXDXDXDXDXGXJXJXGXGXFXGXGXGXGXDXDXDXDXGXLXDXDXDXDXDXDXGXGXGXGXGXGXFXDXDX",
"DXDXDXDXDXDXDXDXDXDXGXGXJXGXGXGXHXHXGXLXDXDXDXDXDXDXDXDXGXJXHXHXHXHXHXHXGXGXGXGXDXDXDXDXDXDXDXDXGXGXGXHXHXHXHXHXHXJXVXMXGXDXNXMXDXNXNXMXAXHXNX-Xv .   # X   # . + + + ; 2 r r r ; % % $ . . . % . 5 u g >.3X2X1X1.Z a s %.q.q.q.7.7.8.8.7.7.<X<X<Xq.q.q.5.<.#.h a a 6 6 5 5 5 5 6 a s d ,.q.<Xq.8.7.q.q.q.q.8.4.a o O   o O - b BXHXVXBXHXHXJXHXHXHXHXHXHXHXHXDXDXDXDXDXDXDXDXDXHXHXHXHXHXHXHXHXJXGXDXDXDXDXDXDXDXDXDXDXGXGXHXHXHXHXHXGXDXDXNXNXDXDXDXDXDXDXDXDXHX",
"VXVXVXVXVXVXVXVXNXDXGXHXHXHXHXHXHXHXJXLXDXDXNXNXNXNXNXDXDXHXHXHXHXHXHXHXHXGXLXDXVXVXVXVXVXVXVXVXHXHXHXHXHXHXHXHXJXHXJXBXDXNXNXDXDXVXMXDXHX=Xv #     @   . % , , x K N.:X7X5X;X;X6X4X(.N.' z z u % % . . o   * q C ,.<X1X1X1Xq.q.q.q.q.q.q.q.6.<.X.f 6 o . $ . $           . . . #   . .   o a 2.q.1Xq.4.5.,.Z ,.1X2.< - O     O   -XHXHXNXDXHXDXHXHXHXHXHXHXDXMXVXVXVXVXVXVXVXVXHXHXHXHXHXHXHXHXHXJXDXNXBXNXVXDXNXNXDXDXGXHXHXHXHXHXHXHXGXDXNXBXDXAXNXNXNXAXDXDXHX",
"AXAXAXAXAXAXAXAXNXDXHXHXHXHXHXHXHXHXGXGXDXDXNXNXDXDXDXDXDXGXHXHXHXHXHXHXHXGXDXDXAXAXAXAXAXAXAXAXHXHXHXHXHXHXHXHXFXHXFXNXDXGXAXNXDXGXHXHX*X:     X     . % t ' (.4X5X7X4X4X5XeXuXeX6X4X;X7XeXeXeX>XN.x , % . . #   X > 6 q f a f a f g a 6 6 5 X , $ $ . + ; = - r t y l l H H H x t 8 ; +   X X e Z 4.1X1Xh . O 6 <.5.f ; =       > b jXHXHXHXAXHXDXNXDXHXHXHXGXAXAXAXAXAXAXAXAXHXHXHXHXHXHXHXHXHXHXDXNXBXBXNXAXVXDXDXDXGXJXHXHXHXHXHXHXGXDXDXNXDXDXNXNXNXDXDXGXHX",
"DXDXDXDXDXDXDXDXNXDXHXHXHXHXHXHXHXGXGXDXDXDXDXNXDXDXNXNXDXDXHXHXHXHXHXHXHXGXDXNXDXDXDXDXDXDXDXDXGXGXJXHXHXHXHXHXHXHXHXDXMXDXFXDXMX=Xv @       #   # 1 u N.:X:X5XrX0XrXuXaXdXdXaXdXdXdXuXtXeXwXXXwXtXwX7X:XN.z t , % $ $ . . . O O O O - = O = =   % u z K ] V.S.T.T.E.T.Y.Y.Y.Q.G.G.L.V.K t , $ = O < Z 0.<X4.B $ $ a q.#.. # # @     # q *XDXHXHXHXHXDXDXHXHXMXDXDXDXDXDXDXDXDXHXHXHXHXHXHXHXHXHXJXDXNXBXNXNXDXDXDXDXDXGXGXHXHXGXGXHXHXHXGXDXDXDXDXNXNXVXDXGXHXHX",
"AXAXAXAXAXAXAXAXDXDXGXHXHXHXHXHXHXHXGXDXDXDXNXBXDXAXNXNXDXGXHXHXGXHXHXHXHXHXDXDXAXAXAXAXAXAXAXAXHXHXHXHXHXHXHXHXHXAXNXHXGXNX*Xq q     @ #       . , K 0X5X4XrXuXdXaXiXiXsXsXsXsXpXcXvXxXdXdXaXuX0X5X;X4XtXtXtXwX).D.] H z u u w t t r 2 8 z n z V.).}.;XqXqX0X0XwX4XXX].`.T.E.G.Z.Y.I.H.P.|.L F ; . O % 6 ` q.1X<.5 % >.e.#.5 +     @ #   # q v =XBXHXHXGXGXHXNXAXAXAXAXAXAXAXAXHXHXHXHXHXHXHXHXHXJXDXDXNXVXDXDXNXNXDXDXGXHXHXHXGXHXHXHXHXGXDXNXDXAXNXBXNXDXGXHXHX",
"NXNXNXNXNXNXNXNXDXDXGXHXHXHXHXGXHXHXHXGXDXNXBXBXNXNXBXBXDXGXHXHXGXHXHXHXHXHXGXDXNXNXNXNXNXNXNXNXHXHXHXHXHXHXHXHXHXHXNX-X> @ #           O       z >X;X{.4XeXtXdXaXdXxXxXdXiXuXiXaXaXiXiXsXvXbXcXfXfXuX7X4X5X5X5XpXuXyXtXtXtXuXeXeX6X7X7XeXtXuXuXtXfXyXeXeX7XtXeXeXeXeXeXwXXXXX].E.G.K.W.W.W.W.~.Z.J w . X X e 2.1X1.% % >.w.0.f             @ @ .   q =XHXHXDXBXNXNXNXNXNXNXNXNXHXHXHXHXHXHXHXHXHXGXFXDXDXDXDXDXBXNXNXDXGXHXHXHXHXHXHXHXHXGXDXBXAXNXBXBXBXAXGXHXHX",
"NXNXNXNXNXNXNXNXBXDXHXHXHXHXHXHXHXHXJXDXVXNXNXNXBXDXDXBXVXHXHXHXHXHXHXHXHXHXGXDXNXNXNXNXNXNXNXNXDXDXHXHXHXJXAXJXGX-X>   @   O - : O +       2 ] 6X4X:XyXuXaXdXaXdXiXpXxXdXiXsXiXvXsXIXiXcXpX' x u u N.eXwXXXeXqX7X7X7X6X6X9X9XeXrXrXrXeXeXeX6X6X9X9X9X6X6X6X6X6XwX4XeXeX7X0XeX6XrX}.}.L.Z.H.F.J.Q.W.l.F 8 O X : %.0.>.o . n 6.q.1.a   O = =   * o O = = @XCXZXAXFXNXAXDXMXVXGXMXHXHXHXHXHXHXHXHXHXGXNXNXDXDXNXBXDXNXNXDXHXHXHXHXHXHXHXHXJXDXNXBXDXVXDXDXDXBXDXHXHX",
"NXNXNXNXNXNXNXNXNXDXHXHXHXGXHXHXHXHXHXDXDXNXNXNXBXVXDXNXDXHXHXHXHXHXJXHXHXHXGXDXNXNXNXNXNXNXNXNXHXJXDXGXHXJXJXkXv @ O O O # .   . o >   . 9 (.rX4X5XrXuXaXdXaXiXxXaXiXsXsXdXxXsXuXnXdXbX>Xr % O 7 = 1 >XcXuXuXeX4X4X4X4X4X4X4X4X5X5X5X5X5X7X7X7X9X9X9X9X9X9X9X9X7XeX4X6XuXeX6X6X9X9XeX4X].G.x.Y.G.Y.Y.x.J y ,   . ` q.<.6   < A <X5.6.Z *     O = #       > -XGXMXHXMXHXGXNXBXHXHXHXHXHXHXHXHXHXHXGXAXNXDXDXDXNXDXNXNXDXHXHXHXHXHXHXHXHXGXDXDXNXDXNXVXDXNXBXDXHXHX",
"DXDXDXDXDXDXDXDXAXDXGXJXGXGXGXHXHXHXJXDXDXDXNXNXNXDXDXVXDXHXHXHXHXGXGXGXHXHXGXDXDXDXDXDXDXDXDXDXGXGXGXHXHXHX=X>       O > . . f ` ` . $ x (.tXwX7XrXaXdXdXaXaXaXdXdXsXiXsXxXsXxXIXdXfXN.7 O : c %Xt.= ' iXpXxXuXrXrXrXrXrXeX9X9X9X9XrXuXuXiXaXaXxXxXxXxXxXxXxXdXiXrX}.6XtXyX7XeX6XeX9X6XtXXXC.Z.G.T.!.Q.b.W F r = . e 3.1X0.>.` 4.q.q.q.0.,.s 5 . . <     O : *XDXDXGXBXjXHXBXjXHXHXHXHXHXHXHXHXHXGXDXDXDXDXDXDXDXVXNXDXHXHXHXHXGXGXGXGXGXGXDXDXDXNXVXDXNXBXNXGXHX",
"GXGXLXLXLXGXGXGXDXDXGXGXLXLXDXGXGXDXDXDXDXDXDXGXDXGXDXDXDXDXLXDXDXDXDXGXGXGXGXDXGXGXGXGXLXLXGXGXDXDXHXVXDXUX      #   . o a 3X2X` * . 2 (.wX{.6XuXaXdXdXaXiXaXdXaXiXsXdXsXsXiXsXdXnX(.  = c &X%X%Xc + ' cXcXbXxXxXxXxXxXxXxXdXsXdXsXxXxXvXvXbXbXdXsXsXsXsXsXsXsXxXuX5XeX8X7X7X}.{.6XeX0XeX6X{.].H.G.P.Q.Q.F.j.Y r 1   & h 6.<X<Xq.4.3.7.q.5.0.6.>.6 . + -       *XNXDXNXHXDXHXHXDXDXDXDXDXDXDXDXGXDXDXDXDXLXDXDXGXLXDXDXGXGXGXDXDXDXDXDXGXGXGXGXDXDXDXDXDXDXDXDXDX",
"HXHXHXHXHXHXHXHXGXGXDXDXDXDXDXDXNXNXDXDXGXHXHXHXHXHXHXHXDXDXNXNXDXDXDXDXDXDXDXGXHXHXHXHXHXHXHXHXDXNXNXDX=X  # X 7 O . g 0.2X<Xg o . 2 uXwX[.uXpXaXaXaXaXiXiXdXdXiXiXdXxXsXsXsXvXvXN.X 3 +X$X$X+X0 O 8 (.bXnXdXaXcXcXcXcXcXvXvXvXbXvXcXcXsXaXiXiX5X5X4X4X4X4X4X4X0X5X9X5XrXfXrXrX9X5XqXqX7X6XeX6XU.H.F.J.~.~.K.z.s.F ; @ @   e C =.q.q.5.,.<   q 2.3X` . + -   & @ # *XHXHXGXDXNXNXNXNXNXNXNXNXNXDXDXGXGXGXGXGXGXHXHXHXGXDXDXNXNXNXDXDXDXDXGXHXHXHXHXHXGXGXHXGXDXNX",
"HXHXHXHXHXHXHXHXHXGXDXDXDXDXDXNXMXBXDXLXHXHXHXHXHXHXHXHXGXNXBXBXNXDXDXDXNXDXDXGXHXHXHXHXHXHXHXHXGXNXDXUX        = . >.1X1X<X` o   9 :X6X{.;X:XpXaXaXaXsXsXdXaXiXsXiXiXxXsXxXbXsXN.* O &X$X$Xt.X , w L wXfXgXyX0XuXuXuXuXuXiXiXiXsXaXiXuXrX9X5X5X6X6X6X6X6X5X5X5X5X;X;X9XqXN.' N.uXqXyX0X9X6XeX6X;X[.J.b.W.^.T.J.b.v.J t ; O   . $ e ,.<X<X` 6 . ; g q.,.. + O       # MXHXGXHXHXNXNXNXNXNXNXNXNXNXDXJXHXHXGXHXHXHXHXHXGXDXBXBXBXNXNXNXDXDXDXHXHXHXHXHXHXHXHXHXDXNX",
"HXHXHXHXHXHXHXHXHXGXDXNXVXDXNXBXBXNXDXGXHXHXHXHXHXHXHXHXHXDXBXNXNXNXDXNXBXNXDXHXHXHXHXHXHXHXHXHXGXGX=X          f 1.2X<X5.h . . 9 (.rX}.).dXiXxXaXaXdXdXxXxXsXiXsXsXiXsXsXxXcXN.$ : %X$X$Xk ;   y L `.4X4X9X0XyX5X5X5X5X6X6X9X9X0X0X9X9X9X9X6X6X0X0X0X0X0X0X0X0XtX6X6XuXB.1 + . ' yXuX9X6X;X7XrXrX4X'.J.F.F.G.Y.S.b.n.d.G i 1 7 7 O o a <.1Xq.3.q o 6 0.6.e . O     > HXDXHXHXHXDXDXDXDXDXDXAXAXNXDXHXHXHXHXHXHXHXHXHXGXDXNXNXNXDXVXNXNXDXDXGXHXHXHXHXHXHXHXHXNXNX",
"HXJXJXHXHXHXHXJXHXGXVXNXNXAXNXMXVXDXLXHXHXHXGXGXHXGXGXHXHXDXNXDXBXNXDXNXBXBXDXHXHXJXJXJXHXHXHXHXJX-X#   o   o n <X1X1Xq.Z $ . - (.rX;X{.uXdXvXfXaXaXdXxXxXxXsXdXsXxXiXxXsXxXpXt X &X$X%Xc & $ F f. XXX;X:X:X5X6X5X5X5X5X5X5X5X5X8X8X8X8X8X8XqXqX9X9X9X9X9X6X6X6XeXwX6X:Xr q *X0 1 >X0X}.eXeX6XqX6X9X7X{.Y.F.F.H.A.U.H.z.d.d./ P u $ . . 5 ,.w.q.1.f . f 1X<.. 7   #   jXHXJXHXHXDXDXDXDXDXDXDXDXBXDXHXHXHXHXHXHXDXHXHXGXDXNXDXDXDXDXNXNXNXDXGXHXHXHXHXGXHXHXGXBXDX",
"HXHXHXHXHXHXHXHXHXGXDXNXDXDXDXNXMXBXDXGXHXHXHXHXHXHXHXHXHXDXBXNXMXJXDXMXBXNXDXHXHXJXGXHXDXGXBXn >   X X = . h 1X1Xq.<X[ .   8 D.4X{.;XqXiXaXdXxXsXsXsXsXsXsXxXxXsXdXsXpXbXbXt ; +X$X$Xt.$ i / n.;X;X9XrXrX9X5X;X9X9X9X9X9X9X9X9X6X7XtX;X}.;XaXeXuXuXuXuXtXtXtXtX:XuXfX>X  X.SXmX0 % (.uXqX7X;XeX7XeXtX6X}.P.H.J.I.Y.Y.Y.F.~ ! z.f.Q y 1 . % g 7.w.8.e e <X7.8.4 = O o [ JXGXJXZXNXNXNXNXNXNXNXNXNXDXHXHXHXGXHXHXHXHXHXJXNXMXMXBXDXVXNXNXVXDXGXHXHXHXHXGXHXHXGXBXNX",
"HXHXHXHXHXHXHXHXHXGXDXNXDXDXNXBXNXDXDXGXHXHXHXHXHXDXGXHXHXDXDXDXHXVXBXNXNXDXHXGXJXVXHXJXjXn q # O   X & . 2.2X1Xq.<X` . % 1 D.0X4X4XqXuXaXaXaXdXsXsXsXsXdXsXaXiXsXuXrXuXxXN.; 0 $X$X&X7 ; L ~ J.;X5X8X9X9X8X5X5X9X9X9X9X9X9X9X9XeX6XeX6XuXuXyXN.] ] D.(.:X:X:X:X:X:X>XN., v BXJX=X# 2 yX0XrX5X5X6X9XeX6XXX].R.H.Q.Y.J.Y.Q.F.c.z.m.z.E F 9   X 4 2.<X5.,.1.<X7.#.      n HXHXHXZXDXDXDXDXDXDXDXDXNXDXHXHXHXHXHXHXGXHXHXGXDXNXNXDXNXNXNXNXDXDXJXHXHXHXHXHXHXHXHXNXDX",
"HXHXHXHXHXHXHXHXHXGXDXDXDXVXNXBXNXDXDXGXHXHXHXHXHXGXGXHXHXDXDXDXNXDXGXGXNXBXDXJXJXJXjX@X: @ O O >       g 2X1Xq.<X>.X X 1 (.rX;X;X5XuXdXxXsXaXaXsXsXsXdXaXuXuXrXpX5X4X9XqXt : #X$X&X0 . x v.d.;X5X5X5X5X8X5X8X8X9X9X9X9X9X9X9X9X}.;X8XuXfXB.8 % 7 - O O   . . o ;   & . $ 9 jXLXHXn O ' uXqXuX{.9X6X7X6XeX4X].E.F.K.K.J.Y.!.~.Q.E.k.^ d.Y t .   # f 0.e.4.&.7.<Xg .   O =XGXJXHXDXDXDXDXDXDXDXDXNXDXHXHXHXHXHXHXGXHXHXGXDXNXNXDXNXNXNXDXDXGXHXHXHXHXHXHXHXHXHXDXDX",
"HXHXHXHXHXHXHXHXHXGXDXDXDXNXNXBXBXNXDXDXGXHXHXHXHXHXHXHXDXDXNXBXDXDXBXNXDXMXMXHXJXkXX O O O # # . . O 5 <X1Xw.<X` * X # (.wXwX{.7XrXaXxXxXsXsXdXxXsXaXiXuXrX9X9XqX;X4X5X:X1 : #X&Xc X y U m..XqX8X8X8X8X8X8X8X8X9X9X9X9X9X9X9X9XwX0X:XqXyX9 . h *.*.*.d j a f f h j  .6 $ 7 =XGXJXmX0 ; M.uXrX9XeX6X7X9XeXeX4X}.K.G.J.J.K.J.J.x.F.L.V.l.f.f.G 8 .   f <.8.-.=.6.6.e . O X.CXDXJXNXNXNXNXNXNXNXNXDXDXGXHXHXHXHXHXHXHXHXGXDXNXBXBXNXVXAXDXDXGXHXHXHXHXHXHXHXHXHXGXNX",
"HXHXHXHXHXHXHXHXDXGXGXDXDXDXVXVXNXAXDXDXGXHXHXHXHXHXHXDXDXDXDXNXHXNXNXDXAXBXFXHX*X  >     * . . e 6 . 2.2Xe.1XZ &   ; N.6XwX4X{.rXuXdXxXdXsXdXdXsXaXuXqXqX5X5X6X9X4X;X:XyXz + : 0 = 2 _ ^ K.fXyX5X8X9X0X0X9X8X5X9X9X9X9X9X9X9X8XwX;X:XrX>X$ 5 1X9.9.9.9.9.9.9.9.w.9.;.w.< = 0 ZXDXJX*XO 8 }.tXqXeX9X9X9X9X9X9X6X`.Y.Y.Y.F.J.~.'.L.E.C.p.J p.Y U w 1 O   7.q.q.4.q.,..   & -XJXJXDXDXAXAXAXAXDXDXGXDXDXGXGXHXHXHXHXHXGXGXDXDXNXNXDXDXDXDXGXGXGXJXJXGXGXGXGXGXGXJXDX",
"DXDXDXDXDXDXDXDXDXDXGXHXGXDXDXGXHXHXGXDXDXDXDXDXDXDXDXDXDXGXHXGXGXNXHXHXDXHXHX-XX     # $ . e >.3X6 . 3X1Xq.Z o   $ ] eX{.6X9X}.uXaXdXsXsXdXdXaXaXuX0X7X;X5X5X9X8X;X;XyXuX:Xt ; , y J ~ c.4XuXwX5X8X9X0X0X9X8X5X9X9X9X9X9X9X9X8XtX;X;XqXD.% o r.:.;.9.9.;.;.;.;.;.;.;.w.5 #   -XGXHXJXv O l 9XqX9XeX9X9X7X8X9XrXeX[.C.H.T.L.L l i , $ : : = ; w P z .     [ 7.e.e.0.` .   q BXBXJXJXJXJXJXJXJXJXHXGXDXDXDXGXGXDXDXDXDXDXGXHXHXJXDXGXGXJXGXGXDXDXDXDXDXDXDXDXDXHXJX",
"NXNXNXNXNXNXNXNXNXDXHXHXHXHXHXHXHXHXHXDXDXNXNXNXBXDXDXNXDXHXHXHXHXDXDXJXHXHX*X#   :   . . >.<X<X5.a h 2X<X>.. O ; ' uX4X6X5X}.fXaXdXsXsXdXdXaXuXrX9X5X;X;X5X5X9X;X;X5XqX0XtXD.M.K / K.).XX8X:XwX8X8X9X8X9X9X9X9X8X8X8X8X8X8X8X8X8X5XeXuXrXz % . j d *.r.:.:.:.:.r.*.*.j * t , 4 kXHXJXkXq ; ] rX9X9XeX9X9X8X0XrX:XrXeXD.z 8 = = @ > q c c ..c   r L y % O % g 0.<Xq.1Xe o   @XSXHXHXHXHXHXHXHXHXHXGXDXNXDXDXNXNXNXBXBXDXHXHXHXHXHXHXHXHXJXLXDXVXDXNXNXDXNXBXVXHXHX",
"DXDXDXDXDXDXDXDXBXDXHXHXHXHXHXHXHXHXGXDXDXNXNXDXNXDXDXBXNXGXHXHXHXHXDXHXGXb     #   . 6 -X2Xq.e.0.<X2X0.Z $ # = M.0X:X8X5X}.0X0XaXdXdXsXsXxXaX0X5X5X4X4X5X5X8X9X;X;X5X5X4X6X6XqX{.XXXXfXtX{.0X{.0X9X8X8X8X8X0XrX8X8X8X8X8X8X8X8XqX8XXXXXfXiXN.9       . . .   o   . . O t h.P + # mXBXJXkX: r ).8X9X9XeXrX9X9X9XuXuXN.t ; 0 c +X$X$X$X$X$X$X%X+X. F z.P % . * X Z <.0.<Xg O O ,XHXHXHXHXHXHXHXHXHXGXVXNXNXNXBXMXDXNXNXDXHXHXHXHXHXHXHXHXHXDXVXNXNXBXNXAXBXMXNXHXHX",
"AXAXAXAXAXAXAXAXNXDXHXHXHXHXGXHXHXHXGXDXDXVXNXNXDXDXMXNXMXHXHXHXGXGXJXJX[ . + ; - . g <X2X1X<X<X1X2X3Xe * . , ] :X7XoXwX;X:XpXxXdXvXcXpXsXaX9X4X5X5X5X5X5X5X5X5X8X8X8X8X8X8X8X8XqXqX8X8X8X8X5X5X5X5X5X5X5X5X5X5X9X9X9X9X9X9X9X0X5X5X5X5X5X5X5X5XF y r 1 ; + + ; 8 y F J ~ z.u.G ; v ,XLXLXv 1 ( 9X9X9X9X9X9X9X9XuXN.% @ c %X$X$X$X$X%X&X&X+Xc 0 = l ~ d.F ; O O O   < ` 2.* X @ *XGXJXJXJXSXGXJXZXDXNXBXNXVXDXFXNXNXNXDXHXHXHXHXHXHXHXHXGXDXVXNXNXDXDXNXNXNXDXGXHX",
"NXNXNXNXNXNXNXNXBXDXHXHXHXHXGXHXHXHXGXDXDXDXDXDXAXDXVXDXJXJXGXHXLXJXLXn   # @     n 2X1Xq.q.<X<X6.h     . 2 (.rX;XrXXX].5XiXiXdXsXsXxXxXiXyX;X6X5X5X5X5X5X5X5X5X8X8X8X8X8X8X8X8X8X8X8X8X8X8X9X9XqXqXqXqXqX0X0X0X9X9X9X9X9X9X9X9X9X9X9X9X9X8X8X8X{.[.L.C.l.) ) ^ / ) j.k.s.U U s.l + : n @X@ ; ( 9X9X9X9X9X9X9X9X8Xx - &X$X$X%X%X+Xc 0 ; + . . o y J k.z.d.J l r ; % .   X & > 1 . b CXJXLXJXJXGXLXFXDXFXFXBXBXGXDXAXNXDXGXHXHXHXHXHXHXHXGXDXDXNXVXDXDXAXNXNXDXGXHX",
"NXNXNXNXNXNXNXNXBXDXGXHXHXHXHXHXHXHXGXDXDXDXDXDXNXHXNXMXDXHXHXJXJXPXb #     X X >.0.<Xq.q.<X6.2.6 X o . 1 >X7X}.;X;X;X9XuXaXiXiXpXsXdXiX9X:X5X9X5X5X5X5X5X5X5X5X8X8X8X8X8X8X8X8X5X5X5X8X8X8X8X8X8X8X8XqXqX8X8X8X9X9X9X9X8X9X8X8X9X9X9X9X9X9X9X9XtXeX6X4X{.].'.'.`.P.|.).S.g.U ! / F 2 . # ; y h.9X9X9X9X9X9X9X9X}.r 7 %X%X+Xc k o     o > 2 y F E W I ! ^ d.~ Y F y 1 -   . O O .   b lXJXHXJXSXHXHXNXjXAXGXVXNXDXDXDXDXGXHXHXGXHXHXHXHXGXDXDXDXAXDXDXDXNXVXDXJXHX",
"DXDXDXDXDXDXDXDXBXDXGXHXHXHXHXHXHXHXGXDXDXDXDXDXBXNXjXHXGXHXGXHXFXv O O   . < >.1X<X6.,.h 6 X X > % % B.yX}.tX4X9X{.uXbXpXyXgXnXxXxXiX9X5X5XrX9X5X5X5X5X5X5X9X9X8X8X8X8X8X8X8X8X9X9X8X8X5X5X7X;X8X8X8X8X8X8X8X8X0X0X0X9X9X9X9X9X9X9X9X9X9X9X9X9X6X9XrXrXuXuXuXuXrXrXyXpXuXwX`.x.W ~ ~ J G G h.T.9X9X9X9X9X9X9X9X(.t $ %   @ = = t F _ ) k.v.j.u.( Q U a.j.j.k.d.l.W Q F t + O O   # . f ,XSXJXJXPXHXDXMXVXAXBXBXDXNXNXDXGXHXHXHXHXHXHXHXGXDXDXNXVXDXDXVXNXNXDXGXHX",
"AXAXAXAXAXAXAXAXDXDXHXHXHXHXHXHXHXHXHXDXDXNXNXNXDXVXBXBXMXHXHXBXX.  O :   6 ` 6.h 6 * $ . . O - 1 z (.6XwX}.}.6XXXfXnXN.t + 9 b aXiX9X9X5X{.5X7X5X5X6X6X9X9X9X8X8X8X8X8X8X8X9X8X9X9X9X9X9X9X9XqX5X5X5X5X5X5X5X8X0X0X0X0X0X9X0X0X9X9X9X8X8X8X8X8X8X8X8XqXqX8X8X8X4XeXeX6X9XrXrX7X}.Z.d.~ Q j.!.wX9X9X9X9X9X9X9X9XuXB.3 , , t H _ s.f.z.s.u.j.j.i.h.v.b.Q.[.L.Z.z.d.k.a.u.a.G l 1 O O . : 4 X.AXLXHXHXCXMXBXBXBXZXNXBXNXDXHXHXHXHXHXHXHXHXGXDXNXBXNXVXAXNXBXNXDXFXHX",
"NXNXNXNXNXNXNXNXDXGXHXHXJXGXHXHXHXHXJXDXDXNXNXNXDXAXHXGXHXjX-X> . . . @     6 * X   . + ; r z ' :X}.4X{.XX;XrXuXuXvX*X. . 5   O M.yX5X5X5X;X9X7X9X9X8X9X9X9X9X9X8X8X8X8X8X8X8X8XqX9X0X0XrXrXrXrXqX9XqX9X9X9X9X9X9X9X9X9X9X0X0X0X9X8X8X9X8X8X8X8X0X0X0X0X8X8X8X8X8X9X6X5X5X9XrXuXaXtXXX}.}.wXtXrX9X9X9X9X9X9X9X9X9X].j.R p.i.) V.c.z.z.c.Z.H.H.Z.K.J.Y.E.^.'.~.W.K.W.d.z.a.g.j.Q y 1 +   . . > *XPXLXZXzXMXDXGXBXVXNXNXDXHXHXHXHXHXHXHXHXGXDXNXBXNXAXDXVXNXNXDXGXHX",
"DXDXDXDXDXDXDXDXDXGXJXGXDXDXDXGXGXGXDXDXDXDXDXDXDXBXNXjX*X      . % #     . $ , ; 9 z B.(.7X9X9X7X;X7XrXrXuXxXxXxXB.. X r.w.h X y }.9X;X5X9XrX5X8X8X9X9X9X9X9X9X8X8X8X8X8X8X8X8X9X9X9X6X6X5X4X4X6X6X6X6X6X6X6X6X;X4X4X5X9X9X0X0X9X9X9X9X9X9X9X9X5X5X5X5X5X8X9X9XpXyXyX9XrX9X9X5XyX:X7XaXpXuXqXuX9X9X9X9X9X9X9X9XuXtX]./.C.v.c.c.V.S.A.I.R.I.Z.Z.b.J.E.G.F.K.J./.K.Q.P.Y.z.d.^ ! j.F y 1 % .   X v 2.2XZXZXGXJXzXGXDXDXDXGXHXGXLXDXGXGXGXGXGXDXDXDXFXGXDXDXDXGXHXGX",
"HXHXHXHXHXHXHXHXDXDXDXDXNXBXNXDXDXDXDXDXDXGXHXHXFX=X>   @       @ @   X . 8 B.M.D.4X9X9X0X8X;X;XiXiXsXsXxXcXpXbX>X1   #.9.9.j X F {.9X5X9X5X9X5X8X8X9X9X9X9X9X9X8X8X8X8X8X8X8X8XrX9X6X4X{.[.[._.E.E.R.R.R.R.R.R.{.{.{.;X5X8X9X0XrX0X0X0X0X0X0X0XuXtXrXeXeXeXeXrXeX9X9XqXqX0X8X8X8X5X;X9X5X8X;X8X9X9X9X9X9X9X9X9XeX:X:X:X8X7XXX X`.R.Y.I.E.E.^.!.P.P.R.Y.F.c.K.~.Q.F.R.c.H.Y.c.v.f.s.Y H $   >   + . g 3XLXJXHXZXHXJXDXDXGXGXDXNXNXDXDXGXGXHXHXGXGXJXHXJXGXGXHXHXNX",
"HXHXHXHXHXHXHXHXHXGXDXNXNXAXDXVXNXGXjXLXHXHXHXBXn @   .     .   ; t K V.[.4X9XrXrXuXuXuXuXiXaXaXiXbXvXdXdXiXvXrXu . #.;.9.*.. = L 6XtX6X7X5XrX7X5X8XqXz % 1 ' 0X4X5X9X0X0X0X0XqXXXXX].T.P.G.F.F.I.I.I.I.I.I.I.I.I.I.I.I.I.I.Y.Y.XXXXXXXXXXXXXXXX6X6X6X6XwXwXwXwX8X8X8X9XqX0X0XrX0X0X0X9X8X5X5X5XtXrX0XqXqX8X6X6X8X9XrXrX9X9X9X0XqX0X9X5X{.U.Z.x.K.Q.Y.Y.!.Y.G.I.Q.H u z x..X^.H.K.x.J d.^ t O = . o   f zXFXDXJXHXHXHXGXDXNXNXNXNXNXNXVXDXFXJXHXHXHXHXJXHXHXJXDXVX",
"HXHXHXHXHXHXHXHXHXGXDXNXNXAXDXVXAXMXLXHXDXHXNX>   . X   . $ . 2 N.(.:X6X9X9X0XpXuXuXuXiXaXdXsXdXpXpXdXaXdXcXbXB.. 5 e.;.:.6 $ x ).4X9X6X5X5X9X8XqX8XK . > O % D.9X9X9X9X6X5X4X4XT.T.T.U.U.I.I.I.I.I.I.I.I.I.I.I.I.I.I.I.I.I.Y.Y.T.T.T.T.T.T.T.T.[.[.[.[.[.[.[.[.4X4X4X4X6X6X6X9X5X4X4X4X{.{.{.{.{.XX4X6X9X0X9X9X8X9X0X0X9X8X8X9XqX0X9X9X4X{._.I.F.J.Y.Y.Q.I.H.G.P $   , ; J J.].Q.x.u.U W L y + X   o % -XJXJXJXHXHXHXGXDXNXNXNXNXNXNXVXDXFXJXHXHXHXHXGXHXHXJXDXVX",
"HXHXHXHXHXHXHXHXHXGXDXNXNXAXAXVXDXMXMXHXHXNX  X % X # ; O t V.:X;X5XrXuXuXiXsXsXdXdXdXsXsXsXsXsXnXxXxXvXiXcXpX; . r.9.9.j X t V.eX4X4X6X5X5X7X8X0X(.; 0 kX*XO z rXeX6X{.].`.R.U.C.G.G.Y.Y.Y.Y.Y.I.I.I.I.I.I.I.I.I.I.I.I.I.I.I.I.H.H.H.H.I.I.I.I.Z.A.A.G.P.P.G.G.E.R.R.U.U.R._._.E.P.P.P.A.A.Z.Z.R.R.`.{.XX6XrXuX9X0X0X9X8X7X8X9X8X9X0X0X9X6X4X{.!.P.G.J.Y.Y.Y.C.. & p p $ % F C.Q./.K.s.J l.Y y O X & $ % lXAXLXHXHXHXGXDXNXNXVXNXNXVXVXDXFXJXHXHXHXHXGXHXHXHXDXVX",
"HXHXHXHXHXHXHXHXHXGXDXNXNXAXDXVXNXHXNXDXMXq @ X X . . ; K (.yX4X5X9XuXaXdXxXxXxXsXsXsXsXsXsXsXsXnXaXrXcXpXdX'   d 9.9.*.X $ h.XXuX{.5X9X5X8X5X0XqXN.O b SXlX> 2 {.{.[.T.I.H.H.H.F.H.I.Y.R.Y.I.G.I.I.I.I.I.I.I.I.I.I.I.I.I.I.Y.Y.I.I.I.Y.Y.Y.Y.Y.I.H.I.I.I.I.I.I.H.H.H.H.H.I.I.I.H.H.H.H.H.H.F.F.I.I.H.I.R.{.6XrX0X0X0XqXqX8X9X0X8X9X0XrXrXrX9X9X4X).P.H.H.Q.Y.C.& p O.o.p & O _ b./.~.b.U I R s.r O X   . *XGXJXHXHXHXGXDXNXNXVXNXVXVXVXDXFXJXHXHXHXHXGXHXHXHXDXVX",
"HXHXHXHXHXHXHXHXHXGXAXNXNXAXDXVXBXjXDXMX    @     O t (.uX5X{.uXaXaXdXdXsXdXaXiXiXiXiXsXsXdXsXdXcXfXeXuXpX(., 4 :.w.:.&   F Y.fXeX;X9X0X8X8X8X0XiXN.; @XCXlXq 2 L.G.Z.Z.H.I.R.!.Y.Y.!.!.R.Y.I.G.I.I.I.I.I.I.I.I.I.I.Y.Y.Y.Y.Y.Y.I.I.I.I.I.I.Y.Y.Y.Y.R.R.R.R.R.R.Y.Y.Y.Y.Y.Y.Y.Y.!.!.!.!.!.Q.Q.Q.!.Y.H.H.H.R.].{.9X9XrX0XqX9X0XrX8X8X0X0X0X0X0X0XuX4X].R.H.H.T.L.$ 4 } O.O.p   1 ( G.Y.K.z.T E d.W t O &     UXSXHXHXHXGXDXNXNXVXNXNXNXVXDXFXJXHXHXHXHXHXHXHXHXDXVX",
"HXHXHXHXHXHXHXHXHXGXAXNXNXAXDXVXGXDXFXb       . O K :XqX].9XxXuXdXsXiXiXiXaXaXfXdXsXdXaXiXuXuXuXqX7XwX:XuX' $ #.9.w.j   r l._.fX7X;X0X0X8X8X8X0X0X] O @XGXMXq % I.G.H.H.I.Y.R.T.I.Y.Y.Y.R.R.Y.Y.I.I.I.I.I.I.I.I.Y.Y.Y.Y.Y.Y.Y.Y.E.E.U.U.U.R.R.R.I.I.I.Y.Y.Y.Y.Y.U.U.U.Y.I.I.I.I.I.I.I.I.Y.Y.Y.Y.T.Y.Y.I.I.I.I.I.{.5X9XrX0X0XrXrX8X8X8XqXqX9X9X9XrXrX6X{.P.C.U.!.G X & } o.o.p X t l.F.L.K.z.a.Q d.( % @ & * kXGXHXHXHXGXDXNXNXVXNXNXNXVXDXFXJXHXHXHXHXHXHXHXHXDXVX",
"HXHXHXHXHXHXHXHXHXGXAXNXNXAXDXVXFXNX-X  @   % . K :X7X5XaXdXaXxXxXdXaXaXdXdXdXdXdXaXiXuXrX9X5X5X;XoXwX;X:X9 $ r.;.-.O $ Y j.7X5X;X9X8X8X9X8X8X8XuXN.+ X.JXMXq % T.!.!.Y.Y.I.P.P.Y.I.Y.Y.I.Y.Y.R.Y.Y.Y.Y.I.Y.Y.Y.Y.Y.Y.Y.Y.Y.Y.Y.R.R.R.R.R.R.R.R.I.I.I.I.I.I.I.I.R.R.R.Y.Y.I.I.I.I.E.I.I.Y.Y.Y.Y.I.I.Y.R.Y.I.H.H.`.{.5X9X0X0X0X0X8X8X8XqXqX8X9X9XqXrXrX4X].E.Y.~.A.l # 6 | O.+.& + P Z.T.J.c.d.J ! k.P . X . b SXHXHXHXGXDXNXNXNXNXNXNXVXDXFXJXHXHXHXHXHXHXHXJXAXVX",
"HXHXHXHXHXHXHXHXHXGXAXNXNXAXDXVXJXkX@ @   + . q {.6XrXdXdXpXiXiXsXaXaXdXdXxXdXiXqXqXqX5X5X5X4X4X;XoXtXaX(.7 6 9.9.s X x ^ ~.yX:X8XrX:X8X0X;X5X8XiXN.O b LXZXv   |.L.E.Y.Y.Y.I.Y.R.U.P.G.G.G.I.I.Y.Y.Y.Y.I.Y.Y.Y.Y.Y.Y.Y.Y.Y.Y.Y.I.I.I.I.I.I.I.I.I.I.I.Y.Y.Y.Y.Y.R.R.R.I.I.I.I.H.I.I.I.I.I.R.R.R.J.J.Y.E.P.R.Y.Y.I.`.;X9X0X9X9X8X8X8X8XqX8X9X9X9X:XqX9X6XwX].J.J._.Z.l   4 | O.} O 8 ( J.Y.K.k.Y J d.~ r   ; $ GXHXHXHXGXDXNXNXNXNXNXNXVXDXFXJXHXHXHXHXHXHXHXJXAXVX",
"DXDXDXDXDXDXDXDXDXGXNXHXFXFXDXNXmX> . o @ O 8 (.qXuXaXaXaXiXaXaXdXiXpXiXsXfXrX5X5X5X5X5X5X8X8X7X7X8X:XpX>X% e w.e.& + J d.].rXwXuX0X5X5X5X9XqXqXuXM.; v MXGXv O P R.).R.c._.I.R.!.L.Q.`.).!.~.!.Y.Y.Y.Y.Y.Y.Y.Y.F.`.R.P.I.Z.Z._.Y.Y.Y.Y.Y.Y.Y.Y.Y.Y.Y.Y.Y.Y.Y.Y.Y.Y.Y.Y.Y.Y.Y.Y.H.I.T./.Q.H.Y.`.T.E.I.I.R.R.R.Y.I.I.T.].4XtXuXuXrXrXrXrXeXeX9X9X9XrXrXqX8X4X`.I.Q.].C.- % p o.+.4   P b.W.E.P.^ U p.^ G ; @   *XAXDXJXJXFXAXAXHXHXHXHXHXGXDXDXNXDXVXAXDXDXNXDXHXGX",
"AXAXAXAXAXAXAXAXBXNXJXHXHXFXFXLXv     X   $ B.uXuXuXaXaXaXiXaXaXsXsXsXiXuX9X5X;X5X5X5X;X;X;X5X9X6X4X;X9XyX% &  . .X 8 Y c.{.qX6X8X0X0X8X5X5X0XuXtXV.1   jXLXb # H R.E.E.P.!.R.M.9 9 z V.].R.F.T.Y.Y.Y.Y.Y.Y.Y.Y.!.`.T.E.R.R.U.A.Y.Y.I.I.Y.Y.Y.Y.Y.Y.Y.Y.Y.Y.Y.Y.Y.Y.Y.Y.Y.Y.Y.Y.!.H.H.Q.Y.Y.Y.!.T.R.Y.I.P.R.R.R.Y.Y.R.`.{.4X6X7X5X4X4X{.{.{.[.[.4X9XrX0XrX6X{.U.c.XX).G   4 } o.p X y v.W.!.Y.c.U I ! W t O   v HXBXGXDXHXHXFXDXHXHXHXHXGXDXDXNXDXVXAXDXDXNXDXHXGX",
"AXAXAXAXVXAXAXAXDXDXHXHXHXHXFX-X% X X X . t yXrXuXiXaXaXaXaXaXaXdXiXuX8X;X;X5X9X;X5X5X9X9X9X9X0XwX;X8X5XeXt . 4 X , F I P.8XqX6X8X8X0XqX8X8X9XeXwXZ.y # kXJX=X  t ).I.!.E.Y.K ; X $ @ z H.R.Z.).Y.Y.Y.Y.Y.Y.Y.Y.Y.E.`.'.!.Y.T.L.Y.Y.Y.Y.Y.Y.Y.Y.Y.Y.Y.Y.Y.Y.Y.Y.Y.Y.Y.Y.Y.Y.Y.Y.I.H.J.Y.!.`.`.H.I.Y.Y.H.Z.E.R.Y.R.Y.Y.T.`.[.[.[.`.`._._.R.E.P.P.).{.7X0XrXrX5X{.C.Q.).F.t X 4 o.| 4 , U z./.Y.G.i.I U d.F +   * kXHXJXDXHXHXHXHXHXHXHXHXGXDXDXNXDXVXAXDXDXNXDXHXHX",
"AXAXAXAXAXAXAXAXMXDXGXHXHXJXDX> $   X O 8 D.9X9XaXaXaXaXaXaXaXaXiX0X;X{.{.5X5X5X5X;X;X;X5X5X;X;XyX:X8X;XtXM.y r l Q d.v.{.0X:X7X8X8XqXqX0X9X4X{.'.v.F + v FXNX: % V.H.'.Y.P.9 + m m X 1 / _.H.`.Y.Y.Y.Y.Y.Y.Y.Y.~.J.C.I.!.Y.E.[.Y.Y.Y.Y.Y.Y.Y.Y.Y.Y.Y.Y.Y.Y.Y.Y.Y.Y.Y.Y.Y.Y.Y.Y.C.R.`.L M.] [.R.H.F.J.Y.E.P.I.I.R.Y.Y.Y.R.R.E.P.I.I.I.I.I.I.I.I.Z.P.[.{.6XrX9X4XA.I.Q.W.(   & +.o.p . _ d.L.J.C.j.I I d._ ; #   q FXNXAXJXDXGXDXHXHXHXHXGXDXDXNXDXNXAXDXAXNXDXHXHX",
"VXVXVXVXVXVXVXVXBXHXHXLXJXFX=Xo .     ; K 8X9XuXaXaXaXdXaXaXiXuX0X5X;X;X4X5X;X}.9X5X;X:X:X8X8X9X9XqX;X;XrX4Xx.h.p.U s.L.qX;X;XuX8X8X9X0X9X4X[.E.'.F.( + : BXGXb + K R.[.J.L X w M N   , / [.Y.T.Y.Y.Y.Y.R.R.R.R.J.'.`.R.`.Y.H.~.Y.Y.Y.Y.Y.Y.Y.Y.Y.Y.Y.Y.Y.Y.Y.Y.Y.Y.Y.Y.Y.Y.Y.Y.`.V.H 1 > % H ).!.Y.I.R.R.P.H.I.Y.Y.R.Y.I.I.I.I.I.I.Y.Y.Y.Y.Y.Y.Z.H.I.U.].XX4X{.|.U.W.Q.Y.8   p O.p X G k.).J.C.v.u.Y ^ ~ 8 +     UXFXFXHXHXHXHXHXHXHXHXJXDXDXDXDXNXVXDXAXBXDXHXHX",
"VXVXVXVXVXVXVXVXDXDXJXZXLX-X>       . t (.7XuXuXaXaXaXdXdXaXuX0X4X4X;X;X;X4X5X9X;X8X0X0XqXqX5X8X6X6X;X:X8XtXXXoXoX.X4XpXgX5X4X9X5X9X9X9X{._.T.A.Y.!./ 2 X *XJX@XO y _.T.G.8   N M m   r x.`.R.).Y.Y.Y.R.R.R.!.R.Y.].).V.S.R.Y.W.Y.Y.Y.Y.Y.Y.Y.Y.Y.Y.Y.Y.Y.Y.Y.Y.Y.Y.Y.Y.Y.Y.Y.Y.].H + v n q 1 t )._.`.!.Y.P.I.R.I.R.R.R.I.I.Y.R.R.R.R.Y.Y.E.I.I.I.Y.I.Z.I._.`.T.|.Q././.~.L X $ p 4 + G c.T.F.K.v.j.Y ! k.l +     v BXFXZXDXHXHXHXHXHXHXHXDXDXDXDXNXVXDXAXBXDXHXHX",
"NXNXNXNXNXNXNXNXJXDXJXLXLXn   # X . 2 M.0X0XsXiXiXiXaXdXdXiX0X7X{.;X;X;X7X5X9X9X0XqXqXqXuXuX0X5XeX6X6X5X;X8X5XeXyXrXuXqXyXeXeX;XqX9X5X{._.P.I.U.!.'.g.F ; q jXX.O y T.'.H . i M M i . l J.Q.!._.R.R.R.R.R.R.R.R.}.K t 2 y V.'.Q.Y.Y.Y.Y.Y.Y.Y.Y.Y.Y.Y.Y.Y.Y.Y.Y.Y.Y.Y.Y.Y.Y.Y.Y.L.r : lXSXkXn O K V.].R.H.I.R.U.E.R.R.R.I.I.Y.R.R.R.R.R.R.U.U.U.!.!.Y.H.H.R.E.C.I.L.C.F.[.I.H 2 $ 1 l Y K.H.C.J.c.E T T k.G O       *XLXJXJXHXHXHXHXHXHXHXGXDXDXAXNXNXDXVXNXDXHXHX",
"NXNXNXNXNXNXNXNXNXNXNXZXkX      X . y 9X8XiXiXxXuXuXaXdXdXuX9X{.{.;X9XuXuXuX:X(.D.] H K N.:XqX5XpXyXeX9X8X:X:XyX0X8X;X4XwXwXqXqXuX5X}.T.I.I.R.R.F.T.J.G t # . X > K '.'.= X N M M w , P ^.~.~.U.R.R.R.R.R.R.R.R.z 1 O # $ y V.'.Y.Y.Y.Y.Y.Y.Y.Y.Y.Y.Y.Y.Y.Y.Y.Y.Y.Y.Y.Y.Y.Y.Y.Y.[.2 @ ,XLXJXlXc ; K _.Y.Z.Y.R.P.E.R.R.R.P.G.P.R.I.Y.Y.R.!.!.`.`.E.T.R.I.Y.R.Y.Z.J.C.I._.I._.H.P m F p.T b.H.C.K.Y.Y U J ~ _ O   o   . =XJXJXDXHXHXHXHXHXHXGXDXDXAXNXNXDXVXBXDXHXHX",
"BXBXBXBXBXBXBXBXCXVXLXZX2.O     X , V.0XaXxXpXdXfXpXxXvXuX9X;X}.XXfXuX:XD.K w %   @ @ # $ 2 ] 0X9X9X9X9X9X9X9X9X0X8X8X9X9X8X8XqXwX].E.G.H.Y.R.U.I.T./.x.P 8 + ; P n..XK O y M M G   1 C.'.T.Q._.~.).U.Z.J.W.`.K X + t.t.; X Z. XY.Y.Y.Y.Y.Q.Q.Q.R.T._.`.Q.Q.Y.Z.Y.|.J.}.U.A.R.~.[.z + v mXJXHXlXq & H U.].).I.Q.Y.Y.Y.Y.R.R.R.R.Y.Y.R.R.R.R.Y.Y.Y.G.R.`.P.P.!.T.~.F.`.`.A.`.T.n.s.~ j.x.G.R.!.R.Z.R I p.^ ~ @     - O   2.ZXJXLXHXHXDXJXHXDXAXBXBXAXDXDXNXNXDXGXHX",
"DXDXDXDXDXDXDXDXCXFXLXIXf O       t ).9XaXdXiXdXiXdXdXfXeX;X5X0X:XD.l , % O = k c t.+X+Xc @ 8 XX9X9X9X9X9X9X9X9X0X0X8X8X9X9X8X5XXX`.P.G.H.Y.Y.P.G.L.G.z.~ J L ( ^ Y.Z.: X N M M , $ l I.].!.J.L.Q.P.A.R.Q.~.M.w   ..%X+XO . l.}.Y.Y.Y.Y.Y.Q.Q.Q.R.`.T.J.Q.F.G.`.R.L.F._.I.R.R.G.{.`.y . c jXHXHXhX> 1 H _.`.!.F.Y.R.Y.Y.R.R.R.R.Y.Y.Y.R.R.R.R.Y.Q.I.R.U.I.Y.G./.].].K x z K N.}.K.K.C.G.Y.Y.H.Z.Z.j.U p.! ) 9   O       * -XzXHXHXGXGXHXHXFXNXFXNXDXDXDXDXVXDXGXGX",
"HXHXHXHXHXHXHXHXGXJXJX3Xo O     + ' ;X8XdXiXdXiXpXxXaXrX{.4X9XD.H . X 0 c +X%X$X%X$X$X$X&X0 , }.9X9X9X9X9X9X9X9X8X0XqXqXqX9X5X{.`.T.G.G.I.R.U.P.R.`.!.K.z.s.~ ^ s.U.F   m M M i X r ) !.!.Y.Q.E.!.H.A.!.Q.T.z $ k %X$Xc X w C..XY.Y.Y.Y.Y.Y.Q.Q.H.G.!.!.K.Y.].L._.).!.`.I.R.!.G.P.'.Z.8 O X.BXJXJX=XO ; L !.`./.R.R.R.R.R.R.R.R.R.R.R.R.R.R.Y.Y.!.I.R.P.I.Y.G.'.I.' : O 1 O ; L !.`.T.T.T.I.Z.c.H.v.U p.U d.l   O   . O + * =XHXGXVXHXAXDXHXDXHXDXDXGXGXDXDXDXGXDX",
"HXHXHXHXHXHXHXHXJXLXZX2..     . 8 (.5X9XdXuXdXuXiXaXfX6X{.9X(.2 = 0 +X$X$X$X%X&X&X%X+Xc q $ w ;X9X9X9X9X9X9X9X9X5X8XqXqX0X9X{.).R.I.G.I.R.!.T.P.R.I.Y.'.Y.g.Y Q C.J O 3 M M M 2 O G F.!.E.Y.!.I._.Y.E.^.Q.V.9 o +X$X+X: . F Z.W.Y.Y.Y.Y.Y.Y.Y.Y.I.I.!.!.Y.T.M.y t z V.E.H.Y.!.!.Q.G.].k.2 : X.JXHXJXX.O t ( XXT.R.R.R.R.R.R.R.R.R.R.R.R.R.R.Y.Y.!.U.E.R.I.I.`.{.L O X i m w . F G.Y.Y.P.U.I.Z.Z.I.x.Q p.I d.J + o O + . . + > =XDXBXVXBXNXJXJXHXGXHXHXHXHXGXGXGXVX",
"HXHXHXHXHXHXHXHXJXLXzXf #     . z 5X{.rXdXuXiXpXxXuXuX4X5X:Xx O +X%X$X$X$X&Xc 0 : 7 = = $ t ] 5X9X9X9X9X9X9X9X9X;X;XqXuXrX4X_.A.Y.I.I.R.!.`.!.T.Y.Z.C._.[./.C./.D.8 ; m M M w ; y / R.`.Y.!.).Z.).`..X~.~.H   0 $X%Xq O y ( F. XY.Y.Y.Y.Y.Y.Y.Y.I.'.G.E.{.] 1 o X . t V.!.Q.Y.R.!.).Q.Y.j.+ @ -XGXFXVXb O l P.[.R.R.R.R.R.R.R.R.R.R.R.R.R.R.R.Y.U.!.I.!.I.U.[.] @ , m M M m $ x k.F.J.F.I.I.G.I.I.c.Q T J ~ ~ 1   q q . $ O O e DXDXMXDXDXNXGXHXHXHXHXHXHXHXGXDXAX",
"HXHXHXHXHXHXHXHXJXLX3X. #   O . ] 5X}.uXdXuXuXiXxXiXrX;XtXB.+ 0 %X$X%X+X0 . $   ; ; r F G / 4XfX9X9X9X9X9X9X9X9X5X7X9XrX6X[.A.A.Y.Y.R.R.!.!.!.R._.R.I.T._.!.~.~.] ; 2 N M m @ 7 U c.`._.Q.].{.Y.).'.Q.K.C.r O ..$X&X+ & _ s.b.].Y.Y.Y.Y.Y.Y.Y.Y.I.!.`.}.M.3 & p ..4 ; L '.'.I.A.L.!.T.Q.].J ; @ =XGXLXZX0 + P _.R.Y.R.R.R.R.R.R.R.R.R.R.R.R.R.R.G.`.I.R.R.L.M.2 # m M M m $ + J d.K.Q.F.Y.Y.G.R.Y.c.Q U I R ~ y - * >.< . .   o =XJXHXAXDXDXHXDXHXHXHXHXHXHXGXDXDX",
"HXHXHXHXHXHXHXHXJXZX1.. O   + $ D.4X{.aXdXuXiXsXsXiX8X{.rX] + q &X#Xc X # 2 y L ! d.z.Q y r ' yX9X9X9X9X9X9X9X9XqX9X9X4X].T.I.I.Y.Y.Y.Y.Y.Y.Y.R.T.Y.Y.R.U.I.Q.!.( 1 % H i . 1 P z.F.`.R.H.R.`.J.F.x.j.v.G % 0 &X$Xc   > ~ f.g.C.Y.Y.Y.Y.Y.Y.Y.Y.].`.].M.8 & p o.O.4   G ^.~.Y.U.R.R.J.L.Q.F.P ; q jXJXLX-X  y l.Y.Y.R.R.R.R.Y.R.Y.Y.R.R.R.R.R.R.R.R.Y.Y.`.V.t % m N N m 3   t f.u.Q.~.G.Y.I.H.Y.Q.b.J U R Y d.F = * a ` % .     v kXHXMXBXHXHXDXHXHXHXHXHXHXDXNXVX",
"HXHXHXHXHXHXHXHXJXZX<.* =   O < ).{.6XdXdXuXaXcXiXpX7X4X4XM.8 . : X O r F s.f.! ^ C.K -     . z 9X9X9X9X9X9X9X9XqXuX9X{.P.A.Y.R.Y.Y.Y.I.G.G.I.Y.].I.H.U.A.Z.P.}.|.  X . ; : F d.p.c.!.Y.x.x.l.R s.I Q k.F + c %X%Xk . y c.m.v.k.Y.Y.Y.Y.Y.Y.Y.Y.E.T.y.r . p o.o.} &   ( ~.Q.Y._.Z.!.L.E..XQ.l.F O b JXLXMXv % Y Y.Y.Y.R.R.R.Y.Y.Y.Y.R.R.R.R.R.R.`.I.!.!.{.K % > N M N % + F u.p.J E.`.G.U.I.G.Y.!.b.J U s.Y s.Y @   5 1.g ; O     *XAXBXDXHXDXHXHXHXHXHXHXHXDXBXNX",
"HXHXHXHXHXHXHXHXLXPXj + . X O H XX{.5XfXaXiXxXsXaX8X;X5X9X}./ G 9 r F Q ^ c.S.}.gX4Xw @ ,XkXv + B.iXqX:XrXuX:X8X9X6X{.R.G.Y.R.R.R.R.R.R.R.R.Y.Y.I.R.R.R.Y.U.T.!.W.J r ; 9 K x.f.V.C.l.g.E R T T W d.v.~ 8   +X$X%X= o ! h.j.~ W I I g.~ ) l.h.v.Q.G + X p o.o.+.4   l c.K.~.'.J.!.!.R.U.E.G.G.F.y + X.GXCXb , G P.R.`.R.R.R.R.R.R.R.R.R.R.R.R.R.S.I.'.'.V.# % N M N > = G k.Y k.Y.R.Y.Y.Y.I.I.I.'.G.W Q T R U ~ t , O ` =.5 O + #   kXLXJXJXJXLXHXHXHXGXHXHXHXBXDX",
"HXHXJXJXHXHXHXHXGXMXe + .   O H XX{.5XfXaXiXxXsXaX9X;X4XeX{.C./ _ _ ( S.}.;X0XuXfX4Xr   FXGX-X@ z qX6X4X6XqX:XuX4XXX].R.I.I.Y.R.R.R.R.R.R.R.Y.Y.I.H.I.R.`.'.!.E.Q.l.~ ~ ~ z.v.I h./ / E R ~ u.u.J g.v.Q 1 ; &X$X%XO * ~ g.i.a.x.U i.i.E U ! z.v.G @ $ p o.o.o.}   , P F.W.!.T.Q.Y.R.R.U.E.I.H.G.L O 0 -X-X0 O G C.P.R.R.I.R.R.R.R.R.R.R.R.R.R.R._.).!.~.z o w N M i   8 g.~ W F.R.R.Y.Y.Y.I.I.I.Y.J.l.W U U U s.F O @ a &.Z 4 . O   f LXMXPXHXLXHXHXHXHXHXHXHXVXNX",
"HXHXHXHXHXHXHXHXGXMX* O +   . L XX;X5XuXaXiXxXsXaX9X{.4XeX6X{._.I.R.{.eXrX8X4X{.wX_.r   CXJXBXq 1 ] U.].[.}.9X9X{.`.R.!.R.I.I.R.R.R.R.R.R.R.R.R.I.R.R.!.!.!.T.T.E.x.a.~ ! ~ u.u./ W W R ~ a.a.j.T p.m.T ; 7 %X$X+X+ 2 d.s.i.U I E s.p.p.s.d.~ F X , } o.o.o.} & 2 F l.I.!.Y.P.R.Y.Y.Y.U.U.Y.I.I.c.P ; @ @ O l Y h.C.R.R.I.Y.R.R.R.R.R.R.R.R.R.R.T.).!.`.+ . m M N o O J z.Q v.!.R.R.Y.Y.Y.Y.I.I.G.Y.Z.E I U R a.~ 9 X X g 8.j $ -     *XFXJXHXHXHXHXHXHXHXHXHXDXNX",
"HXHXHXHXHXHXHXHXGXIX  O +   % V.{.4X5XuXaXiXsXsXdX0X{.XX6XrXeXeXeXeX6X4X{.R.Z.c.I.C.y O *XHXGX@X+ H A.Y.E.{.4XXX_.R.R.R.R.I.I.R.Y.R.R.R.R.R.R.R.R.R.!.R.U.Y.Y.!.!.G.h.h.h.Y T v.g.a.a.a.a.a.u.i.s.U z.j.8 = &X$X+X+ t d.s.j.j.p.W j.p.p.z.j.y . 4 | O.o.o.} 5 % P Y c.Y.T.Y.I.A.I.I.Y.Y.Y.Y.Y.Y.b.c.G t 8 l / ~ h.C.R.R.E.I.R.R.R.R.R.R.R.R.R.R.I.'.!.).O $ N M m   8 z.! Y Q.Y.R.R.Y.Y.Y.Y.Y.Y.G.Y.Z.W Q R ~ U d.P   X 6 <.&.6 - O   * LXJXLXJXGXJXJXGXJXHXGXDXDX",
"DXDXDXDXDXDXAXDXFX3X  O +   , C.{.4X5XuXaXiXdXsXdX0X{.XX6XeXeXeX6XXX].Y.H.H.I.E.F.Z.L 8 q NXJXlX@ t V.Z.C.P.C.I.P.Y.Y.I.Y.R.R.P.Y.Y.R.R.R.R.R.R.!.R.E.Y.!.Q.J.G.v.j.E u.j.R I a.a.a.a.a.a.R T T h.R ( / y O c &Xc O y v.a.Q W p.! g.g.s.f.F . 0 | o.o.+.} % $ F x.d.z.~._.Y.R.A.Y.Y.I.Y.Y.R.!.!.Y.F.v.~ ~ / E U C.E.`.R.Y.Y.R.R.R.R.R.R.R.R.R.R.`.!.Y.D.> . m m , , P s.U C.`.F.R.R.Y.Y.Y.Y.Y.Y.G.Y.F.E Q U ~ U p.s.y o X d -.h . #     =XNXPXLXDXDXDXDXDXDXDXDXGX",
"NXNXNXNXNXNXNXVXZX1.#   = . w J.{.4X7XuXaXiXsXxXaXrX;X4X6X7X7XXXH.I.I.G.H.Y.Y.Y.~.H.l.t @ =XJXGXX.O z {.`.H.Z.I.H.Y.R.I.I.R.R.I.Y.Y.R.R.R.R.R.R.`.!.!.Y.F.x.j.u.R R U R v.s.a.j.T T i.u.u.E E E / ^ ( ~ G ; ; : - 1 G f.f.^ ^ ^ Z.Z.G.b.z.y X c O.O.o.p X   l K.z.s.z.!.Y.I.'.R.U.Y.Y.Y.Y.R.!.!.).E.F.~ Q ~ E E E.!.`.R.R.R.R.Y.R.R.R.R.R.R.R.R.).H.J.).H + X $ + F j.Q / R.P.J.R.R.Y.Y.Y.Y.Y.Y.G.Y.Y.l.Q Q R R p.U Q 1 X 3 #.6.e .   # n DXNXPXDXNXNXDXNXBXDXGXHX",
"DXDXDXDXDXDXDXDXzXd -   = . r W.{.4X7XuXdXiXiXxXaX9X4X5XeX7X{.!.x.Z.Y.E.Y.R.J.c.!.Y.k.F O v ZXGXlXO % M.`.Z.R.E.Y.R.R.Y.I.R.R.Y.Y.R.R.R.R.Y.Y.Y.!.!.Y.Z.j.W U U Q E g.p.g.i.T U T i.u.j.j.j.j.j.a.^ ) ~ l.F y % l G ^ f.d.l.Z.v.K H H P H 2   0 p p 0 . % l / T f.a.g.v.Z.G.~.Q.T.R.Y.Y.Y.R.R.R._.J.Q.P.V.l.x.F.`.`.R.E.Y.!.!.U.R.R.R.R.R.R.R.R.).P.T.`.C.z ; ; l / j.( Z.R.E.Q.R.R.R.Y.Y.Y.Y.Y.I.Y.!.F.j.U R U a.U ! l ; . e 3.>.% % O q kXFXNXDXNXNXDXNXBXDXHXHX",
"NXNXNXNXNXNXNXNXzX6 O   ; . t  X{.4X7XuXdXiXiXxXfX9X4X9XrX6X`.F.F.I.J.F.G.R.!.E.L.!.^ ( + X kXLXFX@X+ r ).Y.P.).`.Y.E.R.R.I.I.R.Y.R.R.R.R.Y.Y.Y.!.C.g.Y W T a.a.W j.a.i.U u.j.g.g.j.v.x.x.c.c.c.x.v.v.v.b.K.H./ G.l.d.b.V.z 3 1 O + + O O . %   , o   r g.c.k.d.d.v.Y Q z.G.Q.W.R.R.R.Y.Y.Y.R.T.F.T.!.W.~.XX].J.`.!.I.Z.E.`.!.Y.R.R.R.R.R.R.R.R.R._.[.Y.Q.~.h.Y g.p.p./.R.Y.].T.R.R.R.Y.Y.Y.Y.Y.!.J.Q.Q.c.j.R Q U ~ p.h.y O . B ,.s . = = n JXNXDXNXDXDXDXBXDXHXHX",
"DXDXNXAXDXFXBXAXjX  X O 7   u K.].4X4X;XdXxXiXvXfXeXXX4X6X{.G.b.I.I.I.I.I.I.I.I.I.).C.~ l : v LXGXhXc + ] R.c.!.Y.Y.Y.R.R.R.Y.Y.`.I.R.R.P.Y.~.Y.c.j.T R u.i.R u.s.p.L Y ! f.j.h.x.K.J.b.c.b.b.b.W.K.K.b.K.K././.h.P l 8 +   X X . . .   O O O O X . $ t K ( C.l.x.b.c.k.k.k.c.A.T.Z.R.`.E.H.Q.`.Y.Y.Y.Y.Y.Y.Y.Y.R.R.R.R.R.R.R.R.R.R.R.R.R.R.R.R.R.R.R.R.R.E.P.P.C.C.C.P.U.R.`.`.R.R.R.R.R.R.Y.Y.!.Y.I.I.Y.G.l.Y ~ Y I ! E 2   o S ,.  # ,   =XPXDXMXHXMXDXDXGXHXHX",
"BXNXMXVXVXNXMXJX*X  X   7   w K.`.{.5X9XaXaXdXcXvXuXeX6X).C.G.F.I.I.I.I.I.I.I.I.Z.E.Y.c./ 8   *XZXJX@X; K ].Z.C.R.R.Y.R.R.R.Y.R.R.R.R.E.U.!.Y.x.j.a.R T i.a.a.u.E I R j.j.c.F.b.c.Z.Z.l./ J J L J J J P F y 2 ,           % 9 u C %.,.,.,.Z s e X X   O + + ; ; 3 t y l P y.g.K.z.!.T.G.Q.!.L.Q.Y.Y.Y.Y.Y.Y.Y.Y.R.R.R.R.R.R.R.R.R.R.R.R.R.R.R.R.R.R.R.R.U.E.E.P.P.P.P.E.U.R.R.R.R.R.R.R.R.R.Y.Y.R.Y.I.Y.R.I.C.h.Q W I s.Y F 1   a ,.g     O v JXDXGXBXFXHXMXjXHXHX",
"BXVXNXJXFXVXNXHXv O X . ;   3 x.'.4X;X;XgXdXbXpX>XN.yXuX`.Z.Q.G.I.I.I.I.I.I.I.I.Z.J.`.x.k.G . : =XCXb $ H `.R.T.R.R.R.R.R.R.R.R.R.R.E.G.R.~.Z./ T u.R T R j.j.i.W k.) j.Z.I.c.c.V.P y r r 1 $ $ O O O . .     X +   o 5 s C &.=.@.@.@.@.$.&.&.&.>.h 6 . .   X   .     = ; 8 y P g.C.W.Q./.T.Q.T.Y.Y.Y.Y.Y.Y.Y.Y.R.R.R.R.R.R.R.R.R.R.R.R.R.R.R.R.R.R.R.R.R.E.E.E.R.R.R.R.R.R.E.U.R.R.R.R.R.R.Y.Y.R.Y.I.Y.!.!.I.Z./ U T h.Y a.F + X h ,.. X : . UXBXDXMXNXDXBXBXHXHX",
"NXDXVXJXGXVXHX=X@ O   . ;   , h.Y.4X5X;XaXbX>Xz $ % z (.!.K.~./.I.I.I.I.I.I.I.I.U.H.!.l.^ k.F + X 0 X . ' `.I.!.R.R.R.R.R.R.R.R.E.R.Y.G.!.J.j.Q T R R R i.a.a.R ~ ~ x.J.c.Z.L t = = = = X     X X       * < e a D D ,.,.<.&.$.B $.$.A C C C C C $.<.4.,.C d s s a 6 * X X   . % k G c..XQ.J.[.T.Y.Y.Y.Y.Y.Y.Y.Y.R.R.R.R.R.R.R.R.R.R.R.R.R.R.R.R.R.R.R.R.U.R.U.U.`.!.R.R.R.R.R.R.R.R.R.R.R.R.Y.Y.R.Y.I.I.R.!.Y.I.C.R R Y R f./ l + X h f X - 1 q HXAXHXNXBXDXFXHXHX",
"BXAXNXVXDXNXFXv   =   6 3   % ( Y.6X6X;XuXdXt . & X % H G.K.J.T.I.I.I.I.I.I.Y.Y.E.G.Y.I.g.~ ~ H . . $ x D._.I.Y.R.R.R.R.R.R.R.R.I.R.Y.Y.I.l.W U R R R u.u.R T u.u.x.c.K.G.P , O o o o < a h Z Z Z Z Z Z S %.,.,.%.%.#.#.C C A S %.S S C C C S %.*.@.$.&.&.,.,.,.%.4.,.d s 6   = O : x / '.].J.Y.Y.Y.Y.Y.Y.Y.Y.Y.R.R.R.R.R.R.R.R.R.R.R.R.R.R.R.R.R.R.R.R.R.R.R.R.R.R.R.R.R.R.R.R.R.R.R.R.R.R.Y.Y.!.Y.I.I.I.Y.I.I.T.x.a.Q R R j.g.r X 5 e > + . X UXDXDXDXBXNXNXJXHX",
"DXGXDXDXFXZXkX  o =   >.g   . L ~.wX6X{.uX>X$ 4 ..p o l E.J.G.P.I.I.I.I.I.I.Y.Y.P.`.F.!.).j.^ g.( G L C.U.R.!.I.Y.Y.R.R.R.R.R.R.Y.Y.!.!.Z.W Q a.a.R u.a.u.T R j./.x.b.h.y . X * s Z ,.,.&.&.=.&.&.&.=.&.&.$.$.@.&.$.$.$.&.=.=.@.3.&.&.A V V V @.B B $.$.C C C ,.s a ,.7.-.$.>.n < o X - P Y.'.Y.Y.Y.Y.Y.Y.Y.Y.Y.R.R.R.R.R.R.R.R.R.R.R.R.R.R.R.R.R.R.R.R.R.R.R.R.R.R.R.R.R.R.R.R.R.R.R.R.R.R.Y.Y.Y.Y.I.I.I.H.H.H.G.R.l.~ U p.T d.J % X 5 . O #   q GXVXGXNXDXDXDXDX",
"HXHXHXJXLXZX2.  o O * <X`   . P K.}.eXwXdXB.  p o.}   l T.Q.H.I.I.I.I.I.I.I.Y.Y.R.!.H.E.[.K.v.j.k.z.J.Q.Y.R.R.C.Y.Y.Y.Y.R.R.R.R.!.Y.!.Y.l.Y T a.u.u.u.u.R i.j.v./.Q.h.y . X a >.&.&.$.$.$.$.@.B @.$.$.&.=.3.3.3.$.&.$.C D s s g s g Z ,.,.&.&.$.3.S S A S %.S %.f . 6 ` A @.=.A S a & X O P Y.[.Y.Y.Y.Y.Y.Y.Y.Y.R.R.R.R.R.R.R.R.R.R.R.R.R.R.R.R.R.R.R.R.R.R.R.R.R.R.R.R.R.R.R.R.R.R.R.R.R.R.Y.Y.I.Y.Y.Y.I.I.I.I.Z.`.G.l.Q W Q ~ v.F ;   . . X   @ UXHXHXHXHXHXNXDX",
"JXHXHXJXZXZXf o   O < 1XZ   # F Q.}.wXXXuXz X } O.} X l L.Q.Y.H.I.I.I.I.I.I.Y.Y.`.c.R.[.J.Y.L.W.J.W.W.Y.Y.R.U.E.Y.Y.Y.R.R.R.Y.Y.!.!.!.H.g.T a.a.T a.a.R T j.v.c.b.C.H .   h <.=.%.%.%.,.,.,.,.3.,.%.Z h f 6 5 4 = O O O O O         o * 6 f h Z #.#.&.&.&.=.&.&.,.g . . g %.V S 4.,.g < . - z '.Y.Y.Y.Y.Y.Y.Y.Y.R.R.R.R.R.R.R.R.R.R.R.R.R.R.R.R.E.R.R.R.R.R.R.R.R.R.R.R.R.U.E.E.R.R.R.R.R.R.Y.Y.G.I.Y.R.R.Y.Y.Y.K.I.[.C.) Q Q Y j.v.t - & . o O @ q DXJXHXJXJXDXNX",
"ZXFXHXJXZX9.>   O   h q.%.o ; H H.oXwX:X:Xy & } O.p $ l Y.T.F.Y.I.I.I.I.Y.Y.Y.Y.Y.Y.I.Y.Y.R.R.R.Y.Y.R.R.R.R.Y.Y.R.R.R.R.R.R.R.R.T.!.!.c.T T j.u.p.s.~ Q Y k.c.G.Z.z = - q 5 s V 6.` 6 * : > 6 e q >                           @                 . * 5 e a g ` h <.3.Z s Z ,.h #.Z &.&.Z 5   . z [.!.c.'.T.Y.Y._.Y.Y.Y.Y.Y.Y.R.R.R.R.R.R.R.R.R.R.R.R.R.R.R.R.R.R.R.R.R.R.R.R.R.R.S.R.^.^..X`.A.E.!.Y.I.Y.R.!.Y.I.Y.R.Z.Y.F.E U ~ i.f.z.l + O #     > GXHXDXHXHXMXDX",
"LXGXLXJXZX:.>   @   2.q.&.  + r l..XwX:X:Xt & | o.p $ l Y.T.Y.I.I.I.I.I.Y.Y.Y.Y.Y.Y.I.Y.Y.R.R.R.Y.Y.R.R.R.R.Y.Y.R.R.R.R.R.R.R.R.!.!.Y.x.T T u.u.s.g.p.a.k.x.F.K.( r X   . . Z 8.g < $ % 5 6   o   # .   @ @ @       @ # # @           @ @ O     o .   . . . * $ a #.6.,.%.d e h >.C A &.,.6 . % K !.~.Y./.Q.Y.R.Y.Y.Y.Y.Y.Y.R.R.R.R.R.R.R.R.R.R.R.R.R.R.R.R.R.R.R.R.R.R.R.R.R.R.I.}.M.K K V._.Q.R.Y.I.Y.R.!.Y.I.I.R.G.Y.J.g.U R i.s.j.L 8 O   X     X.HXGXJXBXDXNX",
"LXHXHXJXZX*.#   & < 1.q.<Xa . % l..XwXqX:Xt X | o.} . y I.E.Q.H.Y.Y.I.I.Y.Y.Y.Y.Y.Y.Y.Y.Y.R.R.R.Y.Y.R.R.R.R.R.R.R.R.R.R.R.R.R.R.'.!.F.g.E R R u.! p.h.u.k.c.x.h., O   * s %.,.u . * ` 1.<.d   @ #       > > > q v n *X=XkXjXkXkXkX=X*Xv q > # @ O O   # o   . . + . a Z *.d $ f ,.%.B @.&.C 6 O 9 V.].F.E.!.Y.I.Y.Y.Y.Y.Y.Y.R.R.R.R.R.R.R.R.R.R.R.R.R.R.R.R.R.R.R.R.R.R.R.R.R.R.oXK . . $ $ K .XR.U.Y.Y.Y.R.Y.I.I.Y.H.Y.J.j.Q R R R E H.H 1 O     @ > jXHXHXDXHXNX",
"JXHXHXHXzXd O @ X 6 4.7.<Xh   . l.~.XX:XyXx X } o.} . t I.^.Q.H.Y.Y.Y.Y.Y.Y.Y.Y.Y.Y.I.Y.Y.R.R.R.Y.R.R.R.R.R.R.R.R.R.R.R.R.R.R.R.'.Q.l.W u.u.T i.I i.i.Y v.b.L t X X * S -.3.a = 6 >.6.,.s .     X X : b jXmXkXlXNXVXDXGXGXGXGXFXJXDXDXVXNXjX=X-Xq O O O O O O # = o . 5 #.>.. n V &.%.V B &.` o O z E.F.!.`.R.H.Y.Y.Y.Y.Y.Y.R.R.R.R.R.R.R.R.R.R.R.R.R.R.R.R.R.R.R.R.R.R.R.R.R.R./.1 4 <.<.X t b.R.Y.Y.Y.Y.Y.Y.Y.I.Y.G.I.Y.l.W R ! Y R k.x.y ; .       b JXHXHXNXDX",
"HXHXFXJX2Xa #     e q.1.f d o   ( ^.XX:X0Xz X } O.| X r P.!.Q.G.Y.Y.Y.Y.Y.Y.Y.Y.I.I.I.Y.Y.R.R.R.R.R.R.R.R.R.R.R.R.R.R.R.R.R.R.R.~.H.g.W a.a.T i.g.s.s.c.Z.( t   O f #.5.Z 3 . 6 3.<.d 5   O > .   b kXGXJXSXAXJXHXHXGXNXBXBXNXDXGXNXBXNXJXHXHXGXGXAXFXUX@Xv q   =   o . * e . 6 =.B ,.C $.B ,.a X 1 V.Q.Q.E.!.H.Y.Y.Y.Y.Y.Y.Y.Y.R.R.R.R.R.R.R.R.R.R.R.R.R.R.R.R.R.R.R.R.R.R.R.R.V.. j w.w.& 8 j.U.Y.Y.Y.I.Y.Y.Y.I.Y.I.I.Y.c.W U ! Y I ! b.L 1 O # . @ q GXHXHXHXVX",
"JXJXLXZX<X6 #     g w.e $ d * X P [.wX8XpXz   p O.| & 1 V.'.Y.P.Y.Y.Y.Y.Y.Y.Y.Y.I.I.I.Y.Y.R.R.R.R.R.R.R.R.R.R.R.R.R.R.R.R.R.R.R.Y.x.E W a.a.i.i.s.u.c.W.( 2   & D 3.>.5 X * h <.&.e o   &   . ; *XMXHXJXDXGXHXHXDXDXDXDXDXAXNXNXVXBXBXVXJXHXHXHXJXJXJXGXGXSX*X> O   - = . . . 5 4.V C Z #.B ,.A X . K `.J.G.`.U.Y.Y.Y.Y.Y.Y.Y.Y.R.R.R.R.R.R.R.R.R.R.R.R.R.R.R.R.R.R.R.R.R.R.R.R.]    .9.:.& 8 ) U.R.R.Y.I.I.Y.R.H.I.Y.I.Y.Z.W W U E I ! z.h.2 #       @ =XGXDXDXNX",
"FXGXLXZX<.o .   . ` e.  9 4.5 @ P ].tX8XiXB.  p o.o.4 . L '.Y.P.Y.Y.Y.Y.Y.Y.Y.Y.I.Y.I.Y.Y.R.R.R.R.R.Y.Y.R.R.R.R.R.R.R.R.R.R.R.R.F.j.W E a.a.u.i.a.v.C.( r   * h &.&.D 5 a Z 4.,.5 . O =   o n UXNXHXHXHXGXGXHXHXHXHXFXDXVXVXDXDXNXNXNXAXDXGXHXHXDXHXHXJXVXJXJXBX*Xq O -     -   h ,.V %.C %.%.$.6   t T.W.K.`.`.Y.Y.Y.Y.Y.Y.Y.Y.R.R.R.R.R.R.R.R.R.R.R.R.R.R.R.R.R.R.R.R.R.R.R.R.' . *.9.:.X t ~ I.R.!.R.I.I.Y.!.H.I.Y.Y.!.F.W Q R T I u.d.k.l O   # #   *XHXGXDXAX",
"FXVXZXzX*.. .   + ` e.  q w.6 O H }.wX:XsXN.# p o.O.p . G '.Q.E.Y.Y.Y.Y.Y.Y.Y.Y.Y.Y.I.Y.Y.R.R.R.R.Y.Y.Y.Y.R.R.R.R.R.R.R.R.R.R.R.Z./ W a.u.a.j.i.x.F.l.r   4 Z 6.#.A S &.&.3.%.e = :   . ; b GXCXJXDXNXLXJXAXDXNXDXDXJXHXHXJXDXDXGXGXHXJXDXDXNXNXJXGXPXHXDXBXJXGXHXkX# O   # = O 4 <.=.V A #.C &.f   ; |. XJ.L.[.Y.Y.Y.Y.Y.Y.Y.Y.R.R.R.R.R.R.R.R.R.R.R.R.R.R.R.R.R.R.R.R.R.R.R.R.M.$ *.;.r.X y d.P.Y.!.R.I.G.Y.!.H.H.Y.Y.!.J.E Q W R p.p.k.k.L O   @     *XGXGXDXJX",
"SXzXLX<X .X   O O ,.6.O 6 q.6 - x `.XX7XvX5XO ; +.o.p o y F.H._.Y.Y.Y.Y.Y.Y.Y.Y.R.R.R.R.R.R.R.R.E.G.I.!.R.`.`.L.Z.].E._.U.S..XW.g.T s.~ W W W j.~.S.r O * $.&.C #.%.C A B 4.e .         @XHXNXGXJXAXBXVXDXNXNXAXNXDXDXGXHXHXHXHXHXHXHXGXDXNXNXDXNXDXNXVXNXNXHXHXGXHXjXv     #   # < ,.&.A V $.<.` o . L .XT.T.'.E.I.I.Z.`.E.`.].A.Z.I.R.U.S.A.!.R.R.R.R.R.R.R.R.R._.U._.R.E.`.[.z O r.;. .# F a.R.R.R.Y.Y.Y.Y.Y.Y.H.I.H.E.I.j.U ! T j.Q v.z.L . # O ; + X BXGXJXHX",
"SXZXPX1Xe o   O . 8.%.  6 <X6 O y {.4X4XvXsXt . | O.p X r T.R.|.Y.Y.Y.Y.Y.Y.Y.Y.R.R.R.R.R.R.R.R.P.Y.!.R.I.R.`.`._.U.^.W. XXXH.l.T R R R E E g.c.C.F ;   h =.V %.%.%.B A <.Z * .   # : *XHXDXHXHXHXDXBXVXDXNXNXAXNXDXDXGXHXHXHXHXHXHXHXGXDXNXNXDXNXDXNXVXVXNXHXHXHXDXHXMXb #   # O . 5 ,.,.S B &.` 5 + l T.!.!.Y.Y.G.'.G.R.`.G.C.U.I.Q.J.P.`.`.~.R.R.R.R.R.R.R.R.R.R.R.R.R.R.`.L.t . :.9.j + P s.R.R.R.Y.Y.Y.Y.Y.Y.H.I.H.Y.Y.j.U s.T R U s.z.( 1   O + O   =XAXHXHX",
"CXFXZX0.      O < q.,.  < <X6 O l 5X6X6XdXbX] . p ..p : r C.Y.U.Y.Y.Y.Y.Y.Y.Y.Y.R.R.R.R.R.R.R.R.I.R.`.R.P.I.Y.Y.S.R. X(.(.T.l.s.U u.T R j.j.v.K.L 1   a ,.S B #.C A V &.>.6 .   @ # kXHXHXHXHXHXHXDXBXVXDXNXNXAXNXDXDXJXHXHXHXHXHXHXHXGXDXNXNXDXNXDXNXVXNXNXHXHXHXHXHXHXGXb     ;   . e 2.%.A @.>.a . 2 V.!.!.J.~.G.'.!.I.H.U.`._.`..XW./.~.~.Y.R.R.R.R.R.R.R.R.R.R.R.R.E.R.`.V.; 5 :.;.a ; L n.R.R.R.R.Y.Y.Y.Y.Y.H.I.H.I.I.j.U f.T Q a.s.z./ r     %     @XGXHXHX",
"CXPXZX*.      O g q.4.. 6 1.& . K qX6XuXaXnX;Xx X & X ; F Q.W.F.Y.Y.Y.Y.Y.Y.Y.Y.R.R.R.R.R.R.R.R.Y.R.R.T.U.I.H.H.~.!.K t > 8 J m.R u.T T a.c.b.v.w O 4 %.=.C ,.$.C V &.,.e . O &   *XHXJXHXHXDXHXJXAXBXVXDXNXNXAXNXDXDXJXHXHXHXHXHXHXHXGXDXNXNXDXNXDXNXVXNXNXHXHXHXHXFXJXHXAXX.# + O     6 ,.&.V ,.g . ; ] `.J.J.Q.Q./.!.H.Z.[.|.' ] )..X X.X!.R.R.R.R.R.R.R.R.R.U.U.R.R.P.`.].h.O j ;.:.5 ; G m.R.R.R.R.Y.Y.Y.Y.Y.H.I.H.I.I.l.U f.W Q u.s.z.) r   * *   O X.JXJXHX",
"CXPXZXj = O   $ ,.8.4.a >.2.  % V.yX6XiXaXvXiXy.r 2 3 F l. XQ.H.Y.Y.Y.Y.Y.Y.Y.Y.R.R.R.R.R.R.R.R.R.Y.R.`._.U.R.`.XXK O . & X 8 h.k.E T T u.K.C.F     h 3.@.Z ,.A A $.$.s $ O O X b HXGXJXHXHXHXHXHXDXBXVXDXNXNXAXNXDXDXJXHXHXHXHXHXHXHXGXDXNXNXDXNXDXNXVXNXNXHXHXJXGXHXHXHXHXAX=X; O # O   f %.V $.Z . + z ].H.J.K..XE.E.H.U.M.r = ; y V..XL.S.S.R.R.R.R.R.R.R.R.U.U.R.R.P.`.].h.X j 9.r.X 1 ( j.R.R.R.R.Y.Y.Y.Y.Y.H.I.H.Y.Y.l.T f.T Q T j.z./ r   a e   = *XLXHXHX",
"CXPXzX6 - O . e 5.8.5.6.1Xf O w }.yXrXnXdXvXaXx.Y Q _ ) b.W.T.}.Y.Y.Y.Y.Y.Y.Y.Y.R.R.R.R.R.R.R.R.R.E.`.`.E.T.].].H + 0 &X&Xk $ H z.T i.T j.G.L r X 6 4.V $.#.Z A V ,.Z *   O O q HXDXHXHXGXHXJXHXHXDXBXVXDXNXNXAXNXDXDXJXHXHXHXHXHXHXHXGXDXNXNXDXNXDXNXVXNXNXHXHXGXHXHXHXJXHXHXHX*X> O O # . ` &.V ,.6 @ 8 ).I.J.J.!..XI.I.L.t 7 c 0 % K XX'.L._.R.R.R.R.R.R.R.R.U.U.R.R.E.R.`.V.o j r.d $ l j./ R.R.R.R.R.Y.Y.Y.Q.H.I.H.Y.Y.l.T ! T R U v.z.J ; . h d . = n CXHXHX",
"AXPX3X5 = o + Z 4.4.6.<X5.  = l 4XyXsXsXcXdX7Xc.d.! Q l.Q.!.`.).Y.Y.Y.Y.Y.Y.Y.Y.R.R.R.R.R.R.R.R.R.I.!.!.P.[.).K . 7 &X$X$Xc w P k.W u.u.c.C.y . o Z 3.C C %.C %.V ,.e . X   > *XHXHXDXDXHXHXGXHXHXDXBXVXDXNXNXAXNXDXDXGXHXHXHXHXHXHXHXGXDXNXNXDXNXDXNXVXNXNXHXHXHXGXHXHXNXHXHXAXJX-X  O O . a ,.@.,.g X ; L Y.J.R.P.].!.I.L 7 ..$X+XO y !.Q.!._.R.R.R.R.R.R.R.R.U.R.I.R.R.U.`.L., . < $ t p.f.C.R.R.R.R.R.R.Y.Y.!.I.I.H.Y.Y.l.U R I R s.v.c.l O . Z d . = : ,XLXHX",
"GXPX3X5 O   ; ,.e.8.6.0.C   7 ] eXyXnXdXIXgXP.F.n.v.h._.XX/.I.Y.Y.Y.Y.Y.Y.Y.Y.Y.R.R.R.R.R.R.R.R.`.G.I.H.P.{.M.2 - +X$X$X+X7 8 h.j.Q u.u.F.V.1 X 6 3.V <.Z D &.#.$.,.$ -   X v NXHXHXGXDXHXDXHXFXHXDXBXVXDXNXNXAXNXDXDXGXHXHXHXHXHXHXHXGXDXNXNXDXNXDXNXVXNXNXHXHXDXHXGXDXHXHXNXHXCXFXb   O . o g =.&.h X + F R.Q.A.E.G.Y.G.z : +X$X&X@ y Q. X XG.R.R.R.R.R.R.R.R.U.R.E.R.R.P.`.`.] 8 9 t L m.f.A.R.R.R.R.R.R.Y.Y.!.I.I.H.Y.Y.l.R R I R z.c.b.r X q ,.d $ 7   =XJXHX",
"zXFXjX% O ; < 4.q.3.-.q.u O 2 [.wXuXvXIXvX[.F.G./._.`.Y.K./.E.I.Y.Y.R.R.R.R.R.R.R.R.R.R.R.R.R.R.S.|..X~.U.z . : &X%X$X%Xc ; F ) p.s.j.g.b.L %   s &.S %.< 5 #.S *.g . O     kXGXHXHXHXHXHXHXHXHXMXNXDXDXNXDXDXDXNXNXVXDXDXGXHXHXHXHXGXDXDXDXNXBXBXBXNXNXDXDXGXGXHXHXHXHXHXHXHXHXMXGXDX  # @ O q #.&.,.< # % ).W.J.W.T.XXS.F = &X$X&X@ y F.R.~.A.R.R.R.R.R.R.R.R.R.R.R.R.R.R.R.R.`.G.g.Y Y g.G.!.R.R.R.R.R.R.Y.Y.R.A.I.!.Q.J.v.Q i.p.! d.b.L O . s %.d . O O =XLXHX",
"JXFXkX. . . e 5.q.5.7.%.* O z eXiXvXpXxXXXx.T.J.'.].I.Z.Q.^./.~.Y.Y.R.R.R.R.R.R.R.R.R.R.R.R.R.R.^.Y.`.D.r + 0 &X$X$X&X0 = F c./ T s.j.g.b.L % X d 3.C &.6 o Z &.%.6 . -   f CXGXNXNXNXNXNXNXNXNXNXGXHXHXGXHXHXGXHXHXGXDXDXDXDXDXDXNXNXDXGXHXHXGXGXGXLXDXDXDXDXDXNXNXNXNXVXVXVXVXGXHXNX-X  @     h $.$.h   ; H '.H.Q.Q.R.U.l = &X$X&X+ y F._.~.A.R.R.R.R.R.R.R.R.R.R.R.R.R.R.R.R.!.U.G.C.x.Z.Y.!.R.R.R.R.R.R.Y.Y.R.P.I.R.!.J.j.Q u.i.a.d.F.l %   S 3.#.* O # =XLXDX",
"HXLX=Xo     h 0.Z 4.<X5   ; N.uXiXnXGXaXz.K.Q..X^..X'.Y.Q.!.^.W.Y.Y.R.R.R.R.R.R.Y.Y.R.R.R.R.R.R. XH.] q : k &X$X$X%Xc + i l.j.p.Y a.E v.b.F . * C ,.C =.f O d =.h . O = # =XJXSXNXNXNXNXNXNXNXNXDXHXHXHXHXHXHXHXHXHXHXDXDXNXBXBXBXBXBXDXGXHXHXHXHXHXHXHXJXDXDXDXNXNXNXNXNXNXNXNXHXHXHXHXv       6 #.B ,.* . 8 D.R.I.Y.Y._.F = &X$X&X+ y J.`.^.A.R.R.R.R.R.R.R.R.R.R.R.R.R.R.R.R.!.!.!.!.!.!.!.Y.R.R.R.R.R.R.Y.Y.Y.I.I.Y.!.F.g.I j.s.g.k.h.; % * ,.$.#.< O   =XLXNX",
"JXZX>.. @   h ` * ,.2.    z 7XrXiXnXuXXXL.|.|.L l z M.].U.A._.A.Y.Y.R.R.R.R.R.R.Y.Y.R.R.R.R.R.R. XV., # c %X$X$X&Xk = r ) E p.s.Y u.W c.K.y . 5 %.C A =.a - d 4.6 . O O n JXFXAXDXDXDXDXDXDXDXDXDXHXHXHXHXHXHXHXHXHXGXDXDXNXNXDXDXNXNXDXGXHXHXHXHXHXHXHXHXGXDXDXDXDXDXDXDXDXDXDXHXGXHXGXkX#   @ O Z @.&.g . % z `.G.J.Q.U.P 7 +X$X&X$ y J.`.^.Z.R.R.R.R.R.R.R.R.R.R.R.R.R.R.R.R.!.!.R.R.R.R.Y.Y.R.R.R.R.R.R.Y.Y.I.R.I.I.Q.x.E W f.s.Y Z.H . . a =.B #.< O   UXJXVX",
"JXZXe . O   5 . 6 6.u - 3 :XtXaXvXdXXX_.M.y , & 3 $ 8 ] _.A.A.Y.Y.Y.R.R.Y.R.R.R.Y.Y.R.R.R.R.R.R.[.z   c $X$X%X+X> - r h.h.j.! g.Y u.W c.K.r   5 &.C %.&.6 + Z %..   O O -XJXDXDXNXNXNXNXNXNXNXNXNXGXHXHXGXHXHXGXHXGXDXDXDXDXDXDXDXDXNXDXGXHXJXGXHXHXHXHXHXGXDXDXNXNXNXVXVXVXDXDXHXHXGXGXGXn     = h &.V >.5   7 V.T.Q.~.R.L ; ..$X&XO y F.`./.Z.R.R.R.R.R.R.R.R.R.R.R.R.R.R.R.R.R.R.U.E.E.I.Y.Y.R.R.R.R.R.R.Y.Y.I.Y.E.Y.Y.l.T T f.I R P.l $ X h =.@.Z % O   kXPXDX",
"HXZX*   = = . . 1.1.. ; ' uXdXvXbXwXP.z $ o &  .*. .  r E.`.K. XY.Y.R.R.Y.R.R.R.R.R.R.R.R.R.R.R.A.y @ +X&X+Xc = , y h.v.s.U ~ _ p.E E z.K.r X 6 &.&.%.Z < $ ,.a .     : kXGXHXNXNXNXNXNXNXNXNXNXDXHXHXHXHXHXHXHXHXHXGXDXNXNXNXNXNXNXNXDXGXHXHXHXGXGXHXHXHXGXDXVXNXNXNXNXNXVXVXVXHXHXDXHXHX=X#   = 6 %.$.%.Z   - y ).~.Q.'.V.; c $X&X: 8 l._.^.Z.R.R.R.R.R.R.R.R.R.R.R.R.R.R.R.R.R.R.R.T.R.R.Y.Y.R.R.R.R.R.R.Y.Y.I.I.I.R.H.g.Y T s.J ^ C.l $ X Z $.$.s . O   UXPXNX",
"GXDX% . O O * Z 1Xg . 1 }.5XcXvX7XM.1   5 d e.w.9.r.& r C.'.'.~.Y.Y.R.R.R.R.R.R.R.R.R.R.R.R.R.R.}.z ; : 0 ; 1 O H g.j.a.! a.( ~ i.T a.z.F.r X 6 %.&.,.e $ e <.< O   o q MXGXHXNXDXDXDXDXDXDXDXDXDXHXHXHXHXHXHXHXHXHXGXDXNXNXNXNXNXBXNXDXGXHXHXHXGXHXHXHXHXGXDXNXDXDXDXDXDXDXDXDXGXDXHXHXHXMXv   O o >.,.V &.6 = $ ] T.W.'.S.2 0 %X%X0 ; J U.~.A.R.R.R.R.R.R.R.R.R.R.R.R.R.R.R.R.R.R.R._.U.R.R.Y.R.R.R.R.R.R.Y.Y.R.H.Y.!.Z.g.W T u.U ~ F.l . X Z &.%.6 + O & *XHXNX",
"JXPXO   X   5 e.e.* . y XXrXcXnX] . % f 0.w.;.;.-.a O z /.A._.S.Y.Y.R.R.R.R.R.R.R.R.R.R.R.R.R.R.Q.C.y % X X t k.z.s.Q Q A.P.l.v.i.T j.d.F.t X 3 S $.1.. $ >.*.+ O # & q JXHXHXVXNXNXNXNXNXNXNXNXDXHXHXHXGXHXHXHXHXGXDXDXDXNXDXDXDXNXNXDXGXHXHXGXHXHXHXHXHXGXDXBXNXNXNXNXVXVXDXDXGXHXHXGXHXDXn @   . ` ,.V &.Z + . t /.Q.Q.A.x X &X$Xc = F I. XA.R.R.R.R.R.R.R.R.R.R.R.R.R.R.R.R.`.R.R.E.E.U.R.R.R.R.R.R.R.R.Y.Y.R.Z.R.!.x.W T R Y d.I K.F O $ h 4.#.. = O X f GXDX",
"JX2Xo   O . B 1X,., = N.pXxX6Xk . & *.w.9.9.:. .O % y C.!.Q.E.[.R.R.R.R.R.R.R.R.R.R.R.R.R.R.R.R.!.J.x.g.u.a.k.z.Y g.Z.R.R.!.R.x.u.j.T v.c.t # * #.=.s O 6 &.>.+ @     -XGXFXHXBXNXNXNXNXNXNXNXNXNXHXHXHXJXHXHXHXHXHXGXDXNXNXNXNXDXNXBXDXGXHXHXJXHXHXHXHXHXGXDXNXNXNXNXNXNXNXNXNXGXHXLXHXHXGXn @ = . h &.V $.<.s   O K Q.I.A.K + c %Xc - F c.}.!.R.R.R.R.R.R.R.R.R.R.R.R.R.R.R.R.R.R.R.R.R.R.R.R.R.R.R.R.R.R.R.R.Y.Y.Y.Y.c.Q T u.u.i.g.z.( O   f 6.f .   O @ q JXNX",
"LX1.o   @ $ 4.q.h o 9 (.sXiX'   q e.9.;.9.r.5 % t y L C.!.Y.Y.!.R.R.R.R.R.R.R.R.R.R.R.R.R.R.R.R.].!.G.l.E T R R Z.Z.R.!.R.!.R.C.u.a.T j.c.y @ * >.-.s = h &.d ;     > kXHXHXHXAXDXDXDXDXDXDXDXDXNXHXHXHXGXHXHXJXHXHXDXDXDXDXDXDXDXDXNXDXGXHXHXGXHXHXHXHXHXLXDXDXDXDXDXDXDXDXDXDXGXHXDXHXHXHXb X : . a &.$.V %.#.o   t P.G.U.V.1 0 ..k 1 P H.}.Z.R.R.R.R.R.R.R.R.R.R.R.R.R.R.R.R.R.R.R.R.R.R.R.R.R.R.R.R.R.R.R.R.Y.Y.Y.Y.c.Q T u.i.T W z.h.+   a ,.< . * O   * PXDX",
"JX2.  O # 6 q.5.5   z tXdXB.. 4 0.w.;.;.#.  % l Y l.P.E.R.R.R.H.R.R.R.R.R.R.R.R.R.R.R.R.R.R.R.R.`.!.Y.H.G.H.F.J.!.!.!.!.U.R.!.G.E ~ i.a.c.F   # Z =.h = a @.d .     q DXGXHXGXDXDXDXDXDXDXDXDXDXNXGXHXGXDXGXGXDXGXDXDXDXDXDXDXGXGXDXDXDXGXGXDXDXGXGXDXDXDXDXLXGXDXDXDXDXDXDXDXDXGXGXDXLXLXHX*X      e <.,.$.C <.g o % L P.R.].z % @ O r Y A.T.U.R.R.R.R.R.R.R.R.R.R.R.R.R.R.R.R.R.R.R.R.R.R.R.R.R.R.R.R.R.R.R.R.Y.Y.R.I.c.I T u.s.I Y z.h.; . e B $ g n #     jXJX",
"JX2.  O . a 0.4.X   L xXyX9 X r.;.;.9.j . r h.j.b.Q.~.U.P.R.R.H.R.R.R.R.R.R.R.R.R.R.R.R.R.R.R.R.E.U.U.R.R.`.`.`.Y.Y.Y.U.I.R.R.R.E ! u.i.c.P . @ s 4.h O e &.h       n FXBXDXDXGXGXGXGXGXJXJXGXGXDXDXDXDXDXDXDXDXDXDXDXDXDXGXHXHXHXHXGXGXDXDXDXDXDXDXNXBXNXDXGXHXGXGXGXGXJXJXGXGXDXDXNXAXNXHX=X    o 5 h s #.&.q.6.< . t L.I.`.).P y t J k.P.H.!.R.R.R.R.R.R.R.R.R.R.R.R.R.R.R.R.R.R.R.R.R.R.R.R.R.R.R.R.R.R.R.R.Y.Y.R.Y.c.I T u.s.I I z.x.9 . 6 #.s <.>..   X jXHX",
"JXv   O . h q.4.O ; V.cXN.  j 9.;.9.4 X l Y k.c.~.~.Q.J.J.!.R.P.R.R.R.R.R.R.R.R.R.R.R.R.R.R.R.R.A.P.T.U.U.T.E.E.I.I.I.Y.R.R.T.!.j.! u.T c.( % X s 4.e * D 3.e       *XDXBXMXNXFXHXHXHXHXHXHXHXHXDXDXDXDXDXDXNXAXNXDXDXDXGXHXHXHXHXHXHXGXDXDXDXNXDXNXBXBXBXDXGXHXHXHXHXHXHXHXHXHXAXAXBXNXBXJXkX    # O o * Z 4.7.<Xg X + V.H.H..X].C.|.F.b.'.Q./.R.R.R.R.R.R.R.R.R.R.R.R.R.R.R.R.R.R.R.R.R.R.R.R.R.R.R.R.R.R.R.R.Y.Y.R.Y.Z.I T u.s.U I z.x.1 . 6 3.S ,.d .   o jXHX",
"MX>   = . #.1X,.; 8 V.cXM.  j 9.:.d # 8 / c.k..X[.T.K.F.J.Y.R.T.R.R.R.R.R.R.R.R.R.R.R.R.R.R.R.R.P.U._.`.`.`.`.!.R.R.Y.R.`.R.E.!.l.! i.p.z.l.2 O a ,.s f C ,.5 O   @ kXGXGXBXDXDXHXHXHXHXHXHXHXHXGXDXNXNXDXNXNXNXNXNXDXGXHXHXHXHXHXHXHXHXDXNXNXDXVXNXBXBXBXDXGXHXHXHXHXHXHXHXHXHXAXNXBXNXNXDXmX@   O = . 6 %.5.4.8.6.X O ] `.C.J.!.F.`.Q.K.~.Q.^.R.R.R.R.R.R.R.R.R.R.R.R.R.R.R.R.R.R.R.R.R.R.R.R.R.R.R.R.R.R.R.R.R.Y.R.Y.Z.I T a.s.R Y z.h.; . 6 &.S $.Z . O   hXHX",
"lX7   = . #.<XZ . 8 ).vXV.O 6  .4 $ t Y ) ~  X'.T.T.Y.I.I.Y.R.U.R.R.R.R.R.R.R.R.R.R.R.R.R.R.R.R.R.R._.R.R.R.Y.Y.`.`.Y.R.`.R.P.`.x.! u.g.z.Z.t @ 6 ,.%.>.C C 5 =   > BXDXGXAXDXDXHXHXHXHXHXHXHXHXHXDXBXNXDXNXNXDXNXDXDXGXHXHXHXHXHXHXHXHXDXVXAXDXVXNXNXNXVXDXGXHXHXHXHXHXHXHXHXHXVXAXBXVXDXVXAX:   O = . h ,.5.5.8.<Xo @ K eXS.Z.Y.F.Y.!.!.U.H.`.R.R.R.R.R.R.R.R.R.R.R.R.R.R.R.R.R.R.R.R.R.R.R.R.R.R.R.R.R.R.R.R.R.Y.!.Y.Z.I T a.a.R W z.h.+   a &.A $.C $ O   lXHX",
"GXb   = . <.<XZ   r }.uXc.9 $ X & x v.k.g.oX^.A.H.!.`.R.E.R.R.R.R.R.R.R.R.R.R.R.R.R.R.R.R.R.R.R.R.R.R.R.!.Y.Y.Y.!.R.G.H.!.U.E.].C.~ p.h.z.Z.y + * ,.$.#.@.s . 7   > DXMXBXAXDXJXHXHXHXHXHXHXHXHXHXDXBXDXDXNXNXDXNXDXDXHXHXHXHXHXGXHXHXHXDXVXDXDXDXVXNXVXDXDXGXHXHXHXHXHXHXHXHXHXVXAXBXDXDXBXFX0 X O + . ,.-.4.5.e.<X5 @ K dXL.H.P.R.I.C.P.U.U.A.R.R.R.R.R.R.R.R.R.R.R.R.R.R.R.R.R.R.R.R.R.R.R.R.R.R.R.R.R.R.R.R.Y.R.!.Y.Z.I R a.R T g.z.( + X f 3.B @.C $ ;   hXHX",
"GXb &   . 2.q.Z . r (.tXz.h.Q G U ~ v.c.F.Y.Y.Y.Y.Y.Y.Y.Y.Y.Y.Y.R.R.R.R.R.R.R.R.R.R.R.R.R.R.R.R.R.R.R.R.R.R.R.R.R.R.R.R.R.R.R.R.C.U R g.z.Y.z = % *.&.V &.e = X # q MXDXDXNXDXHXHXHXHXHXHXHXHXHXHXDXBXNXDXVXNXDXDXDXGXHXHXHXHXHXHXHXHXHXDXNXNXDXMXNXDXNXNXNXGXHXHXHXHXHXHXHXHXHXNXDXDXNXDXGX=X#   = ; < 4.4.7.5.8.6.5 . n bX{.c.Y.Y.Y.Y.Y.Y.Y.Y.R.R.Y.Y.Y.R.R.R.A._._.R.R.`.[.).S.].!.Q..X.X.X.X.X`.E.E.U.Y.Y.!.R.W.K.}.C.Q U f.s.! h.l.h.+ . f 3.C $.Z . O   jXHX",
"GX@X    + ` 1XS   r }.tXc.C.v.g.j.v.c.F.J.Y.Y.E.Y.Y.Y.Y.Y.Y.Y.Y.R.Y.R.R.R.R.R.R.R.R.R.R.R.R.R.R.R.R.R.R.R.R.R.R.R.R.R.R.R.R.R.R.C.U R g.z.H.y O e @.&.%.&.6 - X   n AXNXAXDXGXGXHXHXHXHXHXHXHXHXHXNXBXNXDXNXBXNXNXDXDXHXHXHXHXHXHXHXHXHXDXNXNXNXBXNXDXNXNXDXGXHXHXHXHXHXHXHXHXHXDXNXBXNXDXNX*X  X - . h 5.5.5.q.q.1.  % ' bX7XZ.Y.Y.Y.Y.Y.Y.Y.Y.R.R.Y.Y.Y.R.R.R.].R.U.R.R.Y.I.!.Y.}.'.M.u ; t j.T.T.T.U.U.R.R.R.Y.G.F.!.S.Q ! p.u.! g.Z.( .   f =.C &.Z . O   kXHX",
"GX-X    + h 1X,.  r T.tXG.I.J.J.F.F.J.Y.Q.Y.Y.J.Y.Y.Y.Y.Y.R.Y.Y.Y.Y.R.R.R.R.R.R.R.R.R.R.R.R.R.R.R.R.R.R.R.R.R.R.R.R.R.R.R.R.R.R.l.U T g.b.C.r O s =.Z 1.*.a . o   -XGXBXNXDXDXNXHXHXHXHXHXHXHXHXGXNXBXNXDXNXNXNXNXNXDXGXHXHXHXHXHXHXHXHXDXNXNXNXNXDXDXDXDXDXGXHXHXHXHXHXHXHXHXHXAXNXMXNXDXBXn   o % 6 <.e.4.5.4.<X .  , >XbXuXH.Y.Y.Y.Y.Y.Y.Y.Y.R.R.R.Y.R.R.R.R.Z.I.].`.T.Y.F.Q..XM.l @ & * o . l.P.!.R.U.!.!.Y.L.Q.].}.S./ E U Y ! j.F.L O   a &.B &.C . O   kXHX",
"JX=XX   O a q.,.X 1 x.wX/.J.Y.Q.Y.Y.!.!.!.Q.Y.J.Y.Y.Y.Y.Y.R.R.Y.Y.Y.R.R.R.R.R.R.R.R.R.R.R.R.R.R.R.R.R.R.R.R.R.R.R.R.R.R.R.R.R.R.l.U T j.F.( ,   D %.f e >.f .     =XDXNXDXNXBXDXGXGXGXGXGXGXGXGXDXDXDXDXDXDXDXDXDXDXDXGXGXHXHXHXHXHXHXGXDXDXDXDXDXDXDXDXDXDXGXGXGXGXGXGXGXGXGXGXNXFXVXDXGXDXv O   . ` 5.e.4.5.q.<X6 . z uXnXdXZ.Y.Y.Y.Y.Y.Y.Y.Y.R.R.Y.Y.R.R.R.R.!.Y.R.E.].].V.V.z 2   4 } | 4 X ( C.`.R.U.!.`.Y.!.{.L w ; r Q h.Y ! k.c.L + X e &.B $.Z . O X jXHX",
"JX-XX   O e e.5.X % L .X|.K.G.J.Y.Y.!.!.Q.Y.Y.Y.Y.Y.Y.Y.Y.R.R.R.R.R.R.R.R.R.R.R.R.R.R.R.R.R.R.R.R.R.R.R.R.R.R.R.R.Y.R.R.R.R.R.R.l.U T v.F.H . o S ,.6 . 5 n   +   =XDXAXJXDXGXHXDXDXDXDXDXDXDXDXDXGXJXGXGXGXGXGXJXGXGXDXDXDXDXDXDXDXDXDXGXGXJXJXGXDXDXDXGXGXDXDXDXDXDXDXDXDXDXDXDXHXFXGXHXMXq @ . . ,.q.8.4.0.<Xh   % >XaXbXuXZ.Y.Y.Y.Y.Y.Y.Y.Y.Y.Y.Y.Y.R.Y.Y.Y.J.Y.`._.V.z 1 # & p } | O.o.4 $ Y C.`.!.U.!.!.Y.^.C.r & : = r ( g.U k.c.h., X e 3.C $.Z . O X jXGX",
"JX@X  @ + e =.q.q . l !./.K.H.G.Y.Y.Y.Y.Y.Y.Y.Y.Y.Y.Y.Y.Y.R.Y.Y.R.R.R.R.R.R.R.R.R.R.R.R.R.R.R.R.R.R.R.R.R.R.R.R.R.Y.R.R.R.R.R.R.x.U i.c.Z.y   5 ,.,.2.5   * # O @ -XHXJXHXHXHXGXNXNXNXNXNXNXNXNXDXHXHXHXJXHXHXHXHXHXGXDXDXNXVXVXNXNXNXDXGXHXHXHXHXGXGXGXHXJXDXDXNXNXNXNXNXNXNXNXHXHXFXHXHX=X@   # 6 4.0.q.4.0.>.* . z dXcXcXeXZ.Y.Y.Y.Y.Y.Y.Y.Y.Y.Y.Y.R.R.Y.R.R.Y.].V.t $ X 4 p +.o.o.o.| 4 . t / C.!.!.Y.R.!.R.W.K ; ..%Xc ; y z.U ~ v.x.r   6 3.%.&.d . O   jXGX",
"LXb   @ + 6 $.7.`   ; c.J.J.J.T.J.J.J.J.I.Y.Y.Y.Y.Y.Y.Y.Y.Y.Y.Y.R.R.R.R.R.R.R.R.R.R.R.R.R.R.R.R.R.R.R.R.R.R.R.R.R.Y.R.R.R.R.R.R.c.R u.c.x.r   e $.3.5.>.<     O : b HXHXHXHXGXDXNXNXNXNXNXNXNXNXNXHXHXHXJXHXHXHXHXHXDXDXNXNXNXDXNXNXBXDXGXHXHXHXHXHXGXHXHXHXDXNXNXNXNXNXNXNXNXNXHXHXJXHXHX*X    O a 0.4.q.q.1.e   t yXcXbXiXXXc.Y.Y.Y.Y.Y.Y.Y.Y.Y.R.R.R.R.R.R.R.T.V.r   p } O.o.o.o.} p & . t E x.G.!.!.Y.P.R.`..XP = +X$X+X: 3 f.u.R j.b.F   * C %.,.s . O   jXGX",
"LX@X# O + 6 @.3.1.X X j.K.Q.J.).J.J.J.I.I.Y.Y.!.Y.Y.Y.Y.Y.Y.Y.Y.R.R.R.R.R.R.R.R.R.R.R.R.R.R.R.R.R.R.R.R.R.R.R.R.R.Y.R.R.R.R.R.R.Z.R j.b.h.2 X f q.e.e.4.` .       q BXHXHXGXGXHXDXDXDXDXAXDXDXDXBXGXHXHXGXHXHXGXGXGXDXDXVXDXDXDXDXNXNXDXGXHXHXGXHXHXHXHXHXHXDXBXDXDXDXDXDXDXAXAXGXHXHXGXJX*X@ O - a 4.q.6.<Xs . O B.vXbXnXdXR.c.Y.Y.Y.Y.Y.Y.Y.Y.R.R.R.R.R.R.R.R.].] O p O.O.o.+.p 4 X # 8 l ) s.G.H.Y.!.Y.P.U.`..XP - +X$X%X0 . f.x.u.i.b.J O   s S 3.a . O X lXDX",
"JX*X      5 ,.V &.4 % F l.E.Y.~.J.Q.Q.Y.Q.!.!.Y.R.R.R.R.Y.Y.Y.Y.R.R.R.R.!.!.R.R.!.!.!.!.R.R.R.R.T.E.Y.P.R.'.J.J.L.`.I.H.R.R.Q.Y.J.J Y z.h.1 o s q.7.8.e.0.6       @ jXHXHXDXHXDXNXNXNXNXNXNXNXNXDXGXHXHXHXHXHXHXHXHXGXDXNXBXBXBXBXBXNXDXLXHXHXHXGXGXHXHXJXGXDXDXNXNXNXNXNXNXNXNXJXHXHXHXZXq   = X d 7.4.w.2.@ . K uXcXcXbXuXT.F.Y.Y.Y.Y.Y.Y.Y.Y.Y.Y.R.R.R.R.R.R.[.] $ 4 } p p 4 O ; r F Y v.b.b.T.!.E.E.].`.G.Z.{.J O +X$X$Xk o F n.i.Y d.b.x . X ` 1.6   . # kXDX",
"JXb     O < >.@.$.a . 1 ( F.~.W.J.J.J.Q.Q.Y.Y.Y.R.R.R.R.Y.Y.R.R.R.R.R.R.!.!.R.R.!.!.!.R.R.R.R.R.P.T.R.`.].!.Y.~.L._.R.I.!.].Y.Y.J.h.Y z.g.1 o h q.7.5.8.q.h .   @   X.GXHXHXHXNXDXDXDXDXDXDXDXDXNXDXHXHXHXHXGXHXHXHXDXDXNXNXNXVXNXNXDXDXDXGXHXHXGXHXHXHXHXGXDXDXDXDXDXDXDXDXDXDXHXHXJXFXhX    # X ,.q.<Xq.a @ , (.sXcXcXxX{./.Q.Y.Y.Y.Y.Y.Y.Y.Y.Y.Y.R.R.R.R.R.R.'.D.t .     % $ y F ( l.c.F.Q..X`.].`.!.`.T.U.R.`.h.; c %X$X+X. t f.a.Q a.n.Y %   u ` *   . + CXDX",
"JXb     @ * #.@.$.S . O l z.b.~.Q.K.K.Q.Y.G.Y.!.R.R.R.R.R.R.R.R.R.R.R.R.!.R.R.R.!.!.!.R.R.Y.Y.Y.R.`.I.`.!.E.`.].|.V.L._.I.R.E.P.J.C.Q z.h.2   h q.5.5.4.q.<.<       q GXAXHXHXDXNXNXNXNXNXNXNXNXNXDXHXHXHXHXHXHXHXHXDXNXBXNXDXDXVXAXDXDXDXGXGXHXHXHXHXHXHXGXDXNXNXNXNXNXNXNXNXNXHXHXHXHX*X      6 5.<X2X<.$ 1 z uXxXcXvXaX).C.~.Y.Y.Y.Y.Y.Y.Y.Y.Y.R.R.R.Y.R.R.R.E.].M.l t y F G ~ l.Z.J.I.Y.!.'.T.P.U.R.!.!.T.P.Y.L.8 0 %X$X%X- ; J v.! U s.z.y . . < o   O q GXBX",
"JXb     @ . Z $.V ,.e   ; G z.W.Q.Q.Y.Q.I.G.Y.!.R.R.R.R.R.R.R.R.R.R.R.R.!.!.R.R.R.R.R.R.Y.Y.Y.Y.`.].G.!.I._.}.L r 1 z ).R.R.!.I.J.Y.Y j.l.r   f e.5.5.5.8.<.e +   @ > jXHXDXHXHXVXVXVXVXVXVXVXVXDXDXGXHXHXHXHXHXHXHXDXNXBXNXDXDXNXVXDXDXGXGXHXHXHXHXHXHXHXGXDXNXDXDXDXDXDXDXDXDXHXFXHXBXv O     >.<X1X1XZ . 8 D.iXxXcXvXuX_.J.Q.Y.Y.Y.Y.Y.Y.Y.Y.R.R.R.R.Y.R.R.R.J.'.!.E.x./ v.z.G.G.P.P.L.E.E.E.U.R.'.'.H.G.R.T.J.L.y 7 &X$X$Xc O t k.^ I I n.E ; $   X   # =XLXNX",
"JX*X.   @ . Z $.V &.,.o X 2 J c.W.Q.~.Q.Y.Y.Y.Y.R.R.R.R.R.R.R.R.R.R.R.R.!.!.R.R.R.R.R.R.R.Y.Y.Y.R.R./.'.Y.{.M.2 q q + L R.U.R.Y.Y.R./ a.G.y . 4 e.5.5.7.8.&.g .   # # @XHXGXHXVXNXNXNXNXNXNXNXNXLXGXGXHXHXHXHXHXHXHXGXDXNXNXDXDXNXNXAXDXGXHXHXHXGXHXHXHXHXGXDXNXAXDXAXDXDXDXDXAXHXJXJXb - O . 6 <X<X1X0.a . t XXuXxXnXcX9XR.Y.J.Y.Y.Y.Y.Y.Y.Y.Y.Y.Y.R.R.R.R.R.R.`.Y.I.!.Y.Z.F.K.Y.!.[._.L.P.U.R.Y.G.Y.J.Z.F.!.`.H.T.K + c $X$X&X0 $ _ ^ U I s.z.x ;   X O O kXZXDX",
"GX=X.   O . Z $.C S &.g o O 8 / b.W.~.Q.E.Y.Q.Y.R.R.R.R.R.R.Y.Y.R.R.R.R.!.R.R.R.R.R.R.R.R.R.T.T.R.T.T.!.E.{.z + hX,XO y I.R.C.Y.Y.Y.x.a.K.F $   <.0.5.7.8.&.Z %       q HXGXHXAXNXNXNXNXNXNXNXNXHXGXGXGXHXHXHXGXHXHXGXDXDXDXDXDXAXDXDXDXGXJXHXHXGXGXGXGXGXDXDXDXNXNXNXNXNXVXVXVXGXJXlX  =   . >.q.1Xq.0.5 . z tXdXcXnXxX4XZ.H.Y.Y.Y.Y.Y.Y.Y.Y.Y.Y.Y.R.R.R.R.R.R._.U.U.R.U.R.`.`.W.Q.!.`.`.`.R.I.Y.E.T.`.!.Q.!.T.G.oXV.% 7 %X$X$X+X; r E u.g.^ v.V.2 O @ O O kXZXDX",
"FXjX  O O . Z $.#.V V <.e X O z j.c.J.Q.Y.U.Y.!.R.Y.R.R.R.R.Y.Y.R.R.R.R.!.!.R.R.R.R.R.T.T.T.T.T.R._.[.E.E.D.8 v NX-XO F Q.].L.U.E.Y.F.v.c.L 2   g q.4.5.7.4.%.a       # UXDXAXHXHXHXHXHXHXHXHXHXHXLXDXDXDXDXDXNXDXDXDXGXGXGXGXGXGXGXGXLXLXDXDXDXDXDXDXDXDXDXDXGXJXJXJXJXJXJXJXJXPXCXb   : . e 5.5.1Xq.5.& . ' fXdXxXnXxX4XZ.F.E.Y.Y.Y.Y.Y.Y.Y.Y.Y.Y.R.R.R.R.R.R.U.U.`._.P.E._.E.I.J.I.Y.!.!.R.P.Y.}.}.}.T.H.I.`.J.oX`.w O t.$X$X%Xk + P j./ ^ i.c.H ; . . v FXLXHX",
"SXAX  O O . Z A C $.@.S >.& . o U j.c.Q.!.E.Y.~.Y.Y.R.R.R.Y.Y.Y.R.R.R.R.!.!.R.!.Y.R.R.T.T.T.T.L.C._.XX'.].M.% -XLXb + ( J.!.}.S./.R.!.c.j.h.t   % 0.e.8.5.8.<.,.>     O *XGXMXHXHXHXHXHXHXHXHXHXGXDXNXNXNXDXBXMXMXBXDXGXHXHXHXHXHXHXHXGXDXDXNXBXDXNXNXNXNXDXGXHXJXJXJXJXJXJXJXHXPX,X  X O > ` q.q.2X1X6.  ; ' fXuXxXnXsX4XH.J./.Y.Y.Y.Y.Y.Y.Y.Y.Y.Y.Y.Y.R.R.R.R.A.A.`.`.E.R.`.`.L._.`.R.G.G.Y.'.L.L x x V.`.!.T.~.^.Y.P $ k $X$X$X..@ l f.Q / f.z.] $ ; . = hXJXHX",
"ZXMXO   X . g $.V %.Z C &.A $   r ) d.U F._.' t z ] }.F.G.!.T.F.R.R.R.R.!.!.!.!.R.U.T.L w $ .   $ . 0 3 w .   *XZXq ; l.~.).Q.H.J.Q.T.[.c.z.G -   h <X0.e.4.7.3.h . # O @ hXFXJXHXHXHXHXGXGXHXDXHXDXNXAXDXVXNXAXNXDXDXGXHXHXHXHXHXHXHXGXDXNXVXDXNXDXNXVXNXNXHXHXHXDXHXHXHXGXHXHXMXO   O   e 7.q.<X<Xw.,.X ; D.uXcXsXvXvX}.l.F.P.H.Y.E.R.Y.J.I.L.Y.Y.R.R.R.R.Y.Y.R.R.R.R.R.R.R.R.I.P.!.H.Z.).).'.t X 4 . + ] !. XH.L.R.C.z = c %X%X..= F l.! a.I u.c.y O   @ =XHXHX",
"ZXPX:     . a $.V C Z #.$.&.g   % ( z.U Z.L , ; % 8 V.XX~.[.E.H.R.R.R.R.!.!.!.!.`.'.h.8 O ; 2 9 ; , $ , , : @ @ n X t Z.'.!.I.!.Y.Y.Y.`.Z.c.V.t o   2.7.4.=.<.C #.e . - O X.JXGXLXHXGXDXHXHXHXHXHXDXNXAXDXVXNXDXNXDXDXGXHXHXHXHXHXHXHXGXDXNXVXDXNXDXNXVXNXNXHXHXDXHXGXHXHXHXDXHXq o   O o >.8.q.<X6.q.#.: ; D.uXvXxXsXxX7XZ.J.`.E.E.E.U.R.P./.T.Y.Y.R.R.R.R.Y.Y.R.R.R.R.R.R.R.R.R.E.!.Y.`.U.).y.+ 6 e.h + K I.R.Y.C.R..XM.8 = c ..0 ; F j.U i.T a.z.l O     =XJXHX",
"CXJXk X   . 5 #.V #.Z Z C &.>..   x g.! ( 8 O *Xb - H ).J.).T.R.R.R.R.R.R.R.!.R.A._.K $ w N M M M M M M M M M m   O L !.].!.L.!.!.E.J.!.H.L.rXM.$ X X h S A B B &.Z $ . # q mXJXHXHXJXJXHXHXHXHXHXDXNXAXDXVXNXDXNXDXDXGXHXHXHXHXHXHXHXGXDXNXNXDXNXDXNXVXNXNXHXHXHXHXHXHXHXHXDX=X  X   % f 0.q.<X5.4.q.d X 1 :XuXpXbXvXcXrXG.I.`.T.R.I.x._._.`.Q.R.Y.R.R.R.R.R.R.R.R.R.R.R.R.R.R.U.R.T.!..XH.).t   e.;.r.  l Z.A.!._.R.!.T.L y 1 = 1 y ( k.! U T ~ z.F +   # =XHXHX",
"NXHXb       % Z A ,.a e %.$.>.e   + h.z.( ; q GXlX> r L.Q.`.`.Y.R.R.R.R.R.R.R.R.W..XB.; w N M M M M M M M M N i X t l.Y._.!.P.R.!.I.J.!.I.E.uXqXN.;   o g 1.4.B B %.e . O O v BXHXHXHXHXHXHXHXGXHXDXNXAXDXVXNXDXNXDXDXGXHXHXHXHXHXHXHXJXDXNXNXDXNXDXNXVXNXNXHXHXGXHXHXHXHXDX=X# X @ . 6 <.1X6.,.4.7.<Xa . 8 0XrXiXvXcXcXuXY.J.G.H.E.`.A.`.I.F.W.R.R.R.R.R.R.R.R.R.R.R.R.R.R.R.R.A.R._.T.Q.J.V.+ j 9.;. .X K x.A.R.].Y.x.I.'.C.F F G Y ~ ~ U I T ! z.F +     v FXHX",
"NXHX-X    O . h $.Z * < ,.B %.Z X O ( f./ 9 > lXmXq ; S.!.Y.T.Y.R.R.R.R.R.R.R.R.U.`.|.x @ X + t 9 3 y y % # + @ = G l.Z.E.T.!.P.!.J.I.[.P.F.XXvXdXD.2   & >.2X<X3.<.g $ . #   n GXDXHXHXDXDXHXHXHXDXNXAXDXVXNXDXNXDXDXGXHXHXHXHXHXHXHXJXDXNXNXDXNXDXNXVXVXNXHXHXHXDXHXGXNXjX      7 . %.w.2.< a 0.q.1.* . y rXqXcXxXiXbXuXZ.J.'._.L K K _.R.J.~.R.R.R.R.R.R.R.R.R.R.R.R.R.R.R.R.A.R.`.T.W.!.H X r.;.9.j . P Q.Q.Y.I.H.H.Y.!.G.j.z.k.k.! U U U R ~ c.F . @   @ GXHX",
"AXGX=X    O . a =.Z . * ,.B $.,.* . P f.a.r   kXSXb + L T.J.E.Q.R.R.R.R.R.R.R.R.A.A.[.D.z > O 1 ; O $ . X 0 v ; 8 / Z.Y.R.L.`.A.!.J.I.).P.F.H.xXcXtX(.2 . . h 3X2X1X6.e .   @ X v jXHXBXHXHXDXHXHXDXNXAXDXVXNXDXNXDXDXGXHXHXHXHXHXHXHXJXDXNXNXDXNXDXNXAXNXNXHXHXHXHXHXGXNX> @ # . > ` 1X4.$ $ 1.0.q.>.X $ ' tX0XcXsXcXbXuX{.U.V.t 1 @ . l ).`.L.R.R.R.R.R.R.R.R.R.R.R.R.R.R.R.R.R.R.`.T.^.).3 & :.9.e.a , J ~. XU.F.Y.!.Y.E.E.F.! ! ! ! s.j.~ E a.c.y . :   @ HXHX",
"FXPXkXX   O O 5 &.Z * * >.$.V &.5 $ l z.z.y   UXVX-XO z [.'.!.Y.R.R.R.R.!.!.!.!. X X X.XJ.k.Q G J K 8 O b CX#X@ F c.R.].R.I.`.I.T.Y.J.T.R.H.Z.XXaXdX0XyXz $ . 4 1.2X2X3Xe .   o #   *XHXHXNXHXHXHXDXNXAXDXVXNXDXNXDXDXGXHXHXHXHXHXHXHXGXDXNXNXDXNXDXNXVXNXNXHXHXDXHXNXHXb #   @ % h 1X1.6 % 3X2X5.q.f O 3 (.fXuXvXdXiXnXvXuX' 8 O n @Xv 1 M.{.'.Y.R.Y.Y.R.R.R.R.R.R.R.R.R.R.R.R.!.U._.R.'.] $ j 9.;.r.X t h.C. X_.J.Q.E.H.!.'.F.E U Q I U R E W v.c.y O     v DXHX",
"LXPXkXo   - O o B ` * . >.3.V &.f % t h.d.P # @XJXmX+ 8 C.).E.!.R.R.R.R.!.!.!.!.|.R.!.L.L.c.~ h.~ Z.G ; b *X& i g.F.!.).Z.H.).I.T.Y.F.F.R.L.R.Z.4XvXnXxX:Xn + + o >.2X2X2Xf . .     @ v kXHXLXHXHXDXNXAXDXVXNXDXNXDXDXGXHXHXHXHXHXHXHXGXDXNXNXDXNXDXNXVXNXNXHXHXHXHXGXn         ` e.e.g + [ 2X<.0.4.% = z 0XtXiXvXxXvXbXcXN.1 : -XSXSX*X. z V.Q.Y.Y.Y.Y.Y.R.R.R.R.R.R.R.R.R.R.R.Q.U.A.I.).x * 0.;.;. .X F K._.A.}.F.F.P.J.!.T.z.Y Y Y j.a.U Q Q v.j.y O     -XHXHX",
"HXHXGXb         a 3.e   v 1.B =.a # r V.d.U # > DXJXb . K `.Q.Q.R.R.R.R.R.R.R.R.R.R.R.!.R.G.l.h.G W Y x = = t Q C.G.U.!.`.!.!.R.`.Y.H.I.R.`.T.^.U._.iXnXcXuXM.t .   >.1X2X2X2.,   o O     =XDXZXGXGXGXJXHXHXHXVXHXHXJXVXNXDXNXMXNXDXJXDXDXHXHXGXJXHXJXHXHXGXAXBXJXkXq     . $ n q.5.6.$ . 3X<X6.<X .X + D.tX7XvXvXxXcXcXIXu   kXJXHXFX0 @ P K. XR.R.R.R.R.R.R.R.R.R.R.R.R.R.R.R.|..X!.`.D.= j ;.;.e.o - P c.F. XR.I.R.E.Z.Y.Q.c.E U ! s.i.I I I k.k.r X * $ =XSXAX",
"HXHXHX=X  @   # 5 ,.g o * #.$.3.a # 8 ( d.j.t + hXNXkX  % ).!./.R.R.R.R.R.R.R.R.R.T.R.!.`.`.R.P.C.c.k.E J J W ^ Z.G.Y.!.!.!.R.Y.Y.Y.R.R.U.P.Y.~.`.C.).dXbXxXdXD.8 . * 3X2X1X2X<Xn .   O   O v UXCXGXJXJXLXLXHXJXHXHXHXNXMXNXDXBXNXNXNXDXDXHXHXGXHXHXHXGXJXHXGXDX=X> O -   . e 6.q.e.<X< < 2Xq.q.6.5   u qX5XuXvXvXsXbXcXn . =XGXHXJXb O r C.'.~.R.R.R.R.R.R.R.R.R.R.R.R.R.R.R.R.U.H.I.).8 X r.;.;.*.. 8 h.R.!..XR.I.Y.I.G.Y.I.x.Q R s.U R T I s.z.J ,     $ UXGXAX",
"DXHXGXDXq       . ,.%.e   s &.&.a O ; ( f.v.P ; @XLXZXn O l `.XXR.R.R.R.R.R.R.R.`.!.!.!.`.'.`.!.].T.C.a.! ^ k.x.I.U.R.!.!.R.Y.U.Y.Y.I.I.I.Y.Y.W.Q.Y.x.XXxXnXvXuXN.1   f 1X<X1X2X2Xh o   - :   @ f b =XDXHXLXFXHXHXJXAXBXNXFXGXDXMXNXDXFXHXHXHXGXZXZXJXJXJXVX-Xb   - 7 O . 6 <.w.5.q.4.2.6.q.-.7.g . % >XuX:XvXdXsXcXbX>X. b CXSXSX*XO 8 ( I.[.`.R.R.R.R.R.R.R.R.R.R.R.R.R.R.R.R.U.A.A.M.. j 9.9.9.j % P E.P.U.F.R.I.E.Y.Y.Y.F.j.Q R a.I u.R Q z.j.l ;     n NXBXAX",
"HXHXHXHX*X  #   + Z &.C f h %.=.s   7 ( f.i.~ t X PXLXBXq 1 L P.R.R.R.R.R.R.R.R.!.!.R.R.!.`.R.R.J.`.}._.G.G.T.[.Y.R.!.!.!.R.U.I.!.R.E.C.I.!.!.Y.G.Y.H.J.{.vXpXxXfX' >   >.<Xq.q.2X2Xg   =     O   @   > b BXHXFXHXGXJXHXDXBXBXNXMXDXGXNXBXJXHXHXFXCXmX@Xq > O = O O . . h 6.5.e.` a 4.q.5.w.0.s o $ B.tXyXxXxXvXxXcXpX. v SXGXGX-XX r L T.I.I.).R.R.R.R.R.R.R.R.R.R.R.R.R.R.R.R.L.A.|.x 5 e.;.9.j * y v.'.S.U.R.Y.I.I.Y.Q.J.x.E R E T E u.Q ~ c.( 1 O % @ *XJXNXVX",
"JXJXHXDXkX      . a @.@.,.f g =.B   - G z.U k.G . n GXGX-XO y R.R.R.R.R.R.R.R.R.P.P.U.R.`.`.!.U.K.J.R._.T._.!.!.!.!.!.!.R.R.U.U.Y.!.!.P.G.Y.R.T.`.V.|.I.Z.eXxXsXfXgXq . e 7.q.q.<X2X1.. -   . $ @ O O O - q b jXFXGXGXDXAXDXDXNXJXDXAXJXJXJXNXjX@Xv q O O : O O   o . h 5.5.1XC X 5 4.q.8.0.>.  . z fXtXuXcXcXvXbXnXv + UXGXGXjX0 , Y Q.[.Y.I.S.R.R.R.R.R.R.R.R.R.R.R.R.R.R.R.R.}.`..Xl e w.w.*.  2 ( b.`.I.Y.].Y.I.I.Y.Q.F.j.R a.E I a.! U c.x.y O   . @ -XHXGXAX",
"GXHXHXHXVXq   : . 6 B @.C . $ =.%.o O y b.s.d.E r O @XlX@X: 1 `.R.R.R.R.R.R.R.R.R.R.R.`.`.`.R.P.XX'.!.Y.E.T.Y.Y.!.!.!.!.R.R.R.Y.Y.!.T.P.Y.!.V.] w $ 1 l Z.I.fXcXaXuX' % * 1.7.8.<Xw.2Xq + >.>.5 . . . O O     o > b =XkXkXMXNXBXMXjXkX=Xb q   @ O   @ @ . # . . . f 6.q.e.5.6.e X 1.q.<X7.s . - x yXtXdXcXpXbXxXbXB.+ @XGXSXGXq O J k.].T.I.Y.P.R.R.R.R.R.R.R.R.R.R.R.R.R.R.R.R.!.W.~.P i s j 4 r L J.F.E.H.H.T.I.Y.Y.Y.I.x.E R R T I R ! k.I.L , @ @ # v lXHXBXAX",
"DXHXGXHXFXn   @ O * Z =.B 5 * 3.=.6   2 x.f.T d.J 8 O : . 1 H I.R.R.R.R.R.R.R.R.'.`.!.!.!.!.R.P.|.L.`.`.`.R.E.U.!.!.!.R.R.R.!.!.!.!.T.Y.'.`.L t & 4 & ; V.Z.4XcXbXqX:X;   g <X8.5.e.2X*X. >.1X3X` e $ .   #             q v v q q :     #       O   o . . o e h 3X1X5.e.4.4.5.,.2.<X<X` 6 o $ z (.uXaXvXiXbXpXbXIX9 . BXCXJX*X. l F.x._.U.I.P.!.R.R.R.R.R.R.R.R.R.R.R.R.R.R.R.R.R.Q.W.C.L r 1 , L H.Y.G.I.I.U.Q.Y.R.Y.I.H.j.U R U T T U ^ c.( t X .   q jXLXJXAXVX",
"HXHXFXHXHX*X@   =   a 3.S 2.j $.=.f   $ ( z.J d.k.L r % t P / F.R.R.R.R.R.R.R.R.!.U.P.P.U.!.`.`.R.R.I.I.R.R.R.R.!.!.R.R.R.!.!.!.H.!.'.'.~.S.z + } ..p X r Z._.pXnXuX4Xz O   <X5.4.4.<X-X* a w.5.1X0.1.f     O O #     @ @     @     @             . * g 2.1.<X2X2X2X1X1Xq.q.5.<Xq.=.a & : . K rXuXfXvXcXiXxXvXvX-X. n GXGX=X. > d.G._.A.A.R.J.T.R.R.R.R.R.R.R.R.R.R.R.R.R.R.R.R._.L.[.A.A.h.y.C.W.W.G.R.I.G.L.W.Y.!.Y.I.F.u.I a.R T a.U d.F.F , X % # c HXJXHXFXVX",
"HXHXHXHXGXDXq >   O . ,.@.&.%.C &.%.X O r / ! u.k.z.j.h.i.~ c.).R.R.R.R.R.R.R.R.R.R.R.R.R.R.R.R.R.R.R.R.R.R.R.R.R.R.R.R.R.R.R.R.Y.I.Q.[.Y.( o & +.o.} $ 2 I.H.{.cXIXiX] ; X >.<X8.5.7.<.a #.0.0.8.%.,.1.1.` e % O O O O O O O O = O O   . $ 5 a h %.8.q.q.<X2X1Xw.w.<X1X2X3X2.h q *   . 1 B.uXfXxXsXcXxXxXcXxXcXyX> 0 hX-XO 1 L I.I.I.I.E.E.R.R.R.R.R.R.R.R.R.R.R.R.R.R.R.R.R.R.R.R.R.R.R.Y.Y.Y.G.I.Y.R.R.Y.Y.Y.I.R.E.C.v.s.! U i.T T a.c.P % X   O q jXHXDXHXAXDX",
"JXDXDXHXHXNXn   X O . Z V A A #.&.,.a   1 l W.f.~ f.a.g.p.s.F._.R.R.R.R.R.R.R.R.R.R.R.R.R.R.R.R.R.R.R.R.R.R.R.R.R.R.R.R.R.R.R.R.R.G.~.!.R.H   p o.o.p % t Z.H.T.uXbXpX8X1 X 6 6.e.8.4.0.5.q.q.4.* o   o e >.<X4.#.d a 6 5 * $ . . $ 6 h >.1.6.<X0.0.0.0.0.2X<X<X<X0.<.` g 5 X X X   , ' :XaXxXnXsXsXsXsXsXcXbXbXuXz $ # + 2 P T.I.I.I.I.E.R.R.R.R.R.R.R.R.R.R.R.R.R.R.R.R.R.R.R.R.R.R.R.R.Y.Y.Y.Y.Y.R.R.Y.Y.Y.Y.R.I.K.x.a.T E g.u.I ~ c.( t .   #   -XFXDXHXDXDXDX",
"BXMXMXMXDXHXMX> o O . e %.V B $.S A %.6   ; y.z.R s.~ i.T s.J._.R.R.R.R.R.R.R.R.R.R.R.R.R.R.R.R.R.R.R.R.R.R.R.R.R.R.R.R.R.R.R.R.U.P.'.Q.).t X ..o.o.p # l c.I.C.eXxXiX9XD.%   5 4.1Xq.8.8.4.7.5.h h h h 6 < ,.0.q.q.0.q.0.0.6.3.6.4.6.0.q.5.q.<X0.q.2X<X2X<X1X<X>.a .   . . ; 1 u ' >XxXxXxXsXbXaXxXcXnXbXvXaX0X}.h.F r t ( Q.G.I.I.I.I.Y.R.R.R.R.R.R.R.R.R.R.R.R.R.R.R.R.R.R.R.R.R.R.R.R.Y.Y.Y.!.!.R.Y.Y.Y.Y.I.`.F.v.s.u.Y Y / U k.b.h.t .   .   b GXDXNXBXDXHXHX",
"BXDXGXNXBXDXNX>   O @ % ,.C A A S B &.C     2 h.j.s.! i.i.a.F._.R.R.R.R.R.R.R.R.R.R.R.R.R.R.R.R.R.R.R.R.R.R.R.R.R.R.R.R.R.R.R.R.U.T.!.W.V.* 4 o.o.o.4 + G F.Y.I.].xXbX5X{.z . . . ` 3X<X1Xq.<Xq.q.q.q.1X<X6.<X6.5.7.q.<X1X1Xq.8.q.q.0.5.7.q.<X1X1X<Xq.1X<X1X<Xa % .   + 9 x ' N.5XaXvXnXnXnXsXxXcXvXbXvXdX9X`.Z.x.H.I.V.S.!.Q.c.Y.Y.I.Y.Y.R.R.R.R.R.R.R.R.R.R.R.R.R.R.R.R.R.R.R.R.R.R.R.R.R.Y.Y.!.!.Y.Y.Y.Y.Y.I.I.v.~ s.u.Y Q U ~ F.V.l +       q GXDXBXDXMXNXHXHX",
"HXNXNXDXBXAXHX=X    O . ` &.$.C S #.$.$.Z o . t C.v.! i.u.R x.T.R.R.R.R.R.R.R.R.R.R.R.R.R.R.R.R.R.R.R.R.R.R.R.R.R.R.R.R.R.R.R.R.R.!.Y..XH X p o.o.o.& ; J Q.Y.Y.x.aXnXuXeXaXB., - O . 6 s Z h h >.>.Z Z >.,.<.0.q.q.q.1X2X2X<X7.8.4.4.5.<X1X<Xq.<X<Xq.8.q.1.o X $ 9 ' N.:XaXvXvXvXdXiXpXcXcXcXbXnXxXfXwX`.Z.Z.E.F.Y.R.Y.I.C.P.J.Y.Y.R.R.Y.R.R.R.R.R.R.R.R.R.R.R.R.R.R.R.R.R.R.R.R.R.R.R.R.R.Y.Y.!.Y.I.I.Y.R.I.H.v.~ U i.u.E ! ^ v.L r + O     v kXMXBXAXNXDXMXHXHX",
"MXMXDXGXAXBXBXMXq     . a ,.$.C C #.#.S 3.s . O M.x.~ E g.U j.Y.R.R.R.R.R.R.R.R.R.R.R.R.R.R.R.R.R.R.R.R.R.R.R.R.R.R.R.R.R.R.R.R.R.Q.Y..Xt X } o.o.} X t W Q.H.U.C.4XbXiX5X7XyX(.9 $ $ % . .   : o . . . o o o 6 s >.<X1X0.4.4.e.5.4.5.<X1X<X5.6.6.6.3.<X<.< # = H D.uXaXiXsXcXcXcXxXxXiXdXxXvXvXuX4XR.I.H.Z.P.).J.T.T.I.I.L.L.I.Y.Y.Y.Y.R.R.R.R.R.R.R.R.R.R.R.R.R.R.R.R.R.R.R.R.R.R.R.R.R.R.Y.Y.R.Y.G.I.Y.Y.H.Z.! R p.p.R ~ d.k.F r .   X   @ =XHXjXGXDXNXNXAXDXHX",
"VXFXGXBXNXDXGXHX*Xo   O * $.$.C $.Z Z ,.V &.< O l V.z.E g.U j.Y.R.R.R.R.R.R.R.R.R.R.R.R.R.R.R.R.R.R.R.R.R.R.R.R.R.R.R.R.R.R.R.R.E.Y.!.V.1 4 +.o.+.4   P v.Q.!.A.Q.Z.0XbXaXrXyX8XpXD.' t 8 + O = . % $ ; + + - = . . * g 1.q.q.-.5.5.5.q.5.4.4.5.q.q.<X` . $ 1 B.9XuXiXsXcXbXcXiXxXxXcXsXvXxXfX4X~.I.C.C.E.`.R.I.I.E.E.P.P.U._.A.Y.Y.Y.R.R.R.R.R.R.R.R.R.R.R.R.R.R.R.R.R.R.R.R.R.R.R.R.R.R.R.R.Y.!.Y.I.Y.Y.H.c.j.U i.g.T ! s.Y H 1 .   X     # MXBXJXHXNXNXMXGXGXHX",
"DXNXVXAXJXMXMXDXkX* @ = . d $.C @.D e >.B $.s O 1 V.c.E u.T j.Q.R.R.R.R.R.R.R.R.R.R.R.R.R.R.R.R.R.R.R.R.R.R.R.R.R.R.R.R.R.R.R.R.T.E.'.z $ p O.o.| .   ( b.Q.'.L.W.z.9XIXbXaXfX9X6XeXtXuX:X2 . . &   u >X:XD.M.l - = . . 5 h 6.<Xq.q.5.8.8.8.e.e.q.4.a X - ; ' 8XnXnXvXdXaXsXxXvXbXpXcXbXvX7X).V.C.!.`.Y.G.H.Y.Y.`.J.Y._.L.I.R._.Y.Y.R.R.R.R.R.R.R.R.R.R.R.R.R.R.R.R.R.R.R.R.R.R.R.R.R.R.R.R.R.Y.`.R.Y.Y.Y.H.l.W R p.Y U f.s.F ; X   * o X X O pXMXGXNXAXNXDXDXHXHX",
"DXDXDXDXDXDXDXDXMX:   O @ % >.%.,.a X b ,.@.%.6 $ t b.z.T U g.Q.!.Y.E.E.T.!.!.Y._.A.Z.U._.T.L.E.R.R.R.R.R.R.R.R.R.R.R.R.R.R.R.R.R.!.|.1 X ..o.+.q X l k.c.'.!.I.I.F.!.tXbXPXnXuXiXuXtXpX>X: X N M w = ] pX{.uXpXuXD.z % .   X q ,.1.6.6.5.6.6.1.h < . + x >XiXuXaXxXbXbXbXxXxXsXbXbXxXtX].F.c.c.Y.Y.Y.Y.Y.Y.Y.Y.R.R.R.R.Y.Y.Y.Y.R.R.R.R.R.R.R.R.~.|.`.Z.L.}.~.[.I.Y.T._.U.S.).Q.R.T.!.!.!.!.R.Y._.R.I.J.K.c.u.I W Q ! f.f.J 1   % d s   # O = kXDXNXNXDXNXMXDXHXHX",
"BXBXBXBXBXBXNXNXHX*X@ @ # . e %.&.d X * ,.V &.` . 1 j.n.T U j.Q.!.!.`.!.!.!.R.G.L.`.`.R.E.T.`.'.R.R.R.R.R.R.R.R.R.R.R.R.R.R.R.R.U._.K   p o.o.| & 8 J c.J.`.`.I.G.F.I.4XdXbXvXiXnXxXdXsXsX> $ N M N ,   N.bXfX0XgXuX:XM.z 2 . #   & 5 6 6 6 5 o o . r ' (.uXsXpXsXsXsXsXsXpXcXbXdXrX}.L.G.H.Y.Q.Y.Y.Y.Y.Y.Y.Y.Y.R.R.Y.Y.Y.Y.Y.Y.R.R.R.R.R.R.R.R.C.[.A.R..XT.E.`._.`.!.T.A.A._.Q.T.T.R.R.R.Y.U.Y.R.R.Y.F.x.j.i.U R Q R d.I l . * g #.a # O O v BXNXBXNXDXNXMXNXHXHX",
"NXNXNXNXNXNXNXNXAXjX# O O . . h &.,.5   g $.$.,.$ + J b.i.U g.J.Y.!.!.Y.Y.!.!.!.].'.!.T.Y.Y.Y.Y.R.R.R.R.R.R.R.R.R.R.R.R.R.R.R.R.)._.w & +.O.| 4 O G ~ G.'.E.!.I.H.J.I.T.4XaXvXcXnXcXvXbXbXv X i M M m   8 pXbXaXsXiXuXqXuX:X' x O # @ X       O u [ :XtXtXiXcXnXxXxXsXiXaXvXvXcXXXR.C.x.Z.Y.!.!.Y.Y.Y.Y.Y.Y.Y.Y.Y.Y.Y.Y.Y.Y.Y.Y.R.R.R.R.R.R.R.R.P..XR.L.] x 9 z ] U.!.!.Z.A._.!.!.!.R.T.U.U.I.I.R.Y.H.x.j.E R a.! Y W a.F ; X s ,.%.* - O   *XHXDXDXDXDXDXNXDXHXJX",
"GXGXGXGXGXGXGXGXJXJXn # O # . f &.&.h   o Z $.&.6   l K.j.U R b.Y.Y.Y.Y.I.J.Y.!.Q.Q.Y.Y.Q.!.R.I.R.R.R.R.R.R.R.R.R.R.R.R.R.R.R.R.Q._.1 & } } 4   y ~ ^ /.].G.E.I.H.R.R.Z.Z.{.aXbXvXdXnXbXbXkX0 , N M M m + x jXbXxXvXcXpXyX0XrXtX7X(.M.K H ] D.(.:XuXuXfXaXxXbXcXxXvXxXsXxXvXuX:XH.H.H.J.J.I.I.P.Y.Y.Y.Y.Y.Y.Y.Y.R.R.R.R.R.R.R.R.R.R.R.R.R.R.R.R._.Y.'.K O &   X 8 h.Y..XI.U.`.'.!.!.R.R.Y.Y.Y.R.Y.H.x.j.E T R a.s.R W G r   6 ,.&.Z $ = #   *XGXHXHXHXHXHXGXHXHXDX",
"HXHXHXHXHXHXHXHXJXFX=X  O O     D C <.6 . e 3.&.f   t K.z.R U x.!.Y.!.'.!.Y.G.P.J.~.'.!.Y.!.R.P.R.R.R.R.R.R.R.R.R.R.R.R.R.R.R.R.K.T.l . X X $ 2 Y ~ x.T.Q.H.L.U.I.R.R.H.c.Z.4XxXbXbXnXsXiXbX[ , m M M N w   n aXcXcXcXcXdXuX6X}.qX0XuXuXuXuX0XqX4XeXgXxXbXcXcXsXcXiXnXvXxX6XT.Z.I.R.!.!.H.G.I.R.Y.Y.Y.Y.Y.Y.Y.Y.R.R.R.Y.Y.R.R.R.R.R.R.R.R.R.R.R._._.|.9 . m m 3 % J x.'.R.U.`.`.R.R.R.R.R.!.!.!.J.c.j.E T R R R i.s.W r @ & h &.@.s ; O @ o =XHXHXHXHXHXHXHXHXGXNX",
"HXHXHXHXHXHXHXHXGXJXMX  @ @     e %.$.h .   <.=.g X ; x.b.u.~ x.'.Q.I.Y.!.`.'.[._.S.V.).`.R.I.T.R.R.R.R.R.R.R.R.R.R.R.R.R.R.R.R.}..XF.F r 8 l J ~ j.T.R.J.!._.R.Y.E.R.R.J.H._.{.gXvXbXcXvXPXkX0 % m M M N 3 . n bXbXcXaXdXaXaXaX9X5X5X5X5X5X6XeXyXaXdXvXvXxXxXxXcXcXcXdXqXT.Z.b.P.E.Y.R.Y.Y.I.I.Y.Y.Y.Y.Y.Y.Y.Y.R.R.R.R.R.R.R.R.R.R.R.R.R.R.R.R.I.4Xx   i M N w % J T /.T.R.R.E.U.R.R.!.!.R.Y.I.c.v.E W T R R R i.s.J ; X < C @.#.% ; @   v CXJXHXHXHXGXJXHXGXDXDX",
"HXHXHXHXHXHXHXHXJXHXLXn @ @     < ,.V ,..   Z =.D X O ( b.T ! h.Y.!.J.C.Y.].[.|.K t t K |.R.!.'.R.R.R.R.R.R.R.R.R.R.R.R.R.R.R.R.U.E.^.h.Q Q Y p.a.C.`.Y.E.`.R.R.I.Y.R.!.R.J.F.G.|.4XaXdXbXPXJX-X# , N M M N , O >XcXvXvXbXvXvXcXsXiXuXiXuXuXuXuXdXvXxXpXiXbXvXcXcXxXiX{.L.I.Y.J.G.G.Y.R.`.R.I.A.Y.Y.Y.Y.Y.Y.Y.Y.R.R.R.R.R.R.R.R.R.R.R.R.R.R.R.R.I.).O . N M m   t / U /.T.U.I.I.Y.Y.!.!.R.H.C.C.u.i.T T T R R R i.E F +   e S @.Z . + X   *XJXPXHXHXHXGXHXHXGXBXDX",
"HXHXHXHXHXHXHXHXGXJXLX=X  @     # B =.,.#   ` &.Z X   J b.I U p.C.~.~.G.T.].V.F $   O ; H E..X!.R.R.R.R.R.R.R.R.R.R.R.R.R.R.R.R.A.A.T.K.z.z.k.x.C.`.Y.H.).).H.I.P.R.`.E.P.G.F.b.G.c.[.{.;XiXrXiXn - , M M M m   y >XxXbXnXiXcXcXvXcXxXvXvXcXsXxXbXbXbXbXbXbXxXbXvXuX{.Z.c.Z.Y.T.J.J.Y.Y.R.R.U.U.Y.Y.Y.Y.Y.Y.Y.Y.R.R.R.R.R.R.R.R.R.R.R.R.R.R.R.R.{.h.% w M M 3 O x k.! ^.}.E.A._.I.Y.!.!.Y.C.l.g.I T i.i.T U R ~ f.( t ; . f &.=.6 = O X   =XLXHXHXHXHXHXHXHXHXNXNX",
"HXHXHXHXHXHXHXHXHXDXBXNXq       . g &.*.5 + h @.S * . H c.z.a.U v.J.E.R.R.V.2 @ a <.j o w V.{.U.R.R.R.R.R.R.R.R.R.R.R.R.R.R.R.R.R.R.R.R.R.R.R.R.R.R.R.R.R.R.R.R.Y.Y.R.R.R.Y.Y.Y.Y.Y.Y.Y.Y.Y.Y.Y.J.z X o m N m $ l y.{.tXfXvXbXnXxXxXcXbXcXiXiXxXbXpX] B.*XUXnXxXwX!.T.L.C.T.'.F.Y.!.Q.I.I.Y.R.I.I.I.I.Y.Y.Y.R.R.R.R.R.R.R.R.R.R.U.U.R.R.R.T.T.T..Xy . N M N $ O f.T /.`.E.R.R.R.I.I.R.I.F.v.u.T i.i.i.R R R R R _ p.x $ . ` V d >   @   v DXHXGXHXHXHXHXHXHXHXNXNX",
"HXHXHXHXHXHXHXHXHXGXMXHX=X  # # + 5 B &.h . e &.,.5 . l c.z.R U !  XW.`.] 1 o  .:.w.j X t J.Q.[.R.R.R.R.R.R.R.R.R.R.R.R.R.R.R.R.R.R.R.R.R.R.R.R.R.R.R.R.R.R.R.R.R.R.R.R.Y.Y.Y.Y.Y.Y.Y.Y.Y.Y.Y.Y.'.V.F , .   . . Y l.H.G.T.wXfXdXbXnXnXnXnXbXbXbX[ > O @ : O $ t F P L V.V.S.!.Q.Y.!.!.I.E.R.R.E.I.I.Y.Y.Y.R.R.R.R.R.R.R.R.R.R.R.U.U.R.R.T.T.T.T.^.3 & N M m X t z.i.G.`.E.R.R.R.I.R.Y.Z.l.i.i.u.i.i.i.R R R R R ~ I t . . h V d # @     b HXHXGXHXHXHXGXHXHXGXBXDX",
"HXHXJXJXGXGXHXHXHXHXNXVXGXq       . s &.%.s s &.,.a . r C.j.U U Q m. XV.t X  .;.9.*.& . K  XK.`.R.R.R.R.R.R.R.R.R.R.R.R.R.R.R.R.R.R.R.R.R.R.R.R.R.R.R.R.R.R.R.R.R.R.R.R.R.R.Y.Y.Y.Y.Y.Y.Y.Y.Y.Y.~.~.G.P r 2 t l U z.F.F.F.!.].].rXuXaXaXaXuXyX(.. > ,XhX=Xn : X + ; % % % 1 l V.E.R.R.E.E.R.R.E.I.Y.Y.Y.R.R.R.R.R.R.R.R.R.R.R.R.U.U.R.R.R.R.T.T.M.$ 3 M M i X H z.j.G.`.E.R.R.R.R.I.x.g.T T T u.i.i.i.R R R R R f.J 2 O   d V s .       =XHXHXHXHXHXHXGXHXHXGXDXDX",
"HXHXHXHXHXHXHXHXHXHXNXjXGX-X      . 6 %.B %.,.C ,.g   1 h.v.U i.Y p./.t   j 9.;.-.4 = F V.[.R.A.R.R.R.R.R.R.R.R.R.R.R.R.R.R.R.R.R.R.R.R.R.R.R.R.R.R.R.R.R.R.R.R.R.R.R.R.R.R.R.R.Y.Y.Y.Y.Y.Y.Y.Y.W.!.].`.H.k.k.z.l.G.Q.I.H.I.Y.E.Z.I.Y.R.Y.G.x.g.. q CXGXJXJXVXlX-X@XX.X.X.q ; x G.Y.R.U.U.R.R.P.Y.Y.Y.Y.R.R.R.R.R.R.R.R.R.R.R.R.U.U.R.R.R.R.T.T.K , i M M w . J z.j.P._.E.R.R.T.Y.x./ Q T R R U i.i.i.R R R R R s.G , = * d B 6       > MXGXHXHXHXHXHXHXHXHXHXGXNX",
"HXJXJXHXHXHXHXHXHXVXBXDXHXDXq O & O . D B &.S D &.h o % P c.U u./ c.P - 4 9.;.r.3 = y.k.A.).{.A.R.R.R.R.R.R.R.R.R.R.R.R.R.R.R.R.R.R.R.R.R.R.R.R.R.R.R.R.R.R.R.R.R.R.R.R.R.R.R.R.Y.Y.Y.Y.Y.Y.Y.Y.Y.I.I.`.].!.J.F.L.T.`.U.G.P.R.R.I.J.G.I.I.G.Y.'.t O v *XMXJXJXFXJXGXCXGXSX@X+ 1 /.E.T.U.R.R.R.P.R.R.R.R.R.R.R.R.R.R.R.R.R.R.R.R.R.R.R.R.R.R.`.`.' . i N N > % p.s.j.E._.U.!.Y.Y.c.j.Y I T u.R U T R R R R R R R i.y . = 6 C Z % @     *XDXLXDXHXHXHXHXHXHXGXHXHXDX",
"DXDXDXDXDXDXDXDXNXGXGXHXHXHXb     = O e &.A C B A Z * . y x.s.g.d.) y    .;.9.p + l b.k._.T. X^.R.R.R.R.R.R.R.R.R.R.R.R.R.R.R.R.R.R.R.R.R.R.R.R.R.R.R.R.R.R.R.R.R.R.R.R.R.R.R.R.Y.Y.Y.Y.Y.Y.R.R.P.R.R.I.L.L.U.H.G.U.!.!.Y.I.H.H.Y.E.R.`.T.G./.!.C.y ; @ 0 b -X,XkXlXkX=X*Xq ; 2 C.P.Y.U.R.R.R.P.R.R.R.R.R.R.R.R.R.R.R.R.R.R.R.R.R.R.R.R.R.R.`.`.K X i M N O ; u.~ j.E._.U.!.G.x.E i.E E T T R E T R R R R E E ~ Y t . X a $.g .     q MXDXHXNXGXDXDXDXDXDXNXDXHXJX",
"NXNXNXNXNXNXNXNXMXHXHXFXFXHXkX> . - O * #.%.C $.V ,.e   r l.k.p.f.F , 5 :.;.r.  x / ) c..X~.K.Q.R.R.R.R.R.R.R.R.R.R.R.R.R.R.R.R.R.R.R.R.R.R.R.R.R.R.R.R.R.R.R.R.R.Y.R.R.R.Y.R.R.Y.Y.Y.Y.Y.Y.Y.R.H._.].!.I.Y.Y.I.Y.Y.Y.I.H.H.I.Y.Q.Y.Y.Y.Y.Y.!.'.J.c.L t + O     X > > @   % t P C.G.Y.Y.R.R.R.P.R.R.R.R.R.R.R.R.R.R.R.R.R.R.R.R.R.R.R.R.R.R.`.`.L X w N m . r a.E l.`.`.R.Y.x.g.T i.a.a.R T R u.T T R R E E ~ ~ G 3 O * B S f       -XHXDXHXVXNXNXBXNXVXNXMXNXHXHX",
"NXNXNXNXNXNXNXNXDXDXJXFXDXHXHX*X$ O O X a ` C B V ,.f X 1 / z.Y m.z X  .9.9.5 1 y.~ _ K. X!.A.A.R.R.R.R.R.R.R.R.R.R.R.R.R.R.R.R.R.R.R.R.R.R.R.R.R.R.R.R.R.R.R.R.Y.Y.R.R.R.Y.Y.Y.Y.Y.Y.Y.R.Y.Y.Y.Y.F.G.Q.^.T.T.T.R.R.R.R.R.U.R.R.Y.R.Y.P.T.`.`.R.oX/.W.z.( F r r   . ; 1 t F / z.C.H.Y.Y.R.!.R.H.R.R.R.R.R.R.R.R.R.R.R.R.R.R.R.R.R.R.R.R.R.R.`.`./.> O < . @ F z./ x.`.`.R.H.j.T u.u.a.u.u.R R R T T R R E ~ ~ ~ F   O 6 @.S 6       DXHXHXGXGXMXDXNXNXDXNXMXDXHXHX",
"NXNXNXNXNXNXNXNXNXDXGXHXHXHXGXDXq #   O > h %.@.C $.#.4   w ) m.W 8 X @.;.*.& w d.s.v.Y.`.E.E.!.!.!.Y.Y.Y.Y.R.R.R.R.R.R.R.R.R.R.R.R.R.R.R.R.R.R.R.R.R.R.R.R.R.R.R.I.Y.R.R.E.R.`.U.U.A.U.R.R.Y.H._.A.H.R.T.T.T.E.Y.Y.Y.Y.Y.Y.Y.Y.I./.^.Q._.A.U.W.C./.C.U. Xb.l.h.j.s.~ ~ a.v.b.K.R.R.R.R.R.R.Y.Y._.E.A.U.U.I.Y.'.A.S._._.U.R.E.!.R.R.R.R.R.R.R.R.`.V.r - ; l / ^ V.S.`.'.K.g.T i.i.i.i.R R E R R Y T W g.E E ) _ ;   5 d &.C < O   n DXHXGXDXNXBXBXNXNXNXNXNXDXJXHX",
"NXNXVXVXVXVXVXVXVXDXGXHXHXHXHXGXkX  O #   < ,.V B A 3.g   , F n.a.x   #.w.e $ H z.~ E C.'.'.!.R.!.!.!.R.R.R.I.I.R.R.R.R.R.R.R.R.R.R.R.R.R.R.R.R.R.R.R.R.R.R.R.R.I.A.P.R.`.R.E.R.U.U.U.R.`.!.E.L.L.`.`.R.R.I.I.~.Y.Y.Y.Y.Y.Y.R.R.].G..XS.S.I.XXK * $ , ' ).^.!.Q.F.F.c.c.Z.F.Y.!.R.R.R.R.R.R.Y.Y.R.R.U.U.U.U.T.`.U.E.U.E.R.R.E.].R.R.R.R.R.R.R.R.].{.V.L P G l.c.P.U.R.G.l.u.R R i.i.i.R R R R R T R I W j.k.( y . < g #.C e . O   -XHXHXGXDXDXNXNXVXDXAXNXAXFXHXHX",
"DXDXDXDXDXDXDXDXVXDXGXHXHXHXHXHXjX@       $ Z %.B B S S 5   x g.f.P ; & & o r h.z.U I g.Y.!.!.!.Y.Y.Y.R.R.R.!.R.R.R.R.R.R.R.R.R.R.R.R.R.R.R.R.R.R.R.R.R.R.R.R.R.`.R.E.R.!.R.Y.Y.R.R.R.U.P.P.T.!.!.`.Y.Y.'.Y.H.!.Y.Y.Y.Y.Y.R.R.R./._.A.Y..X[.z = p d 5   ] XX/.Y.!.R.R.U.U.U.T.T.R.R.R.R.R.R.R.R.I.U.U.U.R.!.`.'.^.'.`.E.`.`.P.`.R.R.R.R.R.R.R.R.L.`.Y.~.J.c.I.!.`.`.G.g.E i.u.R i.i.R R R R R R U R R U s.j.F ; . s $.$.Z % .   q BXHXHXHXDXDXAXNXDXDXDXVXAXFXHXHX",
"NXNXVXVXVXVXVXVXDXDXGXHXHXHXHXHXJX*X  O   * 6 ,.@.B B &.Z X ; y z.i.F +   2 G n.z.~ I W g.x.G.~.!.Q.Y.Y.R.R.!.`.R.R.R.R.R.R.R.R.R.R.R.R.R.R.R.R.R.R.R.R.R.R.R.R.T.R.Y.R.R.R.R.R./.E.!.!.Q.Y.Q.Q.~.!.G.G.Y.R.R.E.R.R.R.R.R.R.R.R.Q._.U.H.XXx   e :.9. .X F S.oXU.U.U.R.U.E.E.E.P.R.R.R.R.R.R.R.R.A.I.!.!.!.I.E.E.Q..X.XP.E.R.U.U.R.R.R.R.R.R.R.R.T.E.P.].].E.R.Y.'.Y.l.W Y E u.u.R R R R R R R R R R a.^ ~ P 1 X 6 %.@.B a   O . -XHXDXJXHXDXDXDXNXAXDXVXNXNXDXGXHX",
"NXVXNXNXNXNXNXNXDXDXGXHXHXHXHXHXFX=X      . . g =.B %.V %.f   , P Z.~ J M.P g.f.a.R R E W E l.Z.Y.Q.Q.!.!.R.U.P.R.R.R.R.R.R.R.R.R.R.R.R.R.R.R.R.R.R.R.R.R.R.R.R.P.R.`.R.Y.P.G.C.I.!.!.R.R.R.`.].E.L.).T.E.R.`.L.R.Y.R.R.Y.Y.Y.R.A. X.X{.x @ a ;.;.9.j O F c..XU.U.R.R._._.R.R.R.R.R.R.R.R.R.R.R.E.R.R.H.H.!.`.`.L.T.`.'.!.R.`._.R.R.R.R.R.R.R.R.'.`.).}.).C.Y.!.J.x.g.T E E u.a.R R R R R T T T a.Y a.^ J 9 X < Z $.V s o = O q DXHXHXGXHXDXDXBXNXVXAXNXBXBXAXDXHX",
"AXAXAXAXAXAXAXAXDXDXGXGXGXJXJXJXHXVXv X #   . . S ,.C B A >.* X O L ^ f.s.E W U U R u.a.u.E W W g.x.F.I.!.!.Y.Y.R.R.R.R.R.R.R.R.R.R.R.R.R.R.R.R.R.R.R.R.R.R.R.R.`.`.`.Y.I.R._._.R.R._.V.] H x t t 8 t M.[.R.J.Y.R.R.R.R.R.R.R.R.T.R.].z   a :.;.;.-.4 ; ( Z.P.P.I.I.Y.R.R.R.R.R.R.R.R.R.R.R.R.R._.`.U.G.`.{.D.K u y P L.].`._._.R.R.R.R.R.R.R.R.Y.Y.Y.R.Y.I.Y.!.x.u.T i.g.u.E a.R R R R R T T T U Y g.Y y   & g C C d *   - O UXHXGXHXGXJXDXGXMXAXDXDXVXNXNXAXDXHX",
"FXFXDXDXDXDXDXDXGXGXDXDXDXDXDXDXNXLX-X& O O @   f <.B $.A %.h o @ $ _ f.m.U E u.T R u.a.a.u.W Q Y E g.x.Z.J.Y.!.R.R.R.R.R.R.R.R.R.R.R.R.R.R.R.R.R.R.R.R.R.R.R.R.`.R.P.G.R.].[.).] H t , % O # > q : O t V.R.J.~.R.R.R.R.R.R.R.R.oXD.i # 6 :.;.:.r.* $ K l.Z.U.!.I.I.I.I.Y.Y.R.R.R.R.R.R.R.R.R.R.!.`.'.].(.] u . & X $ l S.!.U.U.R.R.R.R.R.R.R.R.T.Y.Y.I.Y.Y.F.x.u.i.R i.u.u.E E R R R R R T T T Q W J l $   a S A Z 6   O - q LXDXDXJXDXDXGXHXVXGXGXGXDXDXDXDXJXDX",
"JXJXJXJXJXJXJXJXGXGXDXDXDXDXDXDXAXLXZXb O O O # X D =.%.B @.3.g O & % P n.z.~ U i.a.a.u.R R R T j.u.E W g.l.C.I.R.R.R.R.R.R.R.R.R.R.R.R.R.R.R.R.R.R.R.R.R.R.R.R._.R.E.Y.`.T.L F O O : q n -XkXCXlXCXb % H `.'.[.R.R.R.R.R.R.R.R.V.x   j :.w.9.:.j $ l g.x._.A.Q.!.!.R.R.R.T.R.!.R.R.R.R.R.R.R.R.'.!.T.V.z . X p | ..& , ( R.I.U.R.R.R.R.R.R.R.R.L.`.].`.T.R.C.g.R u.a.R R u.u.W R R R R R T T T ~ ! y @ X e S C V a   O O > kXSXNXDXjXNXNXJXHXHXHXHXHXJXFXDXJXHXDX",
"HXHXHXHXHXHXHXHXHXGXAXNXNXAXDXVXJXNXNXHX        O o h ,.B V B <.Z o X - x h.b.z.U I T a.d.! s.g.I U T R i.R T T g.G.E.P.`.`.T.T.Y.R.!.!.`.`.!.T.R.R.R.R.R.R.R.R.Q.!./.].|.y + O k @XkXFXGXGXFXJXLXLX=X+ y _.Q.W.S.I.J.!.].Q.Y./.9 - >.9.;.;.9.p ; l ( Z.I.T.U.J.R.R.R.R.R.R.R.R.Y.Y.P.`.H.R.XX).M.t $   4 p | o.o.} o r ( F.'.}.R.R.R.R.R.R.R.R.R.R.Y.I.J.b.v.i.Y T u.s.s.! R i.s.R R W W ) E J J t O & e B V @.v   #     jXHXNXNXNXNXVXDXFXJXHXHXHXHXJXHXHXJXDXVX",
"HXHXHXHXHXHXHXHXHXGXAXNXNXAXDXVXDXDXNXAX-X#     @   $ Z ,.$.C $.<.h 5 . ; y P J.b.s.R Q / l.R U R i.i.i.R R R R I E W g.C.!.R.Y.`.`.`.`.`.!.R.U.R.R.R.R.R.R.R.R.J.P.].).y 1 v =XmXGXHXLXFXGXBXjXhX@Xk + H ].!.!._.I.Y.`.T.!.E.F . >.9.;.9.;. .X t F j.F.!.T.T.Y.R.R.R.R.R.R.R.R.R.R.Y.R.P.[.K t . X 0 } | O.O.+.} 4 $ G x.C.`.U.`._._.R.R.R.R.R.I.R.R.Y.F.x.u.T j.u.u.i.u.i.p.Y E Y T R U U a.u.2 $ o s %.S C a   #   > MXGXNXDXNXNXNXVXDXFXJXHXHXHXHXGXHXHXJXDXVX",
"HXHXHXHXHXHXHXHXHXGXAXNXNXAXDXVXVXBXGXJXHX*X@ @ O # . $ g ,.B V C ,.Z 6     ; t h.Z.~ ~ J J g.~ a.a.u.u.u.i.u.u.s.j.E Q Y W / g.C.G.P.Y.Y.Y.I.I.R.R.R.R.R.R.R.R.`.G.XXM.1 u LXLXJXLXIX=X@Xv 0 O @ O + t ( H.Y.].R.Y.!._.E.R.V.1 j 9.;.;.;.B $ 1 J / c.J.!.`.T.!.R.R.R.R.R.R.R.R._.R.Y.Q.T.] % X p } o.O.O.o.} p * % y g.c.G.R.U.`.`.`.`.R.R.R.R.I.Y.Y.G.l.u.T T s.u.T T p.g.p.Y W j.i.U f.z.J r @ * h V V S g X #   @ MXAXVXMXDXNXNXNXVXDXFXJXHXHXHXHXGXHXHXHXDXVX",
"HXHXHXHXHXHXHXHXHXGXAXNXNXAXDXVXDXNXFXHXGXGXv   - O #   . ` %.A V V &.<.h 4   . % y C.F.z.z.Q Y i.u.u.a.a.u.u.u.s.j.j.T Q Q W g.G.P.U.R.!.!.!.!.R.R.R.R.R.R.R.R.E.Y.`.z . ,XSXCXkXb > O O + 2 r y l G g.F.F.U.).Z.'.T.T.`.A.H O r.9.9.:.j & 9 G l.c.J.!.`._.T.R.R.R.R.R.R.R.R.R._._.Y.~.].2 X p O.o.o.| p 4 o X r G g.h.J.Q.Z._.E.R.T.R.R.R.R.R.Y.H.x.j.T T E u.U R i.u.p.E W U ~ s.s.s.Y y %   f h $.V V a X =   > jXDXNXGXBXNXNXNXNXVXDXFXJXHXHXHXHXGXHXHXHXDXVX",
"HXHXHXHXHXHXHXHXHXGXAXNXNXAXDXVXNXGXNXDXDXHXMXv O - O O   < g S =.A B B %.>.a     + 8 P b.z.b.T U T u.a.j.a.u.R R U W g.x.G.H.G.!.!.!.!.!.R.Y.Y.R.R.R.R.R.R.R.R..XR.{.K + c ,Xn 4 X . t H J / ) U ~ j.c.F.R.`.T.Z.'.T.T.`.A.H O j r.*.5 * 9 F Z.G.Y.!.`.`.T.R.Y.R.R.R.R.R.R.R.R._._.Y.~.{.2 X p } p 4 4 & % r G h.l.b./..X'.Z.`.E.R.R.!.!.!.R.Y.F.x.g.T T E u.a.u.u.j.u.R U ! ! s.f.u.P 8   * g C A V %.s &   O @ MXFXHXNXDXGXBXNXNXNXVXDXFXJXHXHXHXHXHXHXHXHXDXVX",
"HXHXHXHXHXHXHXHXHXGXAXNXNXAXDXVXMXDXVXFXJXHXHXjXq # O O # . $ e S ,.#.%.3.S S ,.f     $ K C.z.z.T T u.a.a.u.i.R T W l.J.!.!.!.!.Y.R.R.R.R.R.E.P.R.R.R.R.R.R.R.R.!.R.R.L , ; . ; ; t L k.^ ~ j.l.c.Y.~.].T.R.I.H.`.!.!._.P.R.V.1 X o   ; l R F.S.!.!._._.T.T.Y.Y.R.R.R.R.R.R.R.R._.R.!.!.[.] %   X X o , y G j.W.W.x.Q.'.`.}.).R.!.!.`.`.!.Y.J.G.j.u.E E u.a.u.E g.u.u.R ~ ~ s.k.U P 9   * s C A V V 3.h       q jXHXGXHXBXMXNXFXNXNXVXVXDXFXJXHXHXHXHXHXHXHXHXDXVX",
"HXHXHXHXHXHXHXHXHXGXAXNXNXAXDXVXNXBXDXGXNXHXNXHXMX> # > O       o 6 5 < a Z ,.%.,.h 5   . r L S.j.j.a.u.R R i.u.Y T C.~.!.R.!.!.R.!.!.`.`.`._.T.R.R.R.R.R.R.R.R.!.U.!.P.L F P y / j.d.^ d.Z._.}._.`.E.T.T.].I.I.`.R.Y.!.P.!.U.H w x x G k.b.!.I.!.R.T.R.Y.R.R.T.R.R.R.R.R.R.R.R.R.R.`.`.T.[.H r ; 8 l G d.c.J.[.Z.Z.].`.A.).[.Y.`.!.!.Y.G.Z.l.j.T T i.u.u.u.E R p.T U U a.j.( J F % X 4 d S S B V C h * O O # kXHXHXDXGXJXDXDXNXVXVXVXVXDXFXJXHXHXHXHXHXHXHXJXAXVX",
"HXHXHXHXHXHXHXHXHXGXAXNXNXAXDXVXNXNXNXJXHXHXJXHXLXZX[ O O O @ @ : O O # X 6 #.&.V 3.,.f X   8 K b.c.j.R U T u.a.T Y l.Q.'.!.!.G.!.!.!.T.T.L.S.V.R.R.R.R.R.R.R.R.T.!.!.!.z.~ j.j.I j.x./.[.[.E.I.L.`.R.I.I.].Z.I.L.R.F.T.'.Q.!.E.j.z.k.Z.U.S._.OXY.Y.Y.Y.Q.!.!.[.R.R.R.R.R.R.R.R.Y.R.T.{.R.Y..XC.z.n.z.c.P.P.E.!.S.R.A.|.}._.I.!.!.!.Y.H.x.g.W Q T i.u.u.R T R a.g.T U ~ j.( F t X * g S A B C S B d o   O > jXJXFXGXGXHXNXDXMXDXNXVXVXVXDXFXJXHXHXHXHXHXHXHXJXAXVX",
"DXDXDXDXDXDXDXDXNXDXHXHXHXHXHXHXHXHXHXGXNXNXVXDXJXGXHXX.@   #   . g D Z j X 5 2.@.V V &.g 9 O & ( C.x.p.Y R s.f.a.T u.F.!.I.P.R.S.'.^..XA.u , , l D.^.K.!.R.R.H.`.`.R.R.P.Z.C.C.R.R.R.R.R.R.R.R.R.R.R.R.R.R.R.R.I.R.R.E.E.`.`.E.R.R.R.R.R.R.R.R.R.R.R.R.R.R.R.R.R.R.R.R.R.R.R.R.R.R.R.R.R.R.R.R.Y.J.G.E.!.`.!.R.`.`.`.!.!.R.R.Y.W.b.v.j.i.i.u.j.I u.a.R / W W j.G E f.p.F 2     6 C &.A S S $.@.q o       kXHXVXDXVXNXDXGXHXHXHXHXHXHXHXGXDXDXNXDXVXAXDXDXNXDXHXHX",
"AXAXAXAXAXAXAXAXNXDXHXHXHXHXHXHXHXHXHXGXNXNXNXDXjXDXDXDXv #       e Z 4.,.<   f ,.C A &.C Z . O 1 L K.x.I Q ! u.a.R i.x.G.R.R.R.U.T.^.P.y X 0 0 % z P.!.P.R._.I.R.R.R.R.R.R.R.R.R.R.R.R.R.R.R.R.R.R.R.R.R.R.R.R.P.!.`.R.R.`.`.`.R.R.R.R.R.R.R.R.R.R.R.R.R.R.R.R.R.R.R.R.R.R.R.R.R.R.R.R.R.R.R.R.Y.!.!.`.!.T.U.U.T.T.!.!.Y.G.G.Z.v.j.u.T T E u.j.i.u.R T E g.E R d.Q G t ; + % s #.C D V $.@.d e o   o   MXHXAXVXDXVXNXDXGXHXHXHXHXHXHXHXGXDXDXNXDXVXAXDXDXNXDXHXHX",
"AXAXAXAXAXAXAXAXNXDXHXHXHXHXHXHXHXHXHXDXNXNXNXDXHXMXGXNX=X@     O o e S 3.s . - f Z $.$.$.*.d . X t l.z.z.U j.a.R a.i.E l.Y.`.R.R.!.'.).1 : &X%X0 9 V.`.T.].).Y.R.R.R.R.R.R.`.`.R.R.R.R.R.R.R.R.R.R.R.R.R.R.R.R.R.R.R.Y.Y.R.R.I.R.R.R.R.R.R.R.R.R.R.R.R.R.R.R.R.R.R.R.R.R.R.R.R.R.R.R.R.R.R.R.R.R.`.].].`.T.T.!.!.!.I.G.x.j.g./ T T T T T i.u.j.j.T T i.u.a.s.! f.J w     6 Z A V %.A V B s 6 +     > jXHXDXAXDXDXNXNXDXGXHXHXHXHXHXHXHXJXDXDXNXDXVXAXDXDXNXDXHXHX",
"AXAXAXAXAXAXAXAXNXDXHXHXHXHXHXHXHXHXHXDXNXNXNXDXDXNXBXGXHX*X        o e ,.3.g o . a &.@.$.$.3.s X   r z.z.C.Y f.U a.u.Y / C.!.!.Z.`.!.S.; 0 %X$X+XO l A.R.[.E.R.R.R.R.R.R.R.R.R.R.R.R.R.R.R.R.R.R.R.R.R.R.R.R.R.R.R.R.R.R.!.!.R.R.R.R.R.R.R.R.R.R.R.R.R.R.R.R.R.R.R.R.R.R.R.R.R.R.R.R.R.R.R.R.!.T.`.`.`.!.!.!.!.Q.J.c.j.E W T T i.u.u.u.u.i.i.i.j.W i.v.a.U ~ a.P 8 ;   6 $.$.C S $.V B a . O @ # v kXHXNXMXNXAXDXVXNXDXGXHXHXHXHXHXHXHXJXDXDXNXDXNXAXDXAXNXDXHXHX",
"VXVXVXVXAXAXAXVXNXDXHXHXHXHXHXHXHXHXHXDXNXNXNXDXDXHXjXAXDXHXv   $ # O & a ,.<.d u . Z %.$.C %.&.f X O F Z.C.g.! U a.u.T Y g.G.!.!..X'.|.3 > %X$X&X- % / Y.).W.R.R.R.R.R.R.R.R.R.R.R.R.R.R.R.R.R.R.R.R.R.R.R.R.R.R.R.`.!.E.G.I.R.R.R.R.R.R.R.R.R.R.R.R.R.R.R.R.R.R.R.R.R.R.R.R.R.R.R.R.R.R.R.R.`.T.T.T.`.`.!.J.F.v.j.u.E T E u.j.j.j.j.j.u.u.E T ~ T u.j.s.! T J 2 O   f C V @.B $.V C e . = :   *XDXDXDXDXVXFXMXDXNXNXDXGXHXHXHXHXHXHXHXJXDXDXNXDXNXVXDXAXNXDXHXHX",
"VXVXVXVXAXAXAXVXNXDXHXHXHXHXHXHXHXHXHXDXNXNXNXDXMXMXHXBXHXJXkX@ $ + = O   e &.4.#.$ , ` $.A C &.<.e   + K Z.K.a.R R u.R W T v.K.E.J.Y.).w ; +X$X$Xc O F H.'.Q.A.P.P.E.E.R.R.R.R.R.R.R.R.R.R.R.R.R.R.R.R.R.R.R.R.].R.T.`.`._.U.U.!.!.R.R.R.R.R.R.R.R.R.R.R.R.R.R.R.R.R.R.R.R.R.R.R.R.R.R.R.R.R.!.R.U.T.!.!.K.v.E T T R u.u.u.u.u.E i.i.i.i.i.i.i.R u.u.i.s.j.P y O o a #.A A V @.$.d 3 O @   0 =XHXBXHXMXDXJXNXDXDXNXNXDXGXHXHXHXHXHXHXHXJXDXDXNXDXNXVXDXAXNXDXHXHX",
"NXNXNXNXNXNXNXNXNXDXHXHXHXHXHXHXHXHXHXLXNXNXNXDXDXNXDXNXMXHXHX=XO     @   . e %.#.g % h $.B $.Z =.S o   ; V.z.v.u.E E i.T T u.v.P.J.Q.}.F ; c %X$X&X: , L K.I.A.E.E.R.R.R.R.!.`.R.R.R.R.R.R.R.R.R.R.R.R.R.R.R.R.!.R.E.`.].`._.[.!.!.!.!.R.R.R.R.R.R.R.R.R.R.R.R.R.R.R.R.R.R.R.R.R.R.R.R.R.R.R.!.R.R.E.G.x.l.i.U R i.u.a.a.i.T T E E T T E i.i.u.E u.i.i.s.J t +   g B $.A C %.V g * # O   v jXJXFXHXDXjXBXVXFXNXDXNXNXDXGXHXHXHXHXHXHXHXGXDXDXNXAXNXNXDXVXNXDXHXHX",
"NXNXNXNXNXNXNXNXNXDXHXHXHXHXHXHXHXHXHXDXNXNXNXDXDXNXAXDXBXHXNXHXb X . $ # O . e ,.<.B Z %.B C S V ,.h . ; l x.c.g.E T T u.u.R R l.Q.W.}.V.1 7 &X$X$Xc O F f.h._.`.`.`.!.R.R.R.R.R.R.R.R.R.R.R.R.R.R.R.R.R.R.R.R.C.R.`.T.( P P V.!.!.!.!.!.!.!.!.R.R.R.R.R.R.R.R.R.R.R.R.R.R.R.R.R.R.R.R.R.R.R.!.R.U.C.l./ T u.s.i.i.i.u.i.u.u.u.j.j.u.i.E i.u.u.E p.i.s.~ F , X 6 Z S V @.@.d e = o X X v BXHXZXHXJXPXJXMXVXHXMXDXNXNXDXGXHXHXHXHXHXHXHXGXDXDXNXAXNXNXDXVXBXDXHXHX",
"NXNXNXNXNXNXNXNXAXDXJXHXHXHXHXJXHXHXHXGXDXNXNXBXBXBXNXDXLXHXHXHXHXq   #   @       a %.V V V B Z C &.3.e X 1 L c.z.p.Y U ^ i.i.R Y g.G.G..XH O ..%X$X$X+ $ _ k.j.!.Y.!.`.R.C.G.`.E.E.E.R.U.U.T.R.R.R.R.R.Y.Y.Y.Y.Y.`.|.r   4 X . L [.T.Q.'./.E.R.!.`.R.U.!.R.Y.!._.`.`.R.T.).).L.Z.R.T.!.!.T.E.!.K.c.j.i.i.u.u.u.i.i.u.u.u.u.u.u.a.a.R R u.i.i.T R T j.a.L ; X q C A V B $.g * @     @ =XHXHXHXGXHXGXDXNXBXNXDXDXBXNXVXDXGXHXHXHXHXHXHXHXJXDXBXMXMXBXNXNXBXBXDXGXHX",
"NXNXNXNXNXNXNXNXDXDXGXJXJXJXGXGXGXGXGXDXDXDXDXDXDXDXDXDXDXGXGXGXHXMXv     @   @   . g ,.B B &.B $.B %.,.$ . z K.d.j.g.U ! E u.s.E Y g.j.J.L ; 0 %X$X$Xc 2 ; ( ~ c.J.!.Y.R.`.`.!.I.U.U.R.R.R.R.R.R.R.R.R.!.!.!.!.'.XX' ; n kX=X# ; D.`.J.'.L.].H.T.!.`.!.`.!.R.!.I.`._.L.P.!.!.!.XX(.L.P.S.S.l.x.c.v.u.T E u.u.u.i.u.u.u.u.u.u.u.g.g.E W T R ~ ~ I U ~ h.r O o h @.$.$.,.s . o   #   =XHXBXHXHXHXGXDXDXDXDXDXDXDXDXDXDXDXDXGXGXGXGXGXGXGXGXDXDXDXNXDXDXDXDXDXDXHXHX",
"HXHXHXHXHXHXHXHXJXGXDXDXDXDXDXDXNXDXDXDXGXGXHXHXHXHXJXGXDXDXDXDXBXJXHXb   @ @   O # $ g <.$.B @.V B B 3.e   1 h.z.v.g.R R E u.d.a.I Q U z.C.l ; c %X$X$Xt.= t d.W F.~.!.E.R.R.U.R.R.R.R.R.R.R.R.!.!.!.R.R.R.R.R.~.{.z + -XHXJXkXO % D.].G.`.C.~.P.R.`.`.!.!.!.`.T.Y.!.~.!.Y.T.].y.9 O X O P k.( u.i.T T E u.u.u.u.u.u.u.u.u.u.u.W W / Y W W ~ ~ m.^ ) l ;   g @.@.B Z * . >   # q DXDXMXHXNXMXBXDXDXDXGXGXGXGXGXHXJXGXLXDXDXDXNXDXDXDXDXDXGXHXHXGXHXHXHXGXLXGXGXNX",
"HXHXHXHXHXHXHXHXHXJXDXNXNXNXAXDXNXNXDXDXGXHXHXHXHXHXHXHXGXDXVXNXjXDXGXDX*X@   # = +   * h #.%.&.V $.$.&.Z & . K c.c.u.T u.u.R ^ E T U ! ^ v.L r + ..$X$X$XO . d.I j.J.~.!.Y.U.!.R.R.R.R.R.R.R.R.R.R.R.Y.Y.Y.Y.Y.Z.[.] ; n AXGXJX-X@ O N._.~.J.T.U.R.!.R.U.R.!.T.~.~.!.E.'.XXD.H % . w w o y k.u.T T T i.i.i.i.i.u.u.u.u.u.u.u.u.! ! R E W W T R i.s.G 8   6 S V ,.s <   # O # n kXHXGXVXNXNXFXNXNXDXGXHXHXHXHXHXHXHXHXLXDXDXNXNXDXDXNXNXDXGXHXHXHXHXHXHXHXGXGXDXNX",
"HXHXHXHXHXHXHXHXHXJXDXNXBXBXNXDXNXDXDXDXGXHXHXHXHXHXHXHXGXDXDXNXGXjXNXDXDX=Xq # #   # o . e Z ` ,.A V A ,.6 . 1 h.Z.v.T p.u.U U W u.u.s.s.~ / J 9 # 0 &X+X% , h.a.R u.Z.!.!.~..XT.T.T.T.T.T.T.T.U.Y.Y.R.R.!.!.!.Y.Y.[.z + @XSXGXAX=X0 O x |.`.T.`.'.!.I.Y.`.`.T.I.T.[.].L.L t @ i m M M w 1 p.m.i.i.u.u.u.i.i.i.u.u.u.u.u.u.a.a.s.s.a.u.u.R R U W ( r   * D &.C u %       f =XJXGXjXHXNXMXHXBXHXNXDXGXHXHXHXHXHXHXHXGXLXDXDXNXNXDXDXNXNXNXDXHXHXHXHXHXHXHXGXDXDXVX",
"HXHXHXHXHXHXHXHXHXJXDXNXBXBXNXDXDXDXDXDXGXHXHXHXGXJXHXHXHXGXDXVXDXAXNXJXDXHXNXq   X #     . . u h ,.A B &.h % O l C.F.R I u.R Q T E T i.i.W E v.J % X @ 1 % z j.s.R I Y g.x.F.J.!.!.!.!.`.`.'.'.`.'.`.!.!.R.R.R.'.F.!.}.1 O X.JXSXGXjXq # ; H U._.XX'.Y.!.'.`.`.)._._.D.z $ , i M M M m % t a.p.u.j.j.j.u.E i.i.u.u.u.u.u.a.a.a.h.g.T R s.d.s.s.L y +   d A S f ; +     q MXFXHXBXJXDXNXMXNXHXjXNXDXGXHXHXHXHXHXHXHXGXDXDXDXDXNXDXDXNXNXNXDXJXHXHXHXHXHXHXHXDXNXNX",
"GXGXGXGXGXGXGXGXHXGXDXVXNXNXDXDXNXDXDXDXGXHXHXHXHXHXHXHXHXGXDXBXGXNXAXDXNXDXGXDXq #             . h %.$.A Z 6 o 2 ( b.a.T i.R W u.U U i.p.Y U d.k.j.l i 8 P Y k.R u.R I Q Q E j.Z.Z.Z.G.G.I.I.Y.!.!.R.R.R.U.U.U./.I.I.XXM.1 > *XSXHXLXGX-XX 9 H V.].].U.`.!.U.`.[.|.H ; X w N M M M N . X F d.h.u.j.j.u.E T i.u.u.u.u.u.u.u.a.a./ W U ~ ~ / J G w $   f C C 5 X O     -XJXHXGXGXHXMXBXNXAXNXMXGXNXDXGXHXHXHXHXHXHXHXHXGXDXDXNXNXVXNXNXNXAXDXJXHXHXHXHXHXHXHXGXNXDX",
"HXHXHXHXHXHXHXHXGXGXDXDXDXDXDXDXNXNXDXDXGXHXHXHXHXHXHXHXHXLXNXBXMXDXNXGXGXMXDXHXmXb @ .     @   . X s =.=.>.n $ + P k.s.j.s.U / s.U s.u.p.p.U ! Q z.x.^ V.m.f._ R u.u.g.u.E U Q W W E E j.j.j.j.l.l.C.C.I.R.`.`.`.E.!.U.`.] %   @XNXJXSXSXCXv + P ).].Y.!.I.C.`.] t O , m N M M M m o X l k.^ d.E u.u.i.T T u.j.u.u.u.u.u.u.a.a.) ^ ^ ) ) P y 1 + X f Z D 5   O X q kXJXJXJXHXJXFXNXJXNXBXDXNXDXDXDXGXGXHXHXGXGXHXHXHXGXDXNXBXBXBXBXBXNXDXGXHXHXHXHXHXHXHXHXJXDXNX",
"HXHXHXHXHXHXHXHXHXGXNXBXNXDXNXBXNXDXDXGXHXHXHXJXHXGXGXHXHXDXNXDXNXDXDXDXNXNXDXHXGXHX=X# O       7 O . a #.<.Z $ X 2 l.c.U U Q ( T T R R R R T T R R R R R R R R E E E E E i.i.i.T T Y T U U U U U U T i.j.v.c.K./.`.!.H.I.].y.w   b UXJXFXGXlXX 8 |.~.T.!.J.`.(.+ $ i N M M M M w   = F d.f.d.j.u.a.! ~ a.g.u.i.s.u.p.p.g./ ) ) ) Q L z 3 % . O < s Z g . O @   b MXHXGXHXHXHXHXDXDXDXDXDXDXDXDXBXDXHXHXHXHXHXHXGXHXHXJXDXNXNXDXDXDXAXVXDXDXGXGXGXHXHXGXHXHXGXBXDX",
"HXHXHXHXHXHXHXHXHXGXNXNXDXDXVXNXBXNXDXGXHXHXHXHXHXHXHXHXHXAXBXNXNXDXDXVXBXNXDXHXHXHXDXMXn > @     # . $ 6 h 1.Z   % F F.s.U E Q T T R R R R R T R R R R R R R R R R R R R i.i.i.E i.i.i.u.a.a.a.u.R T T W T T T x.Z.!.[.T._.T.V.9 + : @XlXCX-X  r ( H.T.T.Q.R.K   i N M M N i , $ t J j.s.a.R W a.R R E u.E a.s.R a.j.z.x.h.L F l r % . -   . 6 Z >.e . .     n DXHXGXDXHXHXJXDXNXNXNXNXNXNXNXNXNXDXJXHXHXJXHXHXHXHXHXGXDXBXNXNXDXNXNXNXDXLXHXHXHXHXHXGXHXHXHXNXNX",
"HXHXHXHXHXHXHXHXHXDXDXDXDXDXDXDXBXNXDXGXHXHXHXHXHXHXHXHXGXAXBXNXNXVXDXNXNXNXDXDXNXHXDXHXHXkX> @ X o O = + $ s ,.q   8 h.z.U R ! T T R R R R T T R R R R R R R R R R R R R R u.u.u.u.i.i.i.R R R j.a.a.u.i.R i.i.U E G.].].`.T.Y.V.y % O : : O $ F / c.T.L.Y.R.P X i N N i , + = x W d.^ I Y g.E a.u.p.Y E s.s.s.~ ~ W J l r + O O     o . < g C h 5 . . .   -XHXHXHXDXHXHXJXHXHXNXNXNXNXNXNXNXNXNXDXGXJXGXGXGXHXHXHXHXGXDXNXNXNXVXVXNXDXDXGXHXHXHXHXHXHXHXHXHXDXNX",
"GXGXGXGXGXGXGXGXGXDXDXDXDXDXDXDXDXDXDXLXGXGXGXGXGXGXGXGXDXDXDXDXDXDXDXDXDXDXDXDXHXJXFXHXHXHXJXb     # + . . . * > & . l Z.z.! f.R R R R R R R R R R R R R R R R R R R R R R R R E E T R R R R R R R R u.a.a.a.j.Y Y R v.c.Y.!._.Q.Z.L l 2 1 r F / j.c.'.T.G.!.V..   . $ $ 1 l Y g.d.f.R p.j.a.Q ~ u.g.T R j.( P z t 1 . . $ % , X & 6 g h %.3.s o o # O v AXHXGXDXDXHXHXDXDXJXGXDXDXDXDXDXDXDXDXDXDXGXGXGXDXLXGXGXGXGXGXDXDXDXDXDXDXDXDXDXLXGXGXGXGXGXGXGXGXGXDXDX",
"DXDXDXDXDXDXDXDXDXDXGXGXGXGXGXGXHXHXGXLXDXDXDXDXNXDXDXDXDXGXHXHXGXGXGXGXHXHXGXGXDXBXHXjXMXAXDXHX=XO         O O   X   ; L c.! U R R R R R R R R R R R R R R R R R R R R R R R R R i.i.u.u.u.j.j.R R R R u.i.R R g.g.R U ! v.G.U.x.I.T.C.( Y / ) j.z.F.].'.G.F.P.G r + r F _ E c.f.u.g.j.s.a.E R U R a.a.W G y 8 = O   & 6 g Z D Z Z D A &.B e $ @     q GXPXJXBXGXNXDXNXMXNXGXNXGXGXJXJXJXGXGXGXGXDXDXDXDXDXDXDXDXDXDXDXGXHXHXHXHXHXHXGXGXDXDXDXDXDXDXDXDXDXDXDXGX",
"NXNXNXNXNXNXNXNXDXDXJXHXHXHXHXHXHXHXHXDXDXNXNXNXMXNXNXNXDXHXHXHXHXHXHXHXHXHXHXDXMXDXNXHXFXMXDXVXHX=Xb X   O O O   .     8 ( z.U U R R T T R U U R U R R R R R R R R R R R R R R a.a.u.i.E T T T R R u.u.i.R T T R a.i.p.i.T U R C.J.~..XJ.x.F.F.K. X~.Y.Y.Z.l.j.z.f.E h.l.) E J p.p.g.f.! T g.j.W ~ d.v.P r .   . , e D S %.#.*.C $.@.@.s < X X = q =XLXHXJXPXZXDXMXBXNXMXDXGXGXHXHXHXHXHXHXHXHXHXGXDXDXDXDXDXNXNXNXNXDXHXHXHXHXHXHXHXHXGXDXNXNXNXNXNXDXNXBXNXGXHX",
"NXNXNXNXNXNXNXNXNXDXHXHXHXHXHXHXHXHXHXDXDXNXNXNXMXNXNXBXVXHXHXHXHXHXHXHXHXHXGXDXDXMXFXJXjXVXVXDXMXJXDX-Xb O O @ +       . l C.z.! U R T T R U ! R U R R R R R R R R R R R R R R a.u.i.R T T T T R i.a.j.j.j.g.u.a.i.I I i.R U ! R a.j.J.~.Q.`.].~..XI.l.j.j.u.u.y.j.d.W J U ! ^ p.p.a.s.s.a.T U u.k.z.L t     * 5 a C &.S V V V A V $.d 5     X v kXJXJXHXDXHXAXNXBXGXLXNXVXNXDXHXHXHXHXHXHXHXHXHXGXDXNXDXDXNXBXVXNXNXDXHXHXHXHXHXHXHXHXHXDXDXNXVXBXNXDXNXBXVXHXHX",
"NXNXVXVXVXVXNXNXNXDXHXHXHXHXHXHXHXHXGXDXDXNXDXDXBXDXDXBXNXHXHXHXHXHXGXHXHXHXDXNXNXVXBXNXDXNXAXFXJXDXNXLXLX=X-XO + #   o   + P d.! U R T T R U ! R U R R R R R R R R R R R R R R I U R a.j.v.c.c.c.b.b.K.F.b.b.b.x.b.v.! ! ~ T T R s.T J Y j.j.z.h.g.g.E Q Q u.j.^ ~ g.R f.d.j.p.z.f.Y ( E ! ! T g.b.c.F O X 4 u $.$.@.@.B B V A @.B e . . . % b zXHXHXHXZXZXNXPXDXNXDXBXBXGXNXNXHXHXHXHXHXHXHXHXHXGXVXNXNXAXNXBXDXVXNXDXHXHXHXHXHXHXHXHXHXGXDXDXDXNXVXDXVXBXDXHXHX",
"NXNXNXNXNXNXNXNXBXDXHXHXHXGXHXHXHXGXGXDXDXDXNXNXDXNXNXNXDXDXHXHXHXHXGXHXHXHXDXNXNXNXNXNXNXNXNXNXGXHXHXHXHXHXHXGXb #   O @ . $ u v.F.U ~ U U U R Q R Q W T g.a.U Y Q U U ! s.s.d.z.c.c.c.x.x.l.l.l./ ( ( / g.l.v.l.Y.K.b.n.b.u.Y f.s.I p.p.p.i.i.U U R u.a.a.a.u.R R R R i.i.E E j.R ~ s.U T g.g.b.E.t .   6 Z A %.B V V @.B &.%.n 5 .     > UXJXHXGXGXHXHXHXGXNXNXNXNXNXNXNXNXNXHXHXHXHXHXHXHXHXJXGXDXDXVXNXVXAXDXDXNXDXHXHXHXGXHXHXHXHXHXGXDXNXAXNXVXDXAXBXDXHXHX",
"AXAXAXAXDXDXDXDXNXDXHXHXHXHXHXHXHXHXGXDXDXDXNXNXNXNXNXNXDXDXHXHXHXHXHXHXHXHXDXNXDXDXDXDXDXDXDXDXGXHXHXHXHXHXHXJXHX=X#     . . $ y P j.^ d.! g.L s.! s.s.! ! U ! U U s.s.z.c.F.F./ ( J F y r , $ . . . . . . $ 3 t y H L V.l.z.b.Y u.U ! s.s.j.g.a.a.R U U R a.a.R R R R i.R R E Q s.s.R i.Y T c.G.l %   g %.V B B B &.$.$.Z h e       # > jXHXHXHXHXGXHXHXHXLXDXAXAXAXAXDXDXDXDXHXHXHXHXHXHXHXHXHXJXDXVXNXNXNXVXDXDXNXDXHXHXHXHXHXHXHXHXHXDXDXNXDXNXNXDXVXBXDXHXHX",
"AXAXAXAXDXDXDXDXNXDXHXHXHXHXHXHXHXHXGXLXDXDXNXNXNXNXNXDXDXGXHXHXHXHXHXHXHXHXGXDXDXDXDXDXDXDXDXDXHXHXHXHXHXHXHXHXJXJXjXq     . % O 1 t F J c.~ ~ U U f.f.! f.U s.z.z.c.l.L H l t 2 1 % . .     X O # - # # . . % + + > . 2 F L x.F.c.~ U U ~ j.Q R R a.a.a.a.R U R R R R u.u.R R U s.! R p.Y E F.y %   6 A V V #.C Z Z #.s < . . X o   @XNXHXHXVXHXHXHXHXHXHXDXDXAXAXAXAXDXDXDXDXHXHXHXHXHXHXHXHXHXJXDXNXBXBXNXVXDXNXNXDXHXHXHXHXHXHXHXHXGXDXDXNXVXNXNXDXVXNXDXJXHX",
"NXNXNXNXNXNXNXNXDXDXGXHXHXHXHXHXHXHXGXGXDXDXNXNXNXNXDXDXDXGXHXHXHXHXHXHXHXHXGXGXNXNXNXNXNXNXNXNXHXHXHXHXHXHXHXHXLXJXJXNXv @ @         O 2 l / k.j.v.z.z.d.z.v.l.J P l r 1 .   X X X X X * 6 f g Z Z >.Z Z Z D s f o   O 7 - ; 9 ( G.Y.c.R Q Q Q u.u.R R R R u.u.T T R R R R ~ ~ s.R i.U U j.l.L $ o 5 >.&.V C #.g e % . . .   O O : hXAXJXFXFXHXHXHXHXHXHXGXDXDXNXNXNXNXNXNXNXNXHXHXHXHXHXHXHXHXHXJXDXBXBXBXNXDXVXDXDXDXGXHXHXHXHXHXHXHXGXDXDXVXDXVXAXDXAXAXDXDXHX",
"AXAXAXAXAXAXAXAXLXDXDXGXGXHXHXHXHXJXGXGXDXDXDXDXDXDXDXDXGXGXGXGXGXHXHXGXGXGXGXGXVXVXAXAXAXAXAXAXHXHXGXGXGXGXHXHXHXHXAXmXJX-Xb b b v @   O + ; ; + 1 2 z x u 1 + O O       o * 5 a s Z #.,.,.&.%.&.$.$.&.$.<.4.%.$.%.` f * o X X ; x y.b.b.z.a.Y R R U U R R R u.T R R R R ~ ~ ~ a.i.i.U ^ c.L 1   * ` ,.Z ` 6 5 . . . o     & q UXGXSXMXVXHXHXHXHXHXHXGXGXDXDXLXAXAXAXAXAXAXAXAXGXGXGXGXGXGXGXGXHXGXDXNXNXNXDXDXDXDXDXDXGXGXHXHXHXHXGXGXDXDXDXDXDXDXDXDXDXDXDXDXHX",
"GXGXGXGXGXGXGXGXHXGXDXDXDXGXGXDXLXLXDXDXDXDXLXLXDXDXGXGXGXGXDXDXDXLXGXDXDXDXDXHXGXGXGXGXGXGXGXGXGXGXDXDXDXDXGXGXAXNXHXJXNXJXJXDXCXMX*XX.> O X @ # . . % $ . .   X       5 f ` 2.3.3.=.&.@.@.@.@.@.B V V s s C ,.&.&.=.8.&.s < o X   ; l L K.c.z.U R u.a.a.R T U R R R R R R R R a.i.I s.c.( 8 O : 6 s 3 . X @   O O O O     n lXGXNXBXHXBXVXDXDXLXGXGXDXDXDXDXJXGXGXGXGXGXGXGXGXDXDXDXDXDXDXDXDXGXFXDXDXDXDXGXGXDXLXGXGXDXDXDXGXGXGXDXDXDXDXGXGXDXGXGXDXGXHXGXNXDX",
"HXHXHXHXHXHXHXHXHXGXDXNXDXDXNXNXDXDXDXDXGXJXHXHXJXHXHXHXJXDXDXVXDXDXDXDXNXNXDXGXHXHXHXHXHXHXHXHXDXDXDXNXNXDXDXDXDXDXDXHXHXMXHXJXJXGXGXCXlX*X*Xb     >           . . . . o * 5 5 6 a d Z %.&.&.&.C Z ` ` e . . q s Z Z C B Z ,.` a * X O ; l J c.z.v.a.R R R R R R R ~ R R R R R R ~ ~ x.( t . X   * . . o   > O O O # : b =XVXLXHXDXJXFXJXAXMXFXNXDXDXDXNXNXDXHXHXHXHXHXHXHXHXHXDXDXDXDXDXDXDXDXDXDXFXJXHXHXHXHXGXHXHXGXDXNXDXDXDXDXDXDXDXGXHXHXJXHXHXGXHXHXJXNXNX",
"HXHXHXHXHXHXHXHXHXGXNXNXNXNXBXMXNXVXDXDXGXHXHXHXHXHXHXHXJXDXNXBXNXDXDXNXBXBXDXGXJXJXHXHXHXHXHXHXDXDXNXBXBXNXDXDXBXNXDXLXHXHXLXHXJXPXJXJXDXFXJXJXjXUXjX0 O @   O O O O O               o 5 e g ` @.@.V %.,.a .   . #   X X * Z %.S s 6 &   . 1 x z.z.z.v.a.R U I ! ~ ~ ~ R R R R Q d.b.h.t @ X . . @ = O   o   - o v hXjXJXNXHXJXJXJXLXLXZXAXJXMXBXNXDXNXBXNXDXHXHXHXHXHXHXHXHXHXNXNXNXNXNXNXNXNXNXDXGXHXHXHXHXHXGXHXHXGXDXBXNXDXDXNXNXDXDXGXHXHXHXHXHXJXHXHXHXNXDX",
"HXHXHXHXHXHXHXHXJXDXVXNXAXDXAXNXDXDXDXDXGXHXHXHXHXHXHXHXGXDXDXNXAXDXDXDXVXAXFXHXHXHXHXHXHXHXHXHXDXDXDXDXDXAXAXAXNXDXDXHXHXHXHXHXJXHXHXGXDXNXDXDXDXHXHXDXjX=Xv   . + + .       # + O               * f ` <.,.A B f 6 < e e g ` e . a 2.h e . - = . t L Z.z.d.i.p.I i.s.~ s.s.z.k.c.( l 1 : X X X   # O   @   # X.VXDXDXGXHXHXHXHXHXHXHXHXGXDXDXVXBXNXNXNXNXDXGXHXHXHXHXHXHXHXHXHXAXAXVXVXNXNXNXNXBXNXDXHXHXHXHXGXGXHXHXGXDXNXNXDXAXAXVXAXDXDXGXHXHXHXGXHXHXHXGXDXNX",
"HXHXHXHXHXHXHXHXHXGXDXAXDXDXDXNXNXNXDXDXGXHXHXHXHXHXHXHXGXDXNXBXNXVXDXNXNXNXDXGXHXHXHXHXHXHXHXHXVXVXNXNXNXNXNXNXDXDXGXHXHXHXHXHXHXHXHXHXDXNXNXNXMXVXDXAXFXLXzXUXa 5 .   . . + + . O                 . * e h >.,.%.%.$.$.$.&.&.V d B &.&.&.Z a .   O ; t P h.z.c.z.z.z.b.c.Z./ ( l t ; + O   . .   > q v =XjXjXDXBXNXDXGXHXHXHXHXHXHXHXHXGXDXNXBXNXNXDXAXVXDXGXHXHXHXHXHXHXHXHXHXDXDXDXDXDXDXDXDXNXDXGXHXHXHXHXGXHXHXHXJXDXNXBXNXNXNXNXVXDXGXHXHXHXHXHXHXHXHXGXDXDX",
"HXHXHXHXHXHXHXHXHXJXDXDXDXDXVXNXNXVXDXDXGXHXHXHXHXHXHXHXGXDXNXNXNXAXDXVXNXNXDXGXHXHXHXHXHXHXHXHXDXAXVXVXVXNXNXNXDXDXGXHXHXHXHXHXHXHXHXJXDXNXNXDXDXGXDXMXMXFXLXLXzX3X2.f * . . .     .           O @   . . . $ % a d Z Z Z Z d #.` h g s Z h g < .   @ @ O 1 y P _ G F F y t ; + O O @ @ @ # . v =XGXHXDXAXAXDXJXNXAXDXGXHXHXHXHXHXHXHXHXGXDXNXNXNXAXDXDXAXDXGXHXHXHXHXHXHXHXHXHXVXVXVXNXNXNXNXNXDXDXHXHXHXHXHXJXHXHXHXGXDXNXNXNXNXNXNXVXDXGXHXHXHXHXHXHXHXHXGXDXNX",
"HXHXJXJXJXHXHXHXHXJXDXVXVXVXNXBXDXDXDXDXGXGXJXHXJXHXHXHXGXDXDXDXDXDXDXDXVXDXFXHXGXGXHXHXHXHXGXGXDXDXDXDXDXDXDXDXNXDXDXGXHXHXHXHXGXHXHXGXDXDXDXDXBXDXDXMXMXAXLXJXJXJXLXzX3X>.f 6           # O O       O @   O #   . . . o o   o # . . . .   @   $ . o X         O O O O O + + O           @ -XCXJXHXDXNXAXAXDXMXDXDXDXGXHXHXJXGXGXHXHXHXGXDXDXDXNXVXDXVXNXVXDXJXHXHXJXJXJXHXHXHXAXAXVXVXVXNXNXNXDXDXGXHXHXHXHXHXGXJXHXGXDXNXDXDXDXDXDXDXDXDXGXJXHXGXGXHXHXHXGXDXNX",
"HXHXHXHXHXHXHXHXHXDXVXNXNXNXNXBXNXVXDXDXGXHXHXHXHXHXHXHXGXDXNXNXNXAXDXAXNXNXDXGXHXHXHXHXHXHXHXHXAXAXAXAXAXAXVXVXBXNXDXGXHXHXHXHXHXHXHXGXDXNXNXDXBXNXDXAXFXJXJXJXHXJXJXJXZXZXzXzX=X2.f o         @       O @ O O O # . . . . . .     X O O   X X X     . . o       #   # @         . .   b mXSXSXDXFXAXFXDXBXJXDXNXAXDXGXHXHXHXHXHXHXHXHXGXDXNXNXNXNXVXNXBXNXDXGXHXHXHXHXHXHXHXHXDXDXDXDXDXDXDXDXVXDXDXHXHXHXHXHXHXHXHXGXDXNXNXDXAXVXVXDXDXGXHXHXHXHXHXHXHXHXGXDXDX",
"HXHXHXHXHXHXHXHXGXDXNXNXVXDXAXNXBXBXNXDXGXHXHXHXHXHXHXHXLXDXBXMXBXNXNXNXBXBXVXDXHXHXHXHXHXHXHXHXNXNXNXNXNXNXNXNXBXNXDXGXHXHXHXHXHXHXHXHXDXBXBXBXHXDXBXMXNXDXFXDXZXJXJXHXJXGXJXJXZXZXZXDXNXkX-Xb q v v v v v q & O O O O     @     @     .         X @     . . % X X   # . . . + X q b NXHXDXHXLXHXDXBXBXBXNXDXjXMXBXDXGXHXHXHXHXHXHXHXHXDXDXBXMXNXAXDXNXNXNXDXFXHXHXHXHXHXHXHXHXNXNXNXNXNXNXNXNXVXDXDXGXHXHXHXHXHXHXHXJXDXBXBXBXBXBXNXAXDXHXHXHXHXHXHXHXHXHXHXGXNX",
"GXGXHXJXHXHXHXGXJXDXDXDXDXGXGXGXNXDXDXDXGXGXJXHXGXJXHXHXGXDXDXNXVXDXDXDXNXAXDXJXHXHXHXHXHXHXHXHXDXDXDXDXDXDXDXDXDXDXGXGXHXGXGXDXGXHXHXGXDXDXDXDXLXAXBXNXDXGXHXHXLXLXJXJXJXJXJXJXLXDXBXMXBXDXHXHXBXHXHXDXDXJXBXUX0 0 0 0 0 :     + + + . + . . . $ . .   X @ + . . . #     0 0 0 @XBXJXGXJXHXLXPXJXDXDXVXBXDXDXGXNXDXDXGXGXHXGXGXGXHXHXHXGXDXDXNXDXFXGXDXDXDXDXJXGXGXHXJXHXHXHXGXVXVXVXVXNXNXNXNXDXDXDXDXDXDXDXGXGXHXHXGXDXNXNXDXDXDXDXDXDXGXJXHXHXHXJXHXHXHXGXDXNX",
"DXDXDXDXDXDXDXDXHXGXDXDXJXHXHXHXHXHXHXGXDXDXNXNXBXNXDXGXHXHXHXHXJXHXHXJXGXJXHXHXDXDXDXDXDXDXDXDXHXHXHXHXHXHXHXHXHXHXHXHXGXDXDXNXBXDXDXDXLXGXHXHXJXHXHXHXHXFXPXPXPXPXPXVXVXCXCXCXJXHXHXHXJXFXJXHXFXGXJXGXDXDXNXZXGXCXLXZXZXkX2.2.b b n n X.X.b *Xb b b b b b b b b *XFX-XkXGXGXGXJXJXMXSXGXlXSXMXDXBXHXHXHXHXDXHXHXHXHXHXLXDXNXBXBXNXDXGXHXHXHXHXJXHXHXGXDXDXJXHXDXDXDXDXDXDXDXDXHXHXHXHXHXHXHXHXHXJXGXDXDXNXNXNXBXNXDXDXDXGXHXHXHXHXJXDXDXVXNXNXDXDXDXDXDXDXNXBXHX",
"NXNXNXVXVXVXVXVXNXDXHXHXHXHXHXHXHXHXHXDXNXNXNXDXNXDXDXNXDXJXHXHXHXHXHXHXHXHXHXDXVXVXVXVXVXVXVXVXGXGXHXHXHXHXHXHXHXJXDXNXNXAXAXNXDXNXNXDXGXHXHXHXHXHXHXHXHXDXDXVXAXNXNXDXVXBXDXHXHXHXHXHXHXHXHXHXHXDXBXVXDXNXNXAXNXDXDXGXHXHXHXHXHXHXHXHXHXHXHXHXGXGXGXGXHXHXHXHXHXHXHXHXHXHXHXHXNXNXNXNXNXNXNXNXDXDXHXHXHXHXHXHXHXHXJXDXNXDXDXNXNXDXDXNXAXJXHXHXHXHXJXHXHXHXDXDXVXVXVXVXVXVXVXVXHXHXHXHXHXHXHXHXHXHXNXNXVXNXDXNXDXNXNXDXGXHXHXHXHXHXHXHXGXDXDXNXAXNXNXDXVXBXDXHXHX"
};
