/* XPM */
static char *dc1cd7e988e34c81bc6f59065c4438fbdj40RXwlBAjGoy9v[] = {
/* columns rows colors chars-per-pixel */
"225 225 97 2 ",
"   c white",
".  c #EEEEEE",
"X  c #FFB5D9",
"o  c gray93",
"O  c #F9F9F9",
"+  c #F3F3F3",
"@  c #F6F6F6",
"#  c #FFD6EB",
"$  c gray95",
"%  c #954E4E",
"&  c #FFD9EE",
"*  c #89403A",
"=  c #893E3A",
"-  c #E4B6C6",
";  c #EAACCE",
":  c gray99",
">  c #883736",
",  c #904244",
"<  c #9B5055",
"1  c #FEF3F8",
"2  c #9A5556",
"3  c #FEBEE6",
"4  c #B08786",
"5  c #B27B7F",
"6  c #D496AE",
"7  c #8D4542",
"8  c #D28CA2",
"9  c #E9D7D9",
"0  c #FFC1E9",
"q  c #AB8786",
"w  c #DCCCCC",
"e  c #FFBBE1",
"r  c #CAB7B7",
"t  c #FFD0EA",
"y  c #F3ACCC",
"u  c #C3AEAE",
"i  c #FFEAFE",
"p  c #FFF2FE",
"a  c #B2727D",
"s  c #9B5859",
"d  c #D5C2C2",
"f  c #96494C",
"g  c #FFD2EB",
"h  c #984B4F",
"j  c #853632",
"k  c #565958",
"l  c #B69897",
"z  c #A7656B",
"x  c #FFC8E4",
"c  c #716C6C",
"v  c #A25B61",
"b  c #5A5B5A",
"n  c #998E8D",
"m  c #C7A6A8",
"M  c #AD9D9D",
"N  c #96666C",
"B  c #BBA7A7",
"V  c #ECDEE2",
"C  c #BD9098",
"Z  c #996260",
"A  c #822A28",
"S  c #AA6E72",
"D  c #E5CAD1",
"F  c #DFA5C1",
"G  c #D3B1B5",
"H  c #AD646F",
"J  c #A57674",
"K  c #D8A6B5",
"L  c #EEBFD2",
"P  c #F1CEE0",
"I  c #E59DB9",
"U  c #FFE6FE",
"Y  c #FFE0F0",
"T  c #FFCAEE",
"R  c #C08A96",
"E  c #C78092",
"W  c #F8B9D8",
"Q  c #DC97AD",
"!  c #A5757F",
"~  c #46544D",
"^  c #98807D",
"/  c #D29DB7",
"(  c #726263",
")  c #816362",
"_  c #BB9DA7",
"`  c #807D77",
"'  c #625756",
"]  c #B4B2B2",
"[  c #B98EA3",
"{  c #A89092",
"}  c #BB93AB",
"|  c #9E7D81",
" . c #7D6F75",
".. c #666664",
"X. c #745B5E",
"o. c #C28A9E",
"O. c #4A4A49",
/* pixels */
"                  O o . . . . . . . o O                   . . . . . . . . . $                   @ o . . . . . . . o :                   o . . . . . . . o @                   $ . . . . . . . . o                   O o . . . . . . . o O                   . . . . . . . . . $                   @ o . . . . . . . o :                   o . . . . . . . o @                   $ . . . . . . . . o                   O o . . . . . . . o O                   . . ",
"                  O o . . . . . . . o O                   . . . . . . . . . $                   @ o . . . . . . . o :                   o . . . . . . . o @                   $ . . . . . . . . o                   O o . . . . . . . o O                   . . . . . . . . . $                   @ o . . . . . . . o :                   o . . . . . . . o @                   $ . . . . . . . . o                   O o . . . . . . . o O                   . . ",
"                  O o . . . . . . . o O                   . . . . . . . . . $                   @ o . . . . . . . o :                   o . . . . . . . o @                   $ . . . . . . . . o                   O o . . . . . . . o O                   . . . . . . . . . $                   @ o . . . . . . . o :                   o . . . . . . . o @                   $ . . . . . . . . o                   O o . . . . . . . o O                   . . ",
"                  O o . . . . . . . o O                   . . . . . . . . . $                   @ o . . . . . . . o :                   o . . . . . . . o @                   $ . . . . . . . . o                   O o . . . . . . . o O                   . . . . . . . . . $                   @ o . . . . . . . o :                   o . . . . . . . o @                   $ . . . . . . . . o                   O o . . . . . . . o O                   . . ",
"                  O o . . . . . . . o O                   . . . . . . . . . $                   @ o . . . . . . . o :                   o . . . . . . . o @                   $ . . . . . . . . o                   O o . . . . . . . o O                   . . . . . . . . . $                   @ o . . . . . . . o :                   o . . . . . . . o @                   $ . . . . . . . . o                   O o . . . . . . . o O                   . . ",
"                  O o . . . . . . . o O                   . . . . . . . . . $                   @ o . . . . . . . o :                   o . . . . . . . o @                   $ . . . . . . . . o                   O o . . . . . . . o O                   . . . . . . . . . $                   @ o . . . . . . . o :                   o . . . . . . . o @                   $ . . . . . . . . o                   O o . . . . . . . o O                   . . ",
"                  O o . . . . . . . o O                   . . . . . . . . . $                   @ o . . . . . . . o :                   o . . . . . . . o @                   $ . . . . . . . . o                   O o . . . . . . . o O                   . . . . . . . . . $                   @ o . . . . . . . o :                   o . . . . . . . o @                   $ . . . . . . . . o                   O o . . . . . . . o O                   . . ",
"                  O o . . . . . . . o O                   . . . . . . . . . $                   @ o . . . . . . . o :                   o . . . . . . . o @                   $ . . . . . . . . o                   O o . . . . . . . o O                   . . . . . . . . . $                   @ o . . . . . . . o :                   o . . . . . . . o @                   $ . . . . . . . . o                   O o . . . . . . . o O                   . . ",
"                  : o . . . . . . . o O                   . o . . . . . . o $                   @ o . . . . . . . o :                   o . . . . . . . o @                   $ o . . . . . . . o                   O o . . . . . . . o O                   . o . . . . . . o $                   @ o . . . . . . . o :                   o . . . . . . . o @                   $ o . . . . . . . o                   O o . . . . . . . o O                   . . ",
"O O O O O O O O : O $ + + + + + + + $ @ O O O O O O O O O + + + + + + + + + + O O O O O O O O O @ + + + + + + + + $ O O O O O O O O O O $ + + + + + + + + @ O O O O O O O O O + + + + + + + + + $ O O O O O O O O O O $ + + + + + + + $ @ O O O O O O O O O + + + + + + + + + + O O O O O O O O O @ + + + + + + + + $ O O O O O O O O : O $ + + + + + + + $ @ : O O O O O O O : @ + + + + + + + + + : O O O O O O O : O $ + + + + + + + $ O : O O O O O O O : + + ",
"o o o o o o o o o $                                                                                                                                                                                                                                                                                                               O o o .                   O o o o o o o o o o :                   o o o o o o o o o +                   + o o o o o o o o o     ",
". . . . . . . . . +                 V C q q q q q q q q q q q q q q q q q q q q q q q q q q q q q q q q q q q q q q q q q q q q q q q q q q q q q q q q q q q q q q q q q q q q q q q q q q q q q q q q q q q q q q q q q q q q q q q q q q q q q q q q q q q q q q q q q q q q q q q q q q q q q q q q q q q q q q q q q q q q q m $ . .                   O o . . . . . . . o :                   o . . . . . . . . +                   + . . . . . . . . o     ",
". . . . . . . . . +                 Z > , = , , = = , , , = , , , , , , , , = = , , = = , , 7 = , , , , , , , , , , , , = = , , = = , , = , , , , , , , , = = , , , = = , , = = , , , , , , , , = , , = = , , , = = , , , , , , , , , 7 , = = , , 7 = , , 7 = , , , , , , , , = = , , = = , , , = 7 , , , , , , , , , = , , , = = A u O .                   O o . . . . . . . o :                   o . . . . . . . . +                   + . . . . . . . . o     ",
". . . . . . . . . +               : % % % 7 7 , , , , , , , 7 7 7 7 7 7 7 7 , , , , , , , , , , , 7 7 7 7 7 7 7 7 , , , , , , , , , , , , 7 7 7 7 7 7 7 7 , , , , , , , , , , , 7 7 7 7 7 7 7 7 , , , , , , , , , , , 7 7 7 7 7 7 7 7 7 , , , , , , , , , , , 7 7 7 7 7 7 7 7 , , , , , , , , , , , 7 7 7 7 7 7 7 7 7 , , , 7 % % , l   .                   O o . . . . . . . o :                   o . . . . . . . . +                   + . . . . . . . . o     ",
". . . . . . . . . +               : % % 7 S 5 5 5 5 5 5 5 5 5 5 5 5 5 5 5 5 5 5 5 5 5 5 5 5 5 5 5 5 5 5 5 5 5 5 5 5 5 5 5 5 5 5 5 5 5 5 5 5 5 5 5 5 5 5 5 5 5 5 5 5 5 5 5 5 5 5 5 5 5 5 5 5 5 5 5 5 5 5 5 5 5 5 5 5 5 5 5 5 5 5 5 5 5 5 5 5 5 5 5 5 5 5 5 5 5 5 5 5 5 5 5 5 5 5 5 5 5 5 5 5 5 5 5 5 5 5 5 5 5 5 5 5 5 5 5 5 5 % % , l   .                   O o . . . . . . . o :                   o . . . . . . . . +                   + . . . . . . . . o     ",
". . . . . . . . . +               : % % , D p i p i p i p i p i p i p i p i p i p i p i p i p i p i p i p p p p i p i p i p i p i p i p i p i p i p i p i p i p i p i p p p p i p i p i p i p i p i p i p i p i p i p i p i p i p i p i p p p p i p i p i p i p i p i p i p i p i p i p i p i p i p i p i p p i p i p i p p : z 7 , l   .                   O o . . . . . . . o :                   o . . . . . . . . +                   + . . . . . . . . o     ",
". . . . . . . . . +               : % % = - # g g t t t t t t t t x t x t x t x t x t t t t t t t t t t t t t t t t t t t t t t x t x t x t x t x t x t t t t t t t t t t t t t t t t t t t t t t x t x t x t x t x t t t t t t t t t t t t t t t t t t t t t t x t x t x t x t x t x t t t t t t t t t t t t t t t t t t t i z 7 , l   .                   O o . . . . . . . o :                   o . . . . . . . . +                   + . . . . . . . . o     ",
". . . . . . . . . +               : % % = - & # x X X X X X X X X X X X X X X X X X X X X X X X X X X X X X X X X X X X X X X X X X X X X X X X X X X X X X X X X X X X X X X X X X X X X X X X X X X X X X X X X X X X X X X X X X X X X X X X X X X X X X X X X X X X X X X X X X X X X X X X X X X X X X X X X X X X X X 0 z 7 , l   .                   O o . . . . . . . o :                   o . . . . . . . . +                   + . . . . . . . . o     ",
"o o o o o o o o o $               : % % = - & # x X X X X X X X X X X X X X X X X X X X X X X X X X X X X X X X X X X X X X X X X X X X X X X X X X X X X X X X X X X X X X X X X X X X X X X X X X X X X X X X X X X X X X X X X X X X X X X X X X X X X X X X X X X X X X X X X X X X X X X X X X X X X X X X X X X X X X 0 z 7 , l   .                   O o o o o o o o o o :                   . $ $ $ $ $ $ o o +                   + o o o o o o o o o     ",
"O O O O O O O O O @ + @ @ @ @ + @   % % = - & # x X X X X X X X X X X X X X X X X X X X X X X X X X X X X X X X X X X X X X X X X X X X X X X X X X X X X X X X X X X X X X X X X X X X X X X X X X X X X X X X X X X X X X X X X X X X X X X X X X X X X X X X X X X X X X X X X X X X X X X X X X X X X X X X X X X X X X 0 z 7 , l   O + @ @ @ @ @ @ @ + @ O O O O O O O O O @ + + + @       o   O : O : O : O   O @ + @ @ @ @ @ @ @ + @ O O O O O O O O O @ @ ",
"                  : o o o o o o o @ 2 % = - & # x X X X X X X X X X X X X X X X X X X X X X X X X X X X X X X X X X X X X X X X X X X X X X X X X X X X X X X X X X X X X X X X X X X X X X X X X X X X X X X X X X X X X X X X X X X X X X X X X X X X X X X X X X X X X X X X X X X X X X X X X X X X X X X X X X X X X X 0 z 7 , l     o o o o o o o o o @                   $ $ O @ o w 4 f = = = = = = = = j S @ : o o o o o o o o o O                   o o ",
"                  O o . . . . . . @ s % = F & # x X X X X X X X X X X X X X X X X X X X X X X X X X X X X X X X X X X X X X X X X X X X X X X X X X X X X X X X X X X X X X X X X X X X X X X X X X X X X X X X X X X X X X X X X X X X X X X X X X X X X X X X X X X X X X X X X X X X X X X X X X X X X X X X X X X X X X 0 z 7 , l     o . . . . . . . o @                     o G 4 Z > , % % % % % % % % % % , 9 : o . . . . . . . o O                   . . ",
"                  O o . . . . . . O z 7 7 C & # x X X X X X X X X X X X X X X X X X X X X X X X X X X X X X X X X X X X X X X X X X X X X X X X X X X X X X X X X X X X X X X X X X X X X X X X X X X X X X X X X X X X X X X X X X X X X X X X X X X X X X X X X X X X X X X X X X X X X X X X X X X X X X X X X X X X X X 0 v % , m     o . . . . . . . o @               V d z A > 7 % % % % % % > % = 7 7 % % , 9 : o . . . . . . . o O                   . . ",
"                  O o . . . . . o   S 7 7 H p # t X X X X X X X X X X X X X X X X X X X X X X X X X X X X X X X X X X X X X X X X X X X X X X X X X X X X X X X X X X X X X X X X X X X X X X X X X X X X X X X X X X X X X X X X X X X X X X X X X X X X X X X X X X X X X X X X X X X X X X X X X X X X X X X X X X X X e 3 7 % j d     o . . . . . . . o @         o m J % = 7 % % 7 = 7 z 7 = K 9 L - P P < % , 9 : o . . . . . . . o O                   . . ",
"                  O o . . . . . o   B , % % g # & W X X X X X X X X X X X X X X X X X X X X X X X X X X X X X X X X X X X X X X X X X X X X X X X X X X X X X X X X X X X X X X X X X X X X X X X X X X X X X X X X X X X X X X X X X X X X X X X X X X X X X X X X X X X X X X X X X X X X X X X X X X X X X X X X X X X e F = % > V     o . . . . . o $ O   1 d K Z j > 7 % % 7 * % E 6 e W % = - & & & & T < % , 9 : o . . . . . . . o O                   . . ",
"                  O o . . . . . . + w > % j P # # 0 X X X X X X X X X X X X X X X X X X X X X X X X X X X X X X X X X X X X X X X X X X X X X X X X X X X X X X X X X X X X X X X X X X X X X X X X X X X X X X X X X X X X X X X X X X X X X X X X X X X X X X X X X X X X X X X X X X X X X X X X X X X X X X X X X X X e o.7 % Z .     o . o . $ O : $ w 5 z > 7 7 % % 7 7 2 a I W e e e ; * = - & # # & # < % , 9 : o . . . . . . . o O                   . . ",
"                  O o . . . . . . . . s % = o.& # x X X X X X X X X X X X X X X X X X X X X X X X X X X X X X X X X X X X X X X X X X X X X X X X X X X X X X X X X X X X X X X X X X X X X X X X X X X X X X X X X X X X X X X X X X X X X X X X X X X X X X X X X X X X X X X X X X X X X X X X X X X X X X X X X X X X 3 v % 7 4       o $ : : o r q , > 7 % % 7 = 7 H 8 F e 0 e X X X X ; * = - & # # & g < % , 9 : o . . . . . . . o O                   . . ",
"                  O o . . . . . . . + l , % % L & # e X X X X X X X X X X X X X X X X X X X X X X X X X X X X X X X X X X X X X X X X X X X X X X X X X X X X X X X X X X X X X X X X X X X X X X X X X X X X X X X X X X X X X X X X X X X X X X X X X X X X X X X X X X X X X X X X X X X X X X X X X X X X X X X X X 3 8 * % > 9       + 9 r Z % = , % % 7 * % z 8 y 3 e e X X X X X X X ; * = - & # # & t < % , 9 : o . . . . . . . o O                   . . ",
"                  : o o o o o o o o + V > % 7 J U Y x X X X X X X X X X X X X X X X X X X X X X X X X X X X X X X X X X X X X X X X X X X X X X X X X X X X X X X X X X X X X X X X X X X X X X X X X X X X X X X X X X X X X X X X X X X X X X X X X X X X X X X X X X X X X X X X X X X X X X X X X X X X X X X X e 0 Q 7 % 7 Z     9 m S > = 7 % % 7 = * z 8 ; e 3 X X X X X X X X X X X ; * = - & # # & g < % , 9 : o o o o o o o o o O                   o o ",
". . . . . . . . . +                     5 = % 7 a L g T e e e e e e e e e e e e e e e e e e e e e e e e e e e e e e e e e e e e e e e e e e e e e e e e e e e e e e e e e e e e e e e e e e e e e e e e e e e e e e e e e e e e e e e e e e e e e e e e e e e e e e e e e e e e e e e e e e e e e e e e e e e e e W I a 7 % % % r 4 s = = 7 % % 7 7 v a 6 e 3 e X X X X X X X X X X X X X X ; * = - & # t & # < % , 9 @                   + . . . . . . . . .     ",
". . . . . . . . o +                   O o s 7 % 7 % a R 6 6 6 6 6 6 6 6 6 6 6 6 6 6 6 6 6 6 6 6 6 6 6 6 6 6 6 6 6 6 6 6 6 6 6 6 6 6 6 6 6 6 6 6 6 6 6 6 6 6 6 6 6 6 6 6 6 6 6 6 6 6 6 6 6 6 6 6 6 6 6 6 6 6 6 6 6 6 6 6 6 6 6 6 6 6 6 6 6 6 6 6 6 6 6 6 6 6 6 6 6 6 6 6 6 6 6 6 6 6 6 6 6 6 6 6 6 6 6 6 6 6 6 6 E % * 7 % % % % f , % % 7 7 j % E F e 3 3 X X X X X X X X X X X X X X X X X ; * = - & # # & # < % , 9 @                   + o . . . . . . . o     ",
". . . . . . . . . +                   + + o s > % % 7 7 = 7 7 7 7 7 7 7 7 7 7 7 7 7 7 7 7 7 7 7 7 7 7 7 7 7 7 7 7 7 7 7 7 7 7 7 7 7 7 7 7 7 7 7 7 7 7 7 7 7 7 7 7 7 7 7 7 7 7 7 7 7 7 7 7 7 7 7 7 7 7 7 7 7 7 7 7 7 7 7 7 7 7 7 7 7 7 7 7 7 7 7 7 7 7 7 7 7 7 7 7 7 7 7 7 7 7 7 7 7 7 7 7 7 7 7 7 7 7 7 7 7 7 7 7 % % % % % % % 7 7 = 7 v o.y 3 0 X X X X X X X X X X X X X X X X X X X X X ; * = - & # # & t < % , 9 @                   + . . . . . . . . o     ",
". . . . . . . . . +                   @ o @ o l A 7 % % 7 = = = = * = = = = = = = = = = = = = = = = = = * = * = * = * = * = * = * = * = = = = = = = = = = = = = = = = * = * = * = * = * = * = * = * = = = = = * = = * = = = = = = = = = * = * = * = * = * = * = * = * = = = = = * = = = = = = = = = = 7 % % % % % % % % % % 7 = j J R ; e 3 e X X X X X X X X X X X X X X X X X X X X X X X ; * = - & # # & t < % , 9 @                   + . . . . . . . . o     ",
". . . . . . . . . +                   @ o . . @ $ C , % v 9 L y y y y y y y y y y y y y y y y y y y y y y y y y y y y y y y y y y y y y y y y y y y y y y y y y y y y y y y y y y y y y y y y y y y y y y y y y y y y y y y y y y y y y y y y y y y y y y y y y y y y y y y y y y y y y y y y y W W y Q z % % % % % % 7 * % H 6 e 0 0 X X X X X X X X X X X X X X X X X X X X X X X X X X X ; * = - & # t & # < % , 9 @                   + . . . . . . . . o     ",
". . . . . . . . . +                   @ . . . .   r > % < 1 Y X e X X e e e e e e e e e e e e e e e e e e e e e e e e e e e e e e e e e e e e e e e e e e e e e e e e e e e e e e e e e e e e e e e e e e e e e e e e e e e e e e e e e e e e e e e e e e e e e e e e e e e e e e e e e e e 3 3 I R H % 7 % % % 7 = % a I W 0 e X X X X X X X X X X X X X X X X X X X X X X X X X X X X X X ; * = - & # # & # < % , 9 @                   + . . . . . . . . o     ",
". . . . . . . . . +                   @ o . . o O r > % < 1 # X X X e ; 6 6 6 6 6 6 6 6 6 6 6 6 6 6 6 6 6 6 6 6 6 6 6 6 6 6 6 6 6 6 6 6 6 6 6 6 6 6 6 6 6 6 6 6 6 6 6 6 6 6 6 6 6 6 6 6 6 6 6 6 6 6 6 6 6 6 6 6 6 6 6 6 6 6 6 6 6 6 6 6 6 6 6 6 6 6 6 6 6 6 6 6 6 6 6 6 6 6 6 6 6 6 6 6 6 6 6 v j 7 % % 7 7 7 % 8 F e 0 e X X X X X X X X X X X X X X X X X X X X X X X X X X X X X X X X X ; * = - & # # & g < % , 9 @                   + . . . . . . . . o     ",
". . . . . . . . . +                   @ o . . o O r > % < 1 # X X X 3 v * * * * * * * * * * * * * * * * * * * * * * * * * * * * * * * * * * * * * * * * * * * * * * * * * * * * * * * * * * * * * * * * * * * * * * * * * * * * * * * * * * * * * * * * * * * * * * * * * * * * * * * * * = 7 7 % % 7 % z 8 y W 0 e X X X X X X X X X X X X X X X X X X X X X X X X X X X X X X X X X X X X ; * = - & # # & t < % , 9 @                   + . . . . . . . . o     ",
". . . . . . . . o +                   + o . . o O r > % < 1 # X X X 3 2 % 7 h f > h > h > h > h , , , f f , , f f , > f > f > h > h > h , , , f f , , f f > h > h > h > h > h f , , , f f , , f f > h > h > h > h > h f , , f f , , , f > h > f > f > f , , f f , , f f , , , f > h > h > f = % % % 6 ; e 0 X X X X X X X X X X X X X X X X X X X X X X X X X X X X X X X X X X X X X X X X ; * = - & # t & g < % , 9 @                   + o . . . . . . . o     ",
"$ $ $ $ $ $ $ $ $ + : : : : : : : : : @ $ $ $ $ : r > % < 1 # X X X 3 s , 4 $ o . o . o . o . o o $ $ $ $ $ $ $ $ $ $ o . o . o . o . o $ $ $ $ $ $ $ $ + . o . o o o o o o o . $ $ $ $ $ $ $ $ + . o . o o o o o o o + $ $ $ $ $ $ $ + o o o . o . o . o o $ $ $ $ $ $ $ $ $ + o o o o o $ d = % 2 0 e X X X X X X X X X X X X X X X X X X X X X X X X X X X X X X X X X X X X X X X X X X ; * = - & # # & # < % , 9 @ : : : : : : : : : @ $ $ $ $ $ $ $ $ $ : : ",
"                  : o o o o o o o o o O           r > % < 1 # X X X 3 s , 4                     O . . . . . . . . o                     o . . . . . . . . :                   + . . . . . . . . o                   : o . . . . . . . .                     . . . . . . . . . $             w > % 2 3 X X X X X X X X X X X X X X X X X X X X X X X X X X X X X X X X X X X X X X X X X X X ; * = - & # # & g < % , 9 : o o o o o o o o o O                   o o ",
"                  O o . . . . . . . o O           d > % < 1 # X X X 3 s , 4 :                   @ o . . . . . . . o :                   o . . . . . . . o @                   $ . . . . . . . . o                   O o . . . . . . . o O                   . . . . . . . . . $             w > % 2 3 X X X X X X X X X X X X X X X X X X X X X X X X X X X X X X X X X X X X X X X X X X X ; * = - & # g & t < % , 9 : o . . . . . . . o O                   . . ",
"                  O o . . . . . . . o O           r > % < 1 # X X X 3 s , 4 :                   @ o . . . . . . . o :                   o . . . . . . . o @                   $ . . . . . . . . o                   O o . . . . . . . o O                   . . . . . . . . . $             w > % 2 3 X X X X X X X X X X X X X X X X X X X X X X X X X X X X X X X X X X X X X X X X X X X ; * = - & # g & t < % , 9 : o . . . . . . . o O                   . . ",
"                  O o . . . . . . . o O           r > % < 1 # X X X 3 s , 4 :                   @ o . . . . . . . o :                   o . . . . . . . o @                   $ . . . . . . . . o                   O o . . . . . . . o O                   . . . . . . . . . $             w > % 2 3 X X X X X X X X X X X X X X X X X X X X X X X X X X X X X X X X X X X X X X X X X X X ; * = - & # # & # < % , 9 : o . . . . . . . o O                   . . ",
"                  O o . . . . . . . o O           r > % < 1 # X X X 3 s , 4 :                   @ o . . . . . . . o :                   o . . . . . . . o @                   $ . . . . . . . . o                   O o . . . . . . . o O                   . . . . . . . . . $             w > % 2 3 X X X X X X X X X X X X X X X X X X X X X X X X X X X X X X X X X X X X X X X X X X X ; * = - & # # & # < % , 9 : o . . . . . . . o O                   . . ",
"                  O o . . . . . . . o O           r > % < 1 # X X X 3 s , 4 :                   @ o . . . . . . . o :                   o . . . . . . . o @                   $ . . . . . . . . o                   O o . . . . . . . o O                   . . . . . . . . . $             w > % 2 3 X X X X X X X X X X X X X X X X X X X X X X X X X X X X X X X X X X X X X X X X X X X ; * = - & # g & t < % , 9 : o . . . . . . . o O                   . . ",
"                  O o . . . . . . . o O           d > % < 1 # X X X 3 s , 4 :                   @ o . . . . . . . o :                   o . . . . . . . o @                   $ . . . . . . . . o                   O o . . . . . . . o O                   . . . . . . . . . $             w > % 2 3 X X X X X X X X X X X X X X X X X X X X X X X X X X X X X X X X X X X X X X X X X X X ; * = - & # g & t < % , 9 : o . . . . . . . o O                   . . ",
"                  O o . . . . . . . o O           r > % < 1 # X X X 3 s , 4 :                   @ o . . . . . . . o :                   o . . . . . . . o @                   $ . . . . . . . . o                   O o . . . . . . . o O                   . . . . . . . . . $             w > % 2 3 X X X X X X X X X X X X X X X X X X X X X X X X X X X X X X X X X X X X X X X X X X X ; * = - & # # & g < % , 9 : o . . . . . . . o O                   . . ",
"                  : o o o o o o o o o O           r > % < 1 # X X X 3 s , 4 :                   @ o o o o o o o o o :                   o o o o o o o o o @                   $ o o o o o o o o o                   O o o o o o o o o o O                   . o o o o o o o o $             w > % 2 3 X X X X X X X X X X X X X X X X X X X X X X X X X X X X X X X X X X X X X X X X X X X ; * = - & # # & # < % , 9 : o o o o o o o o o O                   o o ",
"@ @ @ @ @ @ @ @ @ @ @ @ @ @ @ @ @ @ @ @ @ @ @ @   d > % < 1 # X X X 3 s , 4 : @ @ @ @ @ @ @ @ @ @ @ @ @ @ @ @ @ @ @ @ @ @ @ @ @ @ @ @ @ @ @ @ @ @ @ @ @ @ @ @ @ @ @ @ @ @ @ @ @ @ @ @ @ @ @ @ @ @ @ @ @ @ @ @ @ @ @ @ @ @ @ @ @ @ @ @ @ @ @ @ @ @ @ @ @ @ @ @ @ @ @ @ @ @ @ @ @ @ @ @ @ @   w > % 2 3 X X X X X X X X X X X X X X X X X X X X X X X X X X X X X X X X X X X X X X X X X X X ; * = - & # t & g < % , 9 O @ @ @ @ @ @ @ @ @ @ @ @ @ @ @ @ @ @ @ @ @ ",
"o o o o o o o o o $                   + o o o o O r > % < 1 # X X X 3 s , 4 O o o o o o o o o o @                   $ o o o o o o o o .                   O o o o o o o o o o :                   o o o o o o o o o +                   + o o o o o o o o o                   : o o o o o O w > % 2 3 X X X X X X X X X X X X X X X X X X X X X X X X X X X X X X X X X X X X X X X X X X X ; * = - & # # & t < % , 9 @                   + o o o o o o o o o     ",
". . . . . . . . . +                   @ o . . o O r > % < 1 # X X X 3 s , 4 : . . . . . . . . o @                   $ . . . . . . . . .                   O o . . . . . . . o :                   o . . . . . . . . +                   + o . . . . . . . o                   : o . . . o O w > % 2 3 X X X X X X X X X X X X X X X X X X X X X X X X X X X X X X X X X X X X X X X X X X X ; * = - & # # & g < % , 9 @                   + . . . . . . . . o     ",
". . . . . . . . . +                   @ . . . o O r > % < 1 # X X X 3 s , 4 : . . . . . . . . o @                   $ . . . . . . . . .                   O o . . . . . . . o :                   o . . . . . . . . +                   + . . . . . . . . o                   : o . . . o O w > % 2 3 X X X X X X X X X X X X X X X X X X X X X X X X X X X X X X X X X X X X X X X X X X X ; * = - & # # & # < % , 9 @                   + . . . . . . . . o     ",
". . . . . . . . . +                   @ o . . o O r > % < 1 # X X X 3 s , 4 : . . . . . . . . o @                   $ . . . . . . . . .                   O o . . . . . . . o :                   o . . . . . . . . +                   + . . . . . . . . o                   : o . . . o O w > % 2 3 X X X X X X X X X X X X X X X X X X X X X X X X X X X X X X X X X X X X X X X X X X X ; * = - & # t & # < % , 9 @                   + . . . . . . . . o     ",
". . . . . . . . . +                   @ o . . o O r > % < 1 # X X X 3 s , 4 : . . . . . . . . o @                   $ . . . . . . . . .                   O o . . . . . . . o :                   o . . . . . . . . +                   + . . . . . . . . o                   : o . . . o O w > % 2 3 X X X X X X X X X X X X X X X X X X X X X X X X X X X X X X X X X X X X X X X X X X X ; * = - & # # & t < % , 9 @                   + . . . . . . . . o     ",
". . . . . . . . . +                   @ . . . o O r > % < 1 # X X X 3 s , 4 : . . . . . . . . o @                   $ . . . . . . . . .                   O o . . . . . . . o :                   o . . . . . . . . +                   + . . . . . . . . o                   : o . . . o O w > % 2 3 X X X X X X X X X X X X X X X X X X X X X X X X X X X X X X X X X X X X X X X X X X X ; * = - & # # & t < % , 9 @                   + . . . . . . . . o     ",
". . . . . . . . . +                   @ o . . o O r > % < 1 # X X X 3 s , 4 : . . . . . . . . o @                   $ . . . . . . . . .                   O o . . . . . . . o :                   o . . . . . . . . +                   + . . . . . . . . o                   : o . . . o O w > % 2 3 X X X X X X X X X X X X X X X X X X X X X X X X X X X X X X X X X X X X X X X X X X X ; * = - & # # & g < % , 9 @                   + . . . . . . . . o     ",
". . . . . . . . . +                   @ . . . o O r > % < 1 # X X X 3 s , 4 : . . . . . . . . o @                   $ . . . . . . . . .                   O o . . . . . . . o :                   o . . . . . . . . +                   + . . . . . . . . o                   : o . . . o O w > % 2 3 X X X X X X X X X X X X X X X X X X X X X X X X X X X X X X X X X X X X X X X X X X X ; * = - & # t & # < % , 9 @                   + . . . . . . . . o     ",
"o o o o o o o o o $                   + o o o o O r > % < 1 # X X X 3 s , 4 O o o o o o o o o o @                   $ o o o o o o o o .                   O o o o o o o o o o :                   o o o o o o o o o +                   + o o o o o o o o o                   : o o o o o O w > % 2 3 X X X X X X X X X X X X X X X X X X X X X X X X X X X X X X X X X X X X X X X X X X X ; * = - & # # & g < % , 9 @                   + o o o o o o o o o     ",
": : : : : : : : : O $ $ $ $ $ $ $ $ $ O : : : :   r > % < 1 # X X X 3 s , 4 : : : : : : : : : : @ $ $ $ $ $ $ $ $ $ : : : : : : : : : : $ $ $ $ $ $ $ $ $ @ : : : : : : : : : + $ $ $ $ $ $ $ $ $ : : : : : : : : : O $ $ $ $ $ $ $ $ $ O : : : : : : : : : $ $ $ $ $ $ $ $ $ + : : : : :   w > % 2 3 X X X X X X X X X X X X X X X X X X X X X X X X X X X X X X X X X X X X X X X X X X X ; * = - & # # & t < % , 9 : $ $ $ $ $ $ $ $ $ O : : : : : : : : : $ $ ",
"                  : o . . . . . . . o O           d > % < 1 # X X X 3 s , 4 :                   @ o . . . . . . . o :                   o . . . . . . . o @                   $ o . . . . . . . o                   O o . . . . . . . o O                   . . . . . . . . o $             w > % 2 3 X X X X X X X X X X X X X X X X X X X X X X X X X X X X X X X X X X X X X X X X X X X ; * = - & # # & g < % , 9 : o . . . . . . . o O                   . . ",
"                  O o . . . . . . . o O           r > % < 1 # X X X 3 s , 4 :                   @ o . . . . . . . o :                   o . . . . . . . o @                   $ . . . . . . . . o                   O o . . . . . . . o O                   . . . . . . . . . $             w > % 2 3 X X X X X X X X X X X X X X X X X X X X X X X X X X X X X X X X X X X X X X X X X X X ; * = - & # t & # < % , 9 : o . . . . . . . o O                   . . ",
"                  O o . . . . . . . o O           r > % < 1 # X X X 3 s , 4 :                   @ o . . . . . . . o :                   o . . . . . . . o @                   $ . . . . . . . . o                   O o . . . . . . . o O                   . . . . . . . . . $             w > % 2 3 X X X X X X X X X X X X X X X X X X X X X X X X X X X X X X X X X X X X X X X X X X X ; * = - & # # & g < % , 9 : o . . . . . . . o O                   . . ",
"                  O o . . . . . . . o O           d > % < 1 # X X X 3 s , 4 :                   @ o . . . . . . . o :                   o . . . . . . . o @                   $ . . . . . . . . o                   O o . . . . . . . o O                   . . . . . . . . . $             w > % 2 3 X X X X X X X X X X X X X X X X X X X X X X X X X X X X X X X X X X X X X X X X X X X ; * = - & # # & t < % , 9 : o . . . . . . . o O                   . . ",
"                  O o . . . . . . . o O           r > % < 1 # X X X 3 s , 4 :                   @ o . . . . . . . o :                   o . . . . . . . o @                   $ . . . . . . . . o                   O o . . . . . . . o O                   . . . . . . . . . $             w > % 2 3 X X X X X X X X X X X X X X X X X X X X X X X X X X X X X X X X X X X X X X X X X X X ; * = - & # # & t < % , 9 : o . . . . . . . o O                   . . ",
"                  O o . . . . . . . o O           r > % < 1 # X X X 3 s , 4 :                   @ o . . . . . . . o :                   o . . . . . . . o @                   $ . . . . . . . . o                   O o . . . . . . . o O                   . . . . . . . . . $             w > % 2 3 X X X X X X X X X X X X X X X X X X X X X X X X X X X X X X X X X X X X X X X X X X X ; * = - & # t & # < % , 9 : o . . . . . . . o O                   . . ",
"                  O o . . . . . . . o O           r > % < 1 # X X X 3 s , 4 :                   @ o . . . . . . . o :                   o . . . . . . . o @                   $ . . . . . . . . o                   O o . . . . . . . o O                   . . . . . . . . . $             w > % 2 3 X X X X X X X X X X X X X X X X X X X X X X X X X X X X X X X X X X X X X X X X X X X ; * = - & # # & # < % , 9 : o . . . . . . . o O                   . . ",
"                  O o . . . . . . . o O           r > % < 1 # X X X 3 s , 4 :                   @ o . . . . . . . o :                   o . . . . . . . o @                   $ o . . . . . . . o                   O o . . . . . . . o O                   . . . . . . . . . $             w > % 2 3 X X X X X X X X X X X X X X X X X X X X X X X X X X X X X X X X X X X X X X X X X X X ; * = - & # # & t < % , 9 : o . . . . . . . o O                   . . ",
"                  O . . . . . . . . . O           d > % < 1 # X X X 3 s , 4 :                   @ . . . . . . . . . :                 : . . . . . . . . . @                   + . . . . . . . . .                   O . . . . . . . . . O                   . . . . . . . . . $             w > % 2 3 X X X X X X X X X X X X X X X X X X X X X X X X X X X X X X X X X X X X X X X X X X X ; * = - & # # & t < % , 9 : . . . . . . . . . O                   . . ",
"o o o o o o o o o $                   + o o o o O r > % < 1 # X X X 3 s , 4 O o o o o o o o o o @                   $ o o o o o o o o .                   O o o o o o o o o o :                   o o o o o o o o o +                   + o o o o o o o o o                   : o o o o o O w > % 2 3 X X X X X X X X X X X X X X X X X X X X X X X X X X X X X X X X X X X X X X X X X X X ; * = - & # t & g < % , 9 @                   + o o o o o o o o o     ",
". . . . . . . . . +                   @ o . . o O r > % < 1 # X X X 3 s , 4 : . . . . . . . . o @                   $ . . . . . . . . .                   O o . . . . . . . o :                   o . . . . . . . . +                   + . . . . . . . . o                   : o . . . o O w > % 2 3 X X X X X X X X X X X X X X X X X X X X X X X X X X X X X X X X X X X X X X X X X X X ; * = - & # # & # < % , 9 @                   + . . . . . . . . o     ",
". . . . . . . . . +                   @ o . . o O r > % < 1 # X X X 3 s , 4 : . . . . . . . . o @                   $ . . . . . . . . .                   O o . . . . . . . o :                   o . . . . . . . . +                   + . . . . . . . . o                   : o . . . o O w > % 2 3 X X X X X X X X X X X X X X X X X X X X X X X X X X X X X X X X X X X X X X X X X X X ; * = - & # # & g < % , 9 @                   + . . . . . . . . o     ",
". . . . . . . . . +                   @ . . . o O r > % < 1 # X X X 3 s , 4 : . . . . . . . . o @                   $ . . . . . . . . .                   O o . . . . . . . o :                   o . . . . . . . . +                   + . . . . . . . . o                   : o . . . o O w > % 2 3 X X X X X X X X X X X X X X X X X X X X X X X X X X X X X X X X X X X X X X X X X X X ; * = - & # g & t < % , 9 @                   + . . . . . . . . o     ",
". . . . . . . . . +                   @ o . . o O r > % < 1 # X X X 3 s , 4 : . . . . . . . . o @                   $ . . . . . . . . .                   O o . . . . . . . o :                   o . . . . . . . . +                   + o . . . . . . . o                   : o . . . o O w > % 2 3 X X X X X X X X X X X X X X X X X X X X X X X X X X X X X X X X X X X X X X X X X X X ; * = - & # t & g < % , 9 @                   + . . . . . . . . o     ",
". . . . . . . . . +                   @ . . . o O r > % < 1 # X X X 3 s , 4 : . . . . . . . . o @                   $ . . . . . . . . .                   O o . . . . . . . o :                   o . . . . . . . . +                   + . . . . . . . . o                   : o . . . o O w > % 2 3 X X X X X X X X X X X X X X X X X X X X X X X X X X X X X X X X X X X X X X X X X X X ; * = - & # # & # < % , 9 @                   + . . . . . . . . o     ",
". . . . . . . . . +                   @ o . . o O r > % < 1 # X X X 3 s , 4 : . . . . . . . . o @                   $ . . . . . . . . .                   O o . . . . . . . o :                   o . . . . . . . . +                   + o . . . . . . . o                   : o . . . o O w > % 2 3 X X X X X X X X X X X X X X X X X X X X X X X X X X X X X X X X X X X X X X X X X X X ; * = - & # # & # < % , 9 @                   + . . . . . . . . o     ",
". . . . . . . . . +                   @ . . . o O r > % < 1 # X X X 3 s , 4 : . . . . . . . . o @                   $ . . . . . . . . .                   O o . . . . . . . o :                   o . . . . . . . . +                   + . . . . . . . . o                   : o . . . o O w > % 2 3 X X X X X X X X X X X X X X X X X X X X X X X X X X X X X X X X X X X X X X X X X X X ; * = - & # g & t < % , 9 @                   + . . . . . . . . o     ",
"o o o o o o o o o $                   + o o o o O r > % < 1 # X X X 3 s , 4 O o o o o o o o o o @                   $ o o o o o o o o .                   O o o o o o o o o o :                   o o o o o o o o o +                   + o o o o o o o o o                   : o o o o o O w > % 2 3 X X X X X X X X X X X X X X X X X X X X X X X X X X X X X X X X X X X X X X X X X X X ; * = - & # g & t < % , 9 @                   + o o o o o o o o o     ",
"@ @ @ @ @ @ @ @ @ @ O O O O O O O O O @ @ @ @ @   r > % < 1 # X X X 3 s , 4 : @ @ @ @ @ @ @ @ @ @ O O O O O O O O O @ @ @ @ @ @ @ @ @ @ O O O O O O O O O @ @ @ @ @ @ @ @ @ @ @ O O O O O O O O O @ @ @ @ @ @ @ @ @ @ O O O O O O O O O @ @ @ @ @ @ @ @ @ @ O O O O O O O O O O @ @ @ @ @ : w > % 2 3 X X X X X X X X X X X X X X X X X X X X X X X X X X X X X X X X X X X X X X X X X X X ; * = - & # # & g < % , 9 O O O O O O O O O O @ @ @ @ @ @ @ @ @ @ O O ",
"                  : o o o o o o o o o O           r > % < 1 # X X X 3 s , 4 :                   @ o o o o o o o o o :                   o o o o o o o o o @                   $ o o o o o o o o o                   O o o o o o o o o o O                   . o o o o o o o o $             w > % 2 3 X X X X X X X X X X X X X X X X X X X X X X X X X X X X X X X X X X X X X X X X X X X ; * = - & # # & # < % , 9 : o o o o o o o o o O                   o o ",
"                  O o . . . . . . . o O           d > % < 1 # X X X 3 s , 4 :                   @ o . . . . . . . o :                   o . . . . . . . o @                   $ . . . . . . . . o                   O o . . . . . . . o O                   . . . . . . . . . $             w > % 2 3 X X X X X X X X X X X X X X X X X X X X X X X X X X X X X X X X X X X X X X X X X X X ; * = - & # t & g < % , 9 : o . . . . . . . o O                   . . ",
"                  O o . . . . . . . o O           r > % < 1 # X X X 3 s , 4 :                   @ o . . . . . . . o :                   o . . . . . . . o @                   $ . . . . . . . . o                   O o . . . . . . . o O                   . . . . . . . . . $             w > % 2 3 X X X X X X X X X X X X X X X X X X X X X X X X X X X X X X X X X X X X X X X X X X X ; * = - & # g & t < % , 9 : o . . . . . . . o O                   . . ",
"                  O o . . . . . . . o O           d > % < 1 # X X X 3 s , 4 :                   @ o . . . . . . . o :                   o . . . . . . . o @                   $ . . . . . . . . o                   O o . . . . . . . o O                   . . . . . . . . . $             w > % 2 3 X X X X X X X X X X X X X X X X X X X X X X X X X X X X X X X X X X X X X X X X X X X ; * = - & # # & g < % , 9 : o . . . . . . . o O                   . . ",
"                  O o . . . . . . . o O           r > % < 1 # X X X 3 s , 4 :                   @ o . . . . . . . o :                   o . . . . . . . o @                   $ . . . . . . . . o                   O o . . . . . . . o O                   . . . . . . . . . $             w > % 2 3 X X X X X X X X X X X X X X X X X X X X X X X X X X X X X X X X X X X X X X X X X X X ; * = - & # # & # < % , 9 : o . . . . . . . o O                   . . ",
"                  O o . . . . . . . o O           r > % < 1 # X X X 3 s , 4 :                   @ o . . . . . . . o :                   o . . . . . . . o @                   $ . . . . . . . . o                   O o . . . . . . . o O                   . . . . . . . . . $             w > % 2 3 X X X X X X X X X X X X X X X X X X X X X X X X X X X X X X X X X X X X X X X X X X X ; * = - & # t & # < % , 9 : o . . . . . . . o O                   . . ",
"                  O o . . . . . . . o O           d > % < 1 # X X X 3 s , 4 :                   @ o . . . . . . . o :                   o . . . . . . . o @                   $ . . . . . . . . o                   O o . . . . . . . o O                   . . . . . . . . . $             w > % 2 3 X X X X X X X X X X X X X X X X X X X X X X X X X X X X X X X X X X X X X X X X X X X ; * = - & # # & t < % , 9 : o . . . . . . . o O                   . . ",
"                  O o . . . . . . . o O           r > % < 1 # X X X 3 s , 4 :                   @ o . . . . . . . o :                   o . . . . . . . o @                   $ . . . . . . . . o                   O o . . . . . . . o O                   . . . . . . . . . $             w > % 2 3 X X X X X X X X X X X X X X X X X X X X X X X X X X X X X X X X X X X X X X X X X X X ; * = - & # # & t < % , 9 : o . . . . . . . o O                   . . ",
"                  : o o o o o o o o o O           d > % < 1 # X X X 3 s , 4 :                   @ o o o o o o o o o :                   o o o o o o o o o @                   $ o o o o o o o o o                   O o o o o o o o o o O                   o o o o o o o o o $             w > % 2 3 X X X X X X X X X X X X X X X X X X X X X X X X X X X X X X X X X X X X X X X X X X X ; * = - & # # & # < % , 9 : o o o o o o o o o O                   o o ",
"$ $ $ $ $ $ $ $ $ @ : : : : : : : : : @ $ $ $ $ : r > % < 1 # X X X 3 s , 4 : $ $ $ $ $ $ $ $ $ @ : : : : : : : : : + $ $ $ $ $ $ $ $ + : : : : : : : : : @ $ $ $ $ $ $ $ $ $ O : : : : : : : : : $ $ $ $ $ $ $ $ $ @ : : : : : : : : : @ $ $ $ $ $ $ $ $ $ : : : : : : : : : O $ $ $ $ $ : w > % 2 3 X X X X X X X X X X X X X X X X X X X X X X X X X X X X X X X X X X X X X X X X X X X ; * = - & # t & # < % , 9 O : : : : : : : : : @ $ $ $ $ $ $ $ $ $ : : ",
". . . . . . . . o +                   + o . . o O r > % < 1 # X X X 3 s , 4 O o . . . . . . . o @                   $ o . . . . . . o .                   O o . . . . . . . o :                   o . . . . . . . o +                   + o . . . . . . . o                   : o . . . o O w > % 2 3 X X X X X X X X X X X X X X X X X X X X X X X X X X X X X X X X X X X X X X X X X X X ; * = - & # # & g < % , 9 @                   + o . . . . . . . o     ",
". . . . . . . . . +                   @ . . . o O r > % < 1 # X X X 3 s , 4 : . . . . . . . . o @                   $ . . . . . . . . .                   O o . . . . . . . o :                   o . . . . . . . . +                   + . . . . . . . . o                   : o . . . o O w > % 2 3 X X X X X X X X X X X X X X X X X X X X X X X X X X X X X X X X X X X X X X X X X X X ; * = - & # # & t < % , 9 @                   + . . . . . . . . o     ",
". . . . . . . . . +                   @ o . . o O r > % < 1 # X X X 3 s , 4 : . . . . . . . . o @                   $ . . . . . . . . .                   O o . . . . . . . o :                   o . . . . . . . . +                   + o . . . . . . . o                   : o . . . o O w > % 2 3 X X X X X X X X X X X X X X X X X X X X X X X X X X X X X X X X X X X X X X X X X X X ; * = - & # # & g < % , 9 @                   + . . . . . . . . o     ",
". . . . . . . . . +                   @ . . . o O r > % < 1 # X X X 3 s , 4 : . . . . . . . . o @                   $ . . . . . . . . .                   O o . . . . . . . o :                   o . . . . . . . . +                   + . . . . . . . . o                   : o . . . o O w > % 2 3 X X X X X X X X X X X X X X X X X X X X X X X X X X X X X X X X X X X X X X X X X X X ; * = - & # t & # < % , 9 @                   + . . . . . . . . o     ",
". . . . . . . . . +                   @ o . . o O r > % < 1 # X X X 3 s , 4 : . . . . . . . . o @                   $ . . . . . . . . .                   O o . . . . . . . o :                   o . . . . . . . . +                   + o . . . . . . . o                   : o . . . o O w > % 2 3 X X X X X X X X X X X X X X X X X X X X X X X X X X X X X X X X X X X X X X X X X X X ; * = - & # # & g < % , 9 @                   + . . . . . . . . o     ",
". . . . . . . . . +                   @ . . . o O r > % < 1 # X X X 3 s , 4 : . . . . . . . . o @                   $ . . . . . . . . .                   O o . . . . . . . o :                   o . . . . . . . . +                   + . . . . . . . . o                   : o . . . o O w > % 2 3 X X X X X X X X X X X X X X X X X X X X X X X X X X X X X X X X X X X X X X X X X X X ; * = - & # # & t < % , 9 @                   + . . . . . . . . o     ",
". . . . . . . . . +                   @ o . . o O r > % < 1 # X X X 3 s , 4 : . . . . . . . . o @                   $ . . . . . . . . .                   O o . . . . . . . o :                   o . . . . . . . . +                   + . . . . . . . . o                   : o . . . o O w > % 2 3 X X X X X X X X X X X X X X X X X X X X X X X X X X X X X X X X X X X X X X X X X X X ; * = - & # # & t < % , 9 @                   + . . . . . . . . o     ",
". . . . . . . . . +                   @ o . . o O r > % < 1 # X X X 3 s , 4 : . . . . . . . . o @                   $ . . . . . . . . .                   O o . . . . . . . o :                   o . . . . . . . . +                   + o . . . . . . . o                   : o . . . o O w > % 2 3 X X X X X X X X X X X X X X X X X X X X X X X X X X X X X X X X X X X X X X X X X X X ; * = - & # t & # < % , 9 @                   + . . . . . . . . o     ",
"o o o o o o o o o $                   + o o o o O r > % < 1 # X X X 3 s , 4 O o o o o o o o o o @                   $ o o o o o o o o .                   O o o o o o o o o o :                   o o o o o o o o o +                   + o o o o o o o o o                   : o o o o o O w > % 2 3 X X X X X X X X X X X X X X X X X X X X X X X X X X X X X X X X X X X X X X X X X X X ; * = - & # # & # < % , 9 @                   + o o o o o o o o o     ",
"                  : o o o o o o o o o O           r > % < 1 # X X X 3 s , 4                     @ o o o o o o o o o :                   o o o o o o o o o @                   $ o o o o o o o o o                   : o o o o o o o o o O                   o o o o o o o o o $             w > % 2 3 X X X X X X X X X X X X X X X X X X X X X X X X X X X X X X X X X X X X X X X X X X X ; * = - & # # & t < % , 9 : o o o o o o o o o O                   o o ",
"                  O o . . . . . . . o O           d > % < 1 # X X X 3 s , 4 :                   @ o . . . . . . . o :                   o . . . . . . . o @                   $ . . . . . . . . o                   O o . . . . . . . o O                   . . . . . . . . . $             w > % 2 3 X X X X X X X X X X X X X X X X X X X X X X X X X X X X X X X X X X X X X X X X X X X ; * = - & # # & t < % , 9 : o . . . . . . . o O                   . . ",
"                  O o . . . . . . . o O           r > % < 1 # X X X 3 s , 4 :                   @ o . . . . . . . o :                   o . . . . . . . o @                   $ . . . . . . . . o                   O o . . . . . . . o O                   . . . . . . . . . $             w > % 2 3 X X X X X X X X X X X X X X X X X X X X X X X X X X X X X X X X X X X X X X X X X X X ; * = - & # t & g < % , 9 : o . . . . . . . o O                   . . ",
"                  O o . . . . . . . o O           r > % < 1 # X X X 3 s , 4 :                   @ o . . . . . . . o :                   o . . . . . . . o @                   $ . . . . . . . . o                   O o . . . . . . . o O                   . . . . . . . . . $             w > % 2 3 X X X X X X X X X X X X X X X X X X X X X X X X X X X X X X X X X X X X X X X X X X X ; * = - & # # & # < % , 9 : o . . . . . . . o O                   . . ",
"                  O o . . . . . . . o O           d > % < 1 # X X X 3 s , 4 :                   @ o . . . . . . . o :                   o . . . . . . . o @                   $ . . . . . . . . o                   O o . . . . . . . o O                   . . . . . . . . . $             w > % 2 3 X X X X X X X X X X X X X X X X X X X X X X X X X X X X X X X X X X X X X X X X X X X ; * = - & # # & g < % , 9 : o . . . . . . . o O                   . . ",
"                  O o . . . . . . . o O           r > % < 1 # X X X 3 s , 4 :                   @ o . . . . . . . o :                   o . . . . . . . o @                   $ . . . . . . . . o                   O o . . . . . . . o O                   . . . . . . . . . $             w > % 2 3 X X X X X X X X X X X X X X X X X X X X X X X X X X X X X X X X X X X X X X X X X X X ; * = - & # g & t < % , 9 : o . . . . . . . o O                   . . ",
"                  O o . . . . . . . o O           d > % < 1 # X X X 3 s , 4 :                   @ o . . . . . . . o :                   o . . . . . . . o @                   $ . . . . . . . . o                   O o . . . . . . . o O                   . . . . . . . . . $             w > % 2 3 X X X X X X X X X X X X X X X X X X X X X X X X X X X X X X X X X X X X X X X X X X X ; * = - & # t & g < % , 9 : o . . . . . . . o O                   . . ",
"                  O o . . . . . . . o O           r > % < 1 # X X X 3 s , 4 :                   @ o . . . . . . . o :                   o . . . . . . . o @                   $ . . . . . . . . o                   O o . . . . . . . o O                   . . . . . . . . . $             w > % 2 3 X X X X X X X X X X X X X X X X X X X X X X X X X X X X X X X X X X X X X X X X X X X ; * = - & # # & # < % , 9 : o . . . . . . . o O                   . . ",
"                  : o . . . . . . . o O           r > % < 1 # X X X 3 s , 4 :                   @ o . . . . . . . o :                   o . . . . . . . o @                   $ o . . . . . . . o                   O o . . . . . . . o O                   . o . . . . . . o $             w > % 2 3 X X X X X X X X X X X X X X X X X X X X X X X X X X X X X X X X X X X X X X X X X X X ; * = - & # # & # < % , 9 : o . . . . . . . o O                   . o ",
"O O O O O O O O O O + + + + + + + + + @ O O O O   d > % < 1 # X X X 3 s , 4 : O O O O O O O O O @ + + + + + + + + + O O O O O O O O O O + + + + + + + + + @ O O O O O O O O O @ + + + + + + + + + : O O O O O O O O O + + + + + + + + + O O O O O O O O O : + + + + + + + + + + O O O O O   w > % 2 3 X X X X X X X X X X X X X X X X X X X X X X X X X X X X X X X X X X X X X X X X X X X ; * = - & # g & t < % , 9 : + + + + + + + + + O O O O O O O O O : + + ",
"o o o o o o o o o $                   + o o o o O r > % < 1 # X X X 3 s , 4 O o o o o o o o o o @                   $ o o o o o o o o .                   O o o o o o o o o o :                   o o o o o o o o o +                   + o o o o o o o o o                   : o o o o o O w > % 2 3 X X X X X X X X X X X X X X X X X X X X X X X X X X X 0 0 0 0 0 X X X X X X X X X X X ; * = - & # g & t < % , 9 @                   + o o o o o o o o o     ",
". . . . . . . . . +                   @ o . . o O r > % < 1 # X X X 3 s , 4 : . . . . . . . . o @                   $ . . . . . . . . .                   O o . . . . . . . o :                   o . . . . . . . . +                   + o . . . . . . . o                   : o . . . o O w > % 2 3 X X X X X X X X X X X X X X X X X X X X X X X X X 0 ; ! N ~ b ^ / W 3 X X X X X X X X ; * = - & # # & # < % , d                     + . . . . . . . . o     ",
". . . . . . . . . +                   @ . . . o O r > % < 1 # X X X 3 s , 4 : . . . . . . . . o @                   $ . . . . . . . . .                   O o . . . . . . . o :                   o . . . . . . . . +                   + . . . . . . . . o                   : o . . . o O w > % 2 3 X X X X X X X X X X X X X X X X X X X X X X X X 0 6 ( k k b b k b ( 6 e X X X X X X X ; * = - & # # & # < % f ) M @                 + . . . . . . . . o     ",
". . . . . . . . . +                   @ o . . o O r > % < 1 # X X X 3 s , 4 : . . . . . . . . o @                   $ . . . . . . . . .                   O o . . . . . . . o :                   o . . . . . . . . +                   + o . . . . . . . o                   : o . . . o O w > % 2 3 X X X X X X X X X X X X X X X X X X X X X X X e _ ~ k ' ^ n n c k k k ` ; 3 X X X X X ; * = - & # t & g < % % ' k ` @               + . . . . . . . . o     ",
". . . . . . . . . +                   @ o . . o O r > % < 1 # X X X 3 s , 4 : . . . . . . . . o @                   $ . . . . . . . . .                   O o . . . . . . . o :                   o . . . . . . . . +                   + . . . . . . . . o                   : o . . . o O w > % 2 3 X X X X X X X X X X X X X X X X X X X X X X e F b b ..u r u u r l ) k k b F 3 X X X X ; * = - & # g & t < % % ( k k n O             + . . . . . . . . o     ",
". . . . . . . . . +                   @ o . . o O r > % < 1 # X X X 3 s , 4 : . . . . . . . . o @                   $ . . . . . . . . .                   O o . . . . . . . o :                   o . . . . . . . . +                   + . . . . . . . . o                   : o . . . o O w > % 2 3 X X X X X X X X X X X X X X X X X X X X X X e X.k c u G u u u u u r { ' b k ; e X X X ; * = - & # # & g < % f m ` b O.w             + . . . . . . . . o     ",
". . . . . . . . . +                   @ . . . o O r > % < 1 # X X X 3 s , 4 : . . . . . . . . o @                   $ . . . . . . . . .                   O o . . . . . . . o :                   o . . . . . . . . +                   + . . . . . . . . o                   : o . . . o O w > % 2 3 X X X X X X X X X X X X X X X X X X X X X e 6 k k C ` ..( C u u u u u C ' b X.; X X X ; * = - & # # & # < % f m u c b c             + . . . . . . . . o     ",
". . . . . . . . . +                   @ o . . o O r > % < 1 # X X X 3 s , 4 : . . . . . . . . o @                   $ . . . . . . . . .                   O o . . . . . . . o :                   o . . . . . . . . +                   + o . . . . . . . o                   : o . . . o O w > % 2 3 X X X X X X X X X X X X X X X X X X X X X W ^ k k M k k k ( u u u u u r { k k o.0 X X ; * = - & # t & g < % f m r | k ' D           + . . . . . . . . o     ",
"o o o o o o o o o $                   + o o o o O r > % < 1 # X X X 3 s , 4 O o o o o o o o o o @                   $ o o o o o o o o .                   O o o o o o o o o o :                   o o o o o o o o o +                   + o o o o o o o o o                   : o o o o o O w > % 2 3 X X X X X X X X X X X X X X X X X X X X X ; ( k M b b M  .k | u u u u u r c b ( y e X ; * = - & # # & t < % 7 l u r k k ]           + o o o o o o o o o     ",
"O O O O O O O O O O + + + + + + + + + @ O O O O   r > % < 1 # X X X 3 s , 4 : O O O O O O O O O @ + + + + + + + + + O O O O O O O O O O + + + + + + + + + @ O O O O O O O O O @ + + + + + + + + + O O O O O O O O O O + + + + + + + + + @ O O O O O O O O O + + + + + + + + + @ O O O O O   w > % 2 3 X X X X X X X X X X X X X X X X X X X X X ; ~ k M k b r l k c r u u u u r M k b } e X ; * = - & # # & t < % % l u r ) k M : + + + + @ O O O O O O O O O + + ",
"                  : o . . . . . . . o O           r > % < 1 # X X X 3 s , 4 :                   @ o . . . . . . . o :                   o . . . . . . . o @                   $ o . . . . . . . o                   O o . . . . . . . o O                   . o . . . . . . o $             w > % 2 3 X X X X X X X X X X X X X X X X X X X X e F k ' l k N d B k c u u u u u u u k k [ X X ; * = - & # # & # < % , l u r N k n O o . . o O                   o o ",
"                  O o . . . . . . . o O           r > % < 1 # X X X 3 s , 4 :                   @ o . . . . . . . o :                   o . . . . . . . o @                   $ . . . . . . . . o                   O o . . . . . . . o O                   . . . . . . . . . $             w > % 2 3 X X X X X X X X X X X X X X X X X X X X e F k ..S k ) d B k c u u u u u u r ) k [ e X ; * = - & # t & # < % 7 l u r N k n O . . . o O                   . . ",
"                  O o . . . . . . . o O           r > % < 1 # X X X 3 s , 4 :                   @ o . . . . . . . o :                   o . . . . . . . o @                   $ . . . . . . . . o                   O o . . . . . . . o O                   . . . . . . . . . $             w > % 2 3 X X X X X X X X X X X X X X X X X X X X X 6 k ( C k ( d B k c u u u u u u r k k [ X X ; * = - & # # & t < % f m u r k b n O . . . o O                   . . ",
"                  O o . . . . . . . o O           d > % < 1 # X X X 3 s , 4 :                   @ o . . . . . . . o :                   o . . . . . . . o @                   $ . . . . . . . . o                   O o . . . . . . . o O                   . . . . . . . . . $             w > % 2 3 X X X X X X X X X X X X X X X X X X X X X ; ~ k { k ( r B k c u u u u u u u k k } e X ; * = - & # # & t < % 7 l u r k k ] @ . . . o O                   . . ",
"                  O o . . . . . . . o O           r > % < 1 # X X X 3 s , 4 :                   @ o . . . . . . . o :                   o . . . . . . . o @                   $ . . . . . . . . o                   O o . . . . . . . o O                   . . . . . . . . . $             w > % 2 3 X X X X X X X X X X X X X X X X X X X X X ; ' k M k b G | k | u u u u u r ` b ..L e X ; * = - & # # & g < % f l u M k b D @ . . . o O                   . . ",
"                  O o . . . . . . . o O           r > % < 1 # X X X 3 s , 4 :                   @ o . . . . . . . o :                   o . . . . . . . o @                   $ . . . . . . . . o                   O o . . . . . . . o O                   . . . . . . . . . $             w > % 2 3 X X X X X X X X X X X X X X X X X X X X X W ` k ..| k c ..b B u u u u u m ( k  .0 X X ; * = - & # t & # < % f m u c b ( O $ . . . o O                   . . ",
"                  O o . . . . . . . o O           d > % < 1 # X X X 3 s , 4 :                   @ o . . . . . . . o :                   o . . . . . . . o @                   $ . . . . . . . . o                   O o . . . . . . . o O                   . . . . . . . . . $             w > % 2 3 X X X X X X X X X X X X X X X X X X X X X e o.k k l ..k k | u u u u r m X.k ' ; e X X ; * = - & # # & g < % 7 m ` b k u   o . . . o O                   . . ",
"                  O o . . . . . . . o O           r > % < 1 # X X X 3 s , 4 :                   @ o . . . . . . . o :                   o . . . . . . . o @                   $ . . . . . . . . o                   O o . . . . . . . o O                   . . . . . . . . . $             w > % 2 3 X X X X X X X X X X X X X X X X X X X X X e X ' b  .u 5 B u u u u r m ) k k [ 0 X X X ; * = - & # # & t < % f ) k b ^ $ . . . . . o O                   . . ",
"                  : o o o o o o o o o O           d > % < 1 # X X X 3 s , 4                     @ o o o o o o o o o :                   o o o o o o o o o @                   $ o o o o o o o o o                   : o o o o o o o o o O                   o o o o o o o o o $             w > % 2 3 X X X X X X X X X X X X X X X X X X X X X X 0 o.k k ` d r u u r r M k b k ! e X X X X ; * = - & # # & g < % % X.k O.V $ o o o o o o O                   o o ",
". . . . . . . . . +                   @ . . . . O r > % < 1 # X X X 3 s , 4 : . . . . . . . . . @                   $ . . . . . . . . .                   O . . . . . . . . o :                   o . . . . . . . . +                   + . . . . . . . . o                   : o . . . . O w > % 2 3 X X X X X X X X X X X X X X X X X X X X X X X W ^ k k ) { B M q b b b ' [ e X X X X X ; * = - & # t & # < % % ( M .                 + . . . . . . . . o     ",
". . . . . . . . . +                   @ o . . o O r > % < 1 # X X X 3 s , 4 : o . . . . . . . o @                   $ . . . . . . . . .                   O o . . . . . . . o :                   o . . . . . . . o +                   + o . . . . . . . o                   : o . . . o O w > % 2 3 X X X X X X X X X X X X X X X X X X X X X X X e y ` k k k k k k k k ../ e X X X X X X ; * = - & # # & # < % , d                     + o . . . . . . . o     ",
". . . . . . . . . +                   @ o . . o O r > % < 1 # X X X 3 s , 4 : . . . . . . . . o @                   $ . . . . . . . . .                   O o . . . . . . . o :                   o . . . . . . . . +                   + . . . . . . . . o                   : o . . . o O w > % 2 3 X X X X X X X X X X X X X X X X X X X X X X X X X e Q ) k k k c | _ 3 e X X X X X X X ; * = - & # # & t < % , 9 @                   + . . . . . . . . o     ",
". . . . . . . . . +                   @ . . . o O r > % < 1 # X X X 3 s , 4 : . . . . . . . . o @                   $ . . . . . . . . .                   O o . . . . . . . o :                   o . . . . . . . . +                   + . . . . . . . . o                   : o . . . o O w > % 2 3 X X X X X X X X X X X X X X X X X X X X X X X X X X e e F F F W e e X X X X X X X X X ; * = - & # # & t < % , 9 @                   + . . . . . . . . o     ",
". . . . . . . . . +                   @ o . . o O r > % < 1 # X X X 3 s , 4 : . . . . . . . . o @                   $ . . . . . . . . .                   O o . . . . . . . o :                   o . . . . . . . . +                   + . . . . . . . . o                   : o . . . o O w > % 2 3 X X X X X X X X X X X X X X X X X X X X X X X X X X X X X e e X X X X X X X X X X X X ; * = - & # t & # < % , 9 @                   + . . . . . . . . o     ",
". . . . . . . . . +                   @ . . . o O r > % < 1 # X X X 3 s , 4 : . . . . . . . . o @                   $ . . . . . . . . .                   O o . . . . . . . o :                   o . . . . . . . . +                   + . . . . . . . . o                   : o . . . o O w > % 2 3 X X X X X X X X X X X X X X X X X X X X X X X X X X X X X X X X X X X X X X X X X X X ; * = - & # # & # < % , 9 @                   + . . . . . . . . o     ",
". . . . . . . . . +                   @ o . . o O r > % < 1 # X X X 3 s , 4 : . . . . . . . . o @                   $ . . . . . . . . .                   O o . . . . . . . o :                   o . . . . . . . . +                   + o . . . . . . . o                   : o . . . o O w > % 2 3 X X X X X X X X X X X X X X X X X X X X X X X X X X X X X X X X X X X X X X X X X X X ; * = - & # # & g < % , 9 @                   + . . . . . . . . o     ",
". . . . . . . . . +                   @ . . . o O r > % < 1 # X X X 3 s , 4 : . . . . . . . . o @                   $ . . . . . . . . .                   O o . . . . . . . o :                   o . . . . . . . . +                   + . . . . . . . . o                   : o . . . o O w > % 2 3 X X X X X X X X X X X X X X X X X X X X X X X X X X X X X X X X X X X X X X X X X X X ; * = - & # g & t < % , 9 @                   + . . . . . . . . o     ",
". . . . . . . . o +                   + o . . o O r > % < 1 # X X X 3 s , 4 : o . . . . . . . o @                   $ o . . . . . . . .                   O o . . . . . . . o :                   o . . . . . . . o +                   + o . . . . . . . o                   : o . . . o O w > % 2 3 X X X X X X X X X X X X X X X X X X X X X X X X X X X X X X X X X X X X X X X X X X X ; * = - & # t & g < % , 9 @                   + o . . . . . . . o     ",
"$ $ $ $ $ $ $ $ $ + : : : : : : : : : @ $ $ $ $ : r > % < 1 # X X X 3 s , 4 : $ $ $ $ $ $ $ $ $ @ : : : : : : : : : + $ $ $ $ $ $ $ $ $ : : : : : : : : : O $ $ $ $ $ $ $ $ $ O : : : : : : : : : $ $ $ $ $ $ $ $ $ + : : : : : : : : : @ $ $ $ $ $ $ $ $ $ : : : : : : : : : O $ $ $ $ $ : w > % 2 3 X X X X X X X X X X X X X X X X X X X X X X X X X X X X X X X X X X X X X X X X X X X ; * = - & # # & # < % , 9 @ : : : : : : : : : @ $ $ $ $ $ $ $ $ $ : : ",
"                  : o o o o o o o o o O           r > % < 1 # X X X 3 s , 4 :                   @ o o o o o o o o o :                   o o o o o o o o o @                   $ o o o o o o o o o                   O o o o o o o o o o O                   o o o o o o o o o $             w > % 2 3 X X X X X X X X X X X X X X X X X X X X X X X X X X X X X X X X X X X X X X X X X X X ; * = - & # # & g < % , 9 : o o o o o o o o o O                   o o ",
"                  O o . . . . . . . o O           d > % < 1 # X X X 3 s , 4 :                   @ o . . . . . . . o :                   o . . . . . . . o @                   $ . . . . . . . . o                   O o . . . . . . . o O                   . . . . . . . . . $             w > % 2 3 X X X X X X X X X X X X X X X X X X X X X X X X X X X X X X X X X X X X X X X X X X X ; * = - & # g & t < % , 9 : o . . . . . . . o O                   . . ",
"                  O o . . . . . . . o O           r > % < 1 # X X X 3 s , 4 :                   @ o . . . . . . . o :                   o . . . . . . . o @                   $ . . . . . . . . o                   O o . . . . . . . o O                   . . . . . . . . . $             w > % 2 3 X X X X X X X X X X X X X X X X X X X X X X X X X X X X X X X X X X X X X X X X X X X ; * = - & # g & t < % , 9 : o . . . . . . . o O                   . . ",
"                  O o . . . . . . . o O           r > % < 1 # X X X 3 s , 4 :                   @ o . . . . . . . o :                   o . . . . . . . o @                   $ . . . . . . . . o                   O o . . . . . . . o O                   . . . . . . . . . $             w > % 2 3 X X X X X X X X X X X X X X X X X X X X X X X X X X X X X X X X X X X X X X X X X X X ; * = - & # # & # < % , 9 : o . . . . . . . o O                   . . ",
"                  O o . . . . . . . o O           r > % < 1 # X X X 3 s , 4 :                   @ o . . . . . . . o :                   o . . . . . . . o @                   $ . . . . . . . . o                   O o . . . . . . . o O                   . . . . . . . . . $             w > % 2 3 X X X X X X X X X X X X X X X X X X X X X X X X X X X X X X X X X X X X X X X X X X X ; * = - & # # & # < % , 9 : o . . . . . . . o O                   . . ",
"                  O o . . . . . . . o O           r > % < 1 # X X X 3 s , 4 :                   @ o . . . . . . . o :                   o . . . . . . . o @                   $ . . . . . . . . o                   O o . . . . . . . o O                   . . . . . . . . . $             w > % 2 3 X X X X X X X X X X X X X X X X X X X X X X X X X X X X X X X X X X X X X X X X X X X ; * = - & # g & g < % , 9 : o . . . . . . . o O                   . . ",
"                  O o . . . . . . . o O           d > % < 1 # X X X 3 s , 4 :                   @ o . . . . . . . o :                   o . . . . . . . o @                   $ . . . . . . . . o                   O o . . . . . . . o O                   . . . . . . . . . $             w > % 2 3 X X X X X X X X X X X X X X X X X X X X X X X X X X X X X X X X X X X X X X X X X X X ; * = - & # g & t < % , 9 : o . . . . . . . o O                   . . ",
"                  O o . . . . . . . o O           r > % < 1 # X X X 3 s , 4 :                   @ o . . . . . . . o :                   o . . . . . . . o @                   $ . . . . . . . . o                   O o . . . . . . . o O                   . . . . . . . . . $             w > % 2 3 X X X X X X X X X X X X X X X X X X X X X X X X X X X X X X X X X X X X X X X X X X X ; * = - & # # & g < % , 9 : o . . . . . . . o O                   . . ",
"                  : o o o o o o o o o O           r > % < 1 # X X X 3 s , 4 :                   @ o o o o o o o o o :                   o o o o o o o o o @                   $ o o o o o o o o o                   O o o o o o o o o o O                   . o o o o o o o o $             w > % 2 3 X X X X X X X X X X X X X X X X X X X X X X X X X X X X X X X X X X X X X X X X X X X ; * = - & # # & # < % , 9 : o o o o o o o o o O                   o o ",
"@ @ @ @ @ @ @ @ @ @ @ @ @ @ @ @ @ @ @ @ @ @ @ @   d > % < 1 # X X X 3 s , 4 : @ @ @ @ @ @ @ @ @ @ @ @ @ @ @ @ @ @ @ @ @ @ @ @ @ @ @ @ @ @ @ @ @ @ @ @ @ @ @ @ @ @ @ @ @ @ @ @ @ @ @ @ @ @ @ @ @ @ @ @ @ @ @ @ @ @ @ @ @ @ @ @ @ @ @ @ @ @ @ @ @ @ @ @ @ @ @ @ @ @ @ @ @ @ @ @ @ @ @ @ @ @ : w > % 2 3 X X X X X X X X X X X X X X X X X X X X X X X X X X X X X X X X X X X X X X X X X X X ; * = - & # t & g < % , 9 O @ @ @ @ @ @ @ @ @ @ @ @ @ @ @ @ @ @ @ @ @ ",
"o o o o o o o o o $                   + o o o o O r > % < 1 # X X X 3 s , 4 O o o o o o o o o o @                   $ o o o o o o o o .                   O o o o o o o o o o :                   o o o o o o o o o +                   + o o o o o o o o o                   : o o o o o O w > % 2 3 X X X X X X X X X X X X X X X X X X X X X X X X X X X X X X X X X X X X X X X X X X X ; * = - & # # & t < % , 9 @                   + o o o o o o o o o     ",
". . . . . . . . . +                   @ o . . o O r > % < 1 # X X X 3 s , 4 : . . . . . . . . o @                   $ . . . . . . . . .                   O o . . . . . . . o :                   o . . . . . . . . +                   + o . . . . . . . o                   : o . . . o O w > % 2 3 X X X X X X X X X X X X X X X X X X X X X X X X X X X X X X X X X X X X X X X X X X X ; * = - & # # & g < % , 9 @                   + . . . . . . . . o     ",
". . . . . . . . . +                   @ . . . o O r > % < 1 # X X X 3 s , 4 : . . . . . . . . o @                   $ . . . . . . . . .                   O o . . . . . . . o :                   o . . . . . . . . +                   + . . . . . . . . o                   : o . . . o O w > % 2 3 X X X X X X X X X X X X X X X X X X X X X X X X X X X X X X X X X X X X X X X X X X X ; * = - & # # & # < % , 9 @                   + . . . . . . . . o     ",
". . . . . . . . . +                   @ o . . o O r > % < 1 # X X X 3 s , 4 : . . . . . . . . o @                   $ . . . . . . . . .                   O o . . . . . . . o :                   o . . . . . . . . +                   + o . . . . . . . o                   : o . . . o O w > % 2 3 X X X X X X X X X X X X X X X X X X X X X X X X X X X X X X X X X X X X X X X X X X X ; * = - & # t & # < % , 9 @                   + . . . . . . . . o     ",
". . . . . . . . . +                   @ . . . o O r > % < 1 # X X X 3 s , 4 : . . . . . . . . o @                   $ . . . . . . . . .                   O o . . . . . . . o :                   o . . . . . . . . +                   + . . . . . . . . o                   : o . . . o O w > % 2 3 X X X X X X X X X X X X X X X X X X X X X X X X X X X X X X X X X X X X X X X X X X X ; * = - & # # & t < % , 9 @                   + . . . . . . . . o     ",
". . . . . . . . . +                   @ . . . o O r > % < 1 # X X X 3 s , 4 : . . . . . . . . o @                   $ . . . . . . . . .                   O o . . . . . . . o :                   o . . . . . . . . +                   + . . . . . . . . o                   : o . . . o O w > % 2 3 X X X X X X X X X X X X X X X X X X X X X X X X X X X X X X X X X X X X X X X X X X X ; * = - & # # & t < % , 9 @                   + . . . . . . . . o     ",
". . . . . . . . . +                   @ o . . o O r > % < 1 # X X X 3 s , 4 : . . . . . . . . o @                   $ . . . . . . . . .                   O o . . . . . . . o :                   o . . . . . . . . +                   + o . . . . . . . o                   : o . . . o O w > % 2 3 X X X X X X X X X X X X X X X X X X X X X X X X X X X X X X X X X X X X X X X X X X X ; * = - & # # & g < % , 9 @                   + . . . . . . . . o     ",
". . . . . . . . . +                   @ o . . o O r > % < 1 # X X X 3 s , 4 : . . . . . . . . o @                   $ . . . . . . . . .                   O o . . . . . . . o :                   o . . . . . . . . +                   + . . . . . . . . o                   : o . . . o O w > % 2 3 X X X X X X X X X X X X X X X X X X X X X X X X X X X X X X X X X X X X X X X X X X X ; * = - & # t & # < % , 9 @                   + . . . . . . . . o     ",
"o o o o o o o o o $                   + o o o o O r > % < 1 # X X X 3 s , 4 O o o o o o o o o o @                   $ o o o o o o o o .                   O o o o o o o o o o :                   o o o o o o o o o +                   + o o o o o o o o o                   : o o o o o O w > % 2 3 X X X X X X X X X X X X X X X X X X X X X X X X X X X X X X X X X X X X X X X X X X X ; * = - & # # & g < % , 9 @                   + o o o o o o o o o     ",
": : : : : : : : : O $ $ $ $ $ $ $ $ $ O : : : :   r > % < 1 # X X X 3 s , 4 : : : : : : : : : : @ $ $ $ $ $ $ $ $ . : : : : : : : : : : . $ $ $ $ $ $ $ $ @ : : : : : : : :   + $ $ $ $ $ $ $ $ $   : : : : : : : : O $ $ $ $ $ $ $ $ $ O : : : : : : : :   $ $ $ $ $ $ $ $ $ +   : : : :   w > % 2 3 X X X X X X X X X X X X X X X X X X X X X X X X X X X X X X X X X X X X X X X X X X X ; * = - & # # & t < % , 9 : $ $ $ $ $ $ $ $ $ O : : : : : : : :   $ $ ",
"                  : o . . . . . . . o O           d > % < 1 # X X X 3 s , 4 :                   @ o . . . . . . . o :                   o . . . . . . . o @                   $ o . . . . . . . o                   O o . . . . . . . o O                   . . . . . . . . o $             w > % 2 3 X X X X X X X X X X X X X X X X X X X X X X X X X X X X X X X X X X X X X X X X X X X ; * = - & # # & g < % , 9 : o . . . . . . . o O                   . . ",
"                  O o . . . . . . . o O           r > % < 1 # X X X 3 s , 4 :                   @ o . . . . . . . o :                   o . . . . . . . o @                   $ . . . . . . . . o                   O o . . . . . . . o O                   . . . . . . . . . $             w > % 2 3 X X X X X X X X X X X X X X X X X X X X X X X X X X X X X X X X X X X X X X X X X X X ; * = - & # t & # < % , 9 : o . . . . . . . o O                   . . ",
"                  O o . . . . . . . o O           r > % < 1 # X X X 3 s , 4 :                   @ o . . . . . . . o :                   o . . . . . . . o @                   $ . . . . . . . . o                   O o . . . . . . . o O                   . . . . . . . . . $             w > % 2 3 X X X X X X X X X X X X X X X X X X X X X X X X X X X X X X X X X X X X X X X X X X X ; * = - & # # & g < % , 9 : o . . . . . . . o O                   . . ",
"                  O o . . . . . . . o O           d > % < 1 # X X X 3 s , 4 :                   @ o . . . . . . . o :                   o . . . . . . . o @                   $ . . . . . . . . o                   O o . . . . . . . o O                   . . . . . . . . . $             w > % 2 3 X X X X X X X X X X X X X X X X X X X X X X X X X X X X X X X X X X X X X X X X X X X ; * = - & # # & t < % , 9 : o . . . . . . . o O                   . . ",
"                  O o . . . . . . . o O           r > % < 1 # X X X 3 s , 4 :                   @ o . . . . . . . o :                   o . . . . . . . o @                   $ . . . . . . . . o                   O o . . . . . . . o O                   . . . . . . . . . $             w > % 2 3 X X X X X X X X X X X X X X X X X X X X X X X X X X X X X X X X X X X X X X X X X X X ; * = - & # # & t < % , 9 : o . . . . . . . o O                   . . ",
"                  O o . . . . . . . o O           d > % < 1 # X X X 3 s , 4 :                   @ o . . . . . . . o :                   o . . . . . . . o @                   $ . . . . . . . . o                   O o . . . . . . . o O                   . . . . . . . . . $             w > % 2 3 X X X X X X X X X X X X X X X X X X X X X X X X X X X X X X X X X X X X X X X X X X X ; * = - & # t & # < % , 9 : o . . . . . . . o O                   . . ",
"                  O o . . . . . . . o O           r > % < 1 # X X X 3 s , 4 :                   @ o . . . . . . . o :                   o . . . . . . . o @                   $ . . . . . . . . o                   O o . . . . . . . o O                   . . . . . . . . . $             w > % 2 3 X X X X X X X X X X X X X X X X X X X X X X X X X X X X X X X X X X X X X X X X X X X ; * = - & # # & # < % , 9 : o . . . . . . . o O                   . . ",
"                  : o . . . . . . . o O           r > % < 1 # X X X 3 s , 4 :                   @ o . . . . . . . o :                   o . . . . . . . o @                   $ o . . . . . . . o                   O o . . . . . . . o O                   . . . . . . . . . $             w > % 2 3 X X X X X X X X X X X X X X X X X X X X X X X X X X X X X X X X X X X X X X X X X X X ; * = - & # # & g < % , 9 : o . . . . . . . o O                   . . ",
"                  O . . . . . . . . . O           d > % < 1 # X X X 3 s , 4 :                   @ . . . . . . . . . :                 : . . . . . . . . . @                   + . . . . . . . . .                   O . . . . . . . . . O                   $ . . . . . . . . $             w > % 2 3 X X X X X X X X X X X X X X X X X X X X X X X X X X X X X X X X X X X X X X X X X X X ; * = - & # # & t < % , 9 : . . . . . . . . . O                   . . ",
"o o o o o o o o o $                   + o o o o O r > % < 1 # X X X 3 s , 4 O o o o o o o o o o @                   $ o o o o o o o o .                   O o o o o o o o o o :                   o o o o o o o o o +                   + o o o o o o o o o                   : o o o o o O w > % 2 3 X X X X X X X X X X X X X X X X X X X X X X X X X X X X X X X X X X X X X X X X X X X ; * = - & # t & g < % , 9 @                   + o o o o o o o o o     ",
". . . . . . . . . +                   @ . . . o O r > % < 1 # X X X 3 s , 4 : . . . . . . . . o @                   $ . . . . . . . . .                   O o . . . . . . . o :                   o . . . . . . . . +                   + . . . . . . . . o                   : o . . . o O w > % 2 3 X X X X X X X X X X X X X X X X X X X X X X X X X X X X X X X X X X X X X X X X X X X ; * = - & # # & # < % , 9 @                   + . . . . . . . . o     ",
". . . . . . . . . +                   @ o . . o O r > % < 1 # X X X 3 s , 4 : . . . . . . . . o @                   $ . . . . . . . . .                   O o . . . . . . . o :                   o . . . . . . . . +                   + o . . . . . . . o                   : o . . . o O w > % 2 3 X X X X X X X X X X X X X X X X X X X X X X X X X X X X X X X X X X X X X X X X X X X ; * = - & # # & g < % , 9 @                   + . . . . . . . . o     ",
". . . . . . . . . +                   @ . . . o O r > % < 1 # X X X 3 s , 4 : . . . . . . . . o @                   $ . . . . . . . . .                   O o . . . . . . . o :                   o . . . . . . . . +                   + . . . . . . . . o                   : o . . . o O w > % 2 3 X X X X X X X X X X X X X X X X X X X X X X X X X X X X X X X X X X X X X X X X X X X ; * = - & # g & t < % , 9 @                   + . . . . . . . . o     ",
". . . . . . . . . +                   @ o . . o O r > % < 1 # X X X 3 s , 4 : . . . . . . . . o @                   $ . . . . . . . . .                   O o . . . . . . . o :                   o . . . . . . . . +                   + . . . . . . . . o                   : o . . . o O w > % 2 3 X X X X X X X X X X X X X X X X X X X X X X X X X X X X X X X X X X X X X X X X X X X ; * = - & # g & t < % , 9 @                   + . . . . . . . . o     ",
". . . . . . . . . +                   @ o . . o O r > % < 1 # X X X 3 s , 4 : . . . . . . . . o @                   $ . . . . . . . . .                   O o . . . . . . . o :                   o . . . . . . . . +                   + . . . . . . . . o                   : o . . . o O w > % 2 3 X X X X X X X X X X X X X X X X X X X X X X X X X X X X X X X X X X X X X X X X X X X ; * = - & # # & # < % , 9 @                   + . . . . . . . . o     ",
". . . . . . . . . +                   @ . . . o O r > % < 1 # X X X 3 s , 4 : . . . . . . . . o @                   $ . . . . . . . . .                   O o . . . . . . . o :                   o . . . . . . . . +                   + . . . . . . . . o                   : o . . . o O w > % 2 3 X X X X X X X X X X X X X X X X X X X X X X X X X X X X X X X X X X X X X X X X X X X ; * = - & # # & # < % , 9 @                   + . . . . . . . . o     ",
". . . . . . . . . +                   @ o . . o O r > % < 1 # X X X 3 s , 4 : . . . . . . . . o @                   $ . . . . . . . . .                   O o . . . . . . . o :                   o . . . . . . . . +                   + . . . . . . . . o                   : o . . . o O w > % 2 3 X X X X X X X X X X X X X X X X X X X X X X X X X X X X X X X X X X X X X X X X X X X ; * = - & # g & t < % , 9 @                   + . . . . . . . . o     ",
"o o o o o o o o o $                   + o o o o O r > % < 1 # X X X 3 s , 4 O o o o o o o o o o @                   $ o o o o o o o o .                   O o o o o o o o o o :                   o o o o o o o o o +                   + o o o o o o o o o                   : o o o o o O w > % 2 3 X X X X X X X X X X X X X X X X X X X X X X X X X X X X X X X X X X X X X X X X X X X ; * = - & # g & t < % , 9 @                   + o o o o o o o o o     ",
"@ @ @ @ @ @ @ @ @ @ O O O O O O O O O @ @ @ @ @   r > % < 1 # X X X 3 s , 4 : @ @ @ @ @ @ @ @ @ @ O O O O O O O O O @ @ @ @ @ @ @ @ @ @ O O O O O O O O O @ @ @ @ @ @ @ @ @ @ @ O O O O O O O O O @ @ @ @ @ @ @ @ @ @ O O O O O O O O O @ @ @ @ @ @ @ @ @ @ O O O O O O O O O @ @ @ @ @ @ : w > % 2 3 X X X X X X X X X X X X X X X X X X X X X X X X X X X X X X X X X X X X X X X X X X X ; * = - & # # & g < % , 9 O O O O O O O O O O @ @ @ @ @ @ @ @ @ @ O O ",
"                  : o o o o o o o o o O           r > % < 1 # X X X 3 s , 4 :                   @ o o o o o o o o o :                   o o o o o o o o o @                   $ o o o o o o o o o                   O o o o o o o o o o O                   . o o o o o o o o $             w > % 2 3 X X X X X X X X X X X X X X X X X X X X X X X X X X X X X X X X X X X X X X X X X X X ; * = - & # # & # < % , 9 : o o o o o o o o o O                   o o ",
"                  O o . . . . . . . o O           d > % < 1 # X X X 3 s , 4 :                   @ o . . . . . . . o :                   o . . . . . . . o @                   $ . . . . . . . . o                   O o . . . . . . . o O                   . . . . . . . . . $             w > % 2 3 X X X X X X X X X X X X X X X X X X X X X X X X X X X X X X X X X X X X X X X X X X X ; * = - & # t & g < % , 9 : o . . . . . . . o O                   . . ",
"                  O o . . . . . . . o O           r > % < 1 # X X X 3 s , 4 :                   @ o . . . . . . . o :                   o . . . . . . . o @                   $ . . . . . . . . o                   O o . . . . . . . o O                   . . . . . . . . . $             w > % 2 3 X X X X X X X X X X X X X X X X X X X X X X X X X X X X X X X X X X X X X X X X X X X ; * = - & # g & t < % , 9 : o . . . . . . . o O                   . . ",
"                  O o . . . . . . . o O           d > % < 1 # X X X 3 s , 4 :                   @ o . . . . . . . o :                   o . . . . . . . o @                   $ . . . . . . . . o                   O o . . . . . . . o O                   . . . . . . . . . $             w > % 2 3 X X X X X X X X X X X X X X X X X X X X X X X X X X X X X X X X X X X X X X X X X X X ; * = - & # # & g < % , 9 : o . . . . . . . o O                   . . ",
"                  O o . . . . . . . o O           r > % < 1 # X X X 3 s , 4 :                   @ o . . . . . . . o :                   o . . . . . . . o @                   $ . . . . . . . . o                   O o . . . . . . . o O                   . . . . . . . . . $             w > % 2 3 X X X X X X X X X X X X X X X X X X X X X X X X X X X X X X X X X X X X X X X X X X X ; * = - & # # & # < % , 9 : o . . . . . . . o O                   . . ",
"                  O o . . . . . . . o O           r > % < 1 # X X X 3 s , 4 :                   @ o . . . . . . . o :                   o . . . . . . . o @                   $ . . . . . . . . o                   O o . . . . . . . o O                   . . . . . . . . . $             w > % 2 3 X X X X X X X X X X X X X X X X X X X X X X X X X X X X X X X X X X X X X X X X X X X ; * = - & # t & # < % , 9 : o . . . . . . . o O                   . . ",
"                  O o . . . . . . . o O           d > % < 1 # X X X 3 s , 4 :                   @ o . . . . . . . o :                   o . . . . . . . o @                   $ . . . . . . . . o                   O o . . . . . . . o O                   . . . . . . . . . $             w > % 2 3 X X X X X X X X X X X X X X X X X X X X X X X X X X X X X X X X X X X X X X X X X X X ; * = - & # # & t < % , 9 : o . . . . . . . o O                   . . ",
"                  O o . . . . . . . o O           r > % < 1 # X X X 3 s , 4 :                   @ o . . . . . . . o :                   o . . . . . . . o @                   $ . . . . . . . . o                   O o . . . . . . . o O                   . . . . . . . . . $             w > % 2 3 X X X X X X X X X X X X X X X X X X X X X X X X X X X X X X X X X X X X X X X X X X X ; * = - & # # & t < % , 9 : o . . . . . . . o O                   . . ",
"                  : o o o o o o o o o O           d > % < 1 # X X X 3 s , 4 :                   @ o o o o o o o o o :                   o o o o o o o o o @                   $ o o o o o o o o o                   O o o o o o o o o o O                   o o o o o o o o o $             w > % 2 3 X X X X X X X X X X X X X X X X X X X X X X X X X X X X X X X X X X X X X X X X X X X ; * = - & # # & # < % , 9 : o o o o o o o o o O                   o o ",
"$ $ $ $ $ $ $ $ $ @ : : : : : : : : : @ $ $ $ $ : r > % < 1 # X X X 3 s , 4   @ O : O O   @ :   :                   O :   @     @   : O                   :   : O : O : O O   :                   : O   @ :   @     O                   O     @   : O : O :                     @     @     w > % 2 3 X X X X X X X X X X X X X X X X X X X X X X X X X X X X X X X X X X X X X X X X X X X ; * = - & # t & # < % , 9 @ : : : : : : : : : @ $ $ $ $ $ $ $ $ $ : : ",
". . . . . . . . o +                   + o . . o O r > % < 1 # X X X 3 s 7 J d r r u r u u r u u r d d d d d d d d d r u u r u u r u u u d d d d d d d d d r u u u r u u r u u r d d d d d d d d d u u u r u u r u u r d d d d d d d d d r u u r u u u r u u d d d d d d d d d r r u u r u r l , % % W e 3 e X X X X X X X X X X X X X X X X X X X X X X X X X X X X X X X X X X X X X X X X ; * = - & # # & g < % , 9 @                   + o . . . . . . . o     ",
". . . . . . . . . +                   @ o . . o O r > % < 1 # X X X 3 2 7 7 > > > > = > = > = = = j > j > j > j > > > > = > = = j = = > > j > j > > > > > > = > > = > = > > = > j > j > j > j > > > > = > > = > = = > > > > > > > j > > > = = j = = > = > = > j > j > > > j > j = > > = > = 7 % % 7 < v E y 3 3 e e X X X X X X X X X X X X X X X X X X X X X X X X X X X X X X X X X X X X ; * = - & # # & t < % , 9 @                   + . . . . . . . . o     ",
". . . . . . . . . +                   @ o . . o O r > % < 1 # X X X 0 E % s s s s s s s 2 s 2 2 2 s 2 s 2 s 2 s 2 2 s 2 2 s 2 2 s 2 s s 2 s 2 s 2 s s s s 2 2 2 s 2 s s s s 2 2 s 2 s 2 s 2 s 2 2 s s 2 s 2 2 s 2 2 s s s s 2 s 2 s 2 s s 2 2 s 2 s s 2 s s 2 s 2 s 2 s 2 s 2 s s s s 2 s 2 s = 7 % % % 7 * v a 6 ; 3 3 e X X X X X X X X X X X X X X X X X X X X X X X X X X X X X X X X X ; * = - & # # & g < % , 9 @                   + . . . . . . . . o     ",
". . . . . . . . . +                   @ . . . o O r > % < 1 # X X X X e e X X X e e X X e e X X X e e X X e e X X e e X X X e e X X e e X X X e e X X e e X X X e X X X e e X X e e X X X e e X X e e X X X e e X X e e X X e e X X X e e X X e e X X X e e X X e e X X e e X X X e e X X e e I z v 7 7 % % % % * f z Q ; e e e X X X X X X X X X X X X X X X X X X X X X X X X X X X X X X ; * = - & # t & # < % , 9 @                   + . . . . . . . . o     ",
". . . . . . . . . +                   @ o . . o O r > % < 1 & e 3 0 0 e 3 0 0 0 0 0 0 0 0 0 0 0 0 0 0 0 0 0 0 0 0 0 0 0 0 0 0 0 0 0 0 0 0 0 0 0 0 0 0 0 0 0 0 0 0 0 0 0 0 0 0 0 0 0 0 0 0 0 0 0 0 0 0 0 0 0 0 0 0 0 0 0 0 0 0 0 0 0 0 0 0 0 0 0 0 0 0 0 0 0 0 0 0 0 0 0 0 0 0 0 0 0 0 0 0 0 0 0 T 0 F 8 2 7 % % % % 7 = * s E F e 0 0 X X X X X X X X X X X X X X X X X X X X X X X X X X X ; * = - & # # & g < % , 9 @                   + . . . . . . . . o     ",
". . . . . . . . . +                   @ . . . @   B , % 2 K K 8 8 8 8 8 8 8 8 8 8 8 8 8 8 8 8 8 8 8 8 8 8 8 8 8 8 8 8 8 8 8 8 8 8 8 8 8 8 8 8 8 8 8 8 8 8 8 8 8 8 8 8 8 8 8 8 8 8 8 8 8 8 8 8 8 8 8 8 8 8 8 8 8 8 8 8 8 8 8 8 8 8 8 8 8 8 8 8 8 8 8 8 8 8 8 8 8 8 8 8 8 8 8 8 8 8 8 8 8 8 8 8 8 8 8 Q I I 8 v % % % % % % % 7 7 % s E y 3 0 e X X X X X X X X X X X X X X X X X X X X X X X ; * = - & # # & t < % , 9 @                   + . . . . . . . . o     ",
". . . . . . . . . +                   @ o .   D J 7 % % % 7 = 7 7 7 7 7 7 7 7 7 7 7 7 7 7 7 7 7 7 7 7 7 7 7 7 7 7 7 7 7 7 7 7 7 7 7 7 7 7 7 7 7 7 7 7 7 7 7 7 7 7 7 7 7 7 7 7 7 7 7 7 7 7 7 7 7 7 7 7 7 7 7 7 7 7 7 7 7 7 7 7 7 7 7 7 7 7 7 7 7 7 7 7 7 7 7 7 7 7 7 7 7 7 7 7 7 7 7 7 7 7 7 7 7 7 7 7 = 7 7 % % % % % % % % % % % 7 7 7 H E 6 X 0 e X X X X X X X X X X X X X X X X X X X X ; * = - & # # & t < % , 9 @                   + . . . . . . . . o     ",
". . . . . . . . . +                   + $ @ 4 > 7 % % 7 7 % % % % % % % % % % % % % % % % % % % % % % % % % % % % % % % % % % % % % % % % % % % % % % % % % % % % % % % % % % % % % % % % % % % % % % % % % % % % % % % % % % % % % % % % % % % % % % % % % % % % % % % % % % % % % % % % % % % % % % % % % % % 7 % % % % % 2 Z , 7 % % % 7 * * z Q ; W 3 e X X X X X X X X X X X X X X X X ; * = - & # t & # < % , 9 @                   + o . . . . . . . o     ",
"o o o o o o o o o +                   @ + 4 > % % = % 8 ; ; ; ; ; ; ; ; ; ; ; ; ; ; ; ; ; ; ; ; ; ; ; ; ; ; ; ; ; ; ; ; ; ; ; ; ; ; ; ; ; ; ; ; ; ; ; ; ; ; ; ; ; ; ; ; ; ; ; ; ; ; ; ; ; ; ; ; ; ; ; ; ; ; ; ; ; ; ; ; ; ; ; ; ; ; ; ; ; ; ; ; ; ; ; ; ; ; ; ; ; ; ; ; ; ; ; ; ; ; ; ; ; ; ; ; ; ; ; ; ; ; ; ; 6 7 = 7 % % f m 9 4 f = = , % % 7 7 % v E I 3 0 e X X X X X X X X X X X X X ; * = - & # # & # < % , 9 @                   + o o o o o o o o o     ",
"                  : o o o o o o o o .   4 > % = v 6 t t X X X X X X X X X X X X X X X X X X X X X X X X X X X X X X X X X X X X X X X X X X X X X X X X X X X X X X X X X X X X X X X X X X X X X X X X X X X X X X X X X X X X X X X X X X X X X X X X X X X X X X X X X X X X X X X X X X X X X X X X X X X X 0 3 8 H = % % j m     V G 4 f > 7 7 % % 7 j 7 v 8 ; e 3 e X X X X X X X X X ; * = - & # # & t < % , 9 : o o o o o o o o o O                   o o ",
"                  O o . . . . . . . @ d > % = z Y & 3 X X X X X X X X X X X X X X X X X X X X X X X X X X X X X X X X X X X X X X X X X X X X X X X X X X X X X X X X X X X X X X X X X X X X X X X X X X X X X X X X X X X X X X X X X X X X X X X X X X X X X X X X X X X X X X X X X X X X X X X X X X X X X X e 3 e 8 7 % % > D       $ V d S 2 = = f % % % 7 7 H 8 y 3 0 X X X X X X X ; * = - & # # & t < % , 9 : o . . . . . . . o O                   . . ",
"                  O o . . . . . . . $ Z 7 % H t & 3 X X X X X X X X X X X X X X X X X X X X X X X X X X X X X X X X X X X X X X X X X X X X X X X X X X X X X X X X X X X X X X X X X X X X X X X X X X X X X X X X X X X X X X X X X X X X X X X X X X X X X X X X X X X X X X X X X X X X X X X X X X X X X X X X X X 0 y < % 7 z 1     o . @   : w m J 7 > , % % % = j 7 a Q ; e 0 e X X ; * = - & # t & g < % , 9 : o . . . . . . . o O                   . . ",
"                  O o . . . . . . $ w > % j L Y x X X X X X X X X X X X X X X X X X X X X X X X X X X X X X X X X X X X X X X X X X X X X X X X X X X X X X X X X X X X X X X X X X X X X X X X X X X X X X X X X X X X X X X X X X X X X X X X X X X X X X X X X X X X X X X X X X X X X X X X X X X X X X X X X X X X X e y 7 % > w     o . . o o + + O V w C s 7 > f % % % 7 % v E y e 0 ; 7 = - & # # & # < % , 9 : o . . . . . . . o O                   . . ",
"                  O o . . . . . o   4 , % f i # W X X X X X X X X X X X X X X X X X X X X X X X X X X X X X X X X X X X X X X X X X X X X X X X X X X X X X X X X X X X X X X X X X X X X X X X X X X X X X X X X X X X X X X X X X X X X X X X X X X X X X X X X X X X X X X X X X X X X X X X X X X X X X X X X X X X X X 0 s 7 , 5     o . . . . . . . .     O 9 u J > > 7 % % 7 7 * 2 E 6 % = - & & & Y & < % , 9 : o . . . . . . . o O                   . . ",
"                  O o . . . . . . O S 7 7 C Y g X X X X X X X X X X X X X X X X X X X X X X X X X X X X X X X X X X X X X X X X X X X X X X X X X X X X X X X X X X X X X X X X X X X X X X X X X X X X X X X X X X X X X X X X X X X X X X X X X X X X X X X X X X X X X X X X X X X X X X X X X X X X X X X X X X X X X X 0 8 7 % %     o . . . . . . . o @         : O d 4 Z , = % % % 7 7 % % s v s v v S % % , 9 : o . . . . . . . o O                   . . ",
"                  O o . . . . . $ + 7 % = F & T X X X X X X X X X X X X X X X X X X X X X X X 3 0 e e e 3 e e 3 e 3 e 3 e 3 e 3 e 3 e 3 e 3 e 3 e 3 e 3 e 3 e 3 e 3 e 3 e 3 3 e 3 e 3 e 3 e 3 e 3 e 3 e 3 e 3 e 3 e 3 e 3 e 3 e 3 e 3 e 3 e e 3 e 3 e 3 e 3 e 3 e 3 e 3 3 3 0 0 e X X X X X X X X X X X X X X X X X X X X X X ; * % 7 $   o . . . . . . . o @                 @ 9 B v j > 7 % % % % % % % % 7 % % , 9 : o . . . . . . . o O                   . . ",
"                  O o . . . . . + V 7 % , L & W X X X X X X X X X X X X X X X X X X X X X e y 8 z 2 % % % % % % % % % % % % % % % % % % % % % % % % % % % % % % % % % % % % % % % % % % % % % % % % % % % % % % % % % % % % % % % % % % % % % % % % % % % % % % % % % % v s z 8 Q W 3 e X X X X X X X X X X X X X X X X X X X ; % % = w   o . . . . . . . o @                   @   O V d C s > > = > > > > > > j 2 V : o . . . . . . . o O                   . . ",
"                  : o . . . . o + w = % Z P g e X X X X X X X X X X X X X X X X X X X X 3 E < 7 7 % % % % % % % % % % % % % % % % % % % % % % % % % % % % % % % % % % % % % % % % % % % % % % % % % % % % % % % % % % % % % % % % % % % % % % % % % % % % % % % % % % % % % 7 7 * 2 a e 0 X X X X X X X X X X X X X X X X X X e v % = G   o . . . . . . . o @                   $ o o + O @ o d d d w w w w w w w V   O o . . . . . . . o O                   . o ",
"O O O O O O O O O O + + + + + + O G > % v t t X X X X X X X X X X X X X X X X X X X X W % * % % = = > > > > > > > > > > > > > > > > > > > > > > > > > > > > > > > > > > > > > > > > > > > > > > > > > > > > > > > > > > > > > > > > > > > > > > > > > > > > > > > > > > > = 7 7 % % = 7 8 0 X X X X X X X X X X X X X X X X X 3 H % = m   + + + + + + + + + @ O O O O O O O O O @ + + + + + @ @     :             : O O + + + + + + + + + O O O O O O O O O O + + ",
"o o o o o o o o o $               m = 7 H t t X X X X X X X X X X X X X X X X X X X 3 a 7 % = = 5 - w 9 9 9 9 9 9 9 w w w w w w w w w w 9 9 9 9 9 9 9 9 9 w d w w w w w w w d w 9 9 9 9 9 9 9 9 9 d w w w w w w w w w 9 9 9 9 9 9 9 9 9 w d w w w w w w w d 9 9 9 9 9 9 G d 5 v = 7 % % * Q 0 X X X X X X X X X X X X X X X X 3 H 7 = m O                   O o o o o o o o o o :                   o o o o o o o o o +                   + o o o o o o o o o     ",
". . . . . . . . . +               m = 7 J & x X X X X X X X X X X X X X X X X X X 0 E * % = S V                     + $ $ O $ $ @ @ $ $                   : . $ + @ $ $ O $ .                     . $ $ O $ $ O $ $ @                   @ $ $ @ + $ + @ $ .                     o 4 7 % % * 8 e X X X X X X X X X X X X X X X e E 7 = l +                   O o . . . . . . . o :                   o . . . . . . . . +                   + . . . . . . . . o     ",
". . . . . . . . . +               m = 7 5 & x X X X X X X X X X X X X X X X X X e W 7 % 7 z O @ @                   $ . . . . . . . . .                   O o . . . . . . . o :                   o . . o . . . . . +                   + . . . . . . . . o                   : $ @ w = % % % e X X X X X X X X X X X X X X X e a 7 7 l                     O o . . . . . . . o :                   o . . . . . . . . +                   + . . . . . . . . o     ",
". . . . . . . . . +               l = 7 5 & x X X X X X X X X X X X X X X X X X e 8 = % % w @ o @                   $ . . . . . . . . .                   O o . . . . . . . o :                   o . . . . . . . . +                   + o . . . . . . . o                   : o . : d > % = 6 3 X X X X X X X X X X X X X X e E 7 7 q @                   O o . . . . . . . o :                   o . . . . . . . . +                   + . . . . . . . . o     ",
". . . . . . . . . +               l , 7 5 & x X X X X X X X X X X X X X X X X X e H % 7 q   o o @                   $ . . . . . . . . .                   O o . . . . . . . o :                   o . . . . . . . . +                   + . . . . . . . . o                   : o . o : 4 , % s 3 X X X X X X X X X X X X X X e E 7 7 J O                   O o . . . . . . . o :                   o . . . . . . . . +                   + . . . . . . . . o     ",
". . . . . . . . . +               l , 7 C : T 0 0 0 0 0 0 0 0 0 0 0 0 0 0 0 0 0 x % % > d @ . o @                   $ . . . . . . . . .                   O o . . . . . . . o :                   o . . . . . . . . +                   + o . . . . . . . o                   : o . . O w > % 7 X 0 0 0 0 0 0 0 0 0 0 0 0 0 0 0 E 7 7 4 O                   O o . . . . . . . o :                   o . . . . . . . . +                   + . . . . . . . . o     ",
". . . . . . . . . +               l , % s 5 a a a a a a a a a a a a a a a a a a S % % > V @ . o @                   $ . . . . . . . . .                   O o . . . . . . . o :                   o . . . . . . . . +                   + . . . . . . . . o                   : o . . . $ > % 7 a E a E 8 a a a a a a a a a a a v % 7 4 O                   O o . . . . . . . o :                   o . . . . . . . . +                   + . . . . . . . . o     ",
". . . . . . . . . +               C , % % 7 7 7 7 7 7 7 7 7 7 7 7 7 7 7 7 7 7 7 7 % % = V @ . o @                   $ . . . . . . . . .                   O o . . . . . . . o :                   o . . . . . . . . +                   + . . . . . . . . o                   : o . . .   f % % 7 7 7 7 7 7 7 7 7 7 7 7 7 7 7 7 % % f J O                   O o . . . . . . . o :                   o . . . . . . . . +                   + . . . . . . . . o     ",
"o o o o o o o o o $               u > , = , , , , , , , , , , , , , , , , , , , , , > 2 O o o o @                   $ o o o o o o o o .                   O o o o o o o o o o :                   o o o o o o o o o +                   + o o o o o o o o o                   : o o o o : z = 7 % % 7 % % 7 , , , , , , , , , , = , A l @                   O o o o o o o o o o :                   o o o o o o o o o +                   + o o o o o o o o o     ",
"O O O O O O O O O O + + + + + + @ + l q q q q q q q q q q q q q q q q q q q q q q q q w   O O O @ + + + + + + + + + O O O O O O O O O O + + + + + + + + + @ O O O O O O O O O @ + + + + + + + + + O O O O O O O O O O + + + + + + + + + @ O O O O O O O O O + + + + + + + + + @ O O O O   w 4 < < < < < < J q q q q q q q q q q q q l 1 : + + + + + + + + + @ O O O O O O O O O @ + + + + + + + + + O O O O O O O O O O + + + + + + + + + @ O O O O O O O O O + + ",
"                  : o . . . . . . .                                                             @ o . . . . . . . o :                   o . . . . . . . o @                   $ o . . . . . . . o                   O o . . . . . . . o O                   . o . . . . . . o $                                                           o . . . . . . . o @                   $ o . . . . . . o o                   O o . . . . . . . o O                   o o ",
"                  O o . . . . . . . o O                   . o o o o o o o o $                   @ o . . . . . . . o :                   o . . . . . . . o @                   $ . . . . . . . . o                   O o . . . . . . . o O                   . . . . . . . . . $                   @ o o o o o o o o o :                   o . . . . . . . o @                   $ . . . . . . . . o                   O o . . . . . . . o O                   . . ",
"                  O o . . . . . . . o O                   . . . . . . . . . $                   @ o . . . . . . . o :                   o . . . . . . . o @                   $ . . . . . . . . o                   O o . . . . . . . o O                   . . . . . . . . . $                   @ o . . . . . . . o :                   o . . . . . . . o @                   $ . . . . . . . . o                   O o . . . . . . . o O                   . . ",
"                  O o . . . . . . . o O                   . . . . . . . . . $                   @ o . . . . . . . o :                   o . . . . . . . o @                   $ . . . . . . . . o                   O o . . . . . . . o O                   . . . . . . . . . $                   @ o . . . . . . . o :                   o . . . . . . . o @                   $ . . . . . . . . o                   O o . . . . . . . o O                   . . ",
"                  O o . . . . . . . o O                   . . . . . . . . . $                   @ o . . . . . . . o :                   o . . . . . . . o @                   $ . . . . . . . . o                   O o . . . . . . . o O                   . . . . . . . . . $                   @ o . . . . . . . o :                   o . . . . . . . o @                   $ . . . . . . . . o                   O o . . . . . . . o O                   . . ",
"                  O o . . . . . . . o O                   . . . . . . . . . $                   @ o . . . . . . . o :                   o . . . . . . . o @                   $ . . . . . . . . o                   O o . . . . . . . o O                   . . . . . . . . . $                   @ o . . . . . . . o :                   o . . . . . . . o @                   $ . . . . . . . . o                   O o . . . . . . . o O                   . . ",
"                  O o . . . . . . . o O                   . . . . . . . . . $                   @ o . . . . . . . o :                   o . . . . . . . o @                   $ . . . . . . . . o                   O o . . . . . . . o O                   . . . . . . . . . $                   @ o . . . . . . . o :                   o . . . . . . . o @                   $ . . . . . . . . o                   O o . . . . . . . o O                   . . ",
"                  O o . . . . . . . o O                   . . . . . . . . . $                   @ o . . . . . . . o :                   o . . . . . . . o @                   $ . . . . . . . . o                   O o . . . . . . . o O                   . . . . . . . . . $                   @ o . . . . . . . o :                   o . . . . . . . o @                   $ . . . . . . . . o                   O o . . . . . . . o O                   . . ",
"                  : o o o o o o o o o O                   . o o o o o o o o $                   @ o o o o o o o o o :                   o o o o o o o o o @                   $ o o o o o o o o o                   : o o o o o o o o o O                   o o o o o o o o o $                   @ o o o o o o o o o                     o o o o o o o o o @                   $ o o o o o o o o o                   O o o o o o o o o o O                   o o ",
". . . . . . . . . +                   @ o . . . . . . . o                   : o . . . . . . . o @                   $ . . . . . . . . .                   O o . . . . . . . o :                   o . . . . . . . . +                   + o . . . . . . . o                   : o . . . . . . . o @                   $ . . . . . . . . .                   O o . . . . . . . o :                   o . . . . . . . . +                   + o . . . . . . . o     ",
". . . . . . . . . +                   @ o . . . . . . . o                   : o . . . . . . . o @                   $ . . . . . . . . .                   O o . . . . . . . o :                   o . . . . . . . o +                   + o . . . . . . . o                   : o . . . . . . . o @                   $ . . . . . . . . .                   O o . . . . . . . o :                   o . . . . . . . o +                   + o . . . . . . . o     "
};
