/* XPM */
static char *aa99a7e89d314564e6a4f7dd3e8714f6Vt0GxWnF6mwjjA4h[] = {
/* columns rows colors chars-per-pixel */
"640 424 256 2 ",
"   c #001A00",
".  c #000E00",
"X  c #002400",
"o  c #012C00",
"O  c #062A06",
"+  c #013400",
"@  c #023B00",
"#  c #0B3C00",
"$  c #073707",
"%  c #0B390E",
"&  c #063A25",
"*  c #034300",
"=  c #0B4400",
"-  c #044B00",
";  c #0C4B00",
":  c #07470B",
">  c #134C00",
",  c #164803",
"<  c #0C5300",
"1  c #0A5702",
"2  c #145400",
"3  c #1B5401",
"4  c #145B00",
"5  c #1B5C00",
"6  c #18580B",
"7  c #185816",
"8  c #0D4A16",
"9  c #235C01",
"0  c #265905",
"q  c #265A16",
"w  c #2A530A",
"e  c #1C6300",
"r  c #1C6B01",
"t  c #176505",
"y  c #196B0C",
"u  c #236401",
"i  c #2B6401",
"p  c #246B01",
"a  c #2B6C01",
"s  c #28680B",
"d  c #336C01",
"f  c #356906",
"g  c #247301",
"h  c #2C7301",
"j  c #2C7B01",
"k  c #297709",
"l  c #337401",
"z  c #3B7401",
"x  c #347C01",
"c  c #3B7C01",
"v  c #37790B",
"b  c #286816",
"n  c #356A17",
"m  c #2A7616",
"M  c #377917",
"N  c #145028",
"B  c #29592B",
"V  c #286826",
"C  c #387827",
"Z  c #397836",
"A  c #316D2D",
"S  c #1C6627",
"D  c #447B04",
"F  c #447B17",
"G  c #49720C",
"H  c #457A28",
"J  c #457A37",
"K  c #4B7432",
"L  c #405D1A",
"P  c #377048",
"I  c #295A44",
"U  c #49784B",
"Y  c #50765F",
"T  c #2C8303",
"R  c #348301",
"E  c #3C8401",
"W  c #3C8B01",
"Q  c #398709",
"!  c #3C9304",
"~  c #3A8616",
"^  c #368C16",
"/  c #3A8526",
"(  c #3B8830",
")  c #3DA007",
"_  c #438401",
"`  c #438C01",
"'  c #4B8C01",
"]  c #448C0B",
"[  c #488709",
"{  c #538B04",
"}  c #449301",
"|  c #4B9401",
" . c #4C9B01",
".. c #4B940C",
"X. c #4C9B0B",
"o. c #449708",
"O. c #539401",
"+. c #539C02",
"@. c #5B9C02",
"#. c #539C0C",
"$. c #5B9C0B",
"%. c #569408",
"&. c #478917",
"*. c #538B18",
"=. c #4C9413",
"-. c #499717",
";. c #539B13",
":. c #549C1B",
">. c #579817",
",. c #639C05",
"<. c #639B18",
"1. c #6B940D",
"2. c #4CA305",
"3. c #54A302",
"4. c #5BA402",
"5. c #5CAB02",
"6. c #54A30B",
"7. c #5BA40B",
"8. c #5CAB0B",
"9. c #55AA05",
"0. c #5CB206",
"q. c #54A313",
"w. c #5BA413",
"e. c #5CAA13",
"r. c #5CA31B",
"t. c #58A71A",
"y. c #54A915",
"u. c #63A402",
"i. c #64AB02",
"p. c #6BAC02",
"a. c #63A40B",
"s. c #63AC0B",
"d. c #6BAC0C",
"f. c #6AA505",
"g. c #73AC05",
"h. c #64B303",
"j. c #6CB302",
"k. c #64B30B",
"l. c #6CB30B",
"z. c #6BBA07",
"x. c #73B403",
"c. c #74BB03",
"v. c #7BBB03",
"b. c #73B40C",
"n. c #74BB0B",
"m. c #7BBC0C",
"M. c #7AB506",
"N. c #63A413",
"B. c #63AC13",
"V. c #6BAC13",
"C. c #64AB1B",
"Z. c #6BAC1B",
"A. c #66A41A",
"S. c #74AC17",
"D. c #6CB313",
"F. c #6CB31B",
"G. c #68B616",
"H. c #73B413",
"J. c #74BB13",
"K. c #7BBC13",
"L. c #73B41B",
"P. c #74BB1B",
"I. c #7BB91A",
"U. c #478826",
"Y. c #548B27",
"T. c #4A9526",
"R. c #579927",
"E. c #488836",
"W. c #558A37",
"Q. c #4B9436",
"!. c #589837",
"~. c #649B27",
"^. c #649A38",
"/. c #6B9431",
"(. c #5AA526",
"). c #5BA436",
"_. c #54A928",
"`. c #66A827",
"'. c #74AB27",
"]. c #6AB426",
"[. c #77B827",
"{. c #67A837",
"}. c #74AB38",
"|. c #6BB436",
" X c #77B737",
".X c #7CC30C",
"XX c #79C306",
"oX c #7CC313",
"OX c #79C419",
"+X c #6DC211",
"@X c #7AC426",
"#X c #7BC436",
"$X c #70C52A",
"%X c #599746",
"&X c #528B4D",
"*X c #659A47",
"=X c #679856",
"-X c #5CA448",
";X c #68A747",
":X c #75AB47",
">X c #78B747",
",X c #69A756",
"<X c #76AA58",
"1X c #79B657",
"2X c #6CB34A",
"3X c #6B976B",
"4X c #76AD6B",
"5X c #589066",
"6X c #7CC34A",
"7X c #7DC36A",
"8X c #3D8347",
"9X c #83BC06",
"0X c #84BC17",
"qX c #8AB508",
"wX c #84BB27",
"eX c #84BA37",
"rX c #88B130",
"tX c #83C30B",
"yX c #88C707",
"uX c #94CA08",
"iX c #83C413",
"pX c #88C818",
"aX c #94CB17",
"sX c #97D418",
"dX c #91D210",
"fX c #A6D611",
"gX c #87C727",
"hX c #94CB27",
"jX c #97D527",
"kX c #87C737",
"lX c #97D637",
"zX c #8FCF31",
"xX c #A5D92D",
"cX c #ACE530",
"vX c #ABE21F",
"bX c #85BA57",
"nX c #85B94A",
"mX c #87B76F",
"MX c #A2BC73",
"NX c #88C647",
"BX c #92CD50",
"VX c #A5D74E",
"CX c #ADE64C",
"ZX c #92CA6E",
"AX c #A7D670",
"SX c #ACE66A",
"DX c #C7EF3D",
"FX c #77A785",
"GX c #7CC482",
"HX c #8CB68B",
"JX c #95B9A2",
"KX c #96CA8C",
"LX c #A9D48F",
"PX c #B0DEA2",
"IX c #CCF1A5",
"UX c #D3F3CC",
/* pixels */
"Q.U.] ;.;.q.6.2.3.3.4.] U.( ( Q.R.(.6.8.0.6.R.U.=. .3.h.l.b.u.+.-._.R.&.R.{.:.' ` 3.d.4.,.j.x.j.i.k.z.5.` ] 8.5.h.k.X.R !  .+.N.Z.Z.H.m.d. .` :._.T./ M *.A.b.j.g.a. . .h..Xj.p.H.I.B.X.! !  .3.5.3.o.-.&.).`.(.Q.T.]  .i.O.W 7.b.b.a.s.k.9.! } 5.5.2.2.e.a.$.$.w.} O.@.@.@.7. .-.Q.%X;XV.u.| -.w.k.h.0.8.8.y.2.w.].(.~ Q E }  .q.}  .+.3.5.p.x.v.oXC.y.2.a.m.v.p.| 5.l.p.4. . .6.8.f.i.j.5.+.X.-.o._.`.H.b.a.a.f.d.3.3.k.9.W ^ ~ ^ #.k.c.p.` ] =.;.A.d.j.j.x.n.p.3.+.+.i.J.s.` _ O.4.A.;XbX>X>.8.5.N.`.(.t.V.p.p.u.S.}.4X,X}.[.K.m.M.f.,.f.p.x.x.j.e.^ T ^ ..A.Z.w.6. .9.B. X>X`.e.n.m.p.p.h.5.u.p.c.b. XnX'.V.b.j.N.7.5.5.6.o.X.e.x.x.k.3.u.5.i.i.u.p.x.d.].{.(.] } +.5.k.h.5.`.{.~.~.R.!.Q.( k R W X.2. . .5.3.3.5.h.x.4.' | $.;.U.%X%X!.(.C.w.}.<X:XS.i. .9.k.j.b.d.'.>X;XR.6.5.i.l.H.d.p.i.4. .3.3.2.8.a.4.p.l.e.-.] ).2X2XT./ Q.,X-X:.$.d.{.2X;XT.6.e.r... .O.$.a.F.].R.~ ~ U.;X,X)._.r.8.7.r.(.{.,X,X!.`.n.XXd.7.i.5...:.(.`.`. X X(.#.d.c.p.d.a.5.G.`.`.:.r.;.N.i.j.D.F.C.D.n.v.v.i.9.9.3.q.).).).;.i.k.5.:.mXHXmX=X<X}.Z.4.+.3.5.0.3.2. .X.k.n.x.x.M.M.x.z.6.t.~ a x ]  . .3.i.u.@.}  .8.3. .5.h.5.p.k.p.u.l.J.h.+.| ..^ g j v !.,X%XQ.#.8.8.9.8.w.:.(.w.C.`.`.#.| w.%.>.^.<X4X2X).Q.-X!.Q.).).Q.T.6.3.i.7.q...7.'.nX/.}.nXeX[.e.2.8.6.] :.(.:.$.N.}.>X XN.O.w.|.|.:.] | ] c v #.| W } 2.q.6...&.*X,XW.W.%X!.R.:.;.O.#.",
"/ v ] w.C.C.e.2.7.7.+...U.C C ~ R.:.X.e.G.6.-.~ W  .3.h.k.l.u.7.:.).R.&.R.`.>.' | 3.s.u.u.x.x.p.p.j.n.5.` X.3.5.i.i.} W 6.7.$.7.C.V.b.m.b.3.} o.-.^ m ~ T.C.l.p.g.f.3. .i.c.j.p.I.L.a. . . . .7.s.+.W ] ~ T.q.:.T.~ ..#.s.3.| 7.H.u.$.B.D.2.W } s.h.6.2.8.B.V.s.#.' 3.d.V.d.D.6.-.T.!.{.S.b.6.;.q.6.3.3.8.9.2.} #.r.&.g v ] #.2.t.} | +.5.h.p.x.9XoXt.! } 8.K.m.p. .5.l.x.i.3.3.e.B.s.x.j.5.| -.] Q -.r.d.b.a.a.g.b.3. .k.8.! T ~ ~ =.V.n.i.] -.-.] ;.D.j.p.j.b.5. .| | 5.l.s.' ' ' $.N.{.<X`.;.6.e.'.'.(.w.V.b.p.u.'.bXmX*X{.[.H.x.x.x.x.x.x.p.p.d.t.-.T Q ..B.Z.w.6.6.3.6.{.:X(.7.b..Xj.i.i.5.u.p.n.@X>X XZ.V.n.p.N.$.3.5.6.} -.w.p.x.i.O.4.p.i.i.u.j.c.b. X|.&.Q ` 3.k.G.5.7.|.:X>X}.:X{.!./ j R W ] X. . .6.7.5.5.j.n.i.O.#.$...U.%X%XQ.(.`.;. XZXnXH.i.! 2.j.x.l.V.'.nX;X&. .k.n.d.d.D.V.V.4.+.5.2. .6.+.O.5.k.w.-.U.!.;X).~ ~ %X,X!.] D.D.`.2X).T.e.e.w.$.7.4.a.N.F.].).&.~ !.<X,XQ.T.t.7.B.B.:.!.=X,X;X(.b.x.a.w.s.7.;.=.(.`.`.`.`.(.w.D.c.c.H.@. .B.'.`.(.(.`.'.b.i.a.r.C.F.K..Xb.i.2.3. .#._._.R.=.7.G.s.`.ZXHXmXmXbX}.L.5. .3.0.0.0.9.}  .5.l.x.v.M.x.j.l.e.:.&.l _ #.2.} 6.s.i.@.} o.8.3.+.5.5.5.5.s.i.5.d.D.i. .} ] ^ j g &.<X4X;XU.w.D.G.k.k.7...} 7.C.`.`...W 6.N.`.}.1X1X{.T./ / U.T.T.T.T.-. .5.s.7.} W N.SXIXMX*X:X}.`.#. .3. .=.R.(.:.#.N.|.>X].$.' ..(.(.X.X. .` h c #.O.' o.y.y.6...&.;X*XE.E.Q.T.-.] #.;.O.",
"Q x +.s.C.`.e.#.w.#.[ &.E./ m ~ -.-.` 6.B.#.&.~ } 3.9.3.5.i.$.r.(.{.!.*.#.7.| ' O.$.a.u.j.n.j.i.j.p.n.5.` 6.3.5.5.5.| O.B.B.7.#.$.A.M.m.m.p. .o.Q Q Q ^ &.;.k.j.g.g.u.+.i.j.h.l.L.V.s.3.3. . .5.h.3.} ] M v ..X.&.~ =.+.5.i.5.i.G.+.;.Z.J.3.} +.b.n.8.X.7.D.K.p.+.| i.c.x.p.l.G.X.-.R.`.H.n.s.2.-...} } 7.4.3.} ` v e 1 x ;.w.;.t.X...O.5.h.p.x.tXn.;.R R 8.wXwXL.3.3.l.m.c.h.7.r.7.j.c.l.7.:.(.U.^ -.q.d.x.u.p.tXv.3.o.s.6.R k / C ~ w.V.$.&.!.-.&.R.].D.u.i.i.#.} W | 4.d.u.O.%.' O...Q.!.] q.:.(.}.|.r.+.p.K.k.C.:XZX4XW.{.].N.u.j.v.v.v.x.u.u.w._.T.T T O.V.B.B.l.J.8.;.!.*X&.7.m..Xh.3.5.i.u.d.F.].{.).$.H.b.d.`.(.6.6.#.X.q.;.3.s.5.O.5.z.h.5.+.s.v..X[.{.~ j E X.e.F.G.r.1X1X:X}. X).!.~ =.} E W ] W ] q.7.h.h.p.l.D.A.;.w.] U.!.U.~ -.:.] `.NX Xb.j.}  .h.z.s.w.]. X{.R 6.J.n.5.e.[.[.P.i.3.5. .! o.+. .+.8.q.U.%X%X!.R.=.T.-X4XU.:.D.s.=.).(.-.y.7.3.i.k.l.p.u.w.(.(.T.U.-X4X=X( / -.7.l.d.$.R.%X=X;XR.a.s.r.`.B.w.(.T.:.C.F.a.`.|.A.a.j.j.7.W W B.P.F.`.(.].[.P.$.#.q.`.].n.m.l.a. . . .6.;.t.(.q.t.].].`.4X4X4XmX1X].P.s.3.7.k.s.h.s.3. .6.8.k.c.x.p.x.d.q...&.c ] #.o.o.X.7.i.4.o.} 6.3.3.+...` _ #.+.+.5.s.3.| } ..^ Q v ;X4X4X%X~ q.P.G.k.k.8. .} 3.B.`.).&.h ..C.A.}.<X,X!.U.C m M &.-.-._.:.O.3.+.7. .} `.IXUXLX=X,X%XT...}  .} -.T.(.q. .6.`.|.7.+.| #.`.r.+.8.3.` h E w.e.O.6.6.X.;.=.T.!.!.m / T.-.] ' 7.B.O.",
"E } 8.5.6.w.q.;.;.[ &.!.Q./ ~ Q ~ ] W | 7.' E =.6.s.7. . .7.(.{.;X!.Y.*.$.u.@.O.O.O.@.i.n.z.5.5.p.p.i.5.} 8.8.8.5.5.+.u.d.s.7.| ' V.K.m.9Xm.5. .T ^ -.] Q ..D.x.M.M.j.i.p.j.i.s.s.a.l.l.5.+.} 5.j.i.6.-.&.x } X.&.~ -.3.3.i.p.h.k.q.`.`.G.9. .8.K.iX7.| #.V.n.j.5.3.p.j.i.O.@.C.q.o.#.B.b.x.k.6.o.W W W 7.4.8.+.W p e e W B.C.w.;.q.;.O.7.k.p.g.9Xl.-.Q W e.eXNX[.s.4.d.n.n.k.3.q.7.k.n.V.`.{.{.U.T.-.7.l.x.i.c.uXXX6.;.w.} j ~ / C ~ :.B.#.&.).U.U.{.|.A.u.u.3.| ! }  .7.s.u.4.$._ E Q / / ^ _.).!.{.|.w.O.u.n.D.`.1X4X,X!.>X'.#.3.j.XX9Xx.x.u.$.q._.T.j j 4.H.N.V..XiXG.=.W.E._ s..Xc.5.+.5.d.d.d.w.-.T.-.$.b.x.H. X).q.6.+.w.`.=.} 8.s.s.s.G.G.s.3.s.XXtX[.(.-.j j ~ -.r.F.C.;X<X;X{.R.:.-.] w.O.W ] ..E Q -.7.p.i.i.h.D.A.;.#...T.).&.j Q ] ! ..C.V.x.j. . .3.k.e.#.N.].r.R #.[.J.O.w. X[.F.s.u.s. .R o.6.7.+. .] U.&X&XT.r.r.R.=X&X~ `.B.6.=.R.:.] X. .3.j.z.n.j.4.| X.q.:.Q.%X=X&X( ^ X.7.b.x.s.(.Q.&X,X{.w.B.`.].C.r.2X{.X.e.G.V.[.NX`.$.5.5.6.W } B.J.V.r.t.Z.L.F.#.;.t.`.].D.l.7.6. .2.3.6.o._.`.(.R.`.|.).%X&X=X,X(.B.D.i.+.a.k.i.s.s.8.+.q.`.G.k.i.5.p.s.X.] =.] | %...=.-.;.7.a.q.o.| +.3.6.R.v p ` O.3.5.3. .` W o.o.o.~ 1X,X%X~ Q #.G.k.5.s.8. .}  .e.(.(.&.h ' e.C.`.{.!.Q.E.Z A U.T.;.q.(.q.+.3. .| } X.`.LXPXHXU &XE.T.;.O.} W ^ T.t.e. .q.(.:.O.+.4.B.Z.w.O.3.7.| E } B.B.4.7.| o.-.(.!.Q.U.M ~ &.] #.+.7.N.$.",
"} 7.3.+.3.7.;.:.R.*.Y.;XT.~ ~ ~ Q ] | 4.s.| _ ;.B.s.3.}  .e.{.,X&X&X&X*X7.5.i.4.O.O.,.b.c.p. .#.s.u.+.6. .6.B.8.8.3.4.p.p.l.s.} O.K.iXx.x.m.h.} T ^ ;.} W X.l.c.v.M.x.p.g.p.5.5.s.u.n.n.i.+.| 4.n.j.i.8.;.' X...U.~ X.8.i.j.j.i.7.(.{.R.F.6.6.B.K.0X$.' ~.'.b.x.j.u.i.i.4.O.%.A.r.| 3.k.n.j.s.5.2.} ` } 6.X.w.q.| R W ` | k.D.7.| w.N.@.4.D.b.g.K.s.-.^ o.].nXeXF.s.7.a.p.z.k.3.+.4.s.a.`. X XR.&.-.X.7.x.j.p.XXtXn.:.R.R.Q j ^ / / T.(.C.$.] T.T.T.{.{.N.$.4.O.} } 2.5.s.h.p.l.a._ l M C / T.).-X%X(.].d.4.u.l.s.w.;X;X!.{.>X`.#.3.h.n.v.M.M.f.;.-.-.^ j _ d.I.Z.B.v.XXs.E U.U.@.m.tXj.3. .u.b.x.H.6.Q Q =.s.v.x.l.].q.2.3.3.B. X-.! e.F.D.e.e.F.Z.(.C.j.XXP.#.] j m / -.:.4.6.!.,X<X%X~ ] ..4.s.O._ #.d.' ! =.a.a.@.4.k.k.7.+.| } -.(.X.W Q Q W X.7.d.c.p.+. . .q.r.-.e.G.6.W ..|.[.#.:._.q.a.s.a.s.#.! o.6.8.+.W R / -XE.] B.F.:.&XA ~ :.`.R.R.T.;.X.6.+.s.n.z.z.j.4.' } 7.C.R.Q.E.&XQ.^ ..s.c.v.n.C.E.E.;X{.w.e.q.(.(.|.>X{.] X.5.B.'.nX~...X.8.y.q.8.D.H.V.6.e.D.L.A.;.6.y.e.F.].C.6. .3.9.6.} Q _.(.t.&.T.(.(.Q./ !.(.X.k.h.5.| s.D.s.V.B.7.;.{.1X>X`.;.X.$.s. .} -.q.X.#.;.-.U.-.:.q.;.} ' | +.`.2XU.u _ $.u.5.3. .} ` } 3. .] ).!.Y.W X.#.`.`.w.e.7. .! ;.(.t.t.&.Q } 8.`.{.(.R.R.E.Z A %X).r.7.6.$.7.7...W ] ;.{.ZXMX=X/ ~ Q X.Z.V...Q ~ -.;.w.:.{.{.R.| 3.z.n.i.4.+.| X.} }  .r.w.4.a.X.E ] (.T.~ Q v -.-.X.8.s.7.$.;.",
"6.e.| #.e.e.=.R.{.R.!.;X-.T ^ Q R ..+.s.b.u.O.7.s.i.3.}  .q.Q.&XA J 4X<X:.+.i.5.O.O.f.m.v.i.| X.7.7.} } }  .e.6.6.3.a.u.u.l.k. .u.K.v.p.x.9Xj.} R Q X.} R } 5.c.x.g.p.p.x.x.i.5.s.i.n.m.p.+.| +.j.c.z.l.s. .6.-.~ ~ ..8.l.x.j.s.w.R.R.R.].w.w.F.H.l.@.>.bXbXI.x.b.4.+.$.N.A.{.{.B.+.5.l.k.p.i.5.8. .X.X.X.} -.q... .s.u.| i.l.3. .7.V.a.s.J.n.b.V.a.X.o.q. XNX}.C.3.| $.s.G.8.O.+.3.+.#.{.NX|.] ^ -.X.7.l.j.j..X.Xd.=.U.U.~ ~ T.T.U.T.(.C.w...] T.T.R.`.N.@.@.| o.} 3.5.5.h.j.n.k.| k M M ~ ).Q.&XE.R.].J.p.p.z.k.X.T.T.-.`.{.`.6.9.5.j.m.v.v.p.;.&.-.W W @.0X0X'.a.v.c.7.h M &.a.oXiXn.3.` @.x.m.J.w.Q Q :.l.XXc.z.k.X. .3.i.L.|.:.! q.8.B.q.X.r.`.(.(.5.j.l. .R j ~ / &.X.3.$.^.,X4XQ.~ ] 3.l.l.O._ 7.J.@.W Q >.'.w.+.8.G.s.+.| W W ..7.6.X.-.! y.7.d.x.j.k.3.X.;._.;.k.+X2.W =.{.(.-.^ ~ | @.a.a.B.w.X.o.X.X.+.} Q !.<XR.| k.C.-.A b U.R.;X:X{.:.X.q.t.w.k.k.i.j.p.u.+.+.5.G.(.U./ Q.T.^ o.B.m.XXn.w./ C R.(.8.3...-.r.(. X`.;.o.} #.}.bX^.v } 2.X.2.s.J.H.s.6.D.H.s.| ;.2.9.9.e.(.:.w.8.8.8.q.R x -.t.t.-.^ T.&.~ ^ -.-.2.k.k.5.+.k.L.F.].].`.R.<XZX>X_.=.-.].'.X.] :._.] ] =.&.~ U.T.-...| | | +.`.1XT.l | 3.u.3.+.3. .}  .5.3.:.&.U.T.X.8.r.`.`.r.w.8.2.o.:.(.e.q.=.W 2.k.].|.C.`.R./ b V %X{.e.s.s.a.d.B.=.x ] :.{.1X1XW.] W ` +.V.N.] Q T Q X.w.{.2X{.:.| +.n.n.u.u.a.O.W `  .3.w.w.u.s.6.W W -.~ k x ] {.`.w.a.8.7.r.:.",
"w.w.:.:.(.q.| ;.R.R.{.|.-.T R R ` O.3.i.c.j.u.p.p.u.#.} ..-.~ M b C %X;X!.R.w.7.O.O.g.9Xv.p.+.X.#.#.W R W } 2.2. .6.w.+.4.s.3.3.p.v.x.p.M.9Xx.3.X.o...W R } 5.x.x.u.u.p.M.M.s.5.i.i.x.n.d.7.;.#.p.c.c.n.s.} +.;.=.&.] #.s.j.p.B.(.U.&.R.|.r.`.F.s.7.$.}.LXLXrXp.b.@.O.$.{.:X1X{.N.7.s.s.5.p.p.i.k.6.-.T.-.Q &.R.=.#.d.d.O.7.s.+.+.B.[.Z.a.J.n.p.$.#.2. .2.|.1X:Xr.....w.k.G.#.O.4.3.| #.:XbX].` Q -.-.r.F.D.d.J.n.+.Q &.&.~ U.).(.-.q.w.N.7.3.} ] ~ -.C.d.u.4.#.;.-.7.7.3.5.h.h.5.| M M ~ ^ Q.Q.E.( U.`.H.v.M.b.e.-.] -.;.t.(.R.6.3. .s.m.v.x.d.w.-.-.] @.x.iX0XL.s.v.c.5.W M &.8.oXoXn.3.` @.x.v.b.C.R.-.:.D.n.j.z.h.+.| #.h.oXZ.=.o.X.3.9.-.&.R.!.!.R.X.5.s.O.R R ^ =. .5.i.N.;X,X-X/ Q X.s.z.b.u.| 4.b.u.R p {.BX X|  .3.a.$.| x E X.l.k.t.=.! y.2.+.p.m..Xj.6.(.r.o.6.k.2.W T.!.~ Q ^ W O.f.a.a.u.8.9. .} ' 3.6.-.).2X`.| 7.X.~ y C Q.,X4XmX}.;.#.t.).(.q.3.3.p.b.p.5.5.5.G.e.] ~ Q.-.! o.8.n.n.k.X./ / -.w.i.3. .X.X.X.w.F.].X.} :.bXKX4XM [ } W } p.c.j.3.8.P.n.u.O.6.2.2.2.q.R.R.w.k.G.F._.Q E #.e.e.:.Q ] -.=.-.o.o.e.B.D.s.5.k.].`.{.;X;X*X4X4X{.X.} q.>X1XR.&.).U.m E.!.Q./ U.T.^ ` $.$.+.+.B.C...| +.4.a.$.O.#.X.}  .8.C.>XQ.*.:.5.k.(.).(.q.7.5.9.6.6.e.e.6.o.} 3.k.F.Z.s.F.r.Q u m W.{.e.l.H.H.k.B.:.v E ;.`.|.{.*.| 3.u.4.O.| W T T W  .;.^.^.(.7.O.O.s.s.@.a.u.@._ ..6.5.7.7.i.i.5.! ! -.~ M &.(.>X|.`.w.O.q.(.:.",
";.r.{.!.(.-.} 7.>.>.`.:.! T T W | 3.u.p.c.v.p.p.j.u.#.] -.&.Q j h M T.R.T.T.=.;.@.,.M.yXv.x.5. .X.;.W j R o.X.2.o.q.w...w.e. .3.x.v.x.x.9XM.x.i.6.X.] W ! 3.i.j.x.4.u.V.M.x.i.5.3.5.l.K.F.w.t.;.s.z.j.n.5.}  .X.X.=.] ..7.p.i.B.R.~ M R.`.w.].C.8.X.`.<XPXPX Xd.d.@.3.A.:X1X:XR.~.`.C.7.+.l.b.j.i. .] T.T.Q ] :.=.6.u.b.d.a.s.@.7. XNX'.7.l.n.i.#...2.2.} _.;X;XR.-.:.].F.e.| #.l.5.| ;.:X>XN.| Q -.-.r.].F.Z.F.D.| Q T.R.&.T.).).-.7.8.a.a.7.} o.o.7.D.l.d.B.`.`.R.w.+.} 6.5.5.2.} ~ v W ..T.!.E.E.T.(.b.9Xv.x.X.-.! q.e.6.;... .+. .8.m.x.x.b.G.X.;.O.p.9XaX9Xa.s.n.z.9.q.&.-.w.G.i.u.+.| u.x.c.z.|.>X{.(.C.k.s.h.5.O.#.$.i.j.7.| X.2.9.e._.U.Y.!.{.).-.2.p.4.W Q -.7.s.j.j.B.;X-XE.~ Q 6.h.h.k.p.@.u.p.s.j 4 mXLXnX=.W E O.B.| x ` a.n.n.B.o.Q -.o.| u.m.tXb.C.|.(.!  .9.2.Q / E.k j ^ ! a.H.d.s.4.7.e.6...' 4.B.:.R.`.r.....^ ^ m ( &X=X3X4X}.>.w.t.).T.X. . .l.K.p.i.5.5.l.G.} &.T.-.o.-.q.8.s.q.Q ~ &.;.7.z.5.| } o.} +.].`.:.;.`.LXPXmXn ] } ! 3.c.x.i.+.7.k.m.p.p.k.3.! 2.(.!.Q.;.B.G.|.).&.#.k.k.k.t.R W (.y.2.2.o.y.].].7.3.e.`.{.*X*X%X&X3X4XR.W } q.1XbX;XQ.!.C C ,X<X;XU./ / j ` a.s.7.;.C.6.3.7.O.O.7.+.O.#.| | 3.w.|.1X2X>.B.5.B._.).R.:.#.3.2.2.X.3.3. .} } 3.5.k.s.u.D.G.' g M !.{.7.k.K.b.s.B.(.Q ] -.-.-.-.X.3.s.H.a.' ` W T T !  .;.R.U.#.8.s.@.4.@.O.@.3.+.#.w.8.7.+.3.5.5. .} o.-.^ ~ R.|.>X}.`.;.] -._.-.",
"=.(.1XQ.Q.R.} 7.s.F.(.-.T T ! o.| s.4.i.x.v.p.p.j.d.#.E Q -.! } ` #.F.e.=.v ~ *.O.p.M.tX9Xj.5.} o.X.W W  .3.2.o.;.(.;.=.-.;. .3.j.x.M.tX0Xx.g.b.5.3.` W #.B.s.i.5.i.3.L.I.b.p.@.+.B.L.[.#Xt.] X.+.s.z.z.5.R R 6.8.6.=.;.#.5.l.4.] ~ U.:.7.5.H.L.8.;.{.<XHXKX X8.$.@.l.[.;X!.*.~.:X:X`.+.+.s.n.x.5. ...R.-.} O.B.q.o.5.J.[.L.H.4.:.NXBX`.#.k.z.5.| #.6.2.q._.%XE.E.Q.`. X|.(.O.4.p.3.| :.~.`.4.7.o.~ ] `.F.e.q.r.(.:.R.!.R.T.&.(.).(.a.z.d.a.5.}  .5.i.j.p.D.Z. X1XQ.R.=.W } 5. .} o...`  .7.;.R.Q.U.U.:.b.9Xx.i.| ..6.G.k.7.` ' |  .3.s.n.m.d.f.l.s.4.u.x.tXtXm.5.7.s.3.6.q.R.R.(.6.O.@.4.i.l.b.j.k.|.1X|.(.(.`.e.5.5.u.4.a.4.5.@.+.3. .3.6.=.&.R.!.:X Xq.6.b.p.| ..O.s.l.m.b.a.).!.T.^ W q.k.3.3.s.p.x.n.8.j e mXKX;X-.W h | F.7.' O.p.tXiXD.E j ^ Q W a.K.pXb.`.2X(.! ! ! ! ^ V Z u k &.o.f.m.j.@.| (.|.`.$.,.V.B.' E 3.B.=.&.^ / ( ( 8X&X&X<X}.w.+.q.T.T.q.X.+.l.m.p.i.+.| l.k.X.-.(.q.2.-.t.X.q.^ k ~ -.+.u.p.i.O.O.#. .+.].|.(.X.|.LXPX4XM .. .9.h.c.x.4.+.3.D.j.x.c.J.8.` :.).%XQ.R.`.|.{.%XT.D..X.Xl.8.R ` F.G.2.o.o.t.].`.-.:.`.{.-X%X&X&X&X5X%XT...6.e.}.:X%XW.Q./ ( ,X4X,X!.^ ~ j | d.l.O.:X>XA.7.#.%.%.a.p.4.+.| | 3.r. X>X}.Z.D.k.B._.( Q.T.....-.-. .5.5.8.2.6.2.s.h.5.5.n.n.5.` &.!.).r.s.p.p.5.3.=.Q ] -.-.Q o.X.7.7.d.N.@.| W ! ! ! 6.q.] &.] 8.i.p.4.%.| ' | 3.D.V.V.| | O. .|  .} o.o.Q ~ {.|.`.>...E Q T.T.~ ",
"~ R.-XE.Q.Q.X.8.D.F.-.v T Q X. .| B.d.i.c.v.@.a.l.d.6.W W X.} 3.+.5.n.l.%.Q M Y.N.p.v.9Xm.u.+.} ! ! ' O.k.k.6.X.`.`.q.;.-.] | 5.p.g.x.iX9Xf.f.V.u.5.o.X...$.a.s.5.8.6.B.L.H.j.i.#.C.'.#X X=.R W W +.k.z.+.j j  .h.G.;.R.(.7.s.7...-.:.-.5.h.D.D.B.t.{.%X3XmX{.6.| a.K.P.R.&.~.}.<X:X`.#.| 7.b.j.i.3.X.q...' @.D.t.X.3.D.I.H.H.N.^.1X1XR.| 7.h.5.| X.5.8.t.).Q.U.&X%X|.|.{.`.4.i.i.4.;.:.>.N.4.s.q.o.o.C.G.6.] &.).).).R.T.&.=.-.T.(.D.n.p.3.3. .5.k.j.j.@.N. X1X1XQ.T.] R W 5.O.| 7.N.@.3.p.i.N.).T.Q r.S.0X0Xu.O.#.k.n.l.3.| O.#.+.8.k.j.n.d.O.i.p.p.g.9X9Xv.b.5. .2.X.X.-.R.R.-.o.+.u.@.u.D.D.j.k.`.{.`.(.).{.B.5.7.s.s.d.i.u.u.u.5.} } X...>.:.:.`. XB.8.H.D.w.w.i.b.x.m.n.D.`.(.-.] -.q.e. .| 3.j.m.J.B.j m mXKX;X-.&.c O.D.V.@.,.x.tXtXb.E g T T R O.d.pX[.;X-XQ.-. .} R m V A b M -.X.i.m.p.O.:.>X>X|.'.[.H.d.| | 5.s.-.&.E.Q.T.( 8X&X&X,X|.w.| } Q -.t.q.O.s.m.x.a.| | i.z. .#.(.y.X.T.-.-.-.m r ~ w.4.i.p.u.@.4.8. .} X.{.R.} `.ZXmX=XU...7.j.n.m.x.3.+.s.l.4.u.c.n.7.] T.-XQ.E.{.}.{.R.U.&.l..X.X.Xs.W } B.8.2.o.o.;.(.T.U.T.).!.Q.Q.E.8X&X&XE.T.#.4.d.'.{.%X&XQ./ / ,X4X*XR.-.Q R 4.b.p.#.1X1X:.#.R.|.`.V.l.p.4.| | 6.:.`.(.N.d.b.p.3.-./ Q.T.=...&.] +.i.5.5.e.e. .7.5.5.+.j..Xn.$.] -.R.(.Z.p.4.O. .W Q =.;.^ T o.e.7.+.%.>.*.>.W ! ! ! X.;.] ^ o.6.j.p.a.$...` +.z.oXl.a.#.|  .` } X.o.o.! R ^ (.).R.] D l h ~ U.Q ",
"&.&.~ C ( / X.C.].r.] Q ^ ^ 2. .` C.D.u.x.p.{ '.V.s.7.| | +.+.5.u.p.m.K.i.$.U.*X`.H.K.m.x.3.o.X.! ! ' a.K.b.+.6.].F.B.r.-...$.f.i.u.g.9Xg.,.'.eXV.5.X.q...| 7.B.2.2.X.O.<.V.x.k.r.(.Z. X{.Q R R R ` 5.G.| h R 3.z.J.;.R.).;.8.5.6.e.C.+.5.h.k.s.5.q.R.H U ,X`.8.O.a.n.b.4.>.bX4X*X{. X(.x W d.b.s.5.6.q.;.X.i.J.(.:.r.B.H.d.d.`.;X;X{.=.' +.9.8. . .5.k._._.=.-.%X,X>X`.`.`.B.d.u.a.`.`.a.d.i.k.e. .} 8.k.| v U.-X2X_.-.^ Q o.! -.-.D.K.p.+.+.7.l.b.b.d.' $.bXmX,XQ.-... .3.p.u.| s.b.p.i.c.x.s.).T.} F.wXBXlXL.@.5.n.z.h.u.V.'.C.N.k.j.h.h.4.' +.i.x.v.9XM.x.b.5.! o.-.^ T.).).^ o.7.d.u.f.'.Z.d.k.6.q.(.(.;X:Xa.i.4.s.s.l.x.p.p.p.5.} } O.$.N.;.#.V.pXn.h.D.].|.'.H.x.x.x.c.k.].{.T.T.R.:.2. .W | l.oXP.q.k V 4XmXQ.U.Y.&.=.C.J.j.,.x.tXyXx.` g k Q R | 4.[.>X!./ ~ o.8.8.] ~ C Z U.=.-.7.j.x.i.| `.1X1X{. XgX0XI.].`.i.5.X.&.!.%XQ.U.( ( &X,X|.6.} W W 2.e.6.` O.m.b.a.| +.k.h.+.7.C.y.q.:.^ ^ ^ k j -.G.l.i.p.p.p.u.s.8.} W R.=.` |.ZX,X!.!.:.A.H.K.0Xd. . .k.i.| | l.z.7.] &.T.( E.<X1XR.] &.&.b.yXXXm.l.| } 7.6. . .X.o.&.U.E.Q.Q.U./ ~ ~ / Q.E.U.;.+.i.l.Z.~.%XW.Q.^ ~ %X;X).t.6.! W p.c.p.>.,X=X&.] {.1X|.`.D.s.4.| | r.R.R.O.u.x.x.x.3.^ ( Q./ =.#.-.=.7.k.5.7.r.(.} +.5.3.O.i..XoXD.O.` -.).{.N.O.| X.E Q ;.-.^ k W e.e.q.&.W.bXZX*.W o.X.:.:.! ! X.6.j.f.A.>.] ..5.n.oXl.A.`.;.6.} } 6.X.` W Q &.Q./ / M z h v ~ :.X.",
";.] h k ~ ~ o.t.w...=.=.-.o.6.} c `.F.u.d.O.>.>XC.s.8.+.3.5.3.i.b.b.iXm.n.N.R.*X{.'.P.n.j.3.q.y.2.W ' u.K.l.O.7.s.D.B.e.w.w.s.f.s.@.f.b.u.A.ZXAXL.5.6.t.;.#.D.D.} W o.} %.a.b.l.`.R.w.C.:.^ X.} ` W O.e...x ` k.XXJ.=.&.T.] X.5.8.k.l.4.3.2. .6.9.X.-.M J !.C.d.$.d.b.x.l.].ZXmX%X^. X(.M ~ N.d.k.5.6.X.q.w.k.D.(._.(.C.d.f.N.|.;XW.*...#.7.6.8. .6.h.k._.-.#.r.Y.;X{.:.:.r.F.Z.B.A.`.B.k.n.l.s.8.3.3.5.5.| &.!.,X).-.o.Q Q !  .=.] B.J.l.5.+.s.l.b.[.'.' >.ZXZX-X-...3.h.+XK.p.O.d.0Xx.j..XXXz.`.R.e.[.NXVXkXL.i.j.c.h.i.H.[.[.|.C.k.j.5.3.3.| +.l.c.9XyX9Xx.l.3.! o.^ Q T.!.!.^ o.a.k.s.B.`.`.d.4.o.-.T.Q.2X>Xa.s.7.w.7.l.n.p.p.p.5.3.8.s.d.d.4.u.b.pXtXj.a.C.>X>XI.m.p.x.j.j.F.`.-.R.).:.2. .W | b.n.B.[ 4 n =X=XU.U.E.U.-.C.K.x.@.g.tXtXx.O.j k Q ] +.a.|.2XQ.m ~ Q k.D.:.T.E.E.*...#.D.OXJ.7...R.;X).!. XwX0XzXNX`.8.5.6.q.).!.Q.T.T./ E.).].7.;.X.3.8.B.O.c ' b.x.s.+.s.J.j.5.h.G.y.-.-.T T Q ^ ] t.P.z.p.u.l.H.u.p.G. .W -.] ] >XZX%XR.).R.;.V.H.L.Z.X.} 8.B..._ s.l.a.' Q ~ / %X1X>X>.] T.;.n..XXXc.l.+.| +.} X.r.q...] E.%X!.Q.T.T.Q ^ T.).R.:.;.| 5.l.L.`.;X%X_.-./ !.!.R.8.0.2.} k.x.s.r.=X&XM T.,X,X{.`.F.@.O.| ;.:.!.{.8.j.c.x.x.i.X.T.E.C -.q.o.;.s.k.5.7.q.(.] ..+.3.O.s..XoXD.6.} =.!.).w.O.+.#.E v t.(.T.~ W 7.8.q.U.&XPXIX:X] ;.t.(.(.^ ! o.+.4.wXSXAX>X`.s.n.oXV.`.`.e.7.X.} 8. .` ] ] ] / m m U.M M Q.T.C.H.",
"6.} E W X.X.Q ! ` 6.7.|  . .5. .x ;.`.w.7.%.R.|.w.s.s.i.i.i.u.p.@XP.b.b.K.V.`.R.;X;XN.z.z.3.y._.q.}  .a.D.d.@.u.i.l.s.7.k.D.d.u.4.O.@.a.@.}.LXLX'.4.r.t.q.6.L.D...T o.X...#.H.D.(.-.#.#.] ;.6.+.3. ...:.=.x ` h.XXJ.`.U.~ Q ` 7.s.i.p.4. .T g ! X.X.;.v M R.V.H.$.L.iXn.l.C.1X4X,X;X`.q./ E.:.N.b.i.6.} q.C.B.B.(.T.R.Z.b.p.C.>X{.*.' 3.s.5.2.6.o.q.C.C.R.~ $.N.&.R.R.:.B.G. X X X`.a.5.i.n.J.D.w.e.s.5.5.6.;.).).T.-.o.! !  .e.q.o.#.V.k.5.5.k.n.V. XNX`.~.1X1X).X.} 3.h..XdXx.u.b.pX9Xj.c.c.x.7.;.]. XBXNXL.p.x.j.p.j.p.K.[.[.].Z.H.j.u.3.3.+.7.k.j.x.tXtXf.O.+. .X.o.! ^ E.U.~ q.B.l.s.w.R.(.7.| ! T.T.T.{.`.N.Z.`.`.8.h.j.p.x.i.@.5.s.s.u.@.p.j.x.yXtXj.7.:.>X6X@Xp.@.i.j.j.k.6.=.{.{.-.2. .| 4.n.p.O.h 2 M {.{.>.=.U.U.T.(.D.s.| p.tX9Xx.a.Q j R X.s.Z.{.!.M ~ / ~ `.C.R.!.Q.U.;.O.O.D.P.B.#.;.r.:.&.R.[.I.eXNX>X(.w.7.7.w.`.:.R._.T.&.T.:.B.7.(.(.k.k.s.| E $.K.x.p.5.s.l.j.j.z.k._.:.^ T T ! q.q.r.F.k.h.O.i.n.p.i.s.X.! q.] U.mX1XU.:.`.:.] ,.Z.~.(.-.} w.`.:.` s.J.V.| [ ~ R.;X{.`.7.7.-.o.k.XXXXc.d.3.+.6.] _.).(.;.] E.%XE.E.Q.T.-.-.).).(.`.7.} 3.h.oXZ.{.{._._.T.).T.:.k.k.).-.V.H.w.R.E.Z C &X=X&XY.C.L.+.| #.w.-.(.{.B.l.c.j.v.p.X.T.U.~ :.q.! 2.k.i.s.e.q._.T.~ } +.4.s..XoX].r...] Q.Q.X. .7.;.c p U.).!.-...6.3.X.T.*XIXUXAX*.;.t.!.!.^ T o.#.V.NXIXPXZX Xs.l.L.C.!.).e.5. . .3.| [ =.X...~ m m / ~ U.{.`.L.n.",
"2. . .7.F.t.k g W k.i.O.i.3.3.s.O.#.`.;.#.w.(.).X.8.l.z.p.i.p.b.[.C.O.p.K.I.L.`.;X!.| l.n.3.X.t.e.+.#.6.N.s.u.p.j.n.s.5.G.G.i.3.| ` #.w.A.NXLXmXA.7.r.;.X.+.D.D.=.Q ] :.] X.C.C.T.~ X.| W 6.a.i.k.6.-.R.:.` ' i.n.[.nX!.&.Q ` B.l.i.u.u.o.t 1 ~ Q q.(.Q Q :.H.H.A.[.gXb.d.w.{.,X,X,X`.;./ U.T.'.b.i.6.o.w.B.6.;.T.~ Q C.K.b.`.>X).>.@.s.l.5. .2.o.:.`.`.(.] $.$.>.=.T.(.D.D.].>X>X].s.5.h.k.P.F.6.C.H.5.5.8.;.:.-.^ -.o.}  . .q.t.-.X.w.8.5.p.J.n.V. XBX X`.{.).t.3. .5.h.XXdXx.4.p.iX9Xj.j.x.x.3.C.>XZXZX}.d.p.g.f.@.p.b.K.[.'.;.C.H.x.i.5.5.6.q.C.s.p.p.p.@.' 6.X.X.;.-.Q M &.] e.D.l.G.w.:.(.#.W Q T.T.T.R.=.].|.2X|.F.h.i.p.K.i.O.@.5.@.O.O.x.x.x.c.v.j.w.-.2XnX[.3.' 3.h.z.n.7.;.].`...X.6.B.H..Xu.' a i R.'.Z.a.;.U.!.!.R.6.3.' f.iXv.p.s.` j } 8.B.`.).Q.h Q / / {.`.R.R.~ &.N.i.u.b.B.` [ A.F.O.] q.F.L.NXNX|.:.;.$.4.s.J.6.q.-.^ Q ;.#.7.w.).{.P.z.4.' | d.iXx.l.i.i.i.i.h.l.F._._.^ j T X.B.C.`.`.k.5.} +.j.b.p.7.o.! X.] !.mX;X~ X.`.-.W ,.N.>.-...o.{.>X|.;.l.J.B.| ` X.{.|.(.w.d.s. .}  .8.z.j.i.4.2.6.-.).R.:.C.:.%X&X( ~ T.-.X.t.).T.:.F.8. .6.k.P.4.*.).(.:.T.T.=.q.G.w.!.!.`.Z.r.T.C b ( Q.&XA v w.G.5.O.w.w.#.r.`.w.8.k.x.m.p.2.-.U.&.R.:.! 9.k.i.7.w.q.(.Q./ E X.6.7.D.P.].r.=.&.E./ ~ X.B.V...p k T.T.(.6.O.3.#.] !.LXIXZX*.} -.Q.E.T T ` %.%. XAXAXbX}.A.7.C.:.R.|.B.5.3.3.7.` E ..6.6.-.~ ~ M C ).2X].H.i.",
" . .5.L.].&.y r X.k.i.i.n.3.+.L.H.N.`.>.+.C.(.T...6.h.j.j.p.x.K.`.:.O.p.b.K.J.F.{.U.` d.l.3.` q.G.7.q.q.#.4.l.x.x.n.s.3.s.8.7.+.} ] t.).}.ZXLX:X$.a.r.X.!  .i.V.;.=.] :.-.=.(.(.T.Q W | } 5.x.M.k.X.Y.*X`.7.@.u.S.eXnXR.:.} ..].D.i.u.w.^ 1 6 C &.).2X-...7.H.H.`.eXpXx.a.A.(.!.%X%X(.:./ / -.`.V.i.q.y.k.B...] -.R R e.K.[.{.;X;X>X[.D.s.O. .o.W =.`.{.(.q.a.d.Z.>.R.(.B.F.C.`.|.`.l.z.k.6.Z.V.4.l.I.@.+.e.w.=./ ~ X.6.6.2.] ] -.-.] ] ..4.j.XXXXd.{.nX X`.;.;.B.7.O.4.3.D.pXv.+.3.x.x.p.j.M.b.8.|.mXZX>XA.s.d.S.rXZ.V.H.[.[.`.] ;.b.v.p.p.h.6.:._.F.s.7.4.u.i.8.X.=.:.6.! W ' +.s.l.s.e.-.T.R.-.Q -.-.-.T.&.T.>X|.|.{.B.k.3.s.D.4.u.f.j.p.| O.M.x.x.x.x.p.t.T.;X>XF. .} q.k.n.J.i.7.F.F.} } C.[.gXiXp.@._ _ V.J.d.d.>.T.-X{.:.:.#.| O.b.x.j.l. .W 3.k.7.:.R.T.] ] ~ ~ (.`.:.-.T Q e.J.v.tXs.c &.'.D.5.2.q.w.`.|.|.`.:.| 7.l.z.n.l.0. .W ! 6.7.a.'.;X{.G.k.#.` O.j.m.x.k.s.N.7.5.k.[.|.).U.~ j R 2.F.C.R.R.e.3.}  .u.b.l.7.o.! o.X.^.1X(.E -._.-...f.f.#.=.o.:.2X2X`.7.j.j.3.} ` ;.).).q.9.l.s.6.! Q Q 7.p.5.s.2.6.T.).] q.G.t.%X&Xm ^ ..o.6.y.(.-.X.e.6.o.:.(.F.7.=.(.q.q._.T...e.G.O.Y.1XnX'.(.T.m s &.!.&XV e #.l.k.:.`.e.7.s.e.q.:.t.F.I.D.;.-.:.T.(.:.^ X.k.s.w.r.q.:.!./ ~ -.;.%.r.C.B.w.T.E.P V m =.F.H.$.E g T o.7.a.O.O.#.E ] >XZX{.=.o.o.E.C m Q W ` %.N.`.{. X X{.*.:.=.-.|.e.8.3.6.e.! R | 3.4.w.] Q k C ,X{.C.a.O.",
"| 8.k.D.#.j y k t.k.p.x.j.3.u.H.H.a.;.=.+.7.R.~ =.6.i.j.p.p.x.H.:.-.7.4.u.b.oXL.`.&.` s.d.4.x X.P.8.q.q.X.4.b.x.n.z.5.| | X.e.6.X.-._.(.{.ZXKX!.#.B.R.R.} 2.@.a.;.R.-.:.:.-.R.`.T.Q R  .3.j.M.9Xs.` U.!.].L.H.d.Z.eX X:.t.} ..].F.s.4.w.^ 1 7 A M T.{.-.#.B.L.Z.`.NXgXd.$.w.(.T.C E.).)./ ~ &.`.].7.q.t.D.s._ ~ -.] W 7.J.wX{.Y.:XZXkXD.a.| =.] W ..^.{.:.F.i.b.H.C.`.`.C.[.N.| A.N.j.n.e.` :.A.s.b.K.@. .8.B.r.T.~ X.k.e.;.~ v -.-.Q R ` $.b.c.XXh.<.`.'.V.+.6.D.4.| @.| s.iXm.3.+.p.x.j.c.m.b.s.(.4X,X=.B.s.a.eXBXNX'.[.[.[.:.&.=.d.m.p.p.z.0.T._.C.e.w.N.L.gXF.;.-.R.e.2.3.3.5.5.5.7.q.=.~ ~ ^ -.] ! ! =.~ R.2X;X{.R.w.D.| X.O.| @.p.m.J. .' M.9XtXv.x.i.e._.*X;Xq. .X.t.k.l.s.5.i.J.F.| ] ].kXgXiXc.d.@.4.k.J.k.b.L.-.!.).R.(.(.;.| i.x.j.k.G. .i.k.7.:.U.~ ..| ^ m T.{.:.R T W 6.b.tXyXD.c Y.>XD.5.9.6.] R.`.(.(.-.` 7.J.j.j..X+X3.] ] 3.i.d.[.{.T.#.8.| E O.i.j.j.u.7.A.:.#.C.>X2XT.~ Q E ! 8.].>.U.U.q.2.}  .$.N.d.s.q.o.X.q.R.{.r.E Q T.-.6.d.i.#.=.] {.2X(.' 3.p.i.| ` | #.T.T.2.9.z.h.8.o.k j #.i.a.s.9.6.).).W e.k.q.Q.( Q X.6.3.s.8.q...X.2.X.] &.:.B.D.r.`.r.(.|._.X.8.k.| U.ZXAX>X{.)./ k (.|.).k 4 #.n.D.(.|.B.5.k.B.(.R.R.`.[.[.;.-.`.`.`.-.^ ! 3.s.t.(.e.X.T./ Q.R.:...;.X.7.r.!.E.Z 7 b ~ C.d.7.#.W ! 3.i.u.O.' } } | r.|.(.;.2.=.( V k ^ W x ' %.A. XNX>X`.:.;...=.t.;.6.6.6.;.! W  .+.5.a.X.W v / ,X`.#.' ' ",
"@.7.k.8.j j ~ &.(.B.5.j.j.h.z.p.m.b.| ` w.#.v T.|.7.j.v.x.x.b.#.-.(.e.O.u.b.b.B._.-.#.@.3.7.g Q e.9.6.e.+.O.V.H.J.k.s.| Q ] r.6.X.q.-.-.-XmX4XH ..w.!.).q.3.4.a.`.`.R.R.R.:.A.r.-.&.Q #.k.j.v.iX7.W ~ -.#.K.m.K.Z. X{.R.(.q.o.t.].7.u.B.-.t 7 b k =.} } 6.q.r.r.;.r.].#.} C.(./ b E.-X%X&XE./ ).].:.T.).C.6.Q ^ _.;.W O.d.K.S.<.|.>XF.s.@...R.).:.-.!.T.r.L.b.b.H.F. X{.|.`.w.+.+.l.x.n.6.j ] r.s.j.z.3.+.h.k.q.T.Q | H.D.q.U.~ ] q.o.E ' N.L.b.XXh.5.d.m.m.u.s.J.@.| | R 3..XiXV.V.V.f.p..Xv.c.h.6.U./ ;.s.h.7.nXZXZX6X|.'.A.A.&.Q 7.n.l.5.0.e._.^ | 7.7. XBX>X{.{.Q.&.o.6.k.0.5.2.+.+.#.] ] Q W X.] ] -.} } q.R.!.-X~ | w.-.&.] c 4.x.m.d.' O.9XyXc.XXv.k.6.(.Q.E.^ -._.(.w.B.8.3.u.K.].=.Y.}.NX[.v.v.L.'.H.k.8.h.tXb.>.R.!.).{.`.=.} i.k.4.k.k.5.x.J. .-./ m X.+.] ~ / T.>.#.X.W  .b.tXXXF.] !.;XC.k.0.6.-.T.(.(._.] ] `.H.i.u.pXpXu...X.7.i.j.D.).~ Q o.} W +. . .5.7.C.{.!.R.2X2X{...%.7.a. .8.(.~ C E.o.2.3.$.>.R.d.l.B.q.-.(.R.R.].E h T.6.s.l.s.a.~.:X1X{.` O.p.3.O.' | $.#.:.(.q.6.i.k.e.-.g r +.s.Z.F.9.2._.).Q q.;.:.Q.T.! 6.8.5.p.s.8.6...:.{.T.j W 5.l.Z.|.{.>X|.e.2.5.k.| Y.LXAX<X<X;XU.&.|. X(.R g O.b.l.`.|.D.k.e.q.(.R.&.R.NX Xe.q.{.{.r.-.R R X.8.y.e.k.8.R.!.&XQ.-.-.| | o.q.!.U.m y y ~ -.' *.(.#.3.5.3.u.@.| ' 7.$.;.`.(.r.F.A.*Xn R 6.W l ' { ~.ZXBX|...O.%.'  .o.;.(.X.| o.} 6.8.5.5.s.@.| ] U.).(.' l [ ",
"4.k.B. .j W :.R.:._ | p.z.z.h.i.v.oX+.! w.#.x R.{.`.b..Xv.m.D...-.(.7.+.@.d.V.C._.^ $.@.O.w.j j q.X.6.k.s.@.#.].@Xk.h.+.Q ~ (.`.q.X.X.-.;X4XE.s ] r.!.!.q.8.u.a.].`.T.R.:X XF.B.-.T.-.=.s.p.v.m.s.#.-.W ' H.9X0X'.{.R.!.|.(.! q.(.w.i.l.:.e 6 6 k X.6.} o.-.T.-.` 6.(.]  .C.T.M M E.-X&X&X( C U.).R.Q._.C.2.Q ~ &.-.| +.j.K.I.[.{.(.7.3.O.>.2X1X{.(.R.&.>.'.L.b.s.L. X{.).T.;.4.p.j.tXK...j ~ R.s.p.h.3.5.l.8.q.T.Q ' H.OXC.!.Q.] e.6.W ' Z.H.d.oXz.j.j.v.c.u.a.l.5.+.} T  .n.m.b.H.K.u.u.c.c.c.j.3.] ] e.k.h.s.}.:X2X;X{.`.B.C.U.~ =.B.k.3.3.C._.Q } 8.N.nXbX<X,X;XU.j W #.s.k.3. .5.3.@.| o.W ! X.q.q.7.7.O...Q / ( r E r.Q.U.M ] B.h.@.O.| 3.tXyXx.x.x.p.8.(.E.A m _.).(.;.7.6. .4.H.`.R.!.2X:X'.m.v.L.eX[.8.8.k.tXM.>.R.Q.U.~.`.w.+.p.i.| +.5.u.x.l.X.^ ~ ~ 7.5.X.^ / U.>.B.6.W | d.v.c.D...U.!.B.G.k.2.&.U.-.(.(.-.T.{.V.4.u.pXdXp.} o.3.5.j.z.R.k j ] 2. .+.| } 6.s.].{.-X%X!.!.R.$.f.b.H.5. .o.v C Q.-.2.B.>.Y.T.s.n.J.#.R.R.=.r.F.] k T.e.5.5.7.a. XZXmXR.+.i.b.s.O.' >.[.C.:.(.t.X.s.k.e.;.Q x 8.D. X|.9.2.T.T.] X.Q Q T.(.2.k.5.3.5.p.5.7.:.{.<X!.T T 5.l.F.|.!.{.`.6.5.5.8.W U.ZXLXbX<X;XR.R. X XC. .' $.x.H.'.'.H.l.6.q.R.R.U.;XNX Xt.(.2X;X-.X.R j o.6.6.2.h.k.(.R.E./ ~ -.X.} o.(.R.T.~ m m / -.[ U.!.r.8.5.5.i.D.7.+.i.a.#.] =.r.V.[.ZX!...7.[ c ] :.<XZX|.r.+.7.w.}  .o.(.{.;.| o.} 7.l.s.4.s.4.O.' &.R.r.E x =.",
"i.s...x x #.`.-.M p W s.z.n.x.4.p.n. .W 6.X.h T.2X|.D..Xv.K.C.] :.e.3.4.O.$.`.(.-.Q a.f.| w.Q j :.o.2.h.P.A.] (.F.h.n.5.Q ~ R.{.q.2.2.-.-X&X7 u =.`.!.&.9.h.i.a.C.:.U.2XZX>XF.e.T.Q.T.Q 7.i.v.v.x.d.q.R x B.m.K.].U.E.;X|.q.o.;.:.;.i.l.r.k 6 < h X.e.} R ^ &.-...e.(.-...t.&.~ v / &XZ C M m ~ !.).Q.T.t.2.! ~ ~ R.q.s.c.oXeXBX2XT. .5.s.C.1X7X{.(.-.] :.[.[.D.i.F.`.`.!.~ #.l.n.j.m.H.:.&.~ :.V.p.s.3.i.D.r.r._.W ` H.pX[.2X-X~ q.B.| @.K.d.l.@XH.n.j.j.j.p.d.j.s.7.' j | b.c.x.m.m.u.4.j.n.c.c.i.X...V.n.c.j.$.*.T.T.:.X. .X.U.U.U.R.B.3.X._.).^ } 8.A.nX4X,X,X!.Q j x ` 7.s.4.3.p.5.+.7.2.! } 2.e.0.5.k.6.W h j ~ p l U.W.E.n &.(.#.W | 7.u.9X9Xp.j.c.i.8.:.A S m T.).(.;.|  .} O.V.`.Q.%X,X!.`.oXm.Z.].].6.3.5.x.m.C.R.T.~ <.K.b.p.c.i.` | +.p.b.D.;.Q T ] B.5.+.W M ~ $.[.G. .O.p.x.j.H.w.Q ] a.D.B.-.~ ~ W t.(.(.2X{.4.u.i.iXaXx.| } 3.h.c.b.;.x j } k.h.5.O.} 6.B.e.(.!.E.M U.R.a.p.x.b.h.| R j ~ _.-.q.].`.W.&.d..XJ.6.Q.U.Q e.B.} Q -.y.o. .2.8.#XZX;X;.8.d.n.z.| | '.kX].q.:._.-.7.k.B.r.!.R.G.B.|.>Xe.2.-.X.X...R j Q q.2.0.9.+.O.4.+.w.).;X,X!.^ W 2.D.F.r.] :.q.X.6.6.6.x Y.ZXZX1X:X{.).{.2X{.C.B.#.s.x.c.Z.'.OXJ.8.o.-.T.Q.2XNX X:.Q.,X!.^ o.Q j W 2.9.9.0.z.B.] M k ! X.:.&.-.(.(.`.-.T.U.U.R.T.U.&.q.9.5.8.7.F.B.7.k.z.O.j R q.l.OXBX{.#.B.R.&.*.;XmX1X`.8.B.].).-.} 2.).{.=.} X. .5.n.D.4.s.s.5. .} q.r.E ` ..",
"7.6.c h | k.].] p s ] e.5.x..XO.O.i. .W  .} l R.1XR.7.l.i.i.:.Q ;.7.3.s.@.O.R.R.j W d.g.O.#.-.Q T.=.6.8.J.'.!.R.#.s.oXs.-.~ U.R.:.e.e.-.E.S < M r.(.T.Q 3.h.5.@.6...!.ZXZX`.w.6.Q.Q./ Q X.5.j.v.v.j.s.W h #.l.D.=.k ( ;X`.X.o.-.&...5.z.e.x 6 4 g X.C.X.r k ~ R.`.r.(.-.Q ! Q Q R &.E.A m v m M T.!.T.] X.o.X.=.k R.Z.J..XoX XZX;X&.+.z.l.7.).).R.(.X.#.`.>X[.4.3.B.#.(.T.&.$.K..Xc.x.V.{.).&.C.H.b.s.3.u.D.(.).:.X.| d.oX@X6X;X] w.J.p.p.l.7.F.[.V.s.3.5.i.p.b.l.h.7.| E O.j.c.c.v.v.i.u.c.n.n.m.b.B.#.d.b.v.x.@...&.Q -. . .} -.U.E.!.C.7.-._.Q.^ } w.r.:X4X3X;X&.` } l x @.s.i.i.j.u.4.s.9.2.6.2.e.e.5.D.7.` E E =.] l M E.C b U.-.R x } 7.@.M.M.u.j.c.i.7.R.Z V / T.&.R.;.' | ` O.N.R.U.&X&XU.r.OXK.Z.C.w.6.2.3.p.K.F.r.U.Q d.iXtXx..Xp.' | 5.l.H.F.:.Q W 6.k.5.+.W v T.`.[.D.3.u.d.l.p.b.B.W ] d.l.8.q.T.&...w.t.|.>X|.a.l.5.c.dXv. .W 2.h.v.n.a.X.W  .n.z.i.3.} 6.8.| =.T.m s &.>.d.x.x.x.j.+.o.Q -.:.q.t.{.2XW.M D..Xn.B.T./ ] e.6.} ! t.t.! ! 2.6.].bX^.w.k.l.K.l.| $.kXgXF.q.-.).T.#.s.V.;.).;XC.7.{.;X`.e.6.#.#.' x j W o.! 2.6. .O.3.3.r.{.!.!.!.~ Q  .F.].X.[ ;.2.2.6.X.} h Y.1X<X^.|.`.{.2X).(.A.F.Z.D.n.x.d.H.pXK.G.| ] &.).;X X|.R.Q.%XQ.^ 2.o.R T o.2.2.5.z.k.} h v q.X.-.T.-.-.`.'.:.R.R.!.2X2XU.~ X.3.3.s.7.7.8.5.i.n.8.R R 6.n.J.`.>.+.B.`.!.;XmX1X!.B.B.`.|.).&.o.q.{.).o. .2. .5.D.H.4.i.l.i.3.+.e.r.[ ' | ",
"(.R.~ [ s.n.L.| h ~ =.#.O.p.K.@.' #.#.} } ! &.;X,X~ %.4.@.| ~ M ;.4.i.l.s.| T.~ j X.p.x.@.@.:.Q &.~ ;.B.k.[.2XQ.] w.D.B.{.Q.&.] :.(.t.] m 1 4 T.(.-.m j 3.z.5.| 7.`.<XmX{.;.-.-.-X( k R | 4.i.m.m.p.D.#.h v #.#.v 1 b ).r.+.%...Q ..s.h.7.x u u x X.e.q.g y v R.`.;.;.] x R Q E } ;.~ m Q -.k M U.Y.:...| | 6.} v -.G.J..XH.{.;XY.&.k.n.5.} ..-.R.(.+.7.|.NX[.O.| 6.3.X.&.:.i.tXtXm.x.S.{.{.>.L.b.n.k.3.i.F.`.R.;.e.4.p.b.L.|.(.#.s.K.x.j.$.`.|.'.a.7.' | 5.x.n.j.s.4.$.@.a.d.x.x.c.c.i.p.n.x.j.K.H.V.B.s.u.x.b.+.r.-.j X.e.2.}  .] T.!.(.q.T.T.~ ^ X.C.`.;X,X&XR.` #.X.x x O.u.j.c.c.p.i.l.3.6.8.X.-.^ | 3.| | ` 4.s.@._ c &.m M Q.~ g R ..7.3.x.M.u.j.n.i.$.{.,XC *.:.Q Q ' ' X.` } w.R./ Z ( &.r.P.D.B.w.X.2.3.2.i.K.F...~ x p.yXtXx.m.x.O.3.d.i.V.Z.-.Q 6.l.b.i.4.' x -.}. XD.u.$.$.a.s.b.d.| #.J.c.h.8.q...;.C.q.t. X X[.H.i.j.yXtX+.R ! 5.m.v.j.s. . .z.j.j.5.| 8.s.| ..:.v ~ :.$.b.v.x.v.m.s.X.! ^ -.2.y.{.;XE.k 7.n.c.z.X.o.X.6.X.} X.t.q.} o.t.(.{.1X{.Z.k.s.P.F.$.[.kXH.k.e.:.).T.X.s.l.$.;X,X(.q.!.!.).`.w.6.;.=.x Q Q Q R ! 2.3.5.s.s.7.r.=.T.!.T.Q o.].t.R } B.9.9.7.+.W j R.1X;XT.r.].>X;XT.:.C.L.F.F.L.s.i.x.n.K.B.#.' ] &.R.;.r.Q.Q.%X( ! 6.q.R j R }  .3.s.5. .v T._.-.^ / ^ &.>XnXr.;.r.(.{.{.T.&.X.3.3.5.i.4.+.3.3.z.k.! !  .n.j.@.O.5.5.:.^.4XmXW.Q F.[.2X2X_.-.X.q.(.R. .2.9.2.7.F.J.i.p.j.5.3.3.t.R.T.....",
").(.&.=.V.H.F.' x ] ..| O.n.K.I.A.=.;.6.2.-.!.-X( e ` $.7.} k v A.u.i.n.J.$.:.x R s.p.x.p.+.;.Q Q x ] C.k.F.2XE.&.;.r.`.{.!.-.=.(.(.q.R k y k ).`.] k T 9.j.s.O.B.|.,X,XR.;.&.T.-X/ g Q #.B.s.K.M.p.J.B.v a E o.m 1 t T.G.s.7...] ;.s.5.6.R u u c } 7.q.~ y v &.;.X.:.W p Q R.r.6.q.x x ] t.k b U.T.`.w.;.#.8.6.] =.B.k.k.d.R.Y.&.(.OXh. .} 6.q.T.(.7.B.]. XF.4.| }  .2.X...u.pXiXj.x.L.{.{.[.P.n.n.k.3.i.L.R.&.} 8.l.u.a.N.q.#.5.n.tXm.b.N.:X}.N.B.;.R W s.n.z.s.3.7.V.K.b.j.j.c.c.c.p.x.m.j.i.d.V.C.e.#.O.x.x.| e.q.j o.y.2.! } X.R.T.-.).Q./ ^ q.X.B.`.{.*XY.%.a.Z.;.W ' 4.i.n.n.n.j.p.k.5.5.8.X.m 4 p | O.| | b.j.u.7.| ` ] T.!.k r Q ;.q.7.p.g.u.l.j.d.;.2X1X!.:.w.] R ` | 7.| } 6.:.~ C / -.q.B.B.w. .! 2. .} f.K.B.R j Q 5.XX9Xg.x.p.3.k.d.@.B.r.Q Q k.m.n.p.a.| x &.>XBX[.d.{ _ | s.m.p.| 6.OX.Xh.h.s.O.;.`.e.w.].[.[.[.s.i.9X9X3.R R 6.m.v.x.n.+. .z.j.j.p.+.G.D.| ..:.] r.`.a.n.tXv.v.v.n.X.T T ! 2.t.).E.~ j } s..Xj. .o.6.O...| 6.B.4.3.6.r.(.>XbX{.].a.O.Z. X XnX'.l.k.C.:._.-...a.l.Z.,X=XT.R.).!.).(.q.q.:.R.Q -.] R Q Q X.3.l.n.k.5.a.;.R.R.~ Q o._.o.j } B.9.9.8.#.W &.;XmX^.*...C.2X!.Q -.`.`.A. X#XC.i.x.j.s.7.N.O...R.:.] ] ~ Q.Q.Q T 2.6.R g j ] #.7.3.3.X.(.;X).-.T ^ T.).ZXZX`.#.q.q.;.] T.R.#.3.3.p.x.p.| }  .e.8.} ! } 9.5.+.7.5.+.>.;X4X,X~ W [.[.{.!.^ ^ X.X.t.r.2.2.9.6.t.`.J.p.p.p.5.3.5.t.T.Q.:.;.",
"`.:.] >.'.`.:.x x ..| +.p.m.x.@X'.] #.e.t.;.U.M p g W | #.} x ] V.f.p.j.j.8.X.R  .G.p.M.x.u.4...Q x Q t.G.r.R.U.&.&.U.!.).=.r.t.r.t.X.W ^ Q R (.|.! Q o.3.i.D.4.B.`.!.*X`.w.Q R.T.Q j Q #.B.C.L.g.b.J.a.] x R W ~ y y -.8.j.j.3...:.B.3.#.E u u W | 4.6.^ r v &._ ;.w.W p &.{.].8.+.x x W :.~ M Y.R.[.F.`.(.k.G.7.#.`.w.+.a.r.E ] `.F.7.#.#.s.a.-.:.B.l.k.k.p.k.7.W } t.q.} $.[.P.u.j.I.:X>X#XoXm.j.s.5.i.V.=.l W 5.n.4.O.;.#.3.x.tX.Xm.V.]. X:.| e.w.W ` i.s.8.6.| 7.b.tX9Xj.i.x.J.J.h.b.K.s.5.3.B.].r.] | j.p. .B.F.` =.t.2. .! 8.(.-.~ !.Q.m -.9.3.i.d.d.$.%.V.gXkX:.` #.s.j.l.h.s.s.u.D.D.s.k.q.m 1 p +.l.4.i.m.x.u.d.7.+.q.;.-.k h o.X.;.-.6.@.u.l.p.D.C.{.2X!.;.7.! ! o.o.8.3. .6.q.W R ^ ;.} X.w.#.} W o.] ` a.K.s.W j ^ 9.z.b.p.g.p.5.h.4.O.C.;.x ] m.tXv.u.O...R T.mXAXeXV.[ c | d.m.p.}  .k.J.h.h.h.3.>.`.w.e.F.Z. X X'.V.9Xv.4.} R o.n.v.tXtX7.6.k.h.c.h.7.].G.W ' ..W X.w.a.v.yXXXv.x.J.X.j T ^ 2.C.R.~ Q Q R 6.J.h.2.2.3.O.>.>.$.V.b.K.i.+.C.6X>XR.r.#._ R.BXBX}.$.i.k.(.T.-.-.X.G.s.C.;X&XC Q.Q.!.).-.o.o.T.R.-.t.q.R ^ ^ =.6.z.XXz.h.l.V.`.{.U.~ ] o.! R } 6.3.3.7.#.-.Q.4X,XY...] ] Q./ Q ] R.).;XZXBX|.b.x.7.O.a.d.d.[.VX X;.' R -.-.x j +.7.W r v R.|.Z.#.;.(.1X2XQ.^ Q ^ :.2XZXNX`. .2.2.X...R.R.+.3.5.x.9Xx. .o.:._.-.W ! o.} X.+.8.7.N.{.1X,XU.x } G.a.&.~ ^ ^ o.o.;.t.X.!  .8.`.`.F.p.s.i.7.8.8.t.U.Y.(.Z.",
"(.] E `.>X{.&.g R e. .5.n.j.5.D.=.a ] ].].:.~ g j ..E R ` ` W #.d.p.p.j.5.5. .R 9.l.g.M.v.p.5.3.| ] =.q.e.;.~ / U.~ U.!.-.] ].r.#.C.} } q.W E q.(.R ! 2.3.5.D.5.$.;.;X>X].@.g &.=.E Q [  .e.(.>.d.K.J.7.#.' W ] / / k R +.j.z.3.W :.V.3.X.R i a ' 4.3.7.Q g Q ] ` w.B.' v R.|.].s.3.` E E &.Q.!.R.`.@XZ.{.R.a.J.B.r.|.:.} 7.r.x ..].V.N.r.w.s.d.w.#.k.l.z.h.i.p.k.+.Q _.8.6.`.`.B.+.j.[.nX1X[.D.J.h.5.3.u.V.;.x W k.oXO.' w.7.8.m.v.j.l.<.>X X>.` 6.e.#.O.7.#.X.=.` +.p.9Xv.j.3.s.P.[.B.l.J.s.3. .8.]._.Q R s.j.3.k.D.| Q -.6.8.! 6.y.=.~ E./ k 2.0.i.j.XXXXp.H.I.kXBXR.R  .5.5.4.+.+.4.O.V.[.H.k.| m ~ =.B.J.p.x.iXb.u.@.d.k.8.6.;.] &.#.o...-.#.` 4.i.u.F.|.).!.T.| | R T W  .5.i.9.8.6.! ! 6.q.} ] #.+.6.X.] T.] $.b.j. .R o.6.k.V.d.H.l.5.5.O.O.].#.j ..iXyXv.u.' ] Q !.KXKX'.A.=.[ $.H.n.u.} } O.k.k.h.z.5.].'.%.+.D.V.'. XeX[.tXx.5.X.Q W s.x.yXtXa.w.8.5.l.k.C.].B.x _ ..6. .} 7.c.tXm.i.j.J.X.T / T.6.G.-.Q W o.W } k.5.2.2.+.O.>.~.,.H.0X0Xp.D.[.].:.&.:.-.~ !.ZXbXR.%.3.B.(.-.=.q.6.P.8.q.Q.A C Q.!.!.].o.W R / T.-.C.G.} T.T.&.q.l.c.j.p.n.V.[.NX;XQ.T.Q ! } +.8.9.2.7.w.(.%X4X%X:.C.=.j m M ] ` &.!.4XmX{.A.0Xg.%.=.4.l.g.CXIXBXB. .} q.#.E E 7.B.X.Q !.1XBX`.[ -.{.1X{.&.Q ^ T -.).<X>X`. . . .X.q.(.(.7.5.i.x.9Xm.w.R.).).-.T R o.] } +.B.A. XZX1X!.x j } l.s.E ~ -.^ ^ =.t.t.X.W } 8.`.:.A.a.s.i.7.8.8.q.U.C `.].",
"] x ~ {.>X!.~ r R G.5.4.c.j.3.6._ u ] (.(.-.v h ` w.] g h =.X.6.g.g.x.j.3.3.3.W 5.l.g.p.c.j.i.h. .X.X.q.C.o.k U.R.v / ~ r.w.(.t.e.B.| 2.e.| ` ;.] Q -.q.6.3.@.u.e.r.;X}.L.O.l ' 7.O.] :.| 6.R.&.a.K.s.5.B.| :.R.~ ~ ~ R | D.B.X.] X.k.k. .x c [ $.u.3.7.T r ] | | D.V.| &.).`.C.k.5.` E v T.-X2X(.Z.[.C.%XQ.e.OX`.{.{.-.} s.;.` 7.D.k.4.+.7.d.d.#.+.J.x.h.5.@.s.l.B.-.{.e.F.>X!.|  .7. XZX:X;.F.F.6.4.4.p.d.:.E | J.K.O.+.e.6.s.K.b.p.N.:XZXbX=.} 3.G.e.r.`.~ &.&.-.4.p.9X9Xa.| #.`.`.;.B.s.5. .2.2.t.).^ R s.n.h.h.z.7.Q &.r.C.o.! 6.X.] Q k ^ X.k.j.c.yXXXc.L. XnXNXR.R ! 3.3.+.O.| | | Z.[.H.5.' E -.(.G.b.g.M.K.a._ | i.G.3.2.q.R.R.C.} W X.X.} 3.i.+.r.|.!.R.=.' _ W R R +.j.p.5.+.8.+.+.k.F.| ..#.7.B.o.(.;XY.@.b.m.5.R -.y.q.V.S.H.J.5.3.| $.].X.x O.x.9Xx.4.` Q ~ 2XKX<X*.C.:.>.a.H.n.3.W } | 3.C.k.h.l.Z.`.` | O.D.B.Z.[.wXpXm.i.6.R x 5.n.tXtX@.6.8. .8.w.(.(.q.x ` q.t.} Q #.n..Xl.` @.P.2.^ Q.T.q.D.6.|  .X.! o.e.9.2.2. .7.`.>.@.pXgXH.u.P.F.2.R ^ T.U.E.1XNX:X{.}.`.(.R.Q -.6.8.G.t.:.U.M U.4X,XT.C.8.W j U.Q.:.C.F.#.~ T.T.;.B.z.i.i.l.V.'.>XmX,XT.^ ^ o.6.k.h. .7.].!.%X%XW.F.G.q.R T Q w.$.&.!.,X%X..H.tXg.[ &.w.d.K.VXSXkX8.5.3.8.6.` ' 7.D.#.R.2XNX>X>.] k !.|.(.] -.-.T T ~ ;X1X|.} } ! o.(.).).B.5.p.x.9Xg.:.T.Q.Q.-.! W o.! W #.r.`.BXZX<Xr.W j | k.5.} -.T.U.~ (.y.2.q.W W 7.7.w.`.`.s.i.3.5.k. .k M {.>X",
"Q h M !.-XU.~ g R G.k.4.p.l.5.6...x ] ] ] ] R x  .B.:.k k ~ 2.3.x.M.c.p.i.s.3.! 5.H.b.b.p.p.p.i.+.6.q.X.t.-.k / T.g v U.C.6.-.:.D.s. .e.s.+.B.r.E ] ;.e.6.| O.H.].;.:.`.V.@.' a.d.$.}.NXF.t.).T.7.n.s.s.J.B.|.2X&.Q Q W | B.(.Q Q X.l.n.3.` [ A.s.5.O.O.x g X.+.4.P.H.O.&.R.(.e.k.3.` ] &.).;X).;.B.@X].%XE.w.].{.;X).-.+.k.N.#.4.l.j.p.i.+.@.i.O.+.b.n.j.5.O.@.s.G.T.).F.].{.!...X.`.6XZX{...t.(.=.4.l.l.a.:.[ +.n.n.s.e.t.w.B.l.H.D.>.:XZX{.[ 6.B.3.e.`.(.M k ~ :.B.d.iX0X$.W ] ] :.] r.A.|  .2.! ] -.R R D.OXl.h.j.5.] &.(.`.o.! ! ! -.&.k ~ X.5.j.v.uXyXm.L.}.:X;XR.] o.3.+.d.a.| ' ..q.F.4.u.+. .| X.+.f.f.x.b.| x O.s.k. .+.q.;.:.:.W E X...` 3.s.#.:.).R.=.;.@.$.#. . .3.x.n.4.' @.i.i.i.s.$.$.a.s.7.X.).;X&.%.0XtXj.} ! -.q.Z.I.P.k.5.5.| w.].o.T 6.n.x.x.u.` Q &.2XmX*X] #.w.w.s.l.D.3.W .. .+.t.t.k.z.V.7.O.4.+.i.i.s.'.eXkXH.u.7.] j  .J.iXb.' $.6.W | -.T.R.;.` ] X.X.o.x ] z.c.u.c | e.;.! / ^ 6.k.s. .!  .y.t.q.2.o.2.3.G.|.:.+.J.L.a.4.G.6.! ! Q ~ U.Q.;X:X|.}.BX;X!.T.v } 3.5.a.q.^ Q &.;XZX;X&.k.J.} j / ).:.t.].;.Q &.=.;.C.F.i.3.s.[.`.}.4X%XU.^ Q W 6.D.h.+.[.>X;X%XW.R.P.oXq.R R X.D.].-./ E.U.$.pXuXg.] ~ %.L.V.B.[.[.k.5.0.5.6.' | a.k.X.!.-X:X`.%._ s U.`.C.X.:._.^ j k *XmX>X] } } =.).).`.w.+.s.H.b.d.-.~ / ( -.-.Q ! ! } ;.`.`.2X4X;X;.} x =.s.5.o.-.U.~ &.(.;.X.6.` ' w.8.+.>.{.].4.+.3.0. .h s 1X1X",
"=.v m E.%X( ~ g R G.d.@.4.s.5. .7.` _ E _ ` E W 5.D.(.&.v Q X.3.x.9Xx.i.l.k.2.} i.H.x.b.+.+.V.B.7.w.7.} y.o.g ^ -.j Q (.F.6.W X.D.p. .G.k.+.H.s.W ..#.7.7.` O.[.].W ' V.b.u.u.b.b.Z.ZXZXC.q.-XE.X.l.i.z.oXl.A.`.-.W ' | | 7.(.~ Q X.n.XXs.+.%.[.J.5.| ` x R X.5.u.b.l.O.E =.:.e.G.+.W ] &.).;X!.#.k.[.`.E.U.q.e.;X%XR.;.5.i.7.$.a.p.j.j.l.+.O.i.p.p.j.m.j.5.#.` 3.G.-.(.].r.-.-.q.r.-X1X1XR.-.-.U.&.4.K.g.B.:.] $.H..Xn.C.t.r.C.D.V.'.>.%.A.' O.d.i.' 6.G.(.~ m &.|. XB.K.L.;.] _ E ..=.{.).W | 2.! ` ;.! } ].G.s.j.z.0.X.-.(.{.T./ ^ ^ T.~ T -. . .j.tXyXm.V.`.{.R.U.T.:.X.+.3.v.b.` ` X.o.7.+.p.x.s.+.} | u.f.x.l.` E 6.V.B. .;.].C.w.&.v W #.E x 6.].(.-.-.;...%.a.d.d.s.s.i.M.0Xa._ @.b.p.u.p.j.x.x.b.7.:.(.*.D O.0XtXc. .o.-.q.a.K.K.s.3.3.| q.].! T 6.l.p.p.i.` ] :.>XbX^... .k.l.b.k.s.6.Q -.#.q.(._.e.j.b.p.p.j.l.5.3.d. XNXeXF.i.u...x } G.OXi.` 7.e.R W ..&.&.#.3.| ] -.-.j [ k.c.s._ E ] 2.! T Q o.8.k.3.| X.`.t.o.o.X.6.5.[.>X-.6.G.Z.#.6.e.! Q -.~ ~ T.Q.E.&.>.>XZX,X&XU.] | 4.+.+.W W ..A.nXbX`.@.j.J.#.Q ~ !.{. XNX]...X.+.7.]. XB.5.i.L.`.:X<XE.-.:.^ ! w.F.8.e.bX4X-XU.&.C.OXOX6.R W e.L.[.-.M k Q g.uXtXb...l | V.w.] :.C.8.0.h.5.e.2.X.k.B.../ U.:.7.O...h v F.F.-.T.).~ k M =XmX2X-.X.| R.{.).`.:.=.(.`.d.s.] M / / ] ..R `  .6.r.`.`.`.!.U.] ..T.).r.#.~ ~ &.Q ..q.o. .8.7.:.r.s.3.| `.|.r.#.3.5.3.] M 4X4X",
"=.Q b E.&XC m r R q.i.f.@.O. .} 3.' | O.@.| R } i.D.].-.v &.} 3.H.M.p.p.b.i. . .s.b.p.p.| ..`. X XC.w. .6.o.j ^ ;.R &.(.B.3.R } i.k. .8.i.O.u.@.| 4.@.4.5.' O.[.:.R | P.J.p.x.M.I.eXZX;X-.:.%X( :.G.5.J.gXH.| ..q.}  .+.| 7.).T.-.X.z.XXz.7.O.V.n.p.$.' x E  .s.p.x.p.4.] ;.:.r.G.+.E Q -.(.!.T.#.k.].R.m M -.;.R.Q.T.;.4.+.4.i.V.x.c.c.j.i.u.p.n.n.H.P.p.5...l +.B.] =.`.=.Q =.(.).%X%XT.=...^ / ~ a.m.u.$.] E #.L.tX.Xy.-.q.w.a.Z. XR.$.7.| 5.b.u.| #.e.C.~ ~ R.BXBX].F.B.:.T.] ` q.(.,X!.x | q.W } C.6. .8.4.4.z.+Xh.2.X.:.{.Q./ T.Q.E.~ R X.3.3.x.dXiXd.$.`.{.Y.~ R._.X.+.p.tXm.' [ -.! 2.3.v.tXl.+.} ..a.d.b.G.o.Q ;.$.$.| `.NX@XG.Q k ] ;.W j ] (.!.~ =.;.' { a.l.b.b.k.i.g.0XV.' f.m.d.,.x.tX9Xx.J.7.q.q.O.@.a.x.yXtX3. .q.;.s.M.J.5.3.7.#.X.t.! T 2.5.5.p.s.| | `. X X`.X.} l.x.x.i.3.o.Q &...;.!.T.6.i.x.v.c.XXP.s.3.D.eXBX`.w.s.4...x W X.8.| c 4.B.W W ..&.-.3.5.| ..q.-.R | j.m.P.O.x R X.! T ! } 3.k.5.#.t.`.q.R ..(.t.8.@X|.&.q.G.].r.w.q.R Q :.-.-.T.U.^ x =.>XZX3X&X&.;.+.4.O.|  . .7.S.bXBXZ.u.x.s.r.T.~ ;X1XNXeXL.O.3.5.7.].].r.7.+.7.|.<XW.M :.t.o...r.`.C.].1X<X!.~ ..P.oXh. .R ! G.B.$.;.-.j o.9XyX9XK.w.E +.7.:.:.).(.6.0.k.5.y.2.6.e.B.] m v #.5.3.6.[ E 6.q.&.).).~ / %X5X=X!.T.#.w.|.}.R.:.R.T.!.R.B.B...&.).T.R R j ` 8.B.r.r.Z.C.Q.m Q :.).-X:.=.~ ~ -.| 6.e. .} B.].`.(.e.7.>.{.{.R.;.+.3.e.R.!.*X,X",
"W R p / E.C m y j ..u.b.,.O.| | O.O.u.H.a.` R +.a.a.6.R v !.] #.K.p.u.p.x.5. . .s.j.p.s...-.!.ZXZX`.B.3.2.2.Q -.q.X.(.R.B.3.W  .s.s. .| O.O.4.u.i.i.3.s.k.| ' N.;.E +.P.z.j.n.K.'.BXmXW.!.Q.( C r.B.r. XkX[.$.| 6. .+.3.@.7.).).Q.=.5.c.z.5.| 5.j.j.d.{ l x O.b.x.x.x.l.7.q.X.q.e.+.E ] `.|.T.-.6.9.t.T.s m -.-.X.=.-.=.O.@.j.K.b.j.c.x.p.j.d.i.x.K.[. Xs.a.] g #.e.] Q :.=.Q X.r.).%XE.~ =.] ~ / ~ B.n.f.%.x x ;.F..Xc.-.Q ] =.;. X>X(.B.k.+.s.j.u.a.w.C.t.k ~ !.BXBX].C.#.&.&.E =.`.{.-XE.R #.r.E ` F.8.} | 5.4.c.+Xh.9.6.6.q.T.T.T.Q.-XQ.! 6.s.5.j.iXK.@...`.|.R.&.).|...O.x.yXM.' R ^ !  .i.yXyXd.| } | @.p.k.B.! Q ] ' O.$.}. XP.D.] x [ r.X.j Q R.!.U.;.$._ ' #.D.b.b.s.7.a.[.F.O.x.iXd.@.x.uXuXM.L.;.q.e.i.M.x.x.yXyX3. .;.;.s.j.s.5.7.G.w.-.-.^ ! 2.2. .s.s.| O.F.Z.Z.F. .W p.c.v.i. .o.U.~ E ;.R.&.6.i.x.v.XXiX'.'.D.V. X>XR.] O.7...g g R ' E h +.H.@.| %.-.:.8.5.| X.X.o.W s.j.n.OX$.E W -.! ! 2.} X.0.k.(.{.`.q.` q.>XR.B.@X(.&.(.].`.`.`.:.! ..(.R.-.-.Q ] ..`.bXZX4XU &.e.3.i.3.O.i.i.f.'.BXnXV.4.p.4.(.!.!.1X>X`.H.p.+.5.5.5.w.r.=.o. .r.2XW.s ~ _.t.-.Q &.R.|.|.).{.:.E 7.oXz.5.2.!  .k.#.E N.6.R X.9XyXtX9Xh.9.8.7.-.T.).(.q.k.G.8.o.o.e.k.k.' h v 7.5.3.8.6. . .t.Q.%XT.~ %X4X&XA M R.;.].NX Xw.%.R.!.&XE.:.q...:.).^ h x h E C.F.;.#.D.F.T.m Q T.%XQ.E W U.R.q.+.6.G.7.| |.|.`.;.:.`.:X<X!.-.:...3.e.!.W.R.R.",
"T j p &.R.U.C k k Q O.H.V.d.u.+.@.u.m.0Xa.' ' N.V.O.' W Q.;X] 7.H.p.p.x.x.i.3. .i.d.l.G.t.&.E.mXbX`.V.5.9.2.^ -.t.`.{.R.B.3.+.k.D.| | ' _ O.V.b.x.i.3.k.l.O.O.V.w.} #.F.h.j.n.L.}.mX<XW.,XE.V m :.;.{.>X`.A.s. . . .3.4.@.$.R.).).-.3.j.h.2. .3.j.c.d.%.h p | n.M.x.x.b.B.6.` o. .6.o.;.>X>X:.r.e.2._.).m m ~ q.e.X.=.=.w.P.pXpXm.p.j.j.j.j.i.3.x.P. X`.7.C.-.Q o.q.] E ;.;.W W w.r.Q.( Q X.#.q.-.Q s.K.I.V.] ` ;.Z.j.h.X.R Q &.{.6X{.;.4.5.4.D.V.V.A.C.C.o.j / !.1X>X`.y.W x g r -.|.).&XC R #.(.=...e.5. .+.l.@.x.n.h.s.s.4.6.;.(.] U.;X).o.3.k.5.4.b.d.` ] `.>X{.!.{.{.X.3.v.aXg._ h Q ^  .s.pXaXF.q.#.O.O.4.7.o.j j R ' a.L.}.`.k.h.o.] =.r.;.j ~ !.!.U.#.@.' _ W #.H.I.C.#.$.A.r.O.b.K.5.@.9XuXuXqX'.`.q.e.b.v.x.M.9X0X5.} -...4.5.5.s.4.V.w.=.^ ^ o.8.! j 7.u.O.u.H.a.3.B.} ! j.v.XXj. .! T.~ [ :.T.~ 7.i.p.9XtX0X}.>X[.F.|.).Q j W #.=.h t p Q R h #.K.b.f.$.#.r.G.+.` ;.X.}  .l.x.c.oX$.W ..;.} ! y.} } 6.].>X>X`.q.| C.>XR.A.[.:.=.r.F.w.:.).:.X.q.:.:.#.o.! q.w.].bXmX3XZ &.G.5.s.s.p.z.j.d. XBX;Xr.B.5.+.R.!.;XZX{.A.b.j.3.8.5.3.#.q.W E (.|.!.C s Q._.t.q.W &.-X2X).Q ;.X.} s.n.j.5.5.2.2.8.] c s.4.` 6.tX9XuXtXj.h.5.e.-.Q &.).{.r.7.7.! X.C.k.k.} l [ 7.3.3.5.k.3.2._.Q.( ~ !.4X4XZ : e -.:.#XBX Xs.#.).-X&X/ ^ ] ` ;.`.-.] =._ _ e.B.#.a.J.Z.U.M Q -.Q.&.x Q &.R.:.X. .G.D.$.>X>Xw.#.`.1X1X%X&.=.=.`  .w.U.U.`.A.",
"m k p ..C.:.&.k m k E N.H.b.b.u.5.p.9Xm.O.' $.V.s.` | #.;X%X` d.p.p.j.x.x.p.3. .4.s.a.C.C.-.Z 3X;X~.[.k.0.2.~ &.(.|.).-.$.3.5.z.k.R ` | W O.H.m.g.u.+.7.l.i.u.m.n.+.-.R.8.h.5.Z.:X,X&X&X,X&XV Z R.`.>X{.%.4.D.3. .} 3.u.u.$.-.T.Q.-...s.9. .3.i.XXc.p.N.c e O.b.9Xv.x.b.B.7.` ! ! 8.8.#.{.{.#.B.y.W :.)./ m ~ T._.2.;.#.>.kXhX0XM.g.j.j.x.x.5.+.L.[.R.=.#.F.t.^ W ..] ..8.5.! } s.w.U.~ } 5.k.G.X.o.5.J.gXwXV.6.w.B.s.5.6.! ~ !.7X;X:.6.7.7.N.Z.>X|.`.C.B.! j / =X<X{.].y.W W x 1 Q 2XQ.C M E :.;X{.-.} 4.4.u.H.u.b.j.i.p.l.p.5. .6.#...:.-.} 3.k.5.+.H.3.` X.`.:X;X;X;X(. .5.m.0X,.c h Q -.3.l.hXlX].w.7.3.O.@.+.R g g x +.x.0X'.r.z.j.5.e.`.(.T.k C W.T.=.7.4.' _ g j A.'.:.] ..] T.-.w.+.} h.uXuXuX0X'.`.X.7.l.p.v.9XqXwX].] &.=.#.+.5.k.5.+...E M ~ #.e.Q r 6.p.f.x.iXi.5.8.} +.b.x.c.j.X.R Q ] O.w.Q x 7.i.p.tXtXH.:X:XL.L.).E.Q h x =.-.~ p r Q Q h #.0X0Xd.3.5.k.C...E ..} } 3.z.j.x.J.3.E ;.w. .! 2. .} X.].1X;X{.;.| D.].[ `.`...w.s.k.#.=.%XQ.;.6.] -.6.3.! 6.8.Z.nX<X&XA -.F.s.i.j.c..Xl.V. XZX%XQ._.6. .&.Y.-X;X`.L.K.K.N.C.7.+.+.8.o.o.`.{.U.C ( %XR.-.2.o.R.,X).~ x }  . .s.h.5.5.3.2. .6.[ _ V.B.#.w.K.v.yXyXj.5.9.9.q.] &.;X;XT.;.w.2.7.P.D.8.} ` #.w. .5.5.k.} ! y.U./ !.1X4X&X8 @ 1 v R.6XNX'.B.>.;X,XQ.~ ~ ] } 6.G.e.r.(.;.#.7.8.5.l.P.r./ / ;.2.] Q W ] &.U.!.&.` B.V.,.`.`.7.w.:XmX;XF E r.;. .3.8.=.R.>X}.",
"m ~ h w.L.B.r.^ M m c <.d.f.p.p.@.i.v.x._ E @.d.@.' s.(.-X( ..l.p.j.j.x.v.j. . .@.@.| q.].-.C =X%XR.'.D.0.! Q U.{.6X(.` | 5.p.J.7.h E $.| | V.d.u.u.+.| k.c.p.XXiX5.&.-.7.5. .r.;X&XV &X=XZ V E.{.|.}.*.| p.OX5. .} 7.l.p.a.-.~ T.~ ! q.+. .s.j.tXXXp.J.%.g @.I.iX9Xg.u.7.w.} }  .k.e.] T.R.| 7.o.j ~ ^ ~ ~ ~ T.t.6.6.| [ '.I.M.p.d.d.u.l.l.O...A.[.>.#.7.G.Z.] ] ] ` 6.G.h. .8.j.8.~ k ;.D.J.i.} 7.5.k.K.I.P.8.w.C.B.5.8.X.-.2X).).q.q.q.;.~.>XBX{.R.r.G. .j T.3X=X:.F.e.! +.| 4 M <XU.m ~ U.;X1X;XQ j #.O.@.H.I.K.p.5.p.H.j.5. .3.D.G.6.+.3. .4.+.+.F.| E #.(.%X=X,X{.;.| O.V.S.,._ v W X.s.H.lXNX(.X.+.4.+.5.q.W j R ` d.v.pXF.| p.x.j.D.Z.`.T.k n W.:.$.4.| _ _ g g :.R.^ T Q ~ !.T.] x R z.uXuXdXpXA.:.W 6.u.u.x.v.0XlX X=.Q =.+.3.s.k.i.| W h m ~ 6.e.Q g X.l.x.v.iXp.3. .} s..Xx.j.n.8.} W X.s.a.h g B.j.x.M.v.V.*X*XL.D.~ U.T.R g &.T.E.M p v Q j #.9XtXp.@.i.s.w.E l [ W } 3.h.c.c.b.O.E w.B.2.! 2.q.X.-.).{.&.R.#.O.H.6.E ^.R.#.k.j.l.N.:.%XE.o.o.R W 7.5.} 6.s.Z.}.;XE.b =.G.8.5.h.z.c.b.Z.|.2X( ( ).q. .Q U.U.:.F.b.m.I.`.|.Z.3.3.e.q.o.-.] k m &X%X/ ] e.6.&.!.U.~ ` } } 9.s.8.3.3.} ` } X.W [ `. X`.$.i.x.9XyXi.3.5.3.7.;.Y.*X%X~ R.t.3.5.K.K.u.' | B.;.W 5.k.G.} ! t.T./ %X,X&XB : 1 r v Q.1X`.N.a.`.;X-XQ.~ ] X.w.B.G.8.r.].].Z.7.s.p.l.F.;.M ~ (.6.` ` X.-.&.U.E.M R w.V.$.=.] 7.].1X,XU.c ..N.B.7.5.8.;.|.>X:X",
"/ M h A.H.d.C.;.U.Y.[ <.`.'.f.z.l.i.m.b._ x +.j.,.u.N.).&Xb w.j.p.p.b.b.z.5.E +.d.O.:.:.y.o.m E.E.Q.'.D.k.} x R.1XNX(.} | 5.m.H.$.u _ A.;.....@.@.4.| O.b.x.x.v.iXl.Q ] 7.+.x =.Q.V V &X%XE.m U.|.|.:._ @.x.J.5.} } 8.l.p.a.v p v ] Q W | u.u.m.tXv.M.pXi.W w.F.J.x.x.b.%.] }  .5.G.! k ^ ^ | _ h j W ..^ k ~ T.-.X.7.7.c ;.L.u.| 8.i.i.5.w.-.-.w.u.i.x.n.l.D.O.=.>.#.7.C.L.V.H.j.z.;.Q  XeXD.@.>.].8.5.g.pX[.w.w.C.b.n.G...:.{.Q -.t.;.-.T.4XZXbX}.A.6.t.! Q Q.=X&X;.P.8.3.i.+.p C *XC &.R.;X4X;X&.v e x ` O.V.J.J.b.4.3.9.i.i.} } l.n.3.3.j.i.B.@. .C.R h #.R.C Z ).(.} } c `. X<...R } 8.i.H.gXZ.=.W O.u.@.h.k.W E ' ' g.m.K.7.} j.p.b.l.k.8.-.^ U.~.S.H.i.| E &.j Q &.~ j k ( Q.R.*.| | ` i.9XyXuXv.7.| | 6.7.5.j.p.[.zX[.| ' O.s.p.p.m.oXO.x g k ] k.7.M m o.z.b.c.v.i.5.@.4.c.XXj.u.u.l.4.3.s.p.4.j g Z.b.b.b.j.4.).{.L.s.T ~ `.| g M C ( C m ~ ~ R X.iXtXs.+.O.a.D.| x ..} R | u.z.k.a.| ` s.z.5.! q.q.;.-.-.] ] } | @.I.<.:XAX{.a.x.j.J.r.T.Q.U.] o.} | 8.5. .5.l.F.`.Y./ k o.e.6.} ` 3.j.z.6.r._.m C Q.Z.6.*.&.:.e.i.x..XI.;X;XZ.d.5.5.6.X.Q Q W Q ( ( C Q 8.i.;.] Q X.w.O.| 5.B.7.#.] Q E 6. .' $.>XnXA.O.u.i.9XtXu.+.i.p.p.V.;X%Xm E.).-.} 7.K.v.x.u.4.k.w.' u.n.V.`.{.R.-._.;X%XA &XZ k ] Q -X-X=.{ ;.`.!.W.Q.~ W q. X].:.;.#.].[. XZ.| O.N.w.E g T.|.]...| 6.w.:.!.E.b Q w.B.O.W ] ;.`.1X!.&.O.O.s.l.l.8.8.w.].|.|.",
"/ ~ j =.B.s.B.w.{.!.*.{.>X`.@.b.l.5.x.V.] x 3.j.p.f.`.U.V m B.j.5.@.u.d.k.5.} F.[.'. X&.Q ^ v Q.( U.].V.B.} R {.mX2X:. . .s.g.g.%.a [ {.{.] ] | O.$.O.O.j.c.p.x.pXK.E o.w.X.` ../ V &X,X!.~ M U.{.{.r.' O.b.l.| } 6.s.l.l.B.j r ] [ ^ Q | u.f.M.tXv.M.iXj.| A.Z.4.h.x.d.' E  .5.h.8.j t m ^ ;.| E ] X.X.o.T m ( :.O.+.7.W (.D.O.W } d.d.| #.:.&...O.j..Xx.j.M.@...`.V.B.]. XS.0Xj.n.k.=.nXnXA.$.nX>X2. .M.pXV.w.Z.D.k.z.L.O.$.`.W W q.-.T.;XKXZXrX[.H.4.X.^ ^ !.&X&X;.P.s.4.j.i.Q U.U.M ..|.mX=Xk ~ k 1 r R O.d.k.h.m.u.W } i.3.W R j..X5.5.c.oXD.| }  .r h ;.R.m S T.-.X.] U.ZXBX`.;.| 3.i.i.H.[.].] } s.p.j.j.e.R E | @.M.9XJ.2.! p.p.x.b.n.9.o.T.`.'.0X9Xz.7.T.T.Q Q ~ v g k -X,XY.=.a.4.@.O.g.yXyXp.3.e.w.X.O.s.b.d.'. XF.O.O.s.n.z.x.M.iX4.j j Q ;.P.6.s m ] G.k.k.n.5.i.i.p.c.h.0.u.,.i.b.p.j.x.i.R g B.I.I.I.k.| R.{.[.8.j Q F.6.g m m m m M ~ &.] q.0XiX4.W _ $.k.+.' 7.5. .+.$.s.i.| c 4.l.n.5.W o...;.^ T ;.} R  .p.0X>.>XAX}.d.x.c.J.(.T.U.^ W 6.e.3.8.5. .G.oXF.R.U.~ Q 2.k.6.R j W p.n.6.-._.k C W.].P.{.T.6.5.5.p.x.[.;XE.N.b.+.6.w...Q W X.=.E.C b j s.h.N.=.p R.`.' +.l.7.#...] T.=.q.6.| |.ZX1X>.4.l.p.m.n.u.| 4.j.b.Z.*X&XW.,X).-.] N.K.v.M.p.p.n.B.3.b.b.Z.{.;X!.-._.2XU.Z 4XQ.~ ] &.Q.U.] w.`.T.&./ U.~ ` C.|.).&.E #.[.[. X$.#.$.#...x j :.>X>X=...7.k.`.R.E.s Q t.w.W W ] :.|.{.-.$.a.3.5.p.p.3.+.7.w.`.|.",
"^ / m k =.#.7.B.].R.!.<X>X>.| s.i.+.p.d...E 5.n.M.a.&.s < Q d.j.3.| @.d.J.5.} ]. X>X|.-.R ^ -.-.k k `.].].] &.,X1X!.-.X.2.h.g.f.$.D !.4X,XU.=.6.+.4.+.+.c.c.p.p.9XK. . .;.:.w.:.~ M -X2X-.R ~ U.T.).|...| H.k.| } 8.s.i.l.7.x W q...T.^ O.@.@.u.9Xx.v.tXl.6.C.C.| 3.s.D.] x 6.k.s.+.Q g t M A.V.+.6.3. .X.Q m / -.6.3.6.] (.V.+.W W N.@.} 3.r.-.Q ` H.iXj.p.n.f._ r.L.Z. X XM.yXc.z.G.o.`.{.;.`.ZX1X-.R b.K.@.$.Z.H.j.j.G.| +.F.X.R X.] Q.4XKXbXS.0XpX4.R T &.Q.&X&X`.P.V.u.x.k.t.U.M &.(.|.%Xb 5 k s 1 e W a.s.+.7.oXd.x j w.C.R.x 5.oXj.i.j.oXD.| } R r W r.-.b y ~ -.(.!.4XKXBX`.N.4.h.z.p.Z. X>X:. .5.j.x.l.t.T W | f.9X.Xl.W ! h.5.p.m.n.5.X._.Z.I.aX9Xn.N.).Q.Q ] ] Q g m %X,XM ;.Z.i.s.@.f.0XK.| | C.(.;.#.D.n.j.A.`.V.3.p.XXXX0.i.p.m.H.W R R e.P.#.s t Q e.;.w.F.3.#.a.p.z.X. .s.u.4.n.v.v.x.p.} j B.kXkXeX`.` -.`.[.#.g ^ B.7.g g m r k &.~ ~ -.t.K.0X{ u a ;.G.5.@.p.z.h.8.| 5.s.%.O.d.l.z.3.W o.;.(.~ g _.] j | x.H.*.Y.~.A.H.p.c.G.R.U.Q ! } 2.P.a.7.3. .D.H.a.T.~ ~ q.5.h.6.R E ` p.oXa.X.q.j C U.V.pX].;. .3.3.u.V.`.&XA N.m.|  .;.[ E ..e.(.T.M k R s.d.r.&.s 1X1X=.s.n.5.+...R.{.R.7.7.w.>X<X%X(.F.D.5.j.k.7.` | k.L.].;X=X4X4X`.#.:.|.P.x.x.m.p.n.h.i.G.7.:.).Q.U.2.6.e.] %X4XT.-.{.{.Y.E ' ].{.T.~ Q ~ M ;.|.).T.M v @.P.L.B.$.[.[.A...E ! _.1X,XU.:.D.J.C.:.Q g Q ..] x R.).!.{.:.;.V.d.5.5.5.p.+.| i.7.A.`.",
"^ ^ m t p Q 7.k.r.).<X1X{.A.$.f.3.O.f.d.#.W 3.l.pX7.k 4 4 ..d.j.O.| >.Z.I.5.` C.>X;X:.;.=.] X.] p e :.].].-.U.,X!.-.=.6.3.p.p.u.N.*.<X4X%XT.`.B.B.s. .3.j.n.p.p.x..Xk.W j :.A.`.T./ Q.2X-.W &.T.~ R.6X:.W s.k.| | 5.5.i.k.3.R q.r.w.|.(.8.u.O.,.M.x.v.m.B.w.r.r.W ` @.D.=.W 9.G.O...r.&.e v N.H.+.3.3.+.o.^ ~ / =.7.k.7.-.(.D.i. .| ..x } k.].-.x ] F.K.j.p.b.H.W [ a.Z.NX'.M.yXj.h.y.] -.R.:. X1X;X-.R a.g.@.V.L.b.h.i.7.` 4.OXe.o.} :.,X4XmX:XS.x.m.4.T T -.U.Z %X|.F.d.p.v.n.e.] Q -.`.(.M k p e 4 2 p ] 4.3.} 8.m.n.] p ..[.>X[ } oXn.h.s.G.s.} R g g -.r.] y C / T.).;XHXHX!.A.N.+.n.n.p.V.`.{.C. .3.h.j.D.-.j Q ' p.yXm.5.g o.G.5.p.x.n.k.o.! #.H.m.m.P.`.!.U.Q X.;.] g t ( ( ~ ;.B.i.l.b.g.0Xa._ ` w.`.(.R.].oXi.>.:.7.i.v.yXh.2.4.$.g.H.q.R R B.Z.;.m t j ! Q ] `.q.[ #.3.+.x E V.p.@.p.tXtXx.x.8.W B.kXNXeX`...;.`.C.} r ^ w.6.j k m t j _.~ M ^ :.H.H.[ 3 a 6.k.5.i.p.c.c.s.| 3.[.[.'.l.k.p. .W X.`.R.r t &.Q x 6.n.b.:.h _ a.V.@.p.k.T.m j X. . .k.B.7. .! 5.u.@.=.~ &.].z.h.e.} ` | p.oXD.$.X.R / ~ d.iXV.|  .3.5.u.N.*.A C N.b.O.} ] j W q.C.w.-.~ ~ W 8.V.:.C =XKX!.] D.J.5.+.;.{.{.:.8.8.'.;XJ E.{.C.7. .5.s.3.W } 3.B.`.*X4XKX<XV.d.R.`.D.l.j.n.p.m.j.i.3.} -.&./ T.y. .+.;.,X,X~ -.ZX1X>...| ].-XT.-.Q ~ U.{.>X_.m E.W.N.K.D.@.7.kXzX[.| R o._.2X%XW.R.L.J.7.` j R W Q Q T.1X1X;XT.] w.H.i.5.5.5.5.3. .i.s.;.=.",
"^ k / b 4 k B.D.r.{.2X;X:.Z.V.d.a.@.d.d.3.} 3.i.J.6.g r c $.j.d.} ] R.~.L.3.| e.{.U...7.#.}  .y.~ e j y._.^ J &X] #.#.e.3.+.3.@.`.R.4X=XT.:.e.7.s.s.x } 3.k.F.a.j.c.D.T e ] w.r.Q.Q.E.R.X.! -.^ x (.BX(.x $.d.@.i.i.3.5.8.} E ;.`.`.|.F.k.p.O.a.m.x.x.H.r.-.X.q.x x | 7.X.X.5.8._ ] N.$.c ] a.u.| ' #.7. .o.^ -...3.k.a.R.R.V.j.k.7.c p ` G.$Xq.Q ] `.L.b.n.J.V...Q =.].kXS.qX9Xp.5.o.^ U.T.).>X{.&.-.! O.u.j.tX9Xp.5. .| ` i.J.e.o.` {.mX4X<X}.1.p.z.5.W ! X.] k T.`.B.u.j.tX.X3.W ! X.q.-.E :.k < 5 < e ~ #.` ` s.j.c.$.p } |. X..E L.n.5.C.r.6.o.j t g ^ ..E k ( ( Q.!.<XHX3X*.B.7.O.j.n.s.s.8.s.s.3. .3.5.k.2.T W W p.iXH.| g q.[.3.i.p.p.D.! g X.B.O.7.{.).U.~ Q X.w...j g M ~ ..#.7.l.K.m.x.x.' ' _ ;.`.|.!.{.L.' _ ..| u.v.v.h.9.q.] @.a.r.R W G.A.] M m k h h Q (.t.j -.w.` e g V.H.$.a.9XyXv.c.8.! 7.[.[.[.[.$.N.F.F.` r ^ q.#.Q ~ y 1 g T.~ m v -.H.d.[ u R s.5.5.b.p.c.c.i.O.+.[.NX'.p.j.5. .} q.`.v < 4 k h Q C.b.H.-.g | D.i.@.j.8.&.m Q 2.} } k.k.7.} T  .i.s.#.] =.`.J.J.G.W l _ u.K.l.@.3.} ~ Q l.c.8. . .3.u.d.$.c m T.N.H.C.:.U.Q  .k.8.` ` -.=.| 5.D.&.W.KX4XQ o.P.J.3.} ..(.(.w.k.8.R.M V &X{.w.7. .5.s.6.o.6.X.6.:.U.,XmX{.p.n.#...w.G.j.j.x.x.c.h. .! 6.W j T.-.W | `.<X%X~ ).ZX1X<.$.6._.Q./ -.o.~ ;XZX,X^ ~ ,X,XA.K.b.3.4.L.@XF.' R o.-.Q.E.Q.R.Z.D._ h j X.-.-.-.{.1X2X!.v x w.H.4. .5.5.+.3.5.5.s...] ",
"^ T ( ( b x B.D.r.|.!.&...V.f.f.V.$.$.7.3. .5.5.5.6.g r | u.x.l.W k U.Y.A.O.O.7.c c ' a.7.W } ].R.e t Q -.^ Z V [ s.a.B.+.} +.s.`.{.,XW.:.X.W } 5.i.x | +.]. XZ.j.c.k.! g ` w.;.%X,X%X&.o.! -.Q Q `.NX`.W O.V.u.K.n.i.5. .! W ;.`.|.].D.h.i.' d.b.x.x.D.R.~ o.X.h x | } } X.6.X.v l @.f.a.H.p.3.+.` | #.} X._.-.` | k.k.R.] u.j.J.7.x h W X.e.2.Q Q :.F.b.m.K.O.R &.R.>X[.K.qX9Xp.i.o.^ / ~ (.|.=.h -._.=.O.j.tX9Xx.4.| ' W s.J.3.| ;.bXmX4XbX}.,.l.s.3.o.q.7.#.^ ^ ;.N.5.j..Xm.3. .2.2.} o.;.(.&.p M 5 e &.] x | k.j.XXl.' ;.(.r...x C.G.3.{.R.X.X.j t g R W x k ( &XE.%XZXmXW.;.7.3.@.p.k.s.7.J.J.5.3.6.} 3.k.9.} o.W 4.b.L.X.T q.e.| 4.u.f.D.X.r o.X.x [ !.U.M ~ ! 2.w.%.x E ;.;.6.6.7.i.n.b.b.@.l =...;.r.`.{.{.Z.a d %.O.p.9Xx.5.6.] x O.a.| W +.J.w.x h -.&.j h j -.-.k T.].| e p A.L.$.a.0X9XtXc.3.W 3.i.$.[.kXa.s.P.k.E t ^ w.#.! ~ 1 1 g ~ M k k =.P.d.E x +.z.5.5.H.u.j.j.@.O.| ].nXA.u.j.s.3.| w.;.e < y e r Q C.d.d.-.g X.k.4.5.j.7.T.U.;. .R 3.J.k. .W T X.l.H.7.+.X.w.V.P.C.R u D $.K.b.@.i.6.R ! s.u.5.3. .3.i.b.$.x &.:.| L.].`.).-.5.z.3.R ` e.6.| 5.B.&.4XKX!.] 7.D.s.O.] W W #.B.s.7...a E.,X).:.G.k.h.s.t.-.} X.8.o.U.<X<X*.u.b.#.` w.P.j.i.p.x.n.D.6. .k. .T -.] x ` `.1X&XM 1XZX}.L.s.q._.~ ~ -.:.&.;X4XE.Q R.4X=X<.pXJ.i.s.l.L.F.#.` o.^ M Q.!.=.B.7.x h E :.R.).:.R.R.!.Q c W 7.B.| ` 3.5.O.3.5.5.i.O.;.",
"! ) T.T.~ E s.H.`.|.T.E @.f.f.g.Z.=.=... .3.s.a.5.e.j g #.d.b.F.] r M T.A.O.3.u.c ` ' s.B.W ! _.:.e p ^ ^ ^ m k a.K.l.3.| | 5.F.].`.~.R.C.| x ` h.j. .w.r. XBX`.b..Xz.6.E E ;.] W.4X,X/ ^ ! -.W -.(.|.].O.3.H.d.m.m.l.k.6.! E [ :.C.H.k.i.+.O.d.g.g.p.B.T.~ W X.x Q ] W E ` X.W x c O.g.m.iXj.i.s.| ` ' W 2.].X.E ] B.B.&._ 4.j.n.5.] -.} o.2.W j ~ -.C.v.XXb.` k Q.;X:XZ.iXyXyXj.z.e.t.~ k -.t.| E R.).&.;.p.v.v.v.s.#.:.] 7.k.3.@.}.ZXmX<X1X`.].s.+.@.w.].l.5.-.T ] e.7.h.n.c.k.5.9.3.+.;.|.>X).&.:.W E &.k p X.k.c..Xn.N.-.T.-.| x =.C.q.;XR.X.X.j r g W ` E k / ( ( =XKX,XC =.O.u.d.V.].-.:.|.[.6.+.6.} +.k.6. .o.} $.d.F.6.W ! o.W O.4.p.p.X.j W ` E =.R.~ M ^ ] 2.7.O.c ` s.h.9.3.5.+.u.b.S.c a :.-.q.w.e.|.|.`.a c `.d.n.b.u.7.q.R x 7.s.` ` s.J.#.h x q.r.o.j j ^ ^ T -.].4.h a A.'.#.d.iX9X9Xm.7. .i.O.[ {.kXa.i.J.s.R t -.C.6.o.Q y m v j j x j ..K.b.E ` p.x.3.u.K.u.3.3.O.O.| w.].$.a.d.D.s.| N...3 u b e e R F.V.w.-.R 6.G.5.@.h.l.:.T.t.o.W 7.P.5.} W T 6.G.z.5.s.s.B.B.[.q.g p _ ' V.H.@.5.6.R ;.i.O.5.8.3.p.c.K.`.] ;.7.' Z.`.`.:.#.h.z.2.R +.k.u.O.5.w.,XKX1X*.=...| ' ' =.Q g ' F.Z.w.#.=.,X4X2XR.C.P.k.8.(.-.x w.G.} !.<X!.[ @.e.#.} 7.D.b.u.4.s.H.D.3.7.J.5.} X.;.' } `.-XA ( 1X>X'.pXD.T.( ^ x ~ T.&.Q.E.m #. X4X,X~.[.J.h.h.k.G.C.e.:.^ T k T.(.#.8.#.Q &.] =.R.{.:.o.] =.x ..+.a.w.` | 5.4.$.#.6.s.h.s.D.",
"! y.-.-.-.W p.K.`.}.T.Q @.,.g.0X'.:.&.&.} 3.d.a.5.6.j x $.V.s.B.-.r v -.C.O.s.l.a.$.O.4.C.| T -.-.p &.!.Q Q k ] d.tXn.@.` +.s.Z.].r.<.Z.F.} E +.n..Xs.w.R.}.6X;.p.n.J.6.l x ;.>.M ,X4XQ.Q o.o.o.-.(.:.`.8.i.H.g.tXc.5.8.6.W l _ ` $.n.x.a.' | d.g.g.p.a.T.~ ! o.R Q Q Q E x =.E x W O.x.tXm.5.k.s.@.' ` x ..].X.Q =.w.w.x ] d.j.n.s.r.`.w.w.} T r ^ t.V.tXXXj.| &.%X,XU.w.gXpXtXv.c.s.6.~ k X.9.6.X.T.U.~ R.d.p.9Xm.d.w.{.:.-.w.N.A.bXZX4X,X}.r.r.6.5.H.N.'.iXs.! g E w.2.k.K.n.n.h.5.5.l.A.{.bX).=.B.s.r.-.1 4 #.l..X.Xx.s.h ~ #. .x ] (.(.-XT.e.3.R R R t.7.| R ^ m C =X4XW.M ..+.d.H.].{.R X.`.].C.| ....` 6.o.W R ` #.N.D.6.! T R W | 4.x.x.8.W ` ] ..;.;.] M ~ ! 3.d.@.' u.x.c.5.2.k.+.O.b.`.5 p T.:.t.B.G.Z.].'.[ R. Xb.m.f.O.w.C...} G.s.| ' b.b.| E X.C.G.6.R ^ ~ / ^ Q #.a.E a `. Xw.H.pXM.v.K.V.B.b.O.M !. Xa.5.l.5.R r -.B.5.6.Q m m Q h j Q E X.b.b.` X.k.p.O.u.pXj.} | $.N.O.+.w.;.@.@.D.s.| C...a U.C s t j F.Z...&.~ X.k.a.i.j.z.] ] .. .` 7.D. .X.W j X.D.k.3.h.k.D.N.]...p x ' c O.D.5.+.6.} e.s.| i.s.u.m.tXK.{.R.8.l.$.C.r.-.| 4.z.+X9.! s.b.p.u.7.:.KXKX!.:.*.E ` ' ' >.~ r ` ].|.:.#.r.!.,X1XT.X.B.B.6.(.] E Z.P.X.).!.v ] :...W ` $.d.H.u.| a.V.a.O.i.oXs.} o.X.#.k.].Q.m %X:X'.0XiXk./ / ).Q j -.-.-./ ~ F.[.mXmX~.V.h.h.h.z.r.q.e.q.~ Q j Q w.B.8.o.(.).;.` R.|.`.X.` [ W #.s.L.r.' s.d.$.C.=.[ s.k.n.j.",
"R W o.} q.} i.OX'.}.Q.T.;.@.,.L.`.(.!.~ 6.i.p.b.5.6.R R 7.l.5.G.;.h Q ~ :.$.d.K.K.@.O.s.7.} h -.;.[ ).).^ R R +.x.tXm.' | s.7.#.:.' u.H.F.W W 5.l.OXB.:.&.R.`.$.i.c.k.x u c %.>.v *X1XT.Q ^ } } -.T.Q ;.k.i.d.b.9Xx.+.8.G.R E ' ' s.pXb.O.' 3.i.f.g.j.5.] Q ^ ^ R x &.k k M Q E x | u.m.tXg.` 6.5.3.s.#.Q &.t.` ] -.;...h ;.H.j.b.i...-.].B.! r g ^ t.D.iXv.j.4.&.Q.&XC ] D.pXK.9X9XtXG.M m -.0.P.G.] v &.(.$.@.x.oXH.Z.{.T.!.T.>.}.mXZX,XT.[ ..(.#.l.m.,.S.kXZ.! g ] `.y.e.J.b.c.c.i.j.n.V.{.{.-.w.p.n.B.-.e 4 | z.J.x.v.g...=.6.5.| x &.).U.(.D.+.} R R C.D.s.! T Q Q.=X&Xv ..| 7.b.H.`.-.W 6.s.4.+.o.` R x Q -.^ R ] #.| 7.e.-.Q W  .` 4.iXx.s.X.W =.t.w.G.w.M U.o.5.b.b.p.x.x.m.s. .k.5.u.L.-.4 ~ T.=.q.k.k.D.Z.`.>X:X~.g.m.@.#.C.[.e. .G.5.O.3.x.p.%.;.6.8.+Xk.Q s C ( / Q [ w.O._ ~.>XZ.gXgXd.f.d.s.V.D.' s W.2X:.7.k.3.} g w.s.5.B.] k m p v E -.w.' u.b.| o.B.7.| d..Xp.` (.}.'.B.7.` c _ O.$.O.E ;.=.&.!.U.~ h R F.B.` ~ ~ ..7.7.s.c.c.` E ' W } k.8.X.-.Q E w.e. .3.j.c.b.$.C.+.} B.O.x | k.5.` ` | 8.8.} 5.i.p.tXpXL.2XU.V.iXs.' -.(.r.+.u.J.9.} d.K.p.f.B.|.KXmXY.{.R.z ] | O.;.Q Q -.`.).T...r.T.Q.%X/ R ..C.`.q.' O.[.Z...-.v v _.).&.Q #.4.l.s.5.` 4.d.f.g.x.K.7.~ ^ o.e.k.G.^ / -X|.I.tXXX8.m m !.).j R w.#.R ;.J.[.mXHX{.C.p.i.h.G.T.^ W X.-.R j #.B.B.k.2.(.).;.` *.(.t.o.W |  .+.k.F.`.c $.N.Z.|.R.&.B.l.c.j.",
"Q j R q.y.! 3.P. X{.!.Q.;.' %.A.`.T.Q.T.w.5.p.m.5.3.Q ! B.G.+.#.X.Q -.Q ;.O.i.iXiXu.+.s.| x Q :.w.| :.&.Q W | i.c.iXJ.` | a.7.` _ ' p.K.V.E ` 5.l.J.k.X.~ R.`.w.l.j.#.u 3 [ $.w.=.|. X(.Q Q X.| -.^ p =.G.j.p.x.tXj.3.6.e.R | 7.+.j.iXp.E O.d.i.p.x.x.p.e.-.Q ^ E x ~ ~ m M =.W E 6.u.m.x.i.E W 3.s.a...v ~ ] R ] =.;.;.E 6.D.j.l.u.E ' B.6.W r k ^ t.D.x.x.n.s.] T.( y j W N.L.0XtXyXD./ A ^ X.0.s...c ~ R.7.O.u.OXJ.7.-.T.-X/ :.`.ZX1XQ.&.7.4.w.a.m.pXH.S.[.A.} R :.>Xq.o.s.l.z.j.i.j.m.D.R.Y...+.i.l.6.r.p 4 #.D.H.p.v.tXV.w.6.6.3.E &.Q.&.C.z.3.+.E R B.K.5.! ! -._.%XC E 2.r.[.iXH.T.-.! 5.l.J.} j &.j g ^ T.Q.R.(.;.' 6.w.X.Q o.6.} u.sXm.3.#.;.r.q.B.@X..M !.7.5.n.b.x.g.x.n.#.} D.l.x.F.M m T.&.:.w.8.l.l.Z.nXZX*X~.H.K.@.`.].].8. .8. .5.i.p.p.d.N.+.s.XXJ.&.4 S ( / U.~ >.7.@.>.~.N.zXkX<.' $.$.D.L._ m %X;X] #.k.3.4.| w.3.5.B.[ e m U.&.] C.#.' u.s.| R _ ` | D.c.i.(.>X|.].P.+.e 5 ' @.| c h =.=.&.W.Q.!.Q R F.$.E M / ~ ;.6.u.c.c.' c c R 3.n.s.| Q h _ ].(.} +.z.c.n.4.7.D.s.D.a.| 3.h.8.} ..s.s. . .5.4.x.yXtXL.Y.M s.iXd.E ] :.] ' @.s.9.3.p.M.H.V.(.2X4X&X;X{.R.v _ @.+.7.} Q :.(.Q./ ^ -.&.s b b Q ;.`.C.6.| a.L.:.`.;.` Q -.T.^ :.w.l.j.5.5.| u.p.g.9X9Xb.| k ~ o.2.G.e.j / 2X|.0XyXb.#.m y Q.).^ ! k.3.} 8.n.[.ZX4XT.B.b.j.n.B.~ k T ! ! R R 7.P.k.8.#.-.:.O.7.:.r.q.R j #.| 3.s.7.&.i >. X'.|.U.v $.b.v.c.",
"^ j R (._.R } [.`.T.T.T.=.%.<.`.Q.( / T.;.s.g.M.p.8.o.] 6.e.=.~ ~ &.(.] r.6.i.pXiXx.i.5.} x x =.V.4.X.R W | 4.l.j.oXD.` @.a.$.] &.`.H.iXV.` } 5.l.D.D.| k U.R.r.d.V.A.a 5 { N.s.a.L.P.F.] Q 7.3.-.^ e &.L.j.p.x.XXp.+.o.X.R  .l.5.c.iXi.' s.D.3.i.x.M.d.G.t.Q Q E E Q ~ v ] N.` x w.O.f.d.a.] R ` B.N._ 5 6 e g X.6...X.W 6.G.5.p.s.x W | R j k / ~ -.7.f.b.m.l.X.-.m k T j ] A.pXyX9X'.%XZ m Q } | ` *.Q.{.C.+.O.H.oXi.X.(._.^ A.A. X{.-.w..Xc.XXc.v.aXgX[.b.i.7...:X1X&.j | B.s.s.i.p.l.B.:.-.;.a.L.F.;.T.p 4 [ 7.d.f.v.pXz.} ` X.e.W Q ~ ` D.n.5.3.} j w.OX3.! ! o.=.M s o.6. XBXgXl.-./ ..8.l.[.] s %XE.g ^ E.%X;XR.] E w.C.q.| X.C.| @.aXm.+.r.].C.} } t.x C ;XC.5.p.d.b.p.M.H.[ [ V.OXJ.#.e ( Q.~ q.6.3.i.l.[.ZXmXW.^.[.J.;.|.(.q.#. .6.W 5.i.i.M.0Xa.| 5.n.OXT.< 7 &XQ.-X,X!.C.s.%.%.$.[.kX>.[ A.N.L.[...T T.T.E X.+.| a.s.s.3.+.N.] m %X;XY.R.`.7.O.4.Z.#.g p x ..].J.L.|.2X:.#.P.| > 3 N.d.O.x h ;.=.&.Q.;X2X-.R ..| ..U.U.M &.;.u.n.x.O.' c E j..Xl.O.R p O.[.`.o.3.i.p.b.+.5.oXl.a.w.7.s.5.0.| 6.J.z. .2.7.4.v.yXc.H.=.e @.pXd._ ....g ` p.i.2.3.p.m.I.'.!.,X%XE.1X{.T.l x 7.4.5.| ` &.T.T.T.-.&.!.C y k X.D.[.N. .3.H.V.`.{.#.7.6.` ! o.).].oXj.3.9.7.i.x.v.yXyXb.' e y ] o.6.! j T.).`.9XM.'.^.Q.m / Q.^  .z.3.} k.K.[.;XE.v B.iXv.c.a.k y ^ ^ Q R W 5.G.B.A.C.:.;.8.k.;.] 2.R j 6.+. .4.$.c v 1XZX|.*.f F $.b.x.j.",
"^ j j X.o.T ! C.:.&.-.Q ..`.`.U./ m m ^ | u.d.p.h.G.-.^ } X.-.~ M &.(.#.r.B.j.iX9Xx..X5.` ] Q =.d.s.X.T `  .d.J.5.5.+.#.N.$.%.] !. X0X0XD.#.+.i.b.b.k.} g v U.:.$.'. Xc i $.a.s.h.l.k.F.(.o.s.k.-.^ r &.D.u.u.x.c.5.| E ] E | l.i.z.J.O.@.d.B.@.u.b.K.L.F.t.Q Q W W ! ] c %.H.' E `.w.@.B.O.X.] W r.Z._ 3 * < p 8.s.W E W e.[.+.4.D.O.O...g m ( Q.).-.+.s.l.c.oXe.W g ^ -.^ &.:.iXyX0X[.%XZ m ~ } | | (.).!.w.| | V.pXp.t._.^ r.L.u.w.w.o.J.yXyXyXx.f.tXzXgXn.K.F.`.mX<X~ r E $. .5.i.i.5.+.=.R.|. X>X|.R.^ s s :.#.d.p.c..Xj.} R =.w.} Q R  .J.m.j.5.| g ;.J.5.! -.! ! x &.k.8. XBX0Xd.T./ -.7.l.D.] u &X=Xm / Q.Q.R.R.] ` 6.B.a.+.| r.| ' b.b.4.F.[.L.7.W Q ~ U.;X`.| | 4.p.p.g.V.] [ a.OXD.x < Z ( Q #.7.5.i.p.wXZXW.W.:X[.d.:.{.] ] ..#.;.R 3.5.i.K.0X@.| h.c.OX:.2 q E.Q.2X7X!.w.k.u.u.d.I.[.;.*. X[.[.[.w.Q ^ ] ] 6.' E s.z.5.O.' %.=.U.;X*X*X`.`.L.D.| N.F.x u l &.`.[.'.{.U.E ` 6.E = 9 S.K.4.` x ..' ] T.!.).T.x p c A.R.U.C M #.i.l.i.4.$.c E n.oXn.i.} x a.[.q.o.X.' p.m.+.s.OXs.O.@.7.5.5.k.+.B.oXn.2.X.;.$.iXv.u.k.w.p O.gXH.O.w.] E %.d.u.2.5.H.H.[.|.%X%XC Q.{.R.] a l w.8.5.} E v ~ -._.T.&.,X4XQ.&.X.k.I.4.` s.D.O.{.!.%.D.s. .o.;.].].iXj. .2.3.@.g.tXuXtXd.x 1 t ] } ..W ! _.Q.`.pXK.}.<X2X&.~ &.!  .k.3.O.J.J.a.:.~ x N.pXm.j.D.k y / / Q W  .h.k.V.{.}.`.A.8.6.R R o.} W X.5. .3.w.] ^.ZX1X*.l &.>XN.u.b.x.",
"Q j E W R T X.;.Q ~ W R O.[.:.k b m ~ :.3.5.u.@.i.k.-.Q W o.-.~ k Q #.8.7.s.z.c.p.p.hXu.E -.!.R.V.p. .T } O.l.P.6.R E r.V.@.[ f %X>X0Xv.s.4.3.i.x.p.| ] Q h ~ &.R.>X Xl a $.@.5.j.5.6.t.t.2.p.l.2.T r ] B.3.i.oXs.3.} R ..` ' 3.s.s.B.| O.,.$.w.7.s.'.kX|.-.Q Q W ` #.#.` a.K.@...|.`.r.;.` B.8.R =.w.W u 5 u p k.5.h x o.`.#X`.| 5.s.B.=.e 6 Z &X-XR.#.i.5.i.n.G.R g -.y.:.Q ..iXdX9X[.).C ~ -.6.7.:.(.T.&.w.' =. XzXL.|.T.W Z.OXj.5.3. .J.yXuXyXi.@.K.gXK.b.gX'.}.1X;X~ p ` O.W 6.j.p.5. .=.;XmX4X,X2XQ.~ C E.R.;.b.v.x.n.P.#.=.(.;.} o.` 8.l.n.n.s.` r Q k.5.W -.2.! W w.k.z.V.I.x.i.T./ q.5.z.5.| k P 5X~ T.%XE.-.;.} 6.7.5.h.5.} X.} W i.n.s.s.m.tXiXs.Q ~ T.(.C._ l @.d.p.l.a.` ..s.L.#.r 7 Z m Q 6.s.i.i.j.H.].&.*X:XZ.4.T.U.Q -.R.:.=.E  .7.a.H.g.| O.b.x.iX;.u M U.~ T.-X/ 6.D.p.p.c.iXoX$.*.>X}.[.P.8.! Q | s.k.| _ B.z.3.| c _ >.`.>XZXBX X].@XD.E ..F.#.g h U.2XNX X&.h ] } } E = 3 N.K.d.| E ` ` _ &.U.~ &.M < l [.r.&.C s %.l.d.4.a.C._ c k.n..Xn.+.| M.H.' Q ] R u.x.| k.k.+.O.+.7.5.5.k.3.H.n.l.6.:.R.R.L.d.5.k.F.' | F.H.@.| [ :.r.N.s.3.D.kX'.].:X=XZ b / ] =.c a c $.e.8.` l p M ] t.:.~ %X4X).t.3.k.OXO.R G.B.E E.( ` s.s.8.6.t.F.L.K.i.W o.} | p.9Xv.K.A.i - m =.' ` o.^ ^ ~ (.[.wX:X<X{.-.-.] X.+.q.6.p.m.l.+.w.:.` #.J.n.j.D.Q m ( / ^ ! 9.z.k.[.1X<X}.].e.q.T R } 6.X.| 6.3.3.#.R.1XNX>.a z :XZX>.@.V.f.",
"x x 7.3.Q Q _.Q e ~ Q W s.L.] r y m ~ ].G.3.| O.s.e.^ T R o.:.&.r g | D.N.B.n.j.O.g.pXu.| :.;X{.V.5. .W | +.V.L.X.W Q q.F.#.M H !.|.H.g.a.w.3.i.x.u.E =.(.E j &.:XBX Xc l #.+.5.h.| -.R.! } p.J.y.! g Q $.3.l.P.6.X.} ` =...' W O.#.;.` _ <.`.(.;.;.`.BX>X-.^ Q W ` e.s.O.b.0XV.{.:X`.`._ | J.5.r R X.] u M v x z.5.h ~ X.t. X].R W 7.F.`.g : Z ( / &.=.+.3.5.i.D.R R q.2.:.Q ` oXyXv.d.T.~ -.w.7.7.q.:.^ R e.q.R.BXlX[._.Q ..L.aXv.h. .+.J.yXuXyX5.O.d.I.H.K.kX}.:X!.T.l j w.X.R 2.l.h.3. .>.1XHX3X&X-XQ.~ b U.&.#.K.tXh.s.J.@.R.{.X.}  . .k.l.x.K.J.R p T 8.G.W R ! ! X.5.i.n.u.j.v.d.U.m 6.h.h.5.O.-.E.&XU.T.!.T.X.#.X.G.s.3.j.J.6.} |  .i.n.l.p.9XyXiXH.-.^ ~ :.`.c a 7.k.5.D.O.W 8.l.k.] p A Z t Q s.j.u.i.n.p.7.=.;X:XN.4.T.&.&.(.R.T.&...#.8.w.B.i.O.u.K.x.K.:.M Y.&.W o./ ~ q.e.5.3.j.tXpXa.R.;XR.A.k.9.! ! 7.K.z.3.| s.n.+.-.~ &.`. XBXZXbX XF.P.s.E } k.B.c h U.>XBX|.x h ..W ` ] ; > [ V.D.O.E } @.| ^ ~ g Q ~ 4 c gX[.=.U.a ' s.V.B.'. X*.` $.5.j..Xi.u.tXM.` R Q R u.p.' s.+. .a.s.5.+.3.i.i.J.s.k.e.(.-XQ.:.A.r.C.P.a.| w.4.u.@.%.-.-.a.b.i.D.kX'.`.{.&XV m T W w._ l _ +.8.6.` h v T.-...] M J %X:.e.8.7.N.' E G.D.=.m m R 8.D.s.w.C.k.J.d.@.W W W 6.H.x.u.L.nX^.1 ^ {.}...W ^ j j q.B.r.^.,X`.r.] =.'.|.(.t.b.m.l.O.3.w.` %.V.5.i.F.=.~ ( S g o.s.l.s.].mXmX1X}.`.(.Q W o.e.X.W X.2.3.X.R.1X>Xz 5 &.1XZX>.$.V.a.",
"E ' H.l.-.^ -.g e U.E.T.L.V.Q r ~ ~ v {.[.| W | e.X.m m R X.7.#.p e 7.I.'.].G.8.D H.pX4.k.r.R.{.B.3.3. .X.#.a.B.;.:.-.-.r.=.M %XR.A.x.p.`.|.V.j.j.d.[ ] $X .j -.:XBX>X*.[ ;.5.9.B.] T.Q.R R a.I.e.! j j | $.V.B.] o.o.| ] >.#.x _ =.~ p D nX>X-.=.&./.ZX:XU.m m ~ ` 6.s.5.b.wXeX<X<X`.w.W 4.K.O.r T X...p Q Q ` J.5.Q T.q.2.`.r.g g ] :.e.! y V ~ ^ ~ &.=.6.k.k.3.R } q.q.(.] ..x.yXXXs.! Q `.C.w.e.2.y.! T e.C.^.1X[.H.! j 6.H.aXtXj. .| F.9XyXXX3.+.7.N.'.BXkX|.T.Q &.p R r.o.T ] G.s.} #.{.ZXmX&X&X-X_.Q k &.-.#.0XK.6.X.l.@.=.`.7.+. .3.4.s.j.m.OXW j j 2.G.q.R T ^ 8.i.p.m.p.x.tXd.~ k 6.k.i.5.7.(.T./ ~ T.(.| #.+.7.D.k.5.i.K.D.+. .3.u.j.k.p.yXuX0XB.t.^ k :.Z._ E k.k.5.a.' | k.c.5.Q m Z C g X.l.n.j.K.n.i.s.#.{.>X7.e.R.&.r.`.R.&.] (.Z.].`.w.k.i.p.0XM.H.:.Y.{...} o.v / -...#.O.p.aXgXA.%X&XF #.s.5.!  .b.m.p.i.O.5.J.+.&.U.*XbX|.R.Y.^.R.B.P.4.` } 3.k.| E ..C.].r.Q x ] x W ~ ; = i { V.4.W  .a.O.R j j E Q p ' gXH.+.;.h W | 4.B.{.:X*.#.+.O.3.c.x.x.pXb.' ] ^ W d.b.4.s.X.+.l.n.5. . .O.d.V.+.8.e.(.!.( &.&.T.q.P.j.O. .@.d.K.V.&.^ @.m.x.j.m.s.r.R.C C / T o.e.O.| W  .6.2.` h !.>Xq.` h v M U.(.y. .R x ] ;.B.D.C.m m R #.V.V.r.7.h.XXj.4. .W o.].H.u.O.Z.AXAX&.-.bXAX{.Q ^ j E e.X.E U.:XZ.7.} (.mXbX_.e.b.9Xb.+.O.| x ;.G.} W -.-.^ / y g 2.s.4.7.=.4XmX1X:X{.T.] } } X.;.j W o.6.+.;.{.!.3 5 :.>XnX$.$.~.nX",
"| $.V.N._.^ ~ s e E.E.R.L.B.! j -.=.v (.F.E x ..t.^ y m Q 6.s.F.Q r `.[. X|.C.+.c a.aXu.D.w.*.{.F.3.5.7.X.-.w.r.=.Q -.-.:.&.W.;X`.V.K.L.:X>XV.b.i.P.;.` @X8.R (.!.{.;XY.=.w.8.3.C.:.U.R.o.R O.F.G.o.T j ] $.B.+.E W  .+._ >.C.c l T.&.e {.SXBXE Q &.{.bX;XE.m m T.] | 5.u.H. XbX<X<X}.#.} s.K.+.p k ~ ~ l _ [ O.P.7.~ !.t.2.e.o.Q ~ ~ =.8.q.m b &.(.T.M ~ =.7.G.7.` 6.6.e.C.-.X..XXXc.k.o.-. XC.w.e.2.2.! ! G.B.!.Y.V.gX} ! s.b.yXv.j.+.W A.x.yXXX5.G.w...`.BXnX{.h Q Q p x ..g r Q P.k.E ;.nXAX,XA %X)._.^ &.(.o. .K.P.#.} l.@.` (.B.5.9.5.+.4.j.n.J.2.j g R G.].! T T.8.h.p.n.p.b..Xd.x v 6.s.8.N.F.]._.^ t T.e.| 7.4.k.k.s.5.@.d.D.5.3.3.3.u.i.p.v.aXK.O.X.W j q.L.O. .z.k.5.| ` 5.z.j.3.T m E.T.;.D.j.c.m.OXs.+.s.O.]. X3.D.(.-.C.Z.(.Q ] '.eX[.`.#.l.j.x.pXm.V.Y.Y.}.%.` W k T.&.W 6.O.f.hXwXR.&X&XM ] 5.5. .3.K.K.p.p.O.5.P.;.M C ,XbX>.D J =X`.w.F.+.} } | s.7.4.3.3.7.e.Q j ] _ E l > = 3 D N.s.} X.s.O.j Q o.} ] x ' [.s.3.B.` ` W 3.w.!.Q.x %.a.5.3.p.x.9XpXb.' =...} s.J.H.D.+. .k.k.5. .| | f.4.` :.].&.( C M Q ^ -.D.m.8.O.`.[.gXwXR.&.w.J.b.p.j.z.6.=.v / _.! o.8.i.u.W  .2.2.` l bXZX;.x e v Y.R.(.t.} j v !.`.#.s.6.^ m T R #.F.`.#.i.XXn.p.s.} -.].s.u.@.<.ZXAXR.R.ZXLX>XQ Q j } 7.o.[ R.bXF.3.W |.ZXmX-.6.j.x.x.p.u.| e -.G.W p Q -.^ / ~ R 3.4.@.a.x &X=X;X;XR.E ..;.` ..{.Q r ! 6.3.8.;.M 3 p :.`.[.s.N.~.ZX",
"3.7.[ ~ )./ / m 4 ~ =.r.[.7.| W B.6.R ] #.E W &.Q.m r Q !  .4.F.~ r R.:X2X|.6.s.| s.sXf.Z.|.R.'.e.3.3.8.o.-.T.] g j ] (.{.U.;X>Xw.5.L.'.;XR.H.x.u.[.r.j t.#.] _.R.U.m m &.:.k.9.6.o.=.r.#.....r.G. .R o...6.7.3.+. .s.+.E w.D.O.&.!.&.x  XVX'.E x R.R.R.C E.E.U.!.] | +.f.A.<X4X*X!.<XR.' k.oX7.h < C m ] | _ @.G.X.Q.Q.-.q.6.} X.=.&.=.#.#.T.U...C.:.-.~ Q q.F.e.| +.3.z.H.| +.z.XXXXj.X.(.>X`.| k.6.} } k.z.G.q.[ b.9Xb.5.5.5.c.j.p.s.W X.n.XXz.h.k. .c {.bX!.v g Q h g [ ! 1 < k F.s. .r.bXZXC m (.:.).!.-.`.2.T 5.G.| | 3.4.O.6.7.8.0.5.` | j.c.z.3.W j j ;.[.;.^ / t.h.j.K.I.L.j.3.j Q q.e.`.`.e.7.`.T 1 / 6.4.d.l.p.j.h.5.@.V.d.3.5.h.3.5.u.u.x.tX.X5.7.6.R e.oX4. .0.G.8.W R 5.z.k.O.x ] w.F.B.d.x.j.c.z.3.3.f.f.J.J.j.n.e.e.n.i.#.x R.nXkX[.F.8.n.x.g.iX.Xs.Y.W.}.=.W ] ~ (.(.] +.O.9XxX XR.C E.T.] 4.l.i.4.eX X4.s.u.i.].-.M ( ,X:XC.c &X&XT.|.`.E W #._ 7.4.i.h.p.j.7.j x c { ..l = > i c N.8.}  .8.W e ~ 6.X...Q ] {.' $.G. .} W  .w.T./ p | d.s. .+..XdXpXp.' O.#.} h.n.n.l.7.+.3.6. .+. .O.7.| Q T.|.!.( ( Q W -.W +.P.L.`.:XbXwX[.~.2X|.`.C.| 3.k.e.` W (.-.R  .5.k.4.` q.o.2.} [ ZXbX=.x g ~ ;X*XR.:.o.j / !.`.| 3.| R ^ ~ Q } t.).:.s.iXm.u.d.6.).{.7.4.5.@.}.bXR.R.bXbX[.O.R ! 8.k.6...:XZXw.X.} (.2XU.W 6.j.x.x.g.b.' e ] e.' 5 a &.!.).T.X.3.u.p.3._ E.&XU.{.=.W #.>.D 1XIX;Xp ] 6.+.k.;.F U.M &.V.H.V.$.`.>X",
"3.6.a b E.( C s e ~ %.B.[.q.` W s.k.W R #.| W ~ ( M Q ! ! } 4.C.~ ~ W.!.;X] W D.+.k.sXg.%.`.A.Z.6.6.5.+.o.-.~ Q x ` ;.{.;X*XZX2X] 6.[.`.&.=.H.b.+.;.E x x Q -._.T.M b V M ] e.8.R T ;.;.;.;.-.-.D.u.` #.#.o. .@.4.i.s.| x ;.F.A.T.T.Q #.[.V.V.O.E (.:.~ m E.%X!.T.Q #.D.V.>.=X4XW.M ,X2X%.H.[.N.u < V m ..O.d ' q.^ T./ ~ q.3. .+.#.] ;.#.` R.;XC.B.w.:.&.Q } D.8.O.5.i.c.x.' +.i.c.c.i.6.]. X`.+.k.6.} 3.n.z.k.W } n.yXtXp.5.5.k.k.i.8.X.#.z..Xk.3.5.2.] >XZXU.h ] ..x ' ;.&.e ; ~ V.h.5.A.bX4Xy ~ t.6.{.{.q.C.y.W 2.7.` @.s.k.i.5.7.3.8.X.W O.u.c.j. .o.Q R ` Z.#.g ^ e.k.k.P.zXL.s.9.! o.q.q.:.-.} e.t.^ t ^ w.i.l.b.j.5.5.7. X XV.3.h.+Xj.5.u.p.x.j.j.j.s.k. .8.iXx.3. . .+.Q W k.XXk.' E `.P.b.4.H.j.i.n.i.2.i.b.g.v.c.x.n.e.B.c.x.| x }.BXeXwX#.k.oXp.g.tX.Xd.Y.%X>X*.x &.U.;X>Xr.7.@.yXxX XQ.s ~ ^ ..l.m.p.V.BX{.} 5.p.l.r.~ m / Q.!.F.] ( P W.NXR.h ` w._ O.s.k.z.j.b.a.] Q ' $.#.x > 9 v ] 6.7.}  .8.W e g W  .W x T.!._ N.D.3.W W 6.r.T.M x O.i.s. .W K.pXb.,.' >.#. .h.5.j.J.a.| W W X.6.}  .k.#.Q Q.{.U.~ T.;.6.o.g R G.[.}.<XLXNXS. XNX{._.(.R W k.e.} } k.q.} 3.s.l.O.} t.o.X.#.>.ZX<X[ E Q !.;X,XR.>.o.T ~ T.:.| 3.6.o.~ / / ! 2.-.;.p..Xn.@.d.].;XR.6.i.p.O.A. X!.).2X{.[.@.W o.C.B.6.;.1X1X=.X.q.=.~ k R | i.M.x.x.V.@.x ` X.E i 9 Q.;XT.-.#.5.K.g.O.E b V E.{.7.` a.>.1XPXPX<Xp ! q.+.s.7.`.2XW.Y.V.iXZ.>.(.(.",
"5.r.M C ( / v k j -.| B.[.(...} l.l.R j ..#.} Q v ~ ^ ! !  .7.N...R.!.%XQ.r _ b.l.j.sXx.` 6.s.i.}  .l.5.-.T.Q ` E X.(.).,X4XZXR.m ).`.=.&.:.H.p.#.` l %.~ k -._.R.k 6 V / k -.(.t h ).(.C...~ (.D.p. .r.q...O.7.4.7.N.` u *.|.`.T.Q ` Z.L.@.K.u.| r.-.m C Q.,X;XU.] w.P.d.%.<X=Xn F !.}.].[.NXR.> u m ~ :.$.u ] -.Q T.^ ! 2. .| 4.7.O.w.;.a E.ZX[.s.6.#.#.6. .5.s.5.5.p.v.p.O.4.i.c.c.i.w.`.V.J.5.5.k. .5.j.h.3.E 4..XtXtXx.3.5.j.l.7.6.t.;.s.J.s.3.8.q.}.ZXZX&.;.F.4.O.s.;.U.%Xn *.D.j.j.C.1X&Xe -.k.9.t.(.o.6.G.} ! o.W 3.s.j.j.3.5.4.C.X.} i.i.b.s. ._.-.Q x $.B.j Q 6.8.F.@XeXS.b.5.} o.X.:.T.j h q.6.^ m y ..k.D.i.i.@.O.:.bX:X#.3.n.+Xi.5.p.u.@.@.p.c.i.s.X.3.tXv.3. .} } #.+.j.c.B.E &.>X[.H.4.D.H.l.D.+.3.z.x.g.XXc.H.[.r.F.K.g.;.R.NXBXkX[.R y.OXc.p.m.tXi.U.*X;XM h R.;XZX1X-.+.u.uXjX:XE.g ..W X.m.tXl.F.BXT.| s.j.D.R.U./ ( / ~ F.q.m V 4XbX=.g  .B.{ $.@XP.k.k.L.Z.=.=.O.u.d.' i H M &.7.5.| +.7.} h g E } g p %XW.E F.P.3.R W B.].Q.m ] $.4.k.o.T w.eXA.%.&.{.(.#.G.} i.z.4.} Q T.:.q.X.6.P.3.Q -.(.E j ^ 8.8.! t T e. X>XmXPXNXa.].#X(.-.(.W ! k.9.} 3.k.8.6.9.k.5.|  .G.W o.7.C.ZX<XM &.!.,X,X;X>.N.7.} } o.| | 5.k.6.W C ( ^ } | 4.x.tXb.O.Z. X!.U.w.D.s.| $.`.%X%X%XR.[.3.} } q.-.` :.1X*Xv -.;.#.Q p g ] d.v.v.m.d.7.} } ' E l u -X2Xm -.6.3.P.N.>.!.6 6 !.`.B.O.i.N.ZXPX3Xb j -.(.:.7.@.`.:X;X!.V.I.}.;X`...",
"s.w.U.( / ~ Q R Q -.| D.].`.(.` j.z.} j x | q.=.x ~ ^ W 2.6.6.N.`.R.%X,XQ.g 4.K.c.j.dX.XW  .5.s.+.} k.9.Q ^ ] 6.|  .(.!.4XKX1Xv J ,X-.W ] ;.P.s.6...' '.(.m T.T.(.Q t b / k k ~ 1 ~ {.(.`.` k ).I.n.4.F.#.X.B.7.+.$.N._ e R.>X|.&.k (. XV.@.iXj.+.6.-.~ T.E.*X*XU.&.;.a.a.%.=X&XM &.R.R. X'.NX*.> &.~ Q r.w.g &.^ ^ _.-.o.2.` _ 4.s.O.7.;.a C ;X].k.7.O.+.J.i.O.l.l.i.p.x.p.a.d.b.m.c.k.B.7.+..Xl.5.z.h.i.p.3. .O.J.n.u.g.x.O.3.k.l.6.X.(.=.@.d.i.s.6.(.bXZXR.[ D.b.p.n.s.[ H KX:X>.J.j..XL.,XA k t.8.5.2.o.} 6.6.} Q Q W 6.l.c.c.p.i.B.r.' | i.j.p.O.6._.-.] W @.B.x Q X. .`. Xa.V.iXp.} | o.-.&.Q R ] (.T.( y Q w.e. .k.O.W R.1X;X>.4.k.z.h.j.b.@.%.Z.H.j.5.k.8.5.tXv.@.w.X.E 7.i.j.c.B.h ~ >X[.L.F.Z.[.[.;.} k..Xc.x.v.x.[. Xw.[.I.V.|.BXnX XkX#.g o.l..Xi.j.tXu.U.,X!.k M ;X<XZX;Xx } i.yXhX{.U.;.8.T 6.n..Xs.].6X-.B.k.j.d.`.R.Q.T.~ Q P.G.k A mX,X:.x 6.].>.'.kXL.s.s.A.#.[ ..4.p.K.a.c U.C M 6.s. .#.r.] =.[ } ] p m =XE._ H.OX7.R ] A.'.U.e [ +.7.k.! R R. X>.[ *.2X(.q.w.} s.i.+.} ~ Q.R.-.(.].@XO.W ..w.' R W h.k.! g o.e.[.{.mXKX`.N.#.`.r.[ r.-. .0.6. .h.z.z.0.3.9.+.| 5.G.} ` 8.C.ZX=Xs W.<X,X;X&.X.B.H.3.3.3. .+.i.l.k.R y m Q } 5.x.v.tXm.@.`.2XC U.`.B.4.| $.>.%X&XE.T.Z.3. .o.! R R r.,XU.k :.e.a.;.&.v x a..Xc.m.s.+.} } ..] [ D ,X;Xk Q 7.5.J.$.;X4X7 b {.;.4.l.m.[.;X4XZ 4 Q t.(.R.7.3.;.R.;X{.N.N.2X2X-.' ",
"s.| v / ~ Q W W Q ] | P.r.-.(.` i.oX6.R j #.w...E Q ] -.X.w.N.`.}.^.%X<X-X-.D.x.c.j.v.OX! o.2.k.k.3.k. .Q Q O.s.3.} :.%XmXZX{.l W.;Xq. .W W F.+.3.B.Z.[.`.Q T.).F.F.Q r m / m p e :.C.6.t.! h ] [.I.s.s.7.s.D.4.O.$.7.x b %X|.].M U.BXNXd.,..Xc.}  .-.^ U.U.*X<X!.~ ] W $.R.=X&X!...F.7.D.[.[...c `.-.E w.6.R ^ ^ m T.-.X.6.] _ $.d.+.+.B.` &.-.;.].A.| | b.z.' 5.n.x.j.x.p.H.I.gXK.u.s.D.V. .l.oX5.h.j.j.j. .3.k.oXl.' f.M.| +.k.k.e.-._.] O.u.@.B.W ).KX<Xl 7.b.v.c.n.+.] M mXZX>.J.j.XXP.Q.V Q X.5.5.6.} X.e.' | ] j W q.k.l..Xn.V.].;.W 3.l.l.a.' ;.-.=.q.#.%.#.Q Q  . .{.|.,.b.iX5.O.#.W o.X.;.=.Q 6X2X( b C 1X(. .G.| W -.{.{.{.;.7.z.j.c.d.$.`.VXlXl.i.c.n.p.iXm.$.`.w.' u.i.j.XXk.j c `.[.gX X`. X X=.W l.m.m.x.c.K.NX>X7.H.I.rXBXBX].[.`.Q T } 5.k.3.5.tXa.!.4XE.~ {.2X!.).;.W | j.dXK.-.&.]. .j y.z.n.7.6X6XR.].s.i.s.w.=.t.-.~ ~ D.P.T m 4X;Xr.' $. X X X'.s.3.k.V.' W ` 4.D.iXg._ F C s [ 8. .#.:.l -.....] m &X=Xn ' b.OX4.R ! :.).Q r ..| 7.B.W Q ;X;X&.[ R.|.-.X.o.} 8.5.+.` M ( U.&.|. XP.@.` 3.D.3.W W k.k.o.T 6.3.d.<.mXmX~.F.] `.>.>.{.;. .e.X.W k..XXXi.} } | 5.n.z. . .8.`.ZX&X7 =X,X,XQ.x  .z.c.u.3.5. .3.p.n.D.o.y y T } k.c.v.yXv.4.R.U.m {.(.e.O.$.B.:.!.E.Z U.q.+.4.#...j R `.-Xb g t.l.j.6.;..._ 3.j.j.z.s.} R W q. .O.>.,X-XT.-.3.l.k.;.4XHXV C ).` O.m.XXH.D C C y ! t.-.:.q.w.r.`.R.R.:.;.2X!.x E ",
"h.O.h T.-.] } W E ` | @X;.R r.6.D.OX .R | C.7.O.` x R.(.Q :.F.'.mX4X3X=XU.(.P.5.c.j.c.OX! ! ! 8.k.l.s.| ] ;.4.h.5.} &.2XZX<X`.] U.!.C. .} j E ` 0.k.].NX|.~ E.{.P.gX-.t T T.~ ~ ` 7.k.7.y.W ` ] N.L.s.s.J.z.7.| | O.7.R 6 E.:.w.v 2XZX Xa.u.n.j.}  .2.! Q U.,X<XE.Q.l a #.`.4X=X`.F.J.i.5.F.F.O.' ].;.' B.+.! ^ m y / -.6.7.] l %.A.7.4.G.e.`.r.[ :..._ | l.K.` | j.m.x.p.u.H.wXlX[.W | $.D.+.5.pXj.5.p.l.J.| 5.j.n.b.u.m.m.O.+.s.k.y.-.-.x ' a.3.e.M ;XKX!.E D..X.Xl. .} r.a H :X'.k.z.XX8.~ m Q ` 3.3.6. .6.#.` 6.(.j T X.r.V.pXiXB.`.$.O.V.H.V.a.` E x ` q...c >.>X{.2.2.{.{.H.v.n.5.f.7.W o.8.8.} Q ;X-XE.b &XPX6X6.e.} -.~ R.:X{...7.l.i.J.Z.$.{.SXBXG.h.j.c.c.pXD.%.].].O.u.p.j.z.8.R ] `.[.gX`.R.{.>X(.E s.j.n.i.h.@X>XR.O.H.I.kXNX XL.[.(.^ ! o.+.5.6.6.oXD.;X,XU.R. X:.x q.6.` O.c.pXp.` r.F.x g y.D.J.:.6X{.-.Z.4.i.l.7.X.q.;.T.=.B.J.T ^ 1X>X`.+.O.[.nX}.a.s.3.8.N.] ..` +.d.b.M.a.=.C b ] w.+.| v 5 v =.:.-.U.,X&Xm $.x.K.5.W W &.T.R j X.} 7.8.R ^ 1X;X.._ ..(.W } o.X.7.+.7.` M ( C !.>X].H.u.} 5.n.i.} W k.e.o.R o.+.p.Z.=X3X^.`.] R.*.:XZX:. .G.W g 3.oXc.5.W W  .J.oXi.O.+.5.`.<XU U 3X3X<XR.E +.z.x.u.4.8.X.X.i.p.G.;.k m k ..P.j.x.tX.Xu.] s W.1X:.X.X.7.D.Z.U.E.Z M q.3.5.$.q.j h ).%Xt j G.j.c.4.' O.a.l.5.5.h.k.} j W 8.3.u.[.,X,X2Xo.} k.k.r.4X3XV %X).W 7.l.j.i.] ~ m k :.`.] -.#.w.`.{.v &.-.:.{.T.x ] ",
"i.s.E q.q.! ` W } ` O.gX6.j X.t.G.8.R E C.F.4.7.| ..2X;X&.-.F.|.4XFXHXmX&.w.L._ 5.z.c.oXQ T T } h.z.7.` ' 7.k.z.h. .R.1XbX`.[.3.W (.r.' ` x e E D.h...|. X&.H !.Z.@XB.r T -.o.;.#.3.l.k.q.! +.a.Z.Z.i.i.+Xs.` W | 3.8.X.e m T.:.=. X[.L.a.4.J.D.| #.2.W E R.2X!.C Q.g h #.R.1X{.7.pXn.i.3.D.F.%.l [ ] | u.3. .-.y 7 &.X.3. .c u l [ ;.w.C.e.F.C.] Q E W @.l.oXO.' p.XXc.s.a.K.gXVXBXu a ' V.+.3.OXn.j.i.$.Z.$.i.5.j.n.c.pXj.+.3.5.8.X.^ ^ j | a.s.`.E.%X<X&...G.K.l.#.x ' Z._ l {.|.D.+XG.! r / ^ ] w.6.6.o.o. .| B.`.T T ! :.].hXiXr.:.s.b.L.[.[.A.c u l | ;.W a R.PXZX:.q.(.|.H.j.j.p.x.d.` ..B.s.+.-.M b T.U.4XPX`.k.t.j &.T.;X1X>.O.k.s.C.kX|.>.$.@XOX5.5.z..Xm.[.C.%.'.L.@.i.k.s.7.! R R.|.I.[.&.Y.{. XR.W B.l.D.| 3.F.T.k %.I.I.gX[.H.oXk.q.-.! !  .7.t.q.I.[.).Q.^ e.[.} E ].8.` u.m.n.@. .F.D.g r -.C.].).;X&.-.w.a.5.k.h.3.e.(.R.-.w.8.T X.{.`.C.7.@.L.'.].s.h.5. .c ] ;.| +.@.O.I.iXA.m b ~ ;.$._ 5 2 k _.{.!.E.%XU.v N.l.z.3.! W ] &.Q j Q ` 7.X.j ^ 1X!.#.' +.k.} ] -.-.;.O.8.} v M Z ;X|.Z.b.i.O.5.n.i. .} q.o.-.! j =.i.[.*X&X&X;XU.U.W.AXLX!...6.W t ` F.s.+.` ..9.+XJ.O.@.3.+.w.E.P FX3X3X,XR.| 3.l.l.u.@.$.o.X.4.5.s.q.Q m k &.].u.4.m.tXi.E v <X4XU...#.N.B.C.E M C T.B.i.j.u.w.R p U.( y T 0.j.n.i.O.u.j.z.i.' 6.F.+.E ` 5.5.j.[.{.;X|.o.j ;.N.:.%XP V -XR.] e. .3. .R Q ~ T.`.(.` X.6.e. X{.v R.U.-.(.t.#.w.",
"h.J.} +.e.W ' ` +.} 3.gXB.R W ..` W x ` C.B.s.F.A.{.7X{.:.;.G.|.3X3XFXKX`.6.G.+.| s.c.K.Q m T W i.i.s.O.| s.j.j.i.| {.>X`.w.G. .T q.6.| } E p v P.D.R T.|.=.&.R.B.pXgXx ! 2.o.X.` @.x.z.X.q.3.D.[.a.+.5.G.3.` |  .5.5.y.~ m U.-.$.d.V.d.O.G.zX[.:.(.t...] |.6XT.M m x ` ..[ &.=.n.XXOXz.3.D.F.;.l x ` | 4.s.2.^ y m (.B.3.| _ a 5 i ] :.C.6.k.e.-.Q c [ 4.p.oXu.| p.m.b.N.V.0XhXSXZX2 e ' J.3. .k.p.b.4.l #.V.p.5.z.c.j.l.O.+.4.5.8.o.! -.Q | 7.a.|.%X&XU.] (.$XD.7.(.Q { S.V.;.{.(.P.+XB.j r T.T.T.].w.#.X.} 6.s.H.].! T T R C.pXOXR.Q s.m.0XlXlXC.a u O.V.C.| h &.LXKX_.X.] |.D.p.j.j.iXK.:...D.m.5.e.~ < ~ Q.HXKX..G.t.j T.2X1X:XN.J.J.V.NXNXT.[ a.J.D. .2.D.tXp.6.r.A.[.H.u.z.h.O.W R :.{.R.L.V.D Q.|.R.h -.w.w.C.`  .y.~ v N.0XK.0XiXoXn.3.! ! ! W | 7.X.X.L.[.T.~ ! 3.G.+.} 8.| ' x.tXm.u.5.s.D.x 4 ^ -.{.-X%Xk -.7.4. .s.z.5.e.(.-.Q #. .! 2.Q h w.3.O.H.[.kXL.3.5.` u =.#. .7.O.c H.pXa.M m j W $._ 2 6 M ).1X;X!.T.~ R 6.k.s.9. .W W v v g v ] a. .j T.,XU.O.3.z.+X .;.(.-.;.| 7.O.] &.E.%X(.D.b.i.4.O.p.5.+.} E T -.-.e &.$.[.;XZ &X4XJ b <XLXmX!.=.X.o.t x C.$.' [ q.5.D.d.| u.i.3.e.~ A 3X3X3X%X:.#.7.D.a.@.| | o.o.7.5.8.e.W Q g ~ `.| ' p.oXi.` T.4X,XU.;.C.a.3.6.=.h U.{.G.h.x.u.3...k C V y T 9.j.m.l.i.x.v.n.s.E %.P.a.' | 5.h.n.V.R.-X_.o.Q R.w...C 8 V %XT.;.F. .3.8.R ] !.>X>X`.o. .2.6.1X*XY.bXT.] ..B.V.s.",
"k.D.3.5.3.! | ' 3. .+.k.X.W W R r ] ] W #.3.s.C.{.bX1X).w.e.C.R.=XU %X>Xr.4.P.5.| u.x.P.Q ~ ^ -.5.+.p.p.@.D.z.c.j.B.`.R.r.} s. .R C.s.i.5.` r x D.[.Q ~ :.A._ A.d.m.pXO.W 2.6.}  .u.j.j.k.B.#.B.gXi.O.q.t.W }  . .5.8.t.~ M ~ =.V.m.b.O.O.[.@XC.R.2X{.(.R. X|.~ k p c ..w.#.`  ..Xj.s.B.s.F.#X|.~ ~ ..| O.s.6.W j Q F.H.O.:.#.E 9 v ] E -.} e.e.t.] M &.N.p.m.j.O.B.'.[. XZ.tXaXVXBX6 e $.l.+. .+.O.b.O.4 ;.D.j.5.h.z.5.x x O.s.5.G.+.w.r.E ..O.d.[.=X&XQ t.|.`.:._ 2X!.>.wXpXL.T.~ | L.k.} } |.Q.U.`.N.#.+.2.e.k.J.OX .T T j C.P.[.(.v i.m.0XzX[.w.d &.V.K.gXd.' R.mXmX(.R Q (.k.i.j..XpXgX(.W j.XXh.k.R.< k ,XPX4X] 8.e.} :.2X^.R.P.pX[.|.BX{.a c P.5.9.2.o.k.iXp.E } s.pXm.m..X3.W W =.{.{.=.V.O.=.2X|.x M !.&.] `.E o._.Q X.b.v.9XpXiXJ.k. .! o.R R 7.a.6.} A.|.~ ~ W 3.8.3.O.@.` O.m.9X9Xj.s.k.J.' j ^ &.Q.&X/ k q.s.u.+.5.j.l.t.t.Q E ! o. .X.E &.C.7.5.l.I.[.7.7.4.W W B.7.} a.| _ K.iXa.^ m r W N...3 6 / T.-X-X&.-.-.T | 7.9.9.} R R R r v T X.s. .Q -X%XM 7.h..XOXG.r.-.] #.W O.#.;.R.%X&X;.l.l.u.d.' O.l.B.| j ! _.R - ~ =._._.C &X4XA s mXLX4X~ ] ! X.h } #.] ] %.X.7.G.4.' p.J.4.F.-.M Z &X%XU.T.r.#.6.#.#.' E W } e.3.} C.:.Q k k Q W c @.J.5.| :.4X&XR.].B.3.O. .` -.|.|.s.j.m.u.@.w.U.E.C k W 3.d.x.m.j.XXv.j.l.` O.I.p.O.O.s.l.l.w.R.;X(.! ~ T.r.;.5 7 V E.R.w.G.3.s.D.} ..bXZX>Xr.W 2. .r.1X%X!.>X`.' _ V.p.p.",
"s.G.3. .2.} | | +.} u.s.] x Q j p R.R.c ' | 4.C.;X*X!.;.D.J.C.T.C Z Y.`.e.G.G.s.4.u.p.@X(.Q ^ :.6.+.5.x.p.k.z.n.J.a.>.R...g G.8.W e.k.j.l.3.g j D.L.R.&.W 6.@.4.j.j.pXj.| 6.3.5.k.i.p.v.oXD.#.B.gXJ.' ] t.W E  .3.3.X.-.Q Q ~ ;.J.x.p.@.a.F.F.;.&.).-X).2XNXR.E x c E ;.B.7.+.8.J.G.C.#.8.F.#X|.~ &...| O.u.3.W W | K.d.=.R.N.$.h &.T.e h ] 2.e.].-.M &.Z.i.j.j.O.A. XNX>X`.m.yXzXnXs m C.J.5.+. .O.J.| u :.J.z.5.s.s.| h ` V.L.s.D.d.Z.`.;.' O.g.[.%XE.-.`.t.-.E u M U.}.wX0XgX] e g B.J.5.a. XQ.C :X>...].y.6.8.D.J.6.-.T.g e.P.V.=.[ l.m.g.I.H.' M {.'.I.pXp.O.>.:X1X=.x Q -.X.s.j.m.gXV.=.X.p.tXj.k.`.e 6 4XPX5Xv 2.t.;.r.=.D `.zXzX X>X>XT.M =.e.}  .2.! 8.pXV.p j p.iXpXoXOX3.x ..r.`.:.` V.u.w. X(.Q !.1XE.!. X=.R T R 6.x.tXv.m.H.$.3.6.2.! T ` s.a.O.` #.`.&.Q } 5.i.@.4.s.4.d.m.9X9Xp.5.k.l.$.^ m M Q.( t g 6.p.i.3.5.x.l.C.! } | t.2.X.#.-.!.`.a.s.h.K.H.#.w.B.O.| s.3.} 4.O.| K.pXs.] ~ g R B.>.9 2 m / Q.U.&.(.o.W } 6.3.9.6.} E ] M U.&.-.Z.>.U.%XC M $.x.m.J.F.q.R =.6.E c ' 7.`.Q.E.#.k.s.4.d.O._ D.D.3.R q.].j 1 ^ Q -.-.~ &X5Xm C KXmXU.Q ! } 6.` 3.7.#.#.#.' | F.s.| j.oX7.w.C.] n E.Q.&.(. X;...} ;.| W } X.k. .E C.r.E x v x j e ` B.3.' `.1XW.R.t.8.u.4.| ..`.|.r.i.m.b.@.@.A.!.1X-X^ R 6.a.g.n.j.v.v.x.s.O.d.iXx.a.@.7.a.V.%.;X;X] -.U.M ..:.5 7 V U.(.e.D.l.j.J.s.r.bX:X:.| W 6.X.{.1X%X!.`.Z.4.' d.p.g.",
"+.3.| W 6. .} #.w.O.s.B.(.~ Q j Q R.Y.c '  .#.|.%XC =.a.n.J.`.T.M U.] #.k.h.+.u.p.p.j.J.r.j ~ :.6.4.@.n.n.j.z.n.l.$.A.`.~ t ..#.} 8.n.z.l.G.R j k.J.[...h 6.k.u.z.i.tXpXO.3.5.z.OX5.u.m.OXa.+.s..XJ.[ :.`.2.R  .5.3...Q -.t.q.k.J.c.v.j.l.@.$.>.] Q T.Q.,X2X..6.' ` h _ 6.4.7.w.]. X|.=.6.8.8.t.~ -.X.+.O.u.5.+.O.4.0X,.W.^.[.k.E ;.T.< g :.2.e.].=.Q -.`.O.3.s.w.|.>X^.%X^.N.0XeXeXk Q D.oXh.3.#.;.]._ c ;.G.5.+.4.k.} W (.[.OXk.b.I.kX}.=.{ a.9X0X!.U.|._.-.] u u v ~.NXZ.b.H.} j g ] G.J.B...k m !.:X`.`.X.} Z.@XOXB._._.g X.J.p.O.s.c.tXv.m.p.{ Y.<X}.~.wXb.O.;.~.{.%.@.q.X.Q r.F.[.P.} ` r.V.zXOXk.Z.c J HXJX&Xm Q T.!.`.c _ gXkXNX~.1X{.&.R.(.-.T o.q.W o.`.:.2 g 3.iXOXD.D.@.h r.].q.[ _ p.n.[.].~ ~ ;X%XZ ,X Xq.T T o.5.c.tXp.@.`.:.w.6.2.W R +.s.a.| c | e.t.} 3.z.s.O.@.H.J.K.b.b.9Xx.+.h.k.Z.^ r ~ -X/ t R k.p.p.5.+.u.n.G.R O.[.#Xt.6.q.&.R.<.V.l.n.m.K.r.r.A.N.| 6.3.| 4.@.5.m.iXs.W ^ j j s.V.a < m / Q.U.:.[. . .}  .3.5.H.f.,.'.MXIXAX}.ZXZXE./ M :.a.j.b.s.[.:.x ;.B.' D $.Z.N.~ ~ :.F.#.O.b.p.c #.L.k.! 6.t.R R ;.! o.o.^ E.&Xm U.ZX,Xv W } 6.+. .5.s.s.B.w._ ` F.s.| x.oX$.#.G.| s / :...:.).Q ] | X. .6.e.7.k.} x C.C.` W ] W E 4 g q.O.c '. X%.=.} #.N.N.#.(.|.C.+.3.J.d.u.@.'.^.1X;X^ Q -.>.L.b.j.p.v.d.O.u.oXyX9Xf.{ ' #.B.`.4X&X~ (./ M :.=.e b m U.r.k.oXx.p.b.oXB.{.:.6. .} q.-.2X,X!.R.N.L.d.' u.p.x.",
" . .+.W q.} ` ;.| O.$.`.|.-.Q Q &.&.F &.| | :.>XF f $.p.x.b.w.=.=.R.E ` 0.3.} O.g.XXXXn.X.g Q ;.w.a.O.b.m.j.j.s.4.a.'.`.T.r R } +.5.c.XXz.G.2.W j.pXSX Xx 6.J.j.5.i.x.pX@.O.x..XOXO.,.K.gXw.O.u.c.OXw.(.C.6.W  .h.5.` Q (.].s.z.c..XtXv.m.@.%.eX X] ~ Q.%XW...@Xu.' 5 h | +.7.#.:.{.;X*.6.3. .} x &.w.O.3.i.s.l.i.p.0X%.U.;X@Xj.` ;.&.2 ~ :. .k.e.| ] :.w.` 3.G. X1XR.U.C H `.[.kXeXg T G.oXh.3.#.` ..c ..Z.D. .| s.G.2._.`.#.D.n.p.wXIXAX=.a.m.tX0XR.!.|.:.(.:.x T.;XBX|.C.a.5.! 2.T g 2.P.B.E p m C ,X2X(.;.o.:.].kX#X:.Q j ! J.j.5.c.XX.Xv.tXx.@.{.1X,XM Z.V._ | :.;.d.H.D.q.^ T.'.kXq.R X.w.Z.lXG.+.'.>X4XFX5XA / ~ U.^.`.E V.[.}.:X!.ZXR.:.).(.:.W Q -.R ! {.&.e W +.oX4.| $.O.c G.@X+.W ` p.tXOX} r ~ Q.V 7 E.].8.W T 2.3.c.tXj.O.(.:.`.(.X. .3.5.@.N.#.l ' 4.G. .5.n.p.@.@.J.J.p.a.d.9Xx.3.3.4.Z.Q k R.).~ g  .z.p.p.i.| | n.8.! s.[.[.6.8.C.&.-.`.L.s.j.tXpXr.&.~. Xw.8.8.+.s.s.j.n.c.s.! ^ ^ x D.H.x r m / Q.R.Z.P.6.8.3. .+.O.M.0X0XrXAXIXAX}.AXAXE.k -.].L.H.L.N.|.] E +.a.' O.L.J.O.x ] `.|...` 0XgXE h V.l.9.o.} X.e.8.! o.o.^ ( E.M Q.<XY.E ` | 8.4.3.5.h.j.l.7.c W e.+.| c.n.' | 8.| g &.C.C.=.h a ] X. . .@X@X3.z.3.W w.r.` }  .X.:.p e =.| l V.P.4.| [ [ ..>.`.|.q.6.7.@.V.L.V.u.[.R.;XR.-.] -.].[.H.i.O.J.a.' k.iXuXyXg.D c | B. X4XZ &.R.M M r.] M M k -.w.5.oXx.p.p.iXs.` o.5.3. .q.=.!.U.U.A.d.I.p.' u.g.M.",
"q.#.B.` X.-.-.:. .+.~.>X].o.~ &.-.] c >.+.#.{.!.l ;.d.i.v.iX' ] `.R.&.x 8.h.3.i.v.yXyX.X7.R W 7.B.4.' s.m.j.i.i.s.[.B.:.U.y ] X.w.O.j.tXi.3.0.3.i.hXIXAXc 6.OXj.3.s.j.n.@.@.v.dXJ.| O.eXBX`.O.O.k.OX7.6.8.9.}  .G.5. .7.F.3.5.z.c.XXXXx.v.d.>.BXAX{.-.U.E.E.>.gXP.' u E | | 5.B.:.R.%XU.w.5.| W g &.r.' @.i.5.n.u.g.pXO.a ).@Xh. .:.!.C C &. .k.k.3.+.+.+.' B. X2XU.l &.m m R.'.eX Xg T P.n.3.5.4.' _ ] V.J.k.} ' H.8.2.).M 5 <.K.p.wXIXSXA.0X9XyX0X}.1X).).].;.-.!.ZX,XM (.2.2.o.y.^ g o.G.G.| v m M Y.<X1X|.X.E [ #X X-.v ^ R k.c.x.x.c.j.p.c.b.L.^.%X%Xs <.'._ W B.d.b.m.J.e.-.T.{. XQ ! e.7.w.#X`...}.ZX%X&XA C ( m M R.>.%.].R.*X&X4X,X-.t.-.-.y.;.g k v &.,Xm Q O.+.n.O.' 4.@.' l.pXu.O.| j.pXOXR t / C S < M C.s.} ! 6.G.K.K.n.s.r.-.{.{...#.s.5.' 6.$.l E 7.D.3.p.J.b.f.l.OXs.| +.b.tXv.5.2.+.`.-.&.:.:.Q R 5.z.s.4.s.+. .z.e.6.gXI.8.7.s.8.W ] w.J.p.j..XK.' v ;XbXw.s.l.+.5.i.j.c.O.t.:.-.~ ] K.b._ ~ ^ ^ _.w.D.l.7.6.3.7.X.W d.n.p.pXwX{ ' N.I.V.R T e.G.D.V.Z.`.!.~ | 7.B.' @.0Xm.5.| q.{.|.} R K.gXE h N.s.k.2.R q.G.9.W } 6.] / A Z 1X;X&._ | 7.5.7.4.i.i.j.j.7.x E q.+.@.M.p.' +.s.6.W X.C. X).a p x | 3.2.OXOX@.l.5.| w.;.O.3.5.} F.[ 5 *.[ _ J.n.h.6.=.R.v R.>X|...6.k.4.a.L.l.l.F.*.:Xr.w.! -.|.N.d.3.` F.C.#.[.J.yXyXx.' ' ` 8.#X,XC -.-.k M w.w.`.&.g t.q.3.x.x.f.@.H.s.W 2.5. .+.w.;.E p Q B.l.H.s.O.,.g.K.",
"(.=.6.} X.-.).].4.s.R.}.].;.-.T.(.] ' [.q.:.;XU.[ F.b.x.x.pXO.;.].-.T.v B.z.s.J.iXtXXXj.3.X.W 7.D.| E B.m.x.i.p.J.P.#.] / m -.;.q.+.j..Xu.3.z.5.u.wXAX1Xx t.P.k.5.5.i.O.O.d.tXsXgX$.' '.nXR.[ ' V.P.| W k.8. .3.l.5.i.D.k.+.p.j..XXXj.i.x.H...NXBX X..Q E.C ;.[.@X' l ;.7. .3.G.].R.%XU.e.5.} ` E :.Z.` | 5.5.z.@.d.pXO.e (.@Xi. .-.2XW.M ] 4.n.z.s.@.' | X.F.`.U.u Q ] h &.=.`.BXeXr j G.j.| 3.k.3.#.Z.D.s.4.` ` P.5.X.T.4 > }.I.d.'.BXNX[.tXyXuXpXNX;XR.(.].] &.1XLX&Xu -.-.2.0.2.^ ^ -.G.].` p v &.T.!.1X|.` x =.{.-.-.~ k ~ k..Xm.p.i.u.i.m.K.NX!.C E.e F }.;.E 4.J..XXX.Xk.-.T.R.T.g -.B.4.$.`.`.`.`.R.U.E.C / C M [ <.C.`.{.;XJ &XGXZ (.t.j Q C.e.k y C W.E.e q.3.5.H.C.].D.u.O.i.pXtXk.O.p.dXD.R j / C b t -.C.5. .6.C.@XOXb.b.B.=.&.(.:.` O.5.3.W X.w.c c 7.b.5.p.l.V.V.H.OX8.}  .J.pXx.}  .6.].(.=.o.(.^ ] s.b.d.5.s.i.+.G.C.e.gXK.s.7.5.+.] ..O.d.p.p.x.i.' :.bX:X%.l.n.3.2.5.j.j.W q.t.! Q ;.iXx.' T./ ^ ;.s.b.b.B.} +.B.X.R 8.i.3.oXm.' ' J.m.i.! } 8.5.7.<.R.:X!.T.F.k.F.| u.iXXXj.s.q.R.R.W x 4.N.x ~ =.w.k.9.R =.8.2.W ;.e.] ( 7 &XZX{.:.c O.s.s.+.} 3.j.x.j.B.| W q.a.@.b.b.3.G.8.8.q...#. X2XY.c R } 3.9.n.l.O.z.k.+.6.;.6.D.h.' L.>.z R.R.4.oXh.5.k.C.{.v Q.6X|.W  .8.u.O.5.OXOXa.=.>X].w.R o.r._ $.w.x ;.`.'.`.B.v.9Xv.u.7.W 6.|.U.b T.~ v :.F.P.A.E j q.6.3.l.i._ ' a.+.} X.7.O.4.B.w.x g ] 8.D.J.d.a.$.V.L.",
";XT.X. .2.W :.|.5.k.N.>.;.q.^ T.-.| u.zX] M ).-.6.d.n.x.g.0Xs.8.7...*.] F.5.3.n.n.b.n.+.` q.} 6.D.' R B.J.p.p.u.z.z.' v T.T.W 2.9.3.i.m.x.j.XXj.g.wX{./ &.`.H.j.s. . .| %.L.aXjXgXC.W ] >.*.Y.{. X].E h C.k.8.i.u.i.j.j.i.u.j.x.iXj.i.i.l.N...|.NX Xa.$.R.Q =.]. X$._ C.k.3.5.J.[.`.!.T.8.h. .X.7.V.B.O.| +.5.j.4.l.pX .t _.[.3.X.:.!.U.~ [ u.n.c.b.| a W #.r...c E Q ] ' B.B.N.BXbXk j k.j.O.O.s.5.u.V.7.` @.O.' P.5.o.-.e H ZX X$.~.NXkXK.9XyXdXhX{.U.r.6.q.E U.ZXKX,XU.&.:.2.2.! m m T e. X=.i v &.T.Q _.].} &.2X{.~ ] -.m ).H.m.H.@.f.x.x.iXgXBX&XA T.Q M !.q.W _ V.oXc.v.J.! ^ T.^ g :.6. .s.$.!.2X:.;.-XQ.T Q Q :.N.F.].`.;X<XA &X&Xq %XT.j ! e.C.k b &X=Xs x G.5.H.[.}.>X'.7.@.u.9XaXz.| x.hX .j Q ~ ( m h w.7.3.6.B.B.s.K.x.H.$.l v q. . .7.5.8.] ] :._ W k.k.u.u.O.>.`.V.k.8.} ! D.K.@.E ..7.F.].} } ].&.&.`.V.i.h.s.s.+.s.q.2.l.n.4.E +.7.`.<.$.@.O.O.5.O.+.#XZXR.w.P.l.5.3.6.J.d.W ;.t.! R B.tXp.O.(.^ T X.D.x.K.C.=.<.$._ E 6.3.3.pX.Xp.3.l.gXV. .2.8.| :.{.!.1X!.R.D.n.s.O.p.tXv.x.k.| X.| ` W ` [ x U.&.=.e.q.Q ~ q. .} w.w.E ( S A ,X`.N._ O.k.8.E x 3.x.c.n.G.X.Q -.a.,.g.M.h.k.5.5.A.` ` `.:X2X-.W } 3.5.x.j.4.b.p.O.#.#.7.n.b.' H.[.`.}.~.b..X9.3.n.k.`.&.Q.-X).Q ! w.4.|  .OX@Xa.(.NX XR.R W #.h -.!.p v {. X=.#.m.v.x.l.e.W X.(.k e E.~ #.@XgXH.O.W x X.5. .8.` M C M x ] | #. .i.J.a.E W X.5.h.OXl.a.@.>.`.",
").R.X.6.:.x =.].k.oXgXO.j Q k ~ ..' p.[.u s (.q.O.s.gXu.m.iXK.3.W w.=.;.@X3.3.j.i.p.K.O.W 8. .8.J.| W G.H.d.a.O.5.OXx h ).T.! 8.8.} | H.iXx.j.n.M.[.)./ T.`.V.p.z.3. .7.N.[.0X9XL.].E h x &.;XZX{.=.v v [.P.J.u.u.n.XXc.j.p.i.n.K.u.3.D.F.7.#.`.{.`.H.K.C.` #.N. X[.%.Z.F.5.i.oXP.`.!.T.G.z.}  .k.p.u.D.#.| 5.h.i.J.gX| t -.P.3.`.{.M Q R.' u.m.c.J.c ; l #.e.} N.x g ] 4.OXD.$.>X1X~ T 0.n.4.O.s.5.s.B.] h a.H.O.P.8.} =.p ,XLX X| :. XL..X.Xx.hXkXh ~ [.8.} Q Y.<X=X<X%X~ ^ -.o.-.M m g X.NXnXz &.&.Q ] q.].;.!.1XQ.&.] r.{.|.I.p.@.O.x.aXtXK.[.:X&X7 ^ 6XZXC -. .x a.m.x.v.pXy.T T.^ g =.+.3.d.A.1X1XC.C.{./ ^ W ` ].F.Z.].r.2X!.Z =XZ m ( m :.W R } ~ &XFX5Xk r.G.5.[. X{.{.`.;.7.i.M.uXi.` M.hX' } (.Q / M ;.L.| +.C.7.8.d.x.x.b.' r &.G.j.i.l.s.6.Q h .._ O.J.j.p.i.` >.}.N.5.6.W T w.F._ E :.].[.].W } 6.Q ~ (.$.O.j.s.i.i.5.} 8.h.OX5.x 3.D.].`.<.O.' +.@.' 7.kX|._ V.D.O.+. .X.L.4.W 2.C.} W D.v.u.' R.^ T 2.OXp.H.:.!.{.D a c ..O.5.pXiXh.i.oXzXs.+.7.X.R !.!.%X;XU.] h.n.4.O.u.tXtX.X4.W 6.O.| | W ] &.R.R.&.#.e.-.T._.-.} C.%.a M m 6 / C.4.O.4.OX6.h E D.c.g.K.G.j Q -.$.,.f.M.5.2.9.5.N.E ` (.,XmXR.] | +.5.z.n.p.b.p.| O.#. .l.n.` V.zXVX}.>.n..X+.3.oXh...!.E.C ).T.:.r.@.O. .k.I.$. XBXBX!.Q T +.h U.%Xy s {.|.W  .b.v.v.b.+.R ;.-.g k U.Q [.zX0Xd.D.7.E O.k.3.R h &XE.4 e _ _ ] | p.iXB.'  . .3.} h.s.4.| :.|.",
"X.t.;.] !.&.>.[.J.v.jXD.R m y k c ,.B.;.s k C.s. .B.`.`.wXK.0Xu._ C.;.#.OX9. .5.b.b.b.4.| 7. .8.OX| x C.[.N.V.' 2.G.g 5 U.{.|.C.t.W E 7.J.n.l.J.m.F.).( m -.B.p.m.p.i.s.@.@.K.i.} (.[ W ] R.ZX<X~ g M R.B.D.[.@.[.pXtXv.j.p.x.j.s.W 6.].B.B.s.#.U.R.pXiX4. .5.4.L.[.,.F.F.3.b.p.| (.R.&.G.k.R  .B.l.u.H.'.r.8.5.u.K.gX} g t.D.Z.NX-XQ x ..,.x.m.n.$.f 5 a >.7.+.B.h 3 $.J.iXJ.$.:X,XT.^ 8.OX8.E | ].y.-.Q.M r.I.,.K.F.R T t -XZX|.W l =.s.+XD.X. XQ * =.k.k.} W Q Q !.;X%X).^ ^ -.R.%Xm g ^ nXbX}.`.Q p =.t.]._.W.,XU.R.#.$.`.`.K.i.E 3.XXyXc.d. X;X&XS k ZXPXV v r.W ' 0Xg.x.pXk.! T.k 1 W s.s.[.NXZX{.r.]._.:.q.#.O.L.~.(.t.t.].] W.W.p ~ r Q e.} x w.Y.-X5XC ] B.G.C.>X;X!.~ U.-.B.i.i.tX@.x p.iX' | B.o.^ ^ N.H.' 3.e. .+.V.x.j.m.+.j q.OXv.i.n.z. .Q Q ] O.d.b.x.n.5.W ;.].H.4.} R g ..r.E +.6.).{.w.} | | ^ k Q w.p.j.s.8.5.3.3.D.l.OX5.| j.l.w...7.a.| a.V._ :.|.#.+.p.p.%._ W y.F.} W 6.B.+.} J.c.@.$.=.X.o.e.P.i.F.T./ &XC n v ..$.u.pXoXz.j.oXn.i.p.B.X.^ ( C %X^.Q R 8.k.a.O.u..XyXv.' R 8.3.+.7.x =.r.|.!.k a.l.| -.).U.' L.] e Q Q t m F.i.@.K.@XX.E ` s.j.x.tXO.r Q Q %.,.f.d.W W h.5.N._ ' R.%X7XQ.;.N.d.3.h.j.i.j.l. . .w.O.u.J.W #.VXVXD ' J.n.| } +XG.R.-XZ 7 / ).).:.w.a.6.7.J.d.[.BX,X%XQ R 7.=.&X&X7 C ).C.+.4.g.M.9X9XO.` :.R.x Q _ ..NXNXS.i.k.G.| O.l.+.p =.W.n p g @._ ` ' x.9XV.;.X.3.s.W R 6.#.W >.nX",
"6.C.X.x E.<X`.[.H.4.iXJ.j ~ m ; ' wX[.[ ~ &.H.n.3.} R.{.@XH.m.u.O.w.] q.P. .} +.l.i.p.u.| 7.8.G.OXE x r. XA.<.#.B.o.4 < U.BX X].q.R o.6.s.k.N.L.n.G.^ y y Q.e.i.c.m.p.u.5.+.u.O.R ! #.;.{.,X,X%XU.k ).R.| F.[.Z.L.0XtXv.b.H.j.z.6.o.q.w.| a.s.B.R.:.m.tX+.} h.K.[.Z.$.Z.].+.m.p. .].-.-.G.5.R W s.p.@.K.[.;.o. .u.0XgX` R C.[. X:XU.Q E ' f.x.tXK.w.~ E.&.A.5.D.8.x c N.K.j.OXO.U.E.T.-.6.F.#.[ `.{.Q ^ E.C :.F.p.H.#.r ^ k C Q.].` < ] w.P.C.:.R.< 4 ..B.s.6.q.-.W `.`.R.).^ T.-.).!.^ g ^ {.:X:X}.&.g (.-.] _.%XE.U.(.$.a.$.7.iXj.R 8.XXyX5.7.`.%X3XA m ZXKX7 k `...` 0Xf.x.0X7.X.).m r -.s.d.eXBX}.`.C.q.q.q.e.O.O.Z.:X!.j -.OX6.!.%X^ Q T -.D.+.3. X;X&XV m =.a.[.;.;XE.Q.k t k B.h.5.tXl.O.p.c.a.O.+.y.^ Q V.p.O.k.6.6.7.Z.d.i.n.5.W 6.pXv.+.l.OXD.] x ;.N.V.g.g.K.3.R | C.H.s.o.R j r.`.] D.6.).).q.s.s.o.] Q W F.P.a.[.#.3.3.5.s.i.OXl.5.j.j.W W a.a.O.V.L.' -.(.8.5.p.b.'.`.R t.C.W } 3.7.4.+.n.n.5.$.E | #.7.D.3.e.^ y Z ( ( &.=.<.V.J.l.k.k.j.j.p.b.D.X.T.~ m T.|.`.E 7.D.V.,.u.tXyXx.' ` 8.| u.s.p ..].(.m g H.m.| (.!.M O.L.x x 6.o.t ~ F.u.x.pX[.X.W W | i.tXtXO.E Q Q '.[.a.$.p R P.s.a.` O.r.( -XT.;.S.H.5.3.3.3.j.k.3.e.].$.$.;.R ` VXeXz ;.J.@.x [ k.G.R.( 7 V Q.;X).-.X.3.w.6.V.I.[.}.J %XQ } B.>.&XZ b Q.(.7.k.k.p.M.9XaX5.` ;.{.] ! ;.|.AX^...N.6.C.>.%.V.| x r.&.M Q | V.@.E ` 9X0X].`.6.3.k.3.T } t.R %. X",
"3.8.F.c b <X X[.F._ b.u.Q E.C v I.cXzX%.R.=.b.m.8.-.R.R.].k.b.p.@.| x r.].| W | a.4.p.n.3.5.D.D.P.E W A.;.A...#.w.p ; > J ZX[.F.-.] -.} 3.B.`. XD.D.^ C S E.6.h.c.iXs.+.i.i.u.u.3.2.7.r.,X4XE.!.;XQ.7XT.c `. X[.b.XXyXm.I.L.s.P.e.} W E W 7.i.z.e.7.0X9XO.3.n.OX[. XV.[.].| x.c.c.OX+. .h.h.+.W +.i.u.b.L.} W } j.m.@X| } [.BX:XU.M Q x O.x.v.tXn.N.R.!.R.`.4.J.C.x  .D.' @.gX .T r o.;.6.`.}.ZXZXU.t t b C M ;.p.K...t T ^ m M ].O.4 R.(.`.`.`.x x l | 6. .8.C.].W #.C.X.o.&.{.r.q...R T o.(.{.;X!.-.! _.Q W {.1XE.M T.A.$.' d.pXx.x a.iXtX| +.`.Q.&XS y -X5XV r T.] E K.u.f.a.x T.).^ -.(.a.[. X{.' Z.r.} 2.2.e.` [ :XKX,Xt T G.D.R.!.-.2.q.e.s.s.7.].%XV < m ..$.].R M E.Q.s 5 k D.c.5.XXm.x.p.n.P.` R (.~ T.].i.j.oX2.6.%.'.[.w.D.G.o.! K.n.x | [.[.;._ :.{.}.`.d.[.q.j E N.d.s.] R X.].:.>.[.r.!.&.7.J.D.3.o.2.5.pX[.A.|.>...#.i.4.O.n.K.5.h.l.R W e.s.3.H.I.| | X.e.3.u.V.BX;Xg _.C.| 7.5.O.i.3.s.j.j.d._ 6.7.} 3.O.} k k / ( T.(.Y.c O.D.a.@.s.i.p.u.V.7.+.F.(.E _ [.#X#.e.B.d.p.u.XXpXu.| 3.7.` p.D.a %.[.] e Q K.iX3.(.Q.v $.H.x -.F.o.r k 8.c.pXgX].:.#.| ..C.K.p.u.7.` x BXBX>...e -.[.l.4.| 5.q.m C ] 6.I.p. . .} | l.k.6.].@XA.{.*.j -.AXrX[ [.@XO.p T.].F.=.v m Q.!.2XR.[  .3.s.7.C. X X^.Z &X] e.w.] U.m M |.w.7.OXz.u.M.tXiX3.` (.{.&.T.R.ZXKXA E.>X..`.ZXbX(.`  .B.c ] q.+.b.H.c l 9X0X>X2XX.3.s.G.R W (.h _ L.",
"h.i.F.E n Y.A.@X].` d.` a C E.1XhXvXlXZ.>.$.b.c.7.r.~ v -.G.D.4.B.| E r.e.} E c #.' 4.oXp.5.5.s.L.' | C._ w.c u x 5 5 = &XZXB.OXt.(.-.W X.q.2X{.B.P.(.Q.7 C q.5.h.+X3.` 5.l.x.j.i.h.5.`.,X&XM &.Q.-X1X~ v `.NX'.m.XXv.m.[.A.@.F.X.j x Q [ @.5.+Xk.l.aX9Xp.l.OXD.(.nX'.Z.;.| 5.n.j.n.P.k.5.n.l.O.+.i.s.s.J.+.! } j.c.k.}  .[. X=.x Q g l u.tXv.tXm.s.{.U.R.'.d.J.w.x s.7.3 ' @X .T 1 R w.-.-.1XPX,Xy y m m M r Q V.[._ g -.^ m k C.s.h ] -.r.]._ _ [.` | e. .8.e.|.] ` e.3. .(.{.B.5.8.} R R (.>X>X;X:.-.-.g ] NX2XC k Q ].4.u.pXiXx.W +.gXx.} 6.(.T.A S m Q.8XA y m W _ P.O.O.$.-.!.~ k _.;._ S.}.x | P.q.o.2.2.2.x ] ZXKX&Xy j D.4.-.T.q.6.e. .5.J.+.R s 7 4 s l >.(.e < !.{.x k Q OXXX5.j.v.v.p.@XzXE j R.M ).].i.tX.X2...%.[. X..6.F.o.g 5.H.p ] [.L.F.;.T.1XbX>.a.@X;.h E #.i.u.' E F.@X..|. X(.U.p V.K.l.3.9.9.j.iX'.{.:.(. XC.d.u.| b.OX4.3.z.+.| O.G.s.P.%._ w.! e. .a.'.ZXQ.g (.7.3.k.3.O.u.5.i.p.m.0X' ;.w.` 3.#.x g ~ / T._.T.&.l W #.`...| 7.i.u.'.%.| G.[.| | gX#Xw.w.4.d.p.5.tXK.4.5.s.7.| h.n.' A.[.E p `.m..X6.-.Q.~ 7.p.| G.k.6.k t 5.pXgX[.`.:.Z.4.] ].4.' d.N.(.Y.;XR...>.v {.F.l.u.O.3.e.m t W B.I.@.} X.] ' l.z.+.Z.@X].1XW.v |.AXeX`.F.Z.c e -X XZ.;...-.T.R.:X-.W 3.0.4.w.`.{.>X!.&X&X] P.q.x v =.C.[.O.3.J.5.@.0XpXK.| } R.H U.:X;XZX3XA 4X4X&.nXIXmX&.W 3.L.' | 8.} p.gXE l 0XgX1X;XX.8.s.G.` Q T.4 x H.",
"c.n.7.` R.c W @X#XX.| c 3 Z 3XbX0XfXlXw.' a.m.j.| -.~ M j ..B.3.D.3.| B.5. .' x ] l _ D.n.i._ %.L.@.%.`.| ' a 5 _ | >.3 %XbXB.OX[.`.~ R o.-.2XR.#.F.:.m * V (.3.0.G. .R +.J.m.p.5.s.D.Z.R.M :.] k -X!.M M R. XN.n.XXx.L.>X*.' e.o.g k M ^.`.3.n.h.n.aXc.c..XOXw.U.<X>XR.] -.;.].4.5.e.e.3.J.n.p.5.5.+.7.P.+.o.} 5.n.+.W 3.l.u.| | E a _ M.yXc.iXm.D.(.Q ;.Z.L.L.#.` 6.c 2 ] [.} Q 1 g r.-.!.ZXZXU.m y m ( M g ^  XkX|  .].T y p e.s.| } X.| 7.O.p.oXh.3.B.} 8.e.R.U.&.(.k.e.`.`.j.j.+X3.j h :.|.`.`.-.X.^ t ..6XU.M ^ R 8.z.iXsXyXv.+.| @X4. .C._.!.b S m Q.P P A k ~ ..[.E E `.1X;X^ Q _.j D [.(.e i.OX .W X.} o.h ~ 2X,XC m Q V.4.(.T.q.C.].x 3.+Xe.e < / k e a >X;X; < / #X%.x W iXXX5.5.v.tXa.;.|.R _ (.U.;Xw.i.iXj...E d.I.r.W -.r.^ t O.J.x .. XZ.J.F.W.4X1X' p.K.| R ..| 4.s.' E L.F.>.NX(.(.p e S.iXj. . .5.c.iX[.R.*.NXkXV.b.i.' V.[.u. .n.h.5.W q.F.C.z >.].} q.! C. X2XU.~ _.3.+.h.5.3.u.5.5.4.M.0X{ &.{.r.C.C.' W &.U.Q.-.T v Q E =.AXbX] 3.p.d.`.:.' s.k. .5.gX[.| }  .H.i.@.iXd.4.l.i.4.+.j.oXf.L.C.E c [.m.m.t.).%XU.w.k.k.k.5.8.Q 1 5.zX'.}.R...F.O.W (.` E w.`.AXZXU.g ' { *.{.B.l.d.3.+.e.~ 4 W ].[.A.o.t.] ` l.oXO.s.P.A.bXW.Q $XlXwXB.6.%.p m ,X{.:.B.s.B.r.T.{.(.} 5.l.8.;.(.{.2X/ 8XZ ] G.;.h E Z.OXk.'  .3.` $.[.[.k.W ] k > E.4X1X,XU U HX%XW.LXAXU.Q !  .@XN.`  .` 4.[.D c 0XwX;XE.o.k.k.a.W M C - W s.",
"c..X| %.'.` R @X|.;.W _ u %X4X^.0XxXkXW O.b.n.i.' [ ~ / g h ' d.j.5.5.G.s.7.=.g g c ' l.oXi.l _ [.V.;.].F.l c >.[.V.[.c U.{.[.OX[. X^ g -.-.T.&.#. .x k 6 b t.0.9.e.X.R R F.iXp.i.B.[. X[ =.@Xe.Q R.M ~ ~ =.] 7.n..Xb.[.>XU.#.7.t.T k &.ZX>X+.3.i.gXzXi.v..Xl.' &.U.!.(.t.! &.(.@.u.h T 6.k.k.l.4.7.R X.r.] q.X.3.k. .} 3.p.i.k.7.} l { pXyXu..XK.[.Q Q #.Z.[.B.#.#.C.`.k M |.`.-.r r r.R.ZXPX=XM t y / Q.~ ~ ).BX'.D.D.].Q M k 7.s.7.k.k.| W L.n..X.X .w.} 6.q.v E.%XT.q.9.;.r.j.h.j.5.j &.R.:.X.w.} -.^ k (.{.s / _.R 9.OXdXdXyXtX5.} F.7.4.F.).%Xm m m ( S P ( m ~ -.|.x x ].).R.-.-.Q p O.L.W g z.n. .! X.R ] Q ~ ~ &.T.&.E a.H.#Xt.X.e.`.e  .OX].h e (.T.< C PX=X; - r gXd.R } pXc.+. .v.dX@.j ~ g E `.Y.;Xw.h.iXl.] c wX,.' Q {.!.m t +.P.c ]  Xr.e.].W.,X{.%.b.p.+.| X.6.O.D.' _ @.O.{.>X..;.4 l f.M.j. .3.5.x.pX[.(. XkXL.l.d.' x V.gXi.| z.j.z.R Q `.` f bX#X9.q.W `.>X!.).^ q.3.+.j.p.i.i.5.5.@.M.pXZ.:X2X(.w.w.} X.;.T.&.! T Q ] W :.IXLX=. .n.b.>.>.<.B.8. .h.pX@.l ` +.D.| O.P.| O.l.5.a.@.J.pXS.wXw.x | gXm.b.(.).&XC -.F.k. .+.B.Q 1 k.@X`.>.E ..V.| o.-.x x T.ZXLX<X/ ^ %.{ *.;.7.l.z.i.3.B.T.t T ].[.$.W :.-.W 5.J.4.b.K.N.1X!.W P.zXK.| o.;.&./ %X~ ] L.j.p.[.R.T.R.q.k.oXB.>.R.R.T.m V C o.3...c @.OXm.i.+.5.} W `.`...X.W Q 2 @ 5XHX=X&X&XJ J n mXLX^.z Q ! X.[.$._ } | O.N._ _ I.[.%X6 j k.s.7.x M b 5 t.3.",
"v.m.O.$.OXi.| ].|.;.| ;.M !.R.A.0XhX#.R d.m.n.p.@.O.[ v m U.' b.c.h.h.k.5.6.=.u p #.8.h.oX4.c O.a.V.;.].@X` a.zXpXu.L.%.z >.F.l.s.].~ r -.-.E X.7.` x :./ r X.G. . .o.j e [ J.j.+.;.:XZX*.A.k.5.q.X.h Q Q x p B.n.n.J.[.!.Y.r.+.;.E -.{.ZXnX6.W Z.VXNX$.K.pXs.W R g ] ;.].W ^ Q @.P.4 1 =.-.`. X`.] h -.R.&.T.-.=.:.X. .3.p.c.j.3.3._ @.aXyX@.i.I.[.k v ..L.L.7...(.NXAX~ m 1X;X~ j j (.{.ZXZXQ.h 1 y m U.~ Q.2X|.N.K.l.].{.!.M O.u.5.5.n.s.a =.7.J.i.W ;.`.e...4 Q.-X~ o.8. .7.b.p.n.k.W `.2X-.X.F.;.&./ ( !.U.1 C -.R 8.k.x.tX9XtX0.! t.;.k.F.Q.( ^ ^ T T.7 A E./ / ~ :.c ..|.#.X.t.X.} O.l.D.} W l.D.2.o.q.| R :._.j W Z.r.| s.L.[.t.#.] v ; ` @X@X` p R.(.4 %XPXE.q : 1 V.x.| 3.pXj. .3.v.tXp.| Q r h >.T.|.B.i.P.B.` =. X>.=.~ ,X-Xm r ' a.c E (.~ ~ -X%XE.R.Z.K.f.p.7.} Z.O.a.@.O.O.| :XY.] ] 4 ..,.f.u.+. .i.0XI.{ `.BXA.n.oXs.a a d.pXd.| s.j.OXR j (.g H ZX[.8.} ! ).{.] :.Q R +.i.b.p.j.j.5.i.u.iXaXBXPX1X(.8.6. .3.s.%.]  .o.X.X.o.} BXnX]  .XXv.a.N.I.@.X.! k.@XO.E  .5.k.W 4.H.x O.D.5.7.O.V.wXeXBX7.E p.aXv.u.=./ ( m M `.t.R  .B.Q 1 3.J.%.c E e.B.#.T.~ j h E.KX<X&.~ T.w.7.O.' 4.x.c.i.5.e.t.j g ].@X' j o.y.W W C.u.K.I.$.(.R.#.F.hX@.x ] r.:.M ~ Q X.H.j.j.H...~ U.-.D.J.w.:.*.v j ~ m k .. .} | J.oXx.p.h.z.3.q.>X:.h ..-.k * : HXJX&X=X=XC i !.PXZXR.:.;.o.} r...E  .3.O.%.c >.kX}.E.- j C.$.O.c ~ m M C. .",
"J.gXa.+.pX.X .[. X&.E w.R.] O.H.0XI.x o.h.j.z.i.l.4.;.v C 1X[.m..Xz.s.3.O.#.=.p E e.s.h.OX| ' V.' $...'.gXd.gXgXb.n.'.%.E `.#.7.| 7.Q k Q Q 6.B.s.| ` ].U.g q.0.! ! ^ M < a 7.l.+.-.*XZX:X>.4.h.k.e.| W Q j h B.D.l.[.}.M Y.A.| } E (.|.>X>X].W {.ZX).` l.oX3.` x t.@XD.OXW -.W b.gX< @ j T.:XbX;Xh r (.{.T.v Q ~ T.X.} p.m.c.5.5.+._ b.sX9Xu.O.D.q.r k ] Z.a.s.#.w. X{.~ U.mXJ m ~ x T.*X<X!.R.;.Q ~ r -.T.Q.U.g 4.n.k.[.{.U.&.$.u.s.i.oXG.p M =.B.k.W ;.].r.E 4 E.E.k t.e. .s.0Xf.K.s.} |.2Xk ..B.`.-.g m %Xy 6 y h X.y.} | u.x.XX+X! -...J.[.~ / ^ ! W (.V S Q./ / ~ k v }.].#.6._.t.i.c.x.l.G. .s.D.o.o.e.q.x :.|.W O.B.D.8.7.F.C.w.[.-.y * x D.pX| p r.`.h HXHXC E.S t O.b.3.5.oXp.3.5.m.x.p.gX-.k h *.R.}.N.| w.;...'.}.{.{.m %X5Xm r l D _ [ U.r m %X%XU.'.H.iXx.p.s.| F.O.' d.S.O.;.2Xp q.` e w.S.@.@.5.3.l.iXd.[ NX X| .XoX$.a _ b.l.i.| 3.j.OXQ ^ (.l %XmX[.5.R -.).T.Q ! T R  .K.OXp.i.b.5.i.p.iXiXVXAXW.%.8.e. .3.i.s.|  .6.-.X.2.| Z.%.%.s.tXtXd.L.d.O.o.o.e.3.$.@.O.k.z.| n.b.h 7.l.3.3.| >.'.AXSX$. .v.tXtX5.Q ^ / y s {.r.x | B.^ 4 ` s.' ' | k.B.#.~ k Q p &X=XY.nX{.-.N.u.@.@.@.x.j.i.7.q.t.R j C.@X' R ! t.R g ;.f.K.L.] Q -.7.D.L.c R -.B.#.x k -.e.7.k.m.p.R (.Q.&.B.s...=.&.a g :.Q g X.+. .5.OXx.p.x.j.h.3.F.BX:.g -.Q.4 + N JX3XU 4X4XE.Y.ZXLX<XR.[ 6.X.x =.] R 0.k.V.%.9 ~.BX{.( 1 Q e.#._ _ _ a &.#.2.",
"!. XD.p.c.J.4.r.{.&.l 7.w.@.7.D.H.V.o.8.s.i.h.j.tXu.F.] 3 R.0X9X.Xk.w...].r.| ' | B.} O.OX| @.[.` ] c [.zXK.{.}.p.J.{.v | ].2X*.' W ] j j :.9.D.J.i.3.B.-.j X.e.} o.T.m - 5 c r.-.{.;X*X*X;X[.p.h.z.3.} W h E ].B.B.|.&.> `.N.3.| | ].`.;X:X X:.!.W.g | i.oX6.W !.ZXlX0XK.W } c 9XhXe + 2 U.1XZX{.x X.-.,X%Xx -.~ &.o.} n.pXx.u.i.4.| x.sX9X@.V.G.R g m v %.d.n.j.K.V.| E &.-Xm m Q.!.Y.=X%Xv 6.G.F.&.r -.).Q.k l $.K.l.B.#.;.$.a.I.'.'.K.D.k y k &.F.| $.{ :.M b Z m &.2.9. .L.wXg.M.P.] ;X-X2 p `.Z...g t / 1 C m x (.-.W W O.u.XXOX} &.-.oXOXv m Q } k.kXb S / Q -.Q y W.|.[.C.q.:.`.OXj.j.iXG.o.h.l.T o.(...u `.t.R } 7.l.J.6...$.Z.#X{.V 1 x D.iXi.p :.].R.KX5X4 T.V m `.d.i.h.oXh.5.+Xj.p.i.sX#Xg p Q.>X>X;.} :.{.$.].(.T.1X( E.&XV y &.' | | ^ t m ( !.R.L.n.yXv.v.j.+.s.4._ d.@X#.(.!.k `.} W V.K.a.O.@.a.D.K.O.{.ZXw. .z.J.#.' D.p.i.h.O.4.z.@XT.~ :.R.4X,X].k.j ~ !.M q.o.T R O.iXhXu.O.b.4.s.j.x.v.K.A.=.O.3.6. .5.p.z.5.W ` ..;.2.3.V.@.{ pXtXtXb.@.O.O.X.! W R N.@.| k.j.p.tXx.E D.l.+.3.;.}.:XZXnX$.p.x.aXc.i.^ ^ / y m !.] W i.s.! t W B.' ' @.P.k.| p k T.M A Z >XAX2XR O.p.@.4.s.D.z.s.C.(.(.] j ].gX5.X.^ Q.T.k :.@.[.`.).).-.D.d.@._ ;.o.3.O.R R C.B.#.Z.7.O.W  X2X~ X.e.] *.R.a W w.] l $.7. .k.z.5.4.j.z.5.3.k.[.` r ~ Q.< @ &X4XU &X&XQ.Y.*XAXZX{.] x 6.X.v &.] X.h.z.K.$.M ZXbX!.( t ! 8.#._ [ &.v c ` 8.",
"s R.[.k.3.k.@.A.{.*.W s.4.+.8.s.' V.B.s.s.3.h.c.tX@.V...c `.0XtXn.k.6.;.|.`.6.| 3.| < W D.@.p.L...] c [.jXp.Y.^.s.G.&.M t.$XZXY.N.| R Q ! q.3.D.oXj.p.5.-.Q o.e.| (.&.e < < Q (.-.T.!.H %X*X XF.n.z.3.} ` h E ].N...;Xf u `.H.3.+.a.gX'.Y.;X6X{.E.%X&.#.3.oXG.=.>XBXd.pXpXc ' ' qXhX*.< * M :X^.D R.;.Q mX*Xv q.-.] W W oXpXn.u.c.p. .b.jXx.@.I.8.W g m D `.I.4.x.iXOXO.W ] U.m U.1X!.W.&Xm R  .z.k.] k R.2X/ ~ _ $.NX[.s.4.s.V.u.L.eXeXK.J.k y 1 v ].4.O.{ [ M &XZ M T.-.q.#.B.V.@.x.P.-./ Q.s 4 ] [.F.-.k y m / U.R.`.T.^ Q o.p.XXOX .-.=.pXOXj U.W 6.lX].< V U.! X.o.E.-X`.[.].] -. XOX4.x.j.2. .s.J.W Q (._ ~.NXq.R ` 7.n.z.R W '.[.[.(.V b R s.pXi.x =.[.NXKXP k -./ / ;.I.l.i..X5.3.j.p.p.p.pXOX` g / 1X:Xr.} ).2X_ [.r.j / ( ( C m r =.$.3.8.-.g M M {.`.4.x.yXx.pXpX5.i.l.| p.H.r.(.~ R.t.W  .z.b.d.$.;.$.N.J.O.ZX1XO.s.D.4.W 6.[.4.i.5.i.l.5.[.T.k ~ 2XmX,X7.P.j M U.R.t.! T R @.pXzXa.O.P.B.4.l.p.u.P.V.a.b.k. .} 5.j.j.i.| #.#.X. .5.D.c O.pX9X9X@.' O...y.T j W C.` E 6.h.j.pX9X4.@Xb.| 7.`.<X<XbX~.V.b.9X9Xl.7.^ ^ ~ v m T...| K.D.W r E 7.| ' s.D.B._ Q &.{.U.6 E.bX}.(.R O.b.k.+.B.D.l.G.Z.r.|.:.j ].gX5.| ~ Q.%X-X2X X X;X1X2XT.F.P.$.| q. .+.| } ! 6.F.;...} E ` @X{.~ o.t.;.:.R.a | P.Z.$.V.a.3.z.0.i.j.n.s.a.F.G.V.@.R T E.< 7 4XU q C m k T.:XmX{.`.=.` 7...p M =.q.z.n.m.Z.1XKX{.R.~ t o.G.A.[ &.Y.Y.z ' B.",
"5 v :.].O.4.$.V.].%.| k.i.+.e.O._ a.d.k.s.O.h.oXm.,.;.c ..[.pXc.k.5.+...:.R.;. .s.} ; &.A.a.d.B.` j E gXjX@.U.;XF.k.k M `.|.).Y.[.@.E W 2.k. .8.oXj.j.5.-.~ ! X.-.|.:.Q e t #.t.~ ~ Q.!.1X*XbXBXI.j.+.} ` x ` [.`.*.!.f c L.b.i.5.k.iXL.Y.!.`. X!.;X2XR.} +X$X#.$.N.g.jXH._ =.' b.K.;.e * a '.{ v 2X(.T.ZXC E | e.X.R W J.K.a.@.tXv.O.l.sXf.i.oX3. .g k ~.[.N.a.lXhXgX .} X.v m / ,X{.!.U.k R 3.J.k.R p -X,Xy / Y.}.SX XN.i.m.K.a.'.NX[.m.J.g y y h F.@._ <.| ] U.e -.(.^ -.E ' b.u.p.7.^ k (.=.< v P.oX@Xo.r / T.-.A.[.r._.-.R j.pXpX3.] =.hXn.Q T.W 6.kXQ 1 / T.W ..t.).T.W [.|.[ ] #XB. ..Xj.! } s.u.} ! (.`.NXNX..T E 3.j.n.g o.NXBXI.r.m m x 7.[.NX{.~ R.bXmX=XT.Q ^ j } OXj.c.n.5.5.z.3.O.f.pXpXe.m y 4X;XN.| 2X!.l H.8.R t C m m ^ -.;.| s.P.q.W ] ] ].w.O.V.pX0XBXBX3.5.J.i.n.4.:.T.W ].e.j 5.j.j.J.>.[ ..%.L.#.>X).O.l.B.E j ].'.' 5.5.j.iX5.P.-.k v -X4X!.7.+X=.Q >.].G. .R E i.hXBXA.O.H.` | l.i.`.`.D.5.v.J.W E @.p.5.+.O.Z.e.| | s.s.W f.0XwXkXd.a.%.] e.! j ! Z.E x B.z.c.tXm.s.gXD.| ;.{.=XKX}.N.V.pXaXhX#Xt.^ ^ Q ! h -.$.f.pXH.W e x %.#.+.l.P.:.&.`.~.{.U.6 %XR.%.#. .j.oXl.+.O.a.a.D.F.Z.|.:.j t.J.u.=.~ Z A ,X1XbX1X*X-XQ.~ r.F.%.#.q.X.| O.5.3.} r.;.E R R  .F.] Q ] -.| ;.^.D O.l.D.V.V.u.3.n.5.j.XXn.k.F.].;.a.N.] Q ~ y Z =Xn a v j R R.<X*X>.].#.| B.` 9 s R q.k.j.m.[.ZX4X&.q.^ g q.B.$.D W.<X1X*.N.D.",
"p v d R.:.W _ N.[.| +.z.k.3.e.W _ a.u.f.@.O.s.pXK.a.| a | gXoXp.l.3.O.} v v c | J.4.h [ _ #.$.#.W p ` oXdXi.!.*X].B.p ~ _.(.a `.[.O.` } 9.k.W | J.j.j.h.-.^ W =.R.|.;.r.E -.q.R r / U.;XNX{.1X>XP.j.3.| W R } [.`.R.&.&._ d.x.j.s.d.tXH.T.Q.[ #XT.U.1X-.R k.F.O._ ,.pXpXV.c l *.V.b.w.j p p 7.w.R.2X{.|.%X> ] 6.G.e.! o.d.b.O.@.dXyX3.s.pXp.c.z.+.X.Q h %.[.A.NXCXzXiX+.+.e.j r ~ U.R.T.-...W D.OXP.-.t =XZ y U.Y.bXZX>.B.j.tXm.$.`. X,.K.OXy y / &.C.O.D S.F.o.Q ~ r.-./ s x ' b.x.u...&.^ `.W e -.L.x.OX8.T T.(.%.a.I.w.t.y.j +.dXjXi.Q =.jXm...(.X.y.t.g y ( _.W } q.:.g h [.|.[ ]  X#.+.pXH.W o.C.7.q.o.(.6XNX[.] R R 6.h.z.j q.lXhXiX@X^ ~ ] w.~.ZX;Xe &.:X4X%X&.R Q ! 8.k.p.n.5.3.p.k.8.d.0XaXn.e.m Z =XE.[.7.;Xy _ I.5.o.t S m j o...' | 4.k.3.X.` C.w._ ,.K.hXS.BXBX3.j.n.m.oX@.Q Q X.G.6.j +.h.h.OXA._ _ $.[.;.T.).O.s.#.5 g [.w.' 8.i.j.pX3.G.:.Q k U.%XT.G.l.w.` L.@Xk.8.W W x.jXBX`.a.l.E #.OXa.T.~ k.u.v.iX| W 4.l.| | O.#.7.' ` G.8.O.I.kXeXeXwX[.:.] k.} R -.].` l F.K.x.9Xf.' D.k.@.`.U.&XLX`.V.a.zXlXlX X^ ^ ^ t.o.r =.a.0XaXd.E p ..%.w.P.P.@X=.&.'. X{.&.6 m c 7.V.i.J.l.3.+.| O.+.7.G.P.].;.j :.P.gX`.&.Z A b -XmX=XW.%X/ ~ ;.A.O.C.6.6.@.u.n.s.] ] ] W ` } 8.7.x ] =.] o.`.ZX}.s.k.s.B.F.B.5.n.j.XXXXc.P.].-.E N.a.| o.T ~ %XC Q ;...j h (.4XJ =.B.} R B.>.M u h e.k.i.oXkX=XA ] r.o.! t.6.$.&.3X4X:X~.Z.+.",
"e R.&.Y.!.M u [ ].x +.J.l.5.k.R E s.g.f._ O.d.K.V.O.' _ _ J.b.j..X+.' ;.M 5 u _ D.l.| O.E | ] x E x O.j.yXOX%XV =.r.r &._.Q u >.L.' ` 3.5.5.W ` s.z.j.k.X.~ o.(.{.~.;.].#X|...g m / m ;X X[.].@.n.c.s.| E x ' ].`.c _ a.O.4.b.i.7.s.tXb.v m E ].=.Q {.(.O.G.P.;.*.eXsXyXB.u = f >.[. Xj X.x x `.;X!.R.R.s M Y.] e.k. .2.3.l.O.p.aXtX3.i..Xc..X+.h =.&.l { S.{.BXzXhXdXj.h.8.x t -.o.E ` w.O._ [.L.'.,X( &Xm ~ R.<XLXnXO.B.J.x.x.' >._ N.iX[.k - Z ;X(.N.{ I.@X} } -.q.T.&X6 e r.n.OX#.-.-.-.|.j j R.V.x..Xk.R ^ `.Z.b.oXe.X.X.` ' iXjX5.Q =.jX9X$.(. .2.Q t m Q.-.=.#.6.:.g R [.].[ ] `.q.6.B.7.R Q R.R.-.R q.F.gXl.` W R 6.z.h.W e.sX9XXXpX! Q e. X1XAXU.s ;X1X*X!.&.E =.t.8.k.p.P.O._ N.O.G.@XdXaXu.(.U.,X&Xb [.L.T.1 A.S.a.;.k y k j (.Q W @.5.5.8.6.O.[.' W b.0XaXH.NXNXi.j.x.iXiX4.x R k.J.8.`  .h.5.L.C.' O.J.L.W Q (.O.Z.=.* h [.r.#.7.k.z.OXW 6.`.^ g ^ / T.B.l.N.@.gXiXp.D.` ' m.jXNX'.H.c.3.7.OX#.< y w.p.v.aX5.| u.u.' | #.h ..` E G.7.O. XBX}.}.kX[.r.r.k.} R 6.P.| W a.H.x.dXyX' | 7.+.`.c :XZXN.k.L.kXVXNXT.v ^ -.].} < h Z.hXpXx.` ` F.$.F.#XkX[.D [ `.kXkX`.k p ' $.H.4.#.r.r.`.F.+.| +.k.n.L.%.p ..I.zX[.Q C Q.y ( 4X=XH ;X~ R C.7.O.L.+.7.i.j.v.i.] &.E ..q. .k.3.| ..| ` o.].>X{.V.5.3.e.q.w.7.i.c..Xj.h.OX;.k h G.j.6.o.r ^ Q.&.r.r.;.E j |.4X7 T.C.E g 5.V.;.x E G.s.O.[.>XJ 7 &.q.o.q.e.6.N.R.4X4XR.A...p ",
"g (.R.R.%XU.5 u ;.p W G.k.s.8.R W 7.g.I._ #.s.b.H.' 7.a.E n.n.p.n.i.W ;.~ u m Q +.b.l.H.O.| ] 4 p ` a.i.j.gXE.* Q C.W -.t.j x O.4.O.| k.h.3.O.` +.l.l.8.R Q q.(.~.>.<.NXNX`.' E T.m C ;X:.[.V.O.c.v.J.@.E l E C.[.c O.p.i.j.p.u. .8.c.n.W g g Q o.! R.`.C.B.F.O.*.kXvXdXO.2 + n {.[.[.g k.+.p ].2XU.{.Q f ZX1X~ ] 2. . .3.s.5.x.dXx.O.i.XXc.n.R p R.:.$.p.d.:XbXV.iXyXc.h.s.R.k o. .R } P.| c '.`.{.<X&X/ U.T.2XmXLXSX..7.i.g.b.;.=.h  XpX[.m : E.1X*.Z.,.d.@XW  .e.q.^ &XP 2 ..D.k.` -.] =._.^ ~ R @.m.XXz.R &.[.wXiX.X3.| 7.| c P.jX3.v (.jXM.A.`.} ! T g ^ ^ Q ] X.6.q.R } P.C.] :.q.:.` ' | o.Q !.R.=.! C.8.iXp.W q.-.X.D.i.R B.aXv.v.OX} ! r. XZX4XM !.1X!.W.1X*.` t. . .J.p.gXa.O.BX&.;.[.b.H.' =.<X4XV 4 Z.D.Q g L.f.V.X.r r r T.{.=.O.O.p.k.F.q.B.C.W 7.x.tX.XH. X Xb.i.p.pXpX3.j 2.k.n.D.+. .s.+.a.$.O.m.m.D.x Q R O.kX>.* ' @X]...+.l.i.s.j W ].o.g ^ k -.B.5.D.u.sXtXi.P.O.O.0XhXeX'.pXXXj.s.D.E - y =.4.g.pXb.i.x.i.' | =.a ;.' j G.s.6.{.{.R.'.lXwX`.`.F.O.W  .s.3.O.u.wX0XdXuX@.O.7.3.$...NX X7.G.[.eXAX>Xp k T -.].] * 2 [.hXtXx.+.8.P.7.F.].kXN.z =.'. XzX[.x g ' | H.3.W :.:.`.@Xs. .3.i.j.H.l e ] d.hX[.c m %X( S &XU s {.Q g ].O. .D.O.u.p.j.v.p.*.{...#.B. .k. .O.O.O.'  .C.=...L.+. .e.-.|.7.O.x..X5.+.n.w.M k k.oXG.o.r T Q r.F.#.Q T.R.2XZ 6 `.A.p j 5.k.$.E | D.s._ Z.~.A b R.X.6.e.| %.A.!.FXFXY.A.h < ",
"x ..$.].).Q.p u ] g g t.8.k.5.W } | f.0X' #.p.j.K.@.H.p.' tXx.3.j.z.+.#.Q v U.!.O.K.pXK.` ] =.r u >.V.4.5.].V ; ] F.7.+.X.R | a.4.l.i.h.h.3.N.| +.h.J.} j ] t.w.{ ~.;X1X].7.E ] ^ y ( E.h `.B.| j.c..Xs.| l l B.J.4.p.x.tXiX@.d.7.+.p.oXk.! r T q.X.T.R.{. XL.4._ wXfXtX[ @ # <X>X].C.W n.b.c A.{.T.2Xs b mXKX%Xv o. .2.3.3.h.oXdXp.O.s.XX.Xe.h !.!.N.J.j.,.bX;X%.OXiXp.j.F.>XY.Q ! W  .+X+.z !.W.!.Q.~ Q _.T.,X!.ZXLXU.| +.m.K.|.R.T.NXI.[./ S =X<X&.%.u.d.q.R 6. .} Q C =X4XU.w. .! 9. .2.q.-./ r O.XXv.K.=.=.wX0X.Xn.3.O.d.O.r -.@X4.v ).zXb.s.e.#.o.X.-.-.Q ;.E  .} o.W 7.P.6...e.q.} ` ` | X.R T.T.T.o.t.q.K.x.$.q.! W B.w.g :.kXS.V.[.q.-.).1X4XE.W.7X2XW.<X,X>.].F.R +.oXj.J.L.}.LXE.:.#X'.<.a M ZX*Xt t ;. .T ! l.g.S.c e g R |.-.q.b.u.x.J.(.T.).[ | XXXXyXc.i.' Z.oXp.u.pXiXO.R e.3.u.l.3.3.9.#.$.' a.yXv.[...~ g g.hXa.a d.gX(.x O.K.+...j Q _.) T T r X.P.+.H.b.uXyX@.V.s.p.0XgXL.I.iXtXj.k.w.j 1 y v ' S.0Xd.p.x.x.|  ...R B.' h F.l.D.;.E c N.hXI.>.>.S.s. .3.3.@.p.H.VXBXaXyXp.P.s.3.O.H.[.A.} e.[.nXmXW.e g T _._.~ - b  XwX0Xx.5.z.d.| ] r.L.O.%.nXZX XwXgXE p _ %.b.u.j E [ >.].C.X.6.i.p.V.c &.&.f.aX[.] C 8X8XS A q 5 ).~ e r.' O.k.+.l.j.x.M.S.{.>Xw.3.3. .h.| O.$.+.X.8.e. .7.[.O.| ;.R.>X#.3.z.n.3.| j.P.~ m 6.l.k.} j g X.G.B.q.k M !.Q.1 k F.O.5 Q 8.k.%.c O.D.]._ f.V.U.E.|.#.s.8.;.=.`.;X5X&XR.:.5 e ",
"g =.O.[.`.-.l Q Q x 1 :.6.G.5.} ` ' f.0XE | k.j.p.O.l.O.@.dXj.i.i.p.i.6.W Q U.>XO.J.jXd.e x =.g c Z.d.3.7.(.< y :.[.+.} o.W 3.k.b.K.j.j.G.+.+.| 5.s.P.W j =.t...z >XZX*X].7.x #.(.m C b p ;.6.} j.c.tXoXa.x l B.D.u.b.x.dXtX@.V.].E 5.oX5.e.j T t.q._.T.;XZX[.d._ pXsXm.c @ J mXU.>.a.i.c.n.@.%.].).E.6 a !.4X,Xp ..! e.| } i.oXpXp.O.i.XXOXR.b ,X1X[.p.p.N.<XW._ OXiXi.l.[.bXY._.R R +.z.+.Y.H 0 b ~ Q ] t.~ M a :XZX%X#.5.H.L.].] 2X{.V.[.M Z *XW.R.c p.V.Q ~ C. .! R ~ b =XZX{.} 3.z.5.G.6.-.T.r 3..Xv.pX].' 0XaXpXn.i.O.u.@.j R B.X.r / @XJ.k.3.+.+.e.e.! =.`.R 8.6.-.r.@XJ.o.X.6.6.W 6.+. .e...~ ~ _.! o.6.4.b.[.` t Q F.Z.a R.kXN.%.`.(.&.!.4XE.b -X1XU.;X4X*X>X XF.R | oXj.n.gX<.*XC ;X|.}.Y.d ;XAX&.g k ..W o.6.p.x.a.l p -.).(.:.r.OXp.x.K._.).).x h.XXc.c.XX5.h V.pXx.p.K.K.+. .k.O.@.d.| 3.+.w.r._ [.yXtXL...j g iXaXB.#.P.[.E l @.K.w.E Q -.:.W T T T ].G. .P.CXaXx._ @.K.n.0XI.d.pXiXiXp.| ..x 1 / T.}.SXkXa.p.m.m.4.B.] x O.` R F.z.l.} W l ,.hXg.c D A.Z.4.F.6.O.b.d. X}.aXyX4.8.B.O.5.pXH.a.o.t.NXbX&Xb ] 2.! -.T.M : E.>XwX0Xg.5.J.4.l e `.L.O.'.AXAXeXH.@X..u &.`.Z.N.g R Z.Z.N.#.` } k.i.N.{.).&.d.hXL.] U.Z A A V b p :.&.p =.W +.D.u.n.x.b.I.rXnX{.D.2.W 3.z.i.d.$.|  .8. .| k.Z.$.`.R.!.Q.;.8.z.h.5.3.j.OX&.g } 3.O.] Q g X.P.F.:.u b E.C t ^ D.O.h &.e.8.' d O.B.].E a.kX:X1XNXw.7.w.>X!.!.%XB N R.=.5 C ",
"~ =.| S.kXN.A.r.E Q < Q #.D.8.}  ._ 0Xg.c ' u.i.4._ @.O.p.aXj.c.c.j.b.4.E W E r.3.k.gX' p Q j e ' H.l.5.B.:.C C (.t.R W W ` 4.u.u.iXb.J.kXA.+.O.s.s.D.W W ..q.~ E.mXU W._.R W ;.-.Q.( y x | | W 3.n.yX9Xx.u.' A.N.O.s.k.tXg.u.L.t.t  .J.i.G.T T X.r._.U.,X;XA.b.,.aXsXf.a q 5XZ 2 z a.m..Xj.$.{ (.).b C =.`.ZX;Xe -.R 6.} E j.tXiXu.O.4.n.F.U.&X-X_. Xw.4.C.U.s ' J..Xp.D. X{.~ -.] W O.s.].R.~ < k -.R C.#.g g ] {.4X%X>.k.V.'.].R.).&.I.[.q A b R._.e d.V.1 t `.8.! ! ^ 4 @ 3XKX!.7.z.z.z. .-.T.g  .n.p.iX0Xu.tXsXyX.Xp.3.u.e.-.W O.| r k t.D.OX . .6.F.| E _.v u H.d.~. XI.+X} ! t.2.h N.a.| s.#.-.~ -.R V.p.@.b.].p 4 ~ F.D.R.;X|.R E o.=.~ / ( m y 1XW.C 4XW.%X>X X].W ` oXz.b.jX@.a s )._.{.&.W.AXNX;.Q Q -.;.q.3.p.b.O.i [ >X;X~ ).`.].s.m.H.R.).-.` oXj.3.h.c.h.@.H.0XM.x.z.k.+.5.J.K.d.$.x O.a.B.} E [.9XyXm.| R } pXiXN.(.q.e.W O.p.K.s.} ! T ..} Q T  .OXk.} `.VXzXs.%.@.oX.XI.d.J.H.C.#.#.x ;.R p {.bXbXIXkX| s.n.m.x.d.:.v x ` ' D.l.s.B.' D d.gX@.p D |.(.W [.$.' J.+.| s.dXtX| E O.O.l.OX@.f.3.-.NXZXV C C.D.2.! g m 7 %X:X'.K.i.4.H.7.x a >XN.$.BXZX>X'.@.n.B.c bXY.~ T.p ] [.K.b.V.} ! k.5.].>XR.=.u.i._ l M C Z P Z b g :.].R h W B.D.u.v.b.L. XZX{.>.P.3.c u.b.J.s.+. . .O.| 3.l.d.' Y.;X%XM ..s.h.j.h.3.i.OX` x | ' =.T.T.r o.F.C.x < y / ~ k -.$.a...-.k.2.c d #.7.q.E nXbX*XZX>X;.` Q <X5XZ &XN Z {...M U.",
"&.-.c { gXK.F.].] x e M W 3.` O.| ' 0Xg.' ..4.| 3.7.| @.M.0Xz.z..Xv.pXd.E W x 6.3.4.B.` x &.&.p @.b.s.5.e.E p T.(.R j R o.W l.i.u.pXpXgX].#.V.3.b.@.3.| | | =.T.=XZ 6 !.T j W ;.v )./ r ..O.`  .' i.dXv.p.K.H.N.`.].7.l.iXO.u.G.W j  .D.l.7.T g Q `._.^ W.F O.m.9XsXiXO.v J Z * s c 4..X.X4.c =.R.).M T.Z.L.R.k j (.E | +.} c.dXm.+.O.3.J.w.b &X-X-.T.|.w.` g p | l.pXp.F.;.-.j W X.+.7...:.-.(.R -.o.W V.| j ! q.).&XE.>.L.].|.(.`.Q ] 0XL.C &Xe ).T.r B.w.j r ] ].o.T ! g + 8 mXmX`.s..Xk. .-.U.k } L.u.d.pXv.tXtX9XtXoX5.5.7.| ' ' A.Q g o.3.l.i.}  .P.#.] Q - 4 H.pXnX}.L.@XR -._.W E a.@.p.i.e.-.~ T e.H.p.j.gXr.v !.R.d.J.|.).6Xq.W -.(.!.M ( y ( 2XM =XmXC 2XR.`.[.' ` oXp.x.jXp.l p j _.R.m mXKXeXd.W R ;.t.e.3.5.l.O.{ `.NXU.m ).|.=.$.K.wX;X!.r.H.hXu.5.5.j.c.p.K.0XM.j.j.5.W s.I.hXS.N.#.a.B.8. .R $.9X9X9X4.6. .pXH.(.T.R o.6.O.d.H.7.} o.g ;.|.! T 5.OX5.W R.ZX X#.r.' b.pXP.V.V.[.(.-...x e.` x `.!.Y.>.$.O.3.x..Xv.I.R.M g #.+.J.D.s.A.@.,.gXzX' p &.{.R.j ;.7.O.5.| W 3.v.hX#.< l u.K.j.p.p.| :.;X,Xm T.A.H.8.T t C Z &XU. XI.@.u.D.' x &.{.A.].mX*X{.'.4.n.P.'.mXq 4 ~ p :.L.g.K.d.+.W k.D.>.*...#.4.O.l d x / ( S S S g r.[.` r Q w.i.p.j.d.eXZXbX&.`.P.i.O.@.b.J.7.X.} } +.} 3.P.V.[ v U.E.M ` 8.z.+Xh.3.3.P.} W C.c h ).Q.y T q.:.- - C g k Q W | a.#.w.G.3.c u w. .W (.BX/.H ZX>X`.x U.=X&X&X&X7 E.{.>.Y.~ ",
"=.Q 9 z I.pXa.e.X.j M U.c O.7.N.| @.0Xf.` #.7.` 5.P.x &.>._ | 7.n.x.tXb.W  .x  .7.| $.].] -.!.c 4.K.d.5.s.W h 6.C.W r o.X.| x.j.@.P.iXK.| l l.n..X5.} ..| E ] T.&X&XH ^.j j ] R.U.,X/ k `.|  .a.x O.hXg.@.OXJ.[.1X{.B.p.iXO.p.k.W } } k.F.;.Q k C ;X_.Q s u O.tXuXvXpX{ Y.C > 3 ..@.i.c.XXk.a U.U.).-.` I.L.>.h | [.` ' 5.4.yXyXc.3.| +.k.;.n ,X~ ^ k :.;.x  .3.` 4.pXj.B.j g g E 3.5.7.v M ] C.3.8.W | D.} j o.w.(.V A `.L.|.R.x &.E O.x.L./ b l [.-.r ;...;.R e -.^ T ! Q i , J 4X1Xx 3.k.' &.%XQ.Q r.(.w.pXiXD.u.m.v.oX .3.k.6.O.@.P.-.j W ! O.O.} G.kX].M ; @ i 0XhXnXD eXNXj ^ R.&.=.w.5.J.z.B.(.&.#.@Xb.p.XXk.`.!.).=.iXiX]...@X[.Q ^ ).!./ %XZ ,X~ ~ KX,XC ZX|.o.D.' O.J.p.x.dX0X' v j  Xv b KX1X[.b. .} 3.k.0.3.5.H.b.H.NX2XU.%X%X;X(.'.L.NXE.r F.sXpX@.z.3.i.c.j.x.9Xg.j.5.} } V.kXkX$.'.[.$.D.s.8.3.+.9XyXM.p.F.} $.`.&.k Q ] O.O.C.A.#...W R  X6X-.T 5.oX3.] W.4XR.W ;.W 3.gX[.`.'.BX!.U.:.' l.O.c >.>.$.' O.@.O.j.m.tXI.&.M E w.+.s.B.O.O.u.v.tXL._ h Q T.T.k Q N.a.| W ` 7.f.I.;.e c J.n.O.M.b.' w.(.~ 4 / :.A.e.R t ~ &XA M  X'.$.V.a.R E U./ (. XW.W.{.Z.4.l.[.nX&X@ 2 ~ u =.'.d.K.d.$.' a.[.#.' N.a.p.l.' _ x &.Q.S S m j 6.C.W t Q w.4.s.D.V.eXAX{.~.r.7.l.| O.l.l. .6.X.W } ` } [.`.>.*.] k v } 5.j..Xh.3. .D.+.| ].c h ).&XA j T.m * < U.~ j R  . .+.7.G.s.| h a ].' R.NX{.f 3XIX1X{.-.R.W.Z P A b ( W.!.U.~ ",
"w...u d V.gX5.W  .T / b l >.`.kX$.s.m.u.E ..e. .i.B.5 &.&.3 p E d.j.x.p.} B.' | 5.| a.[.W Q {.:.a.K.i.+.s.9.} 7.F.q.j o.+.s.XXj.@.a.K.p.O.l u.pXiX5.p ] 6.| -.&.U.;X{.=.x -.R.&.!.;XT.j X.R 8.D.l _ S.H.| Z.#X6XU.T.].p.p.u.n.h.!  .2.B.Z.=.^ m &X4X_.} u l 4.tXvXfXtXa.;.&.5 a '.I.l.z.XX@Xc Y.f U.E c P.H.A.c O.P.%._ u.g.yXyXtXi.} 3.B.' !.1XM k k k =.+.oX5.E O.oXn.8.g 1 j X.k.k.e.&.k } k.5.h.' 6.B.` j } 8.].V V `.%.R.p p :.r.| j.gXx r a.gX-.t Q ] C.t.v r Q ! ! ] [ i U.!.;Xh g #...&.C E.&.(.(.:.gXJ.| O.n.p.j.|  .l.4.' g.K.].T !  .@.O.7.@X X{.3 + 3 %.hXxX'.] ZX XQ ^ M M Q ` s.OXn.a.(.:.[.J.p.n.z.5.r.&.T.:.pXiXZ.%.P.[.! r / M m Q.,X,Xv {.ZX&XM 6X6Xq.P.O.i.oXc.v.yXtX..E | #Xv &X4X!.H..X5.5.h.z.3.3.F.F.gXkXBXT.Q.1X&XQ.|.A.}.1Xm g l.tXm.u.d.| h.c.j.j.9X9XiX} R w.].BXkX'.[.A.| D.5.l.k.5.tXaXx.p.k.| &.Y.s U.R.-.w._ ..:.....W :. X{.-.T 5.K.7.(.=X&Xm Q -.R } P. X*.>XZXn k :.+.J.p._ _ <.$._ O.p.m.x.g.iXV.v v ] r.7.V.C.| ' g.yXx.$...E x Q T.T.x w.F.r.x E C.u.d...c a.pXc.@.m.b.` w.(.j 1 / R.;.6.6.j ~ C b !.:X`.A.].C.#.] / C ).T.J *X`.L.5.l.[.}.E.: 2 ~ g ..[.,.O.u.@.O.7.L.a.$.kXa.p.K.O.#.W :.T.m m / ] ' +.| t T ..O.6.#.>.BXbX~.`.c $.D.O.| G.+.E 6.e.R x ` g r.{.}.`.=.j g X.8.h.+Xh.3.W k.5.7.[.;.W {.( A ~ U.7 @ 4 R.^ T  .6.2.8.G.k.5.| a 3 w.#.{.>X=.v HXUX4X;XQ v M V N N m / &XE.k T.",
"k.F.c d O.OXz.T W T m b 9 F nXNX@.J.iXu.x #.8.2.0. .< *.&.2 l E +.l.j.5.` F.B.4.+.+.@.O.x ] ).(.d.b.@.3.5.k.5.k.C.;.x E 7.k.iXx.| ` J.u.p.@.4.pXdX5.e Q `.w.=.-.] ;.'.| x T.M H R.{.|.j j r G.D.E ` ' '.h x {.U.2 =.D.p.p.x.c.3.} o.6.6.6.T T / 5X4X`.+.x =.' p.fXfXtXj.} q.3 v  XZ.' G.5.@X].R.3 M ; i O.O.[ c | 7.{ _ p.9XuXyXtX5.2.8.[.h !.;X).r y m ] @XJ. .' $.J.h.7.E 4 ] 6.G.k.q.&.k W 8.5.i.+.w.=.g g #.z.#XC A Y.&.h 5 =.[.`.' i..X}  .iXgXX.4 j T 6.`.).y Q t.6.O.$._ ..(.].|.:.`.<.=.M k R.>XT.x C.F.W 7..Xh.h.5.| 4.s.` 9XpX`.j o.6.O.a.P.F.:.M * , O.gXS.VX`.:X1X&.X.t.C C ] | @XgX5.s.4.B.k.5.j.n. .W X.:.NX|.S.wX<.].H.d.} h M / m -X4Xb R.6X2XM &.-.^ _.P.5.j..XXXtXuXaX' h i.L.M <X%XT.d.tXc.XX.X5. .w.`.*.}.BX:X!.).!.E.M [.;.1X%Xt y.5.XXx.O.a.O.n.n.5.H.M.9XOXW x (.bXBXkX[.|.;.| s.i.j.3.5.uXuXj.i.+.q.^.n s ;X1X&.;.| R =.} ` w.`.;.-.^ ^ C.[.r.2X,X&Xy T.-.j E [.R.F mX4Xs k &.#.J.m.@._ D c l ' x.sXm.p.0XH._ a ] ;.;.Z.L.s.u.b.tXp.@.@.X.R j T.R.R O.P.`.] x N.p.d.>.:.J.dXiXx.m.p.' #.(.^ y / U.=.8.G.W Q m / <X!.R.`.{.(.Z.=.m C U.M *XW.l [.5.p.iX[.!.s 5 E ] w.zX,.O.f.a.$.@.F.s.u.[.O.,.b._ #...] ^ k m / T.E i.s.T ~ E ' X.R %XLX;X`.[ _ Z.7.+.` B.W R 6.B.R g -.e ] :X>X`.`.r.g W 6.z.k.5.7.R 8.8.8. XR.x {.~ m / C - @ < ~ X.2.6. .5.G.8.k.k.| 9 i A.B...r.X.Y.KXFX4X<X2 e ~ M S N m ( &XZ Q _.",
"3.F.' a ' s.k.! T k k m 3 ^.ZX XO.pXpXO.l ;.8. .} E 2 R.&.5 ;.#.E a.l.5.` | s.J.3.O.O.' _ %.r.C.J.n.s.8. .8.s.B.].;.x W #.H.pXK.O.p u.f.p.m.f.pXdXi.p v |.`.%.r.| 7.s.c a u Z 4X*. X#XT g g G.s.| ..l _ e p b < v ..O.j.x.m.j.}  . .| | X.g Q / &X&Xw.i.| w.` d.fXfX0Xb.h.e.* F nX;.p :.W y.6X] e e + v Z.| E c E _ W ' b.aXaXtXx.5.3.e.#X=.M U.~ e 1 m :.$Xk.5.4.a.G.} #.o.4 ..8.8.X.x v ] R 7.s.p.u.#.E 4 g `.@X[.( 7 Z n e x ].B.>.`.O.j.h.9.oXzX] 1 g g ] `.m 4 j q.8.+.V.s.+.e.F.w.`.|.eX`.-.v |.>X&.g R q.| J.oXz.5.G. .+.5.u.dXpX=.k ! } @.wX[.` &.a n /.gXgX%. X>X{.5 c +.].E.E.] 8.gXk.+.i.z.OX3.} h.5.} W 6.:.1X1X`.'.A.[.p.O.` :.U.Q./ ,X8X< (.NXU.k =.j 1 j F.5.j.c.tX9XyXsXO.c oXH.*X=XM `.i.yXyXyX.Xu.| |.Q.H 1X:XH ;X(.R r ~ G.F.;XM 1 y.j.v.j.O.eX XJ.5.E [.g.g.D.j p |.AXBX`.q.(.] E D.oX5. .3.uXuXx.5.3...!.0 n ZXPXv | w.R ] ..].].r.X.:.m ~ (.].:.R.&XZ t ).-.} ` `./ &XZX%X~ ~ Q ;.J.n.V.c D _ c O.p.dX0Xu.g.l._ a c ] &. X[.J.p.x.iXb.u.+.6.R j =.:.E | P.;.:.x 6.p.u.`.[.m.sXiXx.p.d.O.' -.T y m ~ ] 9.$X..j M ;X-Xm W.1X&.(.`.Q m m k ~ ^.&.5 Z.l.j.v.@Xv v [ ' ] r.[.@.p.H.V.O.| [.d.@.a.E O.d._ #...Q Q j k ^ -.E iXJ.-.^ Q ..-.v 4XmX!.'.%.'.N.` }  .X.R ` 7.G.` p r.E c T.).A.[.[.R t R k.5.O.7.x X.G.| {.~ 4 {.&.p M b 7 @ @ ] [.0.9.} 3. . .G.B.;.F ^.].B.| e...).HX&X4X=X2 a -.U.V A C E.Z E.-.y.",
"` $...c ' 3.z.o.T k m 3 i nXnX XO.OXH.x x r.6.o.k u u `.] g k.7.h #.+X5.` l O.K.s.| u.a.O.@.6.7.n.n.J.s.| 6.G.B.C.`.=.&.R.NXgXK.7.h g.x.p.iXM.aXdX4.5 n bXnXV.b.3.+.| _ c 5 %X%X*.@XOX! g T G.5.5.O.u l =.^ t s :.` O.n.j.n.5.6. .} | 7.2.R ^ / P A A.n.5.B.#.L.xXuXVXkXP.' 9 ;XBX(.g x e ~ (.p &.* o M ]. .| W W ' R ` V.hXaXm.s.3.8.B.#X Xe Z 6 y : 6 T.q.3.3.l.D...g o...5 ..z.k.Q p W 6.` 6.J.oXs.} E u Q  X[.(.8X8 B q 5 ;.L.3._ |.4.n.n.3.s.#Xo.t j Q Q Q.6 4 g o.e.3.i.P.6.R F.O.D.S.BX1X-._.|.T.W q.T W l..Xz.z.} B.| +.@.v.sXiXh / ^ W H.gX:.&.(.v !.>XzXS.{.!.2XM * [ s.B.U.Q.] F. XA.6.4.l.k. .T  .} } | O.A.1X;XY.*.Z.P.u.@.O.A.T.U./ / 1 m {. Xj ^ ] g r T C.| i.c.yXyXM.aX@.+.pXL.<XZ v @Xj.XXyXXXx.D.-.2XC &X4XJ *XbX(.W r (.z.l.:.Q j e.oXp.u.N.BXBXP.5.E F.g.M.F.p u bXVX XR.(.M v E OXJ.O.3.O.yXuXj.3.D.%.U.b K UXLX&.w.3.} X.`.BX`.:.Q ^ m p (.`.o.Q Z Z t ).;.C.`.R.V =X4XE.~ v k -.P.u.$.D ..#.` O.p.pXS.O.@.d.O.g E ] &.>X[.gXn.x.iXm.p.3.6.W j W q.` | D.#.:.W O.p.u.$.Z.pX.Xg.d.+.s.C.` Q y y S / -.2.$Xt.E T.2X&.&.<X1Xj ].`.x M U.Q ] ..[ g w.J.j.j.J.j ] $.' a Y.>.' b.d.| E } OXb.@.+.x ` | _ | Q j k g r ^ ] O.pXoX-.v &.T./ E.4X&X!.`.[.I.@.| | G.} R W 7.V.| p r.C._ E ..C.@Xs.} r t 2.5.O.a.h Q [.} R.k < :.] h k t A @ 2 [.OX2.9.2. .! +.B.'.nX;XE.>.B.7.7.] !.=XU ,XU.u l -.U.7 Z Q.C y C W C.",
"x _ >._ ' 3.OX} T ~ r k R.{.>X`.O.J.a.p ` F.6...v 2 h `._ W D.l.e | OX3.W l @.gXs.+.i.i.a.@. .+.n.j.k.7. . .k.B.N.|.R.R.NXBXwXiX4.' pX9Xx.aXqXqXiX@.> H LXnXb.x.p.3.O.].*.3 Z C %.gXn.3.T ! G.h.5.s.g :.|.r 1 ~ q.+.3.b.x.l. .2.6.` O.k.! T ^ m S V `.J.l.8.' V.xXcXCXrXL...U.4X1X{.=.e < / ~ j (.* 2 `.e. . .` +.C.W j @.0XzXL.C.X.[.`.BX1X6 Z ( C V < t j ..k.b.K.x 4 W X.p %.n.z.v k t.X.| O.b.pXi.R ] a &.|.r.R.P N S V g ].n.O.e :.4.i.OX .' |.^ t R -.p M 6 < m &.e.3.3.gXE j 6.O.oXP.].|.).T.^ j x ].Q =.gXc.9.k.R r... .i.v.vX0Xg ( m ] pXb.l &.).~ ^.:XeX<.ZXQ.C m !.:.D.B.l &.;.F.$.].w.+.7.4.} T W ` ` O.@.[.>X!.;XR.B.j.p.M.f.@.(.&.U.~ k ^ 2X&.t -...W ].:.g } b.x.yXyXx.iX@.H.pX[.Z * R gXj.c.dXj.p.P.(.Q.S 3XU &XbX XZ.} T e.h.h.D.+.#.].J.i.' <.*X1X[.l.| 7.p.K.a.E R.nX[.'.{.U.e l V.gX' @.e.| yXdXi.3.F.`.{.n mXUX;X=.+.}  .(.NX:X_ |.k 1 m U.(.].X.x C Z t ).e.7. X!.7 ,X1XR._.g k -.].%.~.:X[ ` ' O.p.iXf.@.O.[.P.x >.T.&.R.[.zXpXp.x.n.l.@.w.} j W G. .| 7.' %.$.4.n.n.O.B.pXu.u.I.3.3.].E R k y y m ~ o.#X].-.!.U.a ;XmXH ..[.;.] ).(.] } #.O.R C.oX3.j.h.E ..7.$.M !.R.%.H.l.W W  .J.J.O.o.R x x | #.E g j j r Q =.$.m.m._ h -.~ A &XZ C }.Z.gXO.@.V.5.3.X.W h O.4.O.e w.'.| ' w.d.I.a.q.T.1 ! s.4.a.p g ].;.R.k 4 E [ E Q p 6 2 ].gX9. .3.5. .} #.`.VXBXn > &.w.+.| Q !.Z U E.~ h ] R.&.V Z ( 4 u ~ E ].",
"l x *.l u.k.OX} R Q m !.v =. X:._ L.N.a } ].6.E ..R x C.E ' l.k.p w.OX3.` ' x.pXs.| j.x.d.@.| $.l.u.5.8. . .s.5.u.A.{.ZXZX XI.K.p.i.sX9Xx.yXqXqXK.%.H ZXnXZ.M.x.j.i.5.[.U.E.Q.] H.m.c.k.T T e.k.5.s.3.$X~ * t ^ q.3.+.J.l.k.3.2.X.E | J.2.! T.%XS V {.[.z.5.} %.VXSXhX0XS.'.E.,XR.(.].4 ; C g -.:.4 $.L.2.2.3.7.8.6.! j | @.]. XR.x w.|.LXZ - A M v ^ v < / &.w.oXK.l e } q.e g n.z.E ~ (.2. .+.x..X5.} Q R.{.x r.&.7 N N C -.G.m.O.e =.B.u.P.3.] _./ r h E v k 5 * b ).6.5.j.gXr r =.O.P.D.7.q.|.;Xk t x [.r W [.j.5.G.h &.h } i.v.vXm.e m / _.[.@.p &./ U.!.:X}.R.BX).g -X,Xa ].e.c &.;.` d.J.3.B.`.].(.;.;.' W $.b.gX~ Q.7XT.+.j.g.9XpX+.r.&./ / ^ T.).k j -.C.].;.R R e.l.,.9XtXiXn.@.OXOXB.p k R OXz.i.oXx.c.OXT.y &X&XN 4X}.eXL.+. .G.0.5.j.n.O.F.n.l.>.*.;X}.V.P.| 7.p.iX7.`  X'.a.'.{.U.p x @Xs._ '.:.` m.aX5.3.`.>X(.U.KXLX>.O.X.R q.|.}.&.%.|.y - !.(.X.G.8.! V A b Q.F.8. X/ 6 ,X{.`.t.r j -.|.R.ZX1Xl #.| | v.v.@.%.{ F.gX$.}.^.=.c kXBXV.O.n.p.d.7.a.O.c | J.3.| | x w.D.3.j.oX@.OXm.x.f.K.i.+.w.' ' ] k m m ~ ^ `. X X>Xm M ZX&X3 Z.k.w.q.C.w.} } | | R e.gX+.5.s.X.].s.$.n C =.B.gX@. .h.3.z.l.| o.x k h $.a.W Q =.j t -.] $.p.K.| g W ~ &XU 6 W. X'.Z.z [.L.5.3.6.| @.O.O.+.` +.L.s.O.a.u.@. .;.&.r h e.3.a.x p |.NXT.s E x W ;.] R e ] kX[.} W } 3. ...^.AXCXeX3 W.{.>.%.' =.!.A &X6 m x } w.`.( A 7 2 Q ] E |.",
"&.v &.d d.J.D.E E W U.!.4 p R.Q c wX>.l x :.q.W w.B.} +.c | D.s.h `.G.} } k.tXtX5.5.j.c.d.O.' $.H.p.5.G.6.| 5.i.l.V.>XBXR.`.u.n.n.j.sXf.p.pXg.0XV.c <X<X>.H.iXx.c.j.5.r.U.,X).| b.tXx.J.T T t.|  .k.+Xe.< * e ^ t.8.p.n.s.8.5.3.#.E u.OX .! ^ Q.( b {. Xs.8.x x AXSX0XM.I.>.7 &Xv :.].;.2 s j q.q.h I.O.W 6.5.P. .} X.g O.>.R.6XQ.r ;. XKX7 6 m ~ j E R.C %XM ] b.m.a [ } #.e 4 oXj.} -.q. .+.O.x.K.5.X.!.ZXU.u `.v < A m k o.k.J.V.p x B.i.V.$.q._.U.m p p Q ~ b 2 A !.| 5.oXJ.1 g ] x #.e.B.e.2X7X^ j ' +.x w.'.kXP.F.u a r ] u.x.sXu.< y C (.gXp.| (.E.m *.nX^.;X).-.k E.m 2 ]. .c =.l | oXoXk.q.{.{.(.-.t. .E V.gXlXg Q.;Xg +.x.g.b.P.} ] j m ~ Q _._.k Q -.B.| h ;.r. .s.@.9XaXn.@.u.n.gXO.R _.W l.+Xl.| V.x.OXQ m =X: P 4X:.I.0X+. .0.z.i.j.c.4.7.P.L.NX!.bX{.%.I.' 8.J.gX].| ].'.Z.>.] R.x ] 7.E O.[.-.g K.pX5.7. X{.] R.mXmX X_ ` ].].].] ..$.|.m S !.-.} k.9.X.E.&XS / G. .] m E.!...7.W t r T.).U.mXE.x ].7.3..Xu.z _ ;.C.n.V.:X{.r.|  X[.' +..Xn.D.7.V.O.E O.pXH.' O.c 7.b.| p.J.5.n.x.M.@.b.OX} ....| C.&.y k m k ~ {.SX{.U.W.4X2 k ].D.6.X.k.s.} | | | X.6.K.i.5.z.6.;.O.>.0 = x [.d.@.h.h.i.J.l.| W x v h %.a.} #.F.W t -.] %.d.K.V.' ' :.V V b {.A.wX>.'.SXL.7.s.7.7.B.@.@.$.B.+.| @.@.u.p.O.x x Q W j O.a.a.` x  X`.e e ] ` l [ ;.R W w.[. X] Q R X.;.~.LXAXrX'.Y.1XR.;._ ] R.U.&XZ - ~ X. .7.;./ V * 2 ] [ &.R.",
"R.M &.9 $.J.L.E ` ] ] &.; e T.g c [.>.z 2 p &.x $.B.O.X.u x C.B.x r.w.x 5.oXtXv.p.j.j.m.z.' _ Z.gXb.3.w.W ` 7.s.l.N.R.&._ V.@.j.oXj.dXu.O.pXg.0XZ.{.=Xn `.i.p.v.c.c.+.#.~ U.t.3.g.0Xv.gX2.g ^ U.| [.].p @ e k W q.8.j.c.k.+.3.8.X.| K.n.W o.^ ~ m m |.`.C.`.a a }.NX0Xv.H.%.2 &X< Q B.[.E p R e.| a.wXO.| 6.k.J.E } t.R _ }.:X!.E.t `.BX4X* M Q j R w.;.%X-XC v a.j.@.L.` [ a p OXn.O.r.X. . .| j.p.+.`.mXmXM c |.] m ( g g o.q.[.].p g O.3.#.;.8.`.).m p g &.h m 6 A E.] 7.gX5.1 ^ -.x {.(.;.{.).;XT.R  . .4.[.'.BX$.`.u ; p E 7.j.iX| y t m (.gXp.| (.).k :.}.=X%Xj T (.~ ~ t G.5.x `.' %.pXiX3.W ).!.U.Q C.+.' OXVXSXr / :.g j..XH.%.] ^ Q g x -.R t.-.j ^ Q  .4.l `.|.E O.p.9XaXp._ I.0XoX} R ].} 3.+X7.5 '.iXoXQ m s 6 4X%X#.n.0XO.5.5.XXh.j.oXD.+.F.].:XbX2Xl { K.h.D.[.kX;.`.>X:X}.`.7.D.| w.X.x ,.I.] x B.pX' #.6X&.;.R.,X!.kXu.w.BX`.} B.+.f.'.t ( !... .k.5.e.)./ 1 ^ +X .r g -XU.| 7...r t ^ E.b E.n U.`.N.4.a.O.i l `.a.i.k.`.`.e.i.L.d.O.n.n.j.u.O.D.N.' %.P.J.O.O.| @.j.' +.s.O.K.x.yXf.x.+XW ` ..4.@XX.j ^ m m m :XAXc Y.4XE.2 `.L.4.' ' j.j. .+.7.@...` I.n.h.+X+.' V.*.= # h [.V.u.c.j.j.b.l.u._ l l c O.@.O.s.OXO.1 ^ ~ [ a.m.z.| f.N.e m C {.Z.'.~.SXSXZ.B.7.5.3.s.@.` ' [._ x i.d.u.p.5.E h R e.` } u.+.;.]. Xr.< 4 | q.a l >.#.F.6.(.{.=.] Q &.^.AXLX^.<.}.mXbX[ :.j Q `.{.=X8 - ^ q.3.5.E ~ b @ 6 &.:.R.v ",
"~ M M = D V.A.a x ] ] E 2 4 T.e E [.`.~ * * a c $.a.6...u l w.B.W ;.| E d.j.x.c.c..Xj.j.l.| ' [.jXoX| `.T.r } D.F.Z.[ ` _ D.O.5.oXh.dXp.E OXm.iX X{.9 M gXj.O.c.iXn.7.R g Q e.8.f.p.x.J.! g e k ` [.:.@ 2 &.Q g W 6.j.c.z. .} G.w.` K.iX` W ^ g r v (.:.>X(.u U.!.'.zXx.u.`.b V 1 g 7.P.{ x W 8.5.L.'.BXNX7.n.n._ | X.] Y.bX{.U.E.b {.BXW.6 &.R X.` @Xr.E.E.=XU.O.gXOX7.c E &.` D.+X3.B. .O.+.} i.s.3.6XKX&XU.x 4 v ~ v ^ r T Q {.{.p c O.+.E :.2.G.).T.g a U.M / b C H =.a.I.s.g -.(.x 2XM ~ 2Xm ~ ].E +.s.pXP.nX:Xa >.p 4 k x $.H.H.| Q.y k ].oXp.| (.).^ `. X%Xb r -.BX{.v Q F.5.` ].a a K.OXW ~ <X,XU.] B.u.x.iX[.|.4 k (.` c.v.D._ e ~ ^ j ] q.Q -.] Q ^ T B.[.z {.|.} i.pXhXjXs.O.CXhXn.3.T y. .3.@XW @ [ OXn.R r j U.-XC W i.iXf.n.5.j.j.+.H.B.| 8.;.;XZXQ.4 c gXoX3.'.~.(.6X*XmXNXA.u.5.| } } | f.S.E -.#.F.' w.{.E ].r.s U.kXa...`.o.k.OX .l.'.s ,X-.' ` l.0.6.`.~ t T $Xh.g ~ %XM A.B.Q g j v -XZ 5 s U.!.R.{ ..>.Y.R.(.+.O.p.C.:.6.B.O.O.l.OXz.n.@.` @XB._ _ L.L.| | O.i.K.O.c ' ' I.m.sXtXx.n.W W w.H.zXo.! |.~ b V mXZXc R.ZXn M (.[.O.W | j.c.3.s.P.N.c =.zXOXJ.z.l.V.A.R., + u C.V.H.m.v.m.i.j.d.` l l ..@.@.u.j.m.k.1 ^ ^ ] ,.m.h.} 0XV.r T.Q.Y.<.S.bXAX XN.;.| 3.3.5.4...[ ].E E @XP.i.i.J.X.j W G.6.' u.a.Z.[.N.A.e g } C.c i [ C.G.#.v U.&.T.-.U.mXLX*XG }.VXAX<X>.`.e M `.:XE.* < ^ w.k.D.| k b > s *.`.R.p ",
"] T.n = a <.#.u E ` [ c 5 e U.< h '.R.~ v 5 p [ O.s.$.l g ] +.+.e.' a @.s.b.v.x.j..Xp.O.5.5.+.H..Xc.+.|.,Xt g ]. X`.#.7.} 8.+.h.oXc.tXx.g k.v.iX`.e 5 '.gXn.| b.L.[.].E r q.e.} @.u.L.6.g Q Q Q W @X*.* c >.r.j R X.3.k.n.3.R B.[.` v.tXx ..T.g g ] {.|.2XU.k 2X2X`.BXO.|  XM b b g 7.I.D _ +.z.oXgXZXLX|.8.n.iXO.` X.;.1XZX:.&.%X( %X1X&.&...x s.| P.r.M V ,XY.a.lX$.h c x :.`.k.z.5.7._ =.w. .7.3.6.>X<XC ).h o 8 C ~ :.j T m ( W.a ..F.#.e &. .8.(.(.g M *XJ C m R.`.d.p.OX@.R X.].c ,Xb Q.Q.< v [.O.3.+XgXL.ZXE.d ] 4 k l c { L.D.t.-Xy p ].iXi.O.q.~ ~ $.kXn * ^ ].AX,Xb k (.| | ` = a [.@X~ %X3X&Xa } D.m.tXtXi.X.t 1 r.h.c.u.i.} R =.Q E 6.r.^ &.-.-.^ T e.A.H 4X{.W oXc.wXBX`.[.CXtXoXs.o.! W  .#Xa @ E D.z.g W (.-.~ v p +.aXx.j.5.i.pX` x O. .k.#.ZX4X!.p ' gXn.@.}.^.R.{.=XAXkXb.p.j.7.x R +.a.H.x q.} | $.A.` ;.[.`.< C >X]...} k.OXG. .l.#.Q.1Xx | | n.s.5.L.q.k T OXJ.! -./ m :.].Q g X.Q ,X&Xu 5 n ,X;X^.{.{.!.).:.#.' a.A.=.{.R.d ' D.D.h.P.;... Xr.l a <.N.E #.4.b.0XV.l a Y.nXH.tXtXx.iXE E ].gXzX+.o.(.Q y ( KXmX&.R.BX&.&.] C.$.O.3.n.j.3.J.@X;.d 1XNX[.k. .j.K.a.~.J = ; ..D.J.n.K.b.i.p.l.' h l $.s.u.iXx.x.L.e ~ ^ q.i.j.h.| I.V.h -.Q.U.<.eXAX:X`.>.%.c +.s.5.7.:.&.>.c ' gX@XV.V.L.G.W T y.].` O.D.B.| ` #.h ] } C...a _ Z.B.].k k !.2XQ.,XAXbX~.}.BXBXZX;X{.2X2 s T.{.s ; < ~ 8.i.5.w.5 ; u _ ] r.E g ",
":.&.0 C a ' >._ `...z 3 u M &.x x `.j g v h c %.| 7.`.c R -.7.l.P.` D K.s.l.iXp.c.XX5. .3.5.4.u..Xp.` T.Q.4 x `.R.|.B.+.+. .7.5.oXXXtXK.1 W m.iX..4 @.K.pXp.' [.'.`.X.} R ].`.W O.O.#...r j :.:.W [...a ,.'. X] X.y.| 8.z.0.R 6.@X3.tXx.` ].(.Q T -.2XBX).U.T.>X`.`.|.l ` @X] ~ k Q B.@Xw.$.k.h.n.kXLX&Xp w.j.iXs.O.;.=.ZX<Xr.] E.&X&XH v `.X.x j.i.[.|.U.C ;X{.gXgX`.9 i u R. X7.k.J.7.i a ..#.6.} r.{.n 3 R.&.o $ ,X).Q Q g m V m a ;.[...k ~ 2.5.#.;.p U.,X6 s M C.@Xz.j.gX' ` r.kX{.mX&X,Xy * v @Xi.3.OXs.[.ZXn *.x 5 k E ' O.H.L.t.~ t M  XpXu.i.X./ k 7.zXe e (.#XBXU.E.y T ` 7.O.u l @X].H 3X5XZ e X.k.p.m.iX.X].m * ` J.b.u.s.W 6.y.E | B.6.Q ~ &.-.k Q ] |.ZX4Xv W OX5.%.eXnXVXjXx.oXk.].-.W ] A.u 5 ].P.9.j C.:.] -.E e ` iXv.s.3.p.jXc p s.+.H.].AXE.Q.-.[.P.oXs.{.1XR.U.4XAXwX9Xg.K.w.j ` O.d.u.W ].o.j ;.' O.P.@X;.- b 1X(.` 2.OXl.D.5.k.` 2X;X_ B.u.P.B.s.J.e.k T B.P.e.R k Q ..].p e ].W &X&X4 3 *X<X=X4X*X&.).Q g #.O.$.>.R.ZXn v  XC.k.5.].R.R.C.C.l u l _ ;.;.N.I.0XI.] F ZXZX>.i.m.iXpX' =.[.pXpX6.R ] &.y %XPX4XH :X>X-.{.] ` a.s.i.b.i.3.P.[._ F AX`.F.8.` b.b.a.D W.Z u C.H.j.d.O.O.k.p.z.7.g e #.l.p.gXp.f.V.t ^ Q t.a.4.l.5.wX,.h X.&.!.nXLXbXH :X>.>.l O.8.5.3.E Q >.c ` [.kXA.<...k.8.T W -.c _ B.a.` E @.` w.} 6.6.l _  XC.].v g !.BXZXZX*X^. XBX>XnXbX}.;X;X; 2 U.R.T.g < -.B.O.4.C.2 4 ] #.E w.l x ",
"3.=.q <XR.[ |.r.|.T.> + 0 M x `.>.`.T t 4 p _ #.E ..'.%.Q T  .oXn.3.v.sXu.@.H.@..XXX5.5.6. .k.i.x.b.W :.T.t p a M  Xk.5.3.} ` ' b.v.0XI.< x pXiX3.} K.K.p.p.@.[.|.*.w.3.W [.R.|.[.4.x R R x -.=.E ].%.O.[.eX|.! 8.0.+.5.h.z.W ' P.p.yXyXp.P.} o.o.o.).1X-XQ.R.|.C.r.W h ` @Xw.R j ;.s.oXgXs.oXi.l.].*X6 2 `.k..XOXC._ &.4XW.:.r.( &X5XA l `.;.W m.u.`.BXM Y.`.kXzXN.ZXC 3 z R.`.8.l.L.' i > a R.-.-.|.{.5 u ] ~ + A ZX~ h h t ^ / p x F.[.` T.Q 9.9.| w.l F Y.2 l ;.D.OX5.s.@X' E A.VXZX4X3X8X: @ z @Xi.+.F.#.>X<Xn `.x p l _ $.d.p.P. .g k C {.0Xx..Xe./ e D.gXx v ].NX^.M / / m &.-.Z...' ]._ <XmX=XE.~ q.k.i.[.S.gXF./ - E V.d.D.F.x  .k.| 5.h. .o.Q -.&.Q -.~ ZXmXA p | ].' d >XAXVXhXp.b.P.(.^ -.=.@._ W G.+X .} F.(.Q q.' c x d.@Xk.3.p.jXl W pXu.[.BX1Xt m ).q.4.pX@.}.;X:.R T.>XwX9Xg.b.E W '.$.V.+.| @X8.W ] W J.K.gXp - ( m r } 8.OXO.h.5.8.#.6X`.a.OX4.[.Z.N.d.].m k w.I.].R W R  .[.p < C.W C Z t Y.mXW.=X,X!.).R.p 4 6.4.$.`.ZX4X= U.1XC.8.8.$X(.Q 6.].h p a ] (.` Z.[.pXK.>.1XPX=XM ..K.aX0XV.:.;.pXtXe.R -.&.e ( KX3XJ 1X|.t.>X~ W #.i.b.j.i.7.B.C.c :XZXN.J.G.| V.d.,.%.H n ..J.c.p.7.R E l.j.h.G.R r ;.p.p.P.a.f.V.e k T -.] #.V.P.kXO.W q.v ;XKXIXK W.1XY.:.c ` 6.9.0.W ..[.' j [.kX{ D v X.y.X.R a l x w.V.O.O.a.O.k. .3.8.` >.eXC.X.Q j v :XKX3XJ ^.[.@XR.bXeXeX:XW.* < U.-.|.x 4 R.%.' 4.C.p E [.4.` F.` ] ",
"3.].s W.{.E :.Q ).M + @ 0 u 4 ]  X|.^ j p ` c ' a &.'.$.-.j ` oXc.j.yXdXu.B.a.O.oX.X3.7.X.W H.u.@.I. X..q.] ; 5 {.`.J.h.h. .W | i.m.M.d.u ` pXiXi.3.b.@.@.b.4.%.R.R.F.3.} C.=.R.].[.x e =.] Q E ;.kXB.$.[.eXR...3.h.5.h.h.J.` x G.h.tXyX5.s. .X.! t.(.U.!.T.;.F.[.e.x :.} D.@X} E e.i.oXh.5.pXx.p.#.W.b < {.D.n.pXO.v -X%XQ.(.t.E.7 %XC a A.| | m.g.>X;Xk :.[.gXP._ mX=XF `.R.(.G.z.N.l v 2 2 T.-.~ T.&.v _ ;.l @ 4X2X-.x j r T T.x E @X[.x -.o.9.0.| e.[ c &.l [ ].OXOX3.7.7.c ' %.BXZXZ 3XS * @ D gXD.e.].>X1X%Xm #Xx a _ x V.u.O.OX9.o.-.m F I.m.XXG.p v i.pX| :.|.T.v v k ~ m !.E } #.#.7...mX4XW.{.|.X.4.V.`.>.kX` M p ..$.8.P.[.c ` +X5.n.l.4. XT.).~ &.&./ 4XA s =.w.[.x i ZXVXlXpXO.k.P.(.j ^ ~ $.K.l.0.G. .3.G.] =.Z.| L.c | [.8.} x.jXx W m.b.BXZX!.p k ~ e ` l.4.nX^.] =.a ..hXM.x.D.` `.BX<.$.| @.@X3. .| #.m.tXgXr g Q.4 :.F.2.l.` 5.5.8.w.@XL.J.OXC.`.`. X[. X/ C =.L.B.} 2.g W [.h 4 C.(.~ / U.;X=XmX=XW.}.>X|.p ` [.V.$.{.ZXZ @ E.;X].6.} t.-.e | @X` h E `.c =. XV.iXpX`.ZXHXB q l f.pXzXeXl p pXtX8.W -.~ r E.mX&XE.1XZ.B.;.-.(.X.4.m.b.i.V...] v ZXnXs.z.n.@.4.@.H.Z.> 2 B.oXXXh.+.g x z.XXh.8.y.=.r.4.x.D.4.a.[.r r T ^ g q.a.@X XE #...v *XPXHXq <X*XF |.c x r.9.0.6.#.F._ e ].eXD M !.X.6.w...a M Q -.].a.[.7.| G.h.5.h.4.`.`.`.X.;.-.v ;X&XV mX:XH.L.Y.mX[.wX:XE.; t &.`.Z.` ~ ).] ` O.F.E ] [.O.| D.X.| ",
"} ].>.z !.M M 4 U.b @ 0 M 5 * b (.].Q x ` P.O._ d F }.`.7.O.} n.XXc.pXXXn.@.$.O.OXj.| 7.X.x D.u.D NXkX` O.:.s W.}.a.h.XXh.3.} O.3.l.k.| E +.iXyXp.i.b.@.i.P.;.&.M F @X3.q.-.l l R.|.{.[ `...E ;.>. X(.] :.>.$.V.d.l.n.h.5.OX} h 3.3.m.v.+.s.+.B. .y.-.4 g ~ ..D.P.B.w.t.$.V.gX+.E e.7.5.9.3.aXyXg.[.U.C %X:Xw.s.pX7.U.4XS / -.R.m s {.c c B.7. .c.OX}.C Q C.iXpX..k 1X:X].@X=.(.G.0.l > F 3 @ &.t.o.Q M |.{ A.&.%X4X(.X.r Q ^ g :.E ' gXN.x ^ R  .G.| O.q.E #.%.` B.@X@XO.w.E ' O...NX*XA 5X( m * =.wX[.w.(.2X;XY.>.gX_ l ] { [.aXO.j.+X5.X.e h V.p..X5.p ;.s.oXa.`.;X< l *.R.~ ~ R.%.' g 6.3.w.<XC &. X|.:...|.&.~ {.a M U.Z.G.].B.pX' x J.h..XL.'.|.-X( b !.;X&X&X2 (.].C.$Xh n AX'.lXH.| l.s.] Q k Q ].I.k.l.k.9.9.e. .6.7.a.jX,.h t.e.| x.aXO.E x.pXNXT.!.&.`.] 1 X.P.7.BX;X(.R O.V.s.+.8.C.#.(.ZX^.` | a.@X7. .8.p.v.tXL.p Q l O.hXoX3.l.+.0.0.#.Z.n.iXi. .].`.R. XI.[.( m Q t.6.7.o.r +.B.=.l `.|.Q ^ |.M 4XmXH ~.'.kX[.x | gXa.>.mX4X6 , %X;X|.q.R ^ s u #.J.3.| #.>.!.:X].u.v.aX'.bX&X7 b l Z.wXVX!.- g OXpX3.W ] Q Q ).,XZ ,X>XP.j.| F.(.` p.tXb.V.'.;.n *XZX XB.5.iXu._ $.wXd @ ] I.j.XXh.;.e c p.oXi.+.F.r.| O.b.p.4.7.(.j y y ^ r e.8.].-.g e.| !.!.%XA A mXW.z |.` j ..5.5.4.$.:.a 4 #X}.Y.C M ].8.;.'.] &.~ e {.NX XO.` G.n.c.0.5.` &.R...C.X.~ ~ e U.mXY.V.[.*XmXN.wX!.C 5 h B.D.} -.E.~ #.| | F.` ' '.@.5.k.} } ",
"} X.L...F s k 4 U.M i M &.p - y &.r.] ..5.OXl.` 3 s :X`.L.H.} j.pXtXl.3.oX@.c ..gX3.| 7.=.p l.b.l NX X' ` :.{.bX`.L.h.h.0.h.5.s.4.s.l.| O.s.tXyXc.x.gXd.u.L.r.T.> z gXl.w.Q c R.>X{.{.}. XE E w.#.].{.h _ | a.V.H.D.i. .i.OXo.g ! 3.b.b.5.J.d.D.6.6.#.j g j E [.d.7.6.#.a.V.pX@.j C.x E 9.9.v.aXM.I.*.s <XU.W 3.c.P.U.Z y t T.&.3 !. XO.f.OX7.5..XpX:.a :.e.OXs.p &.2X] +.D.[ (.G.! a 0 F , = &.X.2.-.Q :.A.`.:.1X2Xt.R e r k j X.| u.lX..c -.T } O.' 7. .! B.O.}  .].#Xx w.| B.#.:.2XC Z Z / T.e R.eX[.[ R.,XW.&.%.lXD x ] { wXcXf.| OXh.} e h ` l.+X .x B.x.oXS.AX;X< Q ` `.:.{.-.a.I.j X.p.L.,Xm O.[.:.R.] |.x ~ b > s R.].$X].7.0X,.' OXz.oX[.BX&./ b 6 M <X4XS u  X[.@XC.x W.bX,.xXO.x D.4.C.-.T T (.].B.s.k.2.0.8.E F.F.d.aX0XW 2.G.s.x.m.$.4.x.pX(.r !.bX{.h 4 (.#X XZX<XR.r O.hX8.} } ..#.(.ZX;X*.C.[.P.+. .s.m.x.pX[.e W O.9XdXv.u.3.3.0.J.` $.tXpXO.j  X{.R.:.L.A./ S k -.B.e.W j 6.$.].] (.] g _.:.&.mX=XbXNXS.hXL.E ' Z._ `.mX&Xw E.W.Q.{._.T k e v O.@.B.$.$.`.:X{.[.u.M.0XrXbXZ 7 s R. XAXZXM < g 5.pX+.} :.] t.|.&XV 1XNXJ.p.3.G.r.x k.pXA.'.'.*.H mX*X*.q.3.x.p.@.I.$.> ; `.K.p.n.8.c 4 c b.OX+.` B.(.x x 5.5.u.E Q k g t m r C.B.w.^ r ;.t.;XM v m U &XM ] #X} Q =. .| s.' D 2 < NX{.n J C r.B.N.A.`.R.v M 2X XV.s.} J.m.XXh.3.u 3 c ;.X.X.] k {.1X!.l d.[.<X:XwXkXU.y h ..J.h.W -.U.m [ ` ` w.C.A.'.A.l.h.| R ",
"6.W P.$.5 u p R (.] c c M M 4 t &.E ..].P.OXOX%.> 9 `.` Z.kX+.3.iXgXh ..gXO.2 c pX5.3.a.=.4 n.K.D :X{.] W `.|.;.[ A.5.z.0.0.B.A.' 3.P.W _ a..XtXtXtXH.O.3.s.B.W 9 _ iX.XB.[ `.NX|.=.&.{.>Xp W 3.p.V.{.~ *.Z.d.K.[.V.O.O.5.OX5.T  .5.D.l.5.h.5.O.+.9.X.W Q j g [.[.F.B.+.i.b.iX4.R r.z E e.5.p.dXyX@.&.m E.i ..4.p.gX-.p ~ ^ U.~ K bX[.@.m.hX7.7.oXoX} R } Z.].l h `.-.< #.O.d `.t.;.!.s F = 0 &.Q }  .C.:.`.{. X|.`.C.} R r T j X.B.iXiXz &._.! q.E ' L.8. .s.3.3. .R.{.l ;.G.P.%.}.%XV V C ).] k Q.bXR.h {.&Xn =.a.gXO.&.i *.S.lXb.x [.+X .g ] O.G.@XE W D.XXn.Z.BX,X< &.#.a.[.|.' f.jX .3.x.gX!.p u.pX`.{.T.R.] Q s b l :.(.#Xe.5.pX0X@.P.n.J.'.>Xv !.E.4 v {.,X6 z [.k.D.F.E <X:XM.sX_ E @Xi.OX3.! R Q -.c [.k.+.k.| e ].D.j.dXyX5.e.8.3.u.@.l.5.p.@X(.&.T.7XV ; u `.#X-.,XE.k W K.hXa.| E 6.8.(.%X&X{.`.P.n.@.' | OX9Xm.w.1 ` b.dXyXn.+.| W h.n.} z.tXiX#.e ZX).`.| N.>./ y m R F.7.R R 3.s.gXc p M T._.R.&.{.ZXLXnXpXaXd._ a c v 1XE.C W.<Xy ( 2XQ 1 g r E $.O.>.`.`. X{.A.kXO.f.eXeXbX6 b -.`.ZXLX^.l p p R OX8.| -.~ (.;X&X7 >XkXL.5.5.G.T.g F.[.}.:X:.] E.4Xy k E ` d.x.m.b._ l E L.p.p.J.@.l 9 c K.iX3.W ;.-.e x s.l.D.g h Q j 4 k t =.C.` ~ e Q {.W.2 x &.U q ~ #.@X} v x ' 5.H._ z 2 a  X*.^.=X%XR.B.d.d.A.&.s Q.`.O.l.j.} J.j.n.OXC.u 2 x (.Q -.! =.ZX1XU.] f.L.1X!.gXI.k g ] s.pX5.` v U.M Q ` ' $.[.[.{.`.F.s.| W ",
"B.} k.7.v R.W B.[.+.W h h U.k r j c ].F.B.D.@XO.2 9 %.x #.Z.7.' b.d.< ;.gXO.* l pXc.p.a.=.< b.K.x ~ &.h l (.#X` l `.k.k.9.k.B.O.`  .J.| a | x.tXtXtXJ.u.s.5.k.+.@.f.XXc.7.]  X|.#X| u 2X>XR.Z.4.b.I.{.!.:.'.b.pXkXeXB.7.O.OXG.3.8.8.D.d.i.5.5. . .e. .W ^ ~ Q  XkXD.k.3.h.j.pX@X| (.>X{.e.3.u.g.sXp.-.p i d w.k.5.OXF.` `.|.v Q.ZXnX[.i.p.pXZ.#.D.J.} } #.[.#.l @.[.] 4 @X' a '.q.Q m = R.> i ^.-.| s.zXr.R.{.{.x F.B.| Q Q Q R ] ].jX@.Y.;X(.! t.` _ s.9. .| 3.k.C.U.U.h #.G.3.D bX&XV b U.`.:.&.U.ZXM p 2XE.%XT.].gXlXR.d `.S.d.a.x X.OX3.R o.+.P.C.x | P.c.j.'.`.-Xk ] #.6.O.Z.N.g.hX8.7.H.[.k h pXhX|.!.`.R.(.Q 2 M `.`.T.|.3.h.pXhXi.5.i.J.'.>.a |.v h ..:.~ - >.V.5.OX8...ZX^.0X.Xg ` [.s.F.+.e.t.p u {.BXk.3.D.a ; `.4.m.yXx.|  .8.+._ O.H.i.3.@X;.&.{.-X&X- h `.t.Q ,XC u q.zXd.[ :.' 6.3.(.b V ;X>.K.j.' | ` J.pXm.] t 3.m.yX9Xx.+...E h..X5.K.m.H.-.k 1XR. X_ c ] ~ k ^ ] @XE h o.+.D.@Xe ; %X>XQ >X|.}.ZXAX}.aXuXf.$.5 u !.;X1 ( mX<X< ( 2Xt t T.e ] B.$.`.>X:XbX`.[.[.' eX}.nX!.* Q.6X>XLX%Xv ] e Q ` P.J.| ] &.(.).V 7  XgXs. .| F.R.a ;.|.ZX,XQ &.,X&X4 k j W 7.K.m.j.@.%.@.F.O.d.@Xc z d O.hXpXp.W E u ; x B.F.A.u h Q j r ~ e g [._ M k ~ R.M f R |.C 6 R. .s.| x p @.b.M.{ i F {.{.>X1XH M R.N.p.K.'.&.Q.C -.4.n.c.| J.5.h.G.;.Y.U.-.R.~ T.} q.1XU.~ C.p.0X|.D gXd.p ^ 7.b.pX| v k U.~ k x | D.[.'.~.*.B.s.$.| ",
"B.E 6.7.`.`.N.@Xk.8. .x p -.k r g q.[.#.;.#.D.@.5 2 c c | | a.O.f.O.c %.@X| @ c iXtXp.B.M 5 d.I.k m M M 4 m 2X(.=.'.7.8.5.h.i.O.| O.z.j.E O.j.yXyXtXgXa.| 8.h.h.j.x.yXx.O.R.R.] @Xa.4 E.{.NX[.u.m.0X`.Y.[ '.0XV.>.NX#Xa.O.gXL.[.r...L.i.p.i.G.| X.w.2.X.! o.:.|.[.u.l.n.c.j.a.]...(.|.`.6.3.7.| dXdXq.e x ` F.i.3.n.OX3.D.].v :XNXH.oXh.O.d.].=.C.#.| #.[.[.@.O.f.gXX.j zX@.c '.e.j @ >  Xd 9 Y.*.;.pXpXJ.C.>XY.l @Xs.` } -.X.o.R [.zXD bX1X).j X. .@.u.3.2.W 3.G.e.] -.e X.G.W d LX&XS g R.T.BX-.] >Xe p >XU.,XQ.R.BXkXi *.Z.hXO.E E g J.+X3.| | [.`.:.#.[.n.j.L.A.-.Q x ..] l b.tX9Xm.7.C. X}.4 W iXpX`.T.:.r.T.M p v R.}.;X-.2.j.9XpXx.O.4.H.'.E c $XR X.i.D.r g zXp.+.P. .P.NXx H.l.t o.B.7.{.c D.[.] !.ZX|.k.5.[.i * r.p.dX,.u.j.i.5.' x $.[.kX6.F.w.[ ).,X&X; l [.W g 1X;Xs (.[.E n n [ d.} y.y 7 !.>.gXp.@.p._ @.v.hXC.T 7.m.yXtXXXD.-.Q k.+XZ. XH.7.~ Q.T.-.BX' ; &.E.e ] e.@Xj } e.3.L.[.a Y.ZX|...|.>XmXmX^.$.fXyXu.B.c c ,Xy b %X4XE.e -.-.r r :.Q ] Z.| !.4X4XZXw.[.=.`.NX~.bXM * %X,X4X:Xd c [ x r.6.k.m.4.| r.`.).: b kXp.+.6.E `.|.c v 1XPX&Xk ).4XV ~ R ` | | K.p.m.b.O.#.$.h Z.S.z <.D d.jXx.i.$.*.* ; ..B.`.R.e v ] h h -.e 5 [.O.v &.:.E ] -.e -Xs v r.W 3. .} ` H.b.M.,.D ZXZX;XF 9 v z { V.f.I.A.{.,Xb x B.n.c.| k.s.s.3.N.R.{.{.~ m T.o.o.{.[ X.8.u.pX..x gXa.g ^ 7.OXa.x u s T.k 4 p 6.OXH.A.Y.&.k.j.d.O.",
"C.j W r.C.w.P.D. .G.8.x e -.j g X.].| E r.' +.#.u 2 a x | +.F.+.| a.A.$.D.` ; l u.x.b.C.M M N.[.k < k U.: 7 R.{.>XA.' 7.3.5.l.@.c [ k..Xu.u.c.tXXXiXzX'.l | h.j.p.c.yXx.[ {.] w.pX4.r y *.eXgXO.x.iX`.`._ Z.zX[.<. XeXB.i.jX[.`.-.] P.i.d.s.D.j | q.o.-.! W ! `.V.@.j.n.z.D.` _ ` ....`.#.w.[.c i.jXC.h W } J.3.3.k.pXj.b.a.{.NXK..XXXj.p.u.'.:.;.' | C.[.f.d.u.M.hX6.} pXM.' ].e.x @ = kX{ [ {.=.7.iXXXn.D.R.R.a.pXJ.}  .e.q.X.R #XeX{ ZX%X!.r W  .p.b.3.8. .F.C.R ..-.e X.F.R ^.PXA y Q q.R.NXW q.`.1 e |.Q U.U.Q.NX|.> :X,.zXL.h -.g 3.n.z. .O.[.NX:...F.J.h.p.F.(.-.l ] k =.0X9XyXx.@.F.nX:.r X.c.pXr.:.' A.s s (.c u ;X!.x 3.j.x.aX.X3.p.H.].c D.B.} k.oXz.} 8.jXM.O.[.O.gX|.< d.d.W } | %.T.p [.[.nXZXU.|.G.5.kXc @ ` m.jXu.a.iXj.7.W E `. X XR q.Z.'.k -X&X2 D VX-.4 ZX=X> !.(.e b b %.pXW 2.m y Q.>.pXg.m.n.` u.f.pX`.-.w.gXtXv.XXs.~ p #.@X X XV.#.~ Q.k &.kX_ > (.T.p w.P.F.h 6.B.7.D.P.' bXAX].r.R.;X%X*X&.' sXyX@.7.$.:./ 4 ;X;X&X2 Q t.:.R p `.{.[ C.' !.=X4X,X%.B.R.}.=.*.*Xb r -X&XZ M l E ;.;.Z. .l.tXc.5.F. X&.1 C ].4.e.-.j [ kX` l ZXKXA m 1XV C _.R X.X.4.b.p.m.n.' c l e '.O.{ kX_ K.hXu.a.C.R.* * r.w.] M 2 v =.j x -.u 5 wXO._ &.`.E [ &.4 C 4 :.w.} 3.3.5.l.iXm.M.V.nXAX^.M 9 i *.z  X'.N.'. X>XE.E.p | b.j.| 3.9.k.f.[.>.R.{.p k ^ o.| R.`.e.} p.gX` | K.O.R ^ s.gXl l s s ).k - m ].4.V.~.U.T.D.h.J.@.",
"C.j p (.].F.[.` W OXD.E g ..j T e.r.R g ' X. .} g h x h [ r.].E E s.V.4.h. .x a z K.K.C./ b %.[.m @ ~ U.8 7 ~ `.>XR...+. .6.J.w.M M 4..Xj.j.n.iXx.i.].>X{.R.F.l.x.v.yXx.*.!.[ F.pXB.y - D zXK.O.v.pXa.'.;.'.gXwXBX}.}.'.p.dXkX`.v ] H.4.4.7.[.x W 6.E j Q R W ].[.$.n.l. X|.#.B.+.3.+.#X..Q |.h h kX[.W ! W 3.5.6.+.dXtXH.V.lXhXM.tXx.i.c.p.N.#.+.8. .k.[.d.i.n.v.m.3. .aX0X' r.q.p @ , lX@.N.`.a.b..Xc.x.D.] :.I.iX.X+.+.8.X.o.j |.`.nXbXY.).g Q ! d.K. .9.6.].:.e ! -.j X.G.` mXmX4 ~ _.X.]. Xj y.$Xr h C.| ] / -X).Q 3 :X{ gX].5 v j } k.+Xh.|  X Xj R.`.k.h.k.@XU.E.&.&.U.T.H.yXyXyXp.l.kXE r t.z.jXk.| O.].b ; R.x 2 2X&.j 8.j.v.vX.X5.m.x.V.| [._ W J.oXj.3.3.gX[.v {. .#X/ ; $.l.#.W ' ..&.Q S.rXLX4X6 Q.t. .gXa.* g m.aXD N.v.j.#XQ h `.'.#.g t.[.eX~ C %Xu D CXR.C 4X8 $ A ~ r 4 k H.oX .X.~ m T.r.pXyX.Xi.u.hXb.N.T.T.[.lXiXtXtXD.).m p NXNX'.a.;.E.A g &.%.z l R.&.R.].$XC.e x D.5.h.P.$.}.}.[.C.!.4XA k (.} +X+X+.6.].r.p M ).%XZ 2 r.7.q.R -.|.' %.F.;.!.&X4XA ;.P.`.=.c *.E.; U.2X&X7 0 v ;.r. X;.| XXyXtXj.P.gXx 1 / {.|.].o.g x NX..x 1X3X8 P -X4 ].C.T #.B.[.J.9XtXs.c 2 2 _ P.O.$.`.' gXjX'.>.`.R.s * q.w.l i ; u &.h c -.a a hXu._ h q.} } -.Z 6 4 `.B.+.3. .s.OXtXiXg.[.AXnXF n M s ~.*.SXAXR.{.ZX*XU.Q.k =.l.i. .6.2.5.O.H.V.;.`.4 g T.X...*.{.`.} gXI.` q.H.3.!  .J.P.a M q s T.&.< E.`.z <.*.v R.D.i.d.4.",
";.E p -.@XG.[.l W pXL._ x ] j ;. .} :.Q x 8.7.X.x -.v p l =.`.x | i.J.+.k.8.(.u 9 hXK.w.E.* x #Xb * R.R.7 * &.].{.;XT.] #.| 5.].;XM | pXj.p.j.oX3.+.`.R.,X;XZ.s.x.c.dXK.!.M ' s.oX7./ < D hXoXi.c.dXd.a.F.a.d.[.BX:X^. Xj.dXgX`.5 ] H.i.4.O.V.x W e.] j T R } F.].' K.L.6X~ h D.k.5.+.].] p q.p 4 `.zX| } ! 3.B...c tXaXd.wXxXuXf.m.0Xp.x.oXa.' L.3.} k.H.d.p.m..Xm.e.| sXaX$.|.! g = 9 eX@.V.Z.b.pXpXp.c.b.#.E @.pX.Xz.+.8.E g T T.F ZXY.T.2Xm T W D.iX .9. .;.Q p T ^ ! o.8.%.4X&XM (.e. .N.'.j } @X .u.P.5.X.M 1XT.1 s ;X_ wX`.< e ~ ] 7.n.n.F.kXE -.>X;.8.i.n.F.4 q Q.!.1Xh { sX9XuXc.i.kX} t t.s.pXOX| H.'.m s ] _ !.;X5 x 6.5.tXcXc.+.tXp.a.#.>._ e.G.O.l.k.` _ {.e ~ `.>X< s V.i.g ;.`.c Q R.}.AXBXU.b m _.` K.hXh W 0X0Xi >.m.K.BXk k (.#.| R ..kX`.&.t m &.O.lXY.4X&X8 : S ^ ^ t p J.pX3.} -.!.~ r.xXuXoX5.x.jXzX`.!.&.:.[.0XiXm.I.|.M u R.:.[.8.W !.C ~ g { V.>.....#Xw.} w.g p P.3.k.F. X}.&.A.R.%X,Xs Q |.R 2.8.8.| ].` x ~ m E.S C |.$.o.-.(.=.A.kX[.-.6 3XZ A ;.@X$.x l R.C 2 -.(.( < 2 R.R.NX>XE +.j.j.v.c.oXP.x r / 2X>Xe.C.x :.BX>.c R.&X8 &Xm ..@XB.R #.#X[.[.aXtX| E 2 2 ;.G.s.a._ %.kXwX>X!.R.:.T.- ` #.a u s a ] x E ] x x pXiX' j } R W &.( 6 e F.s.+.3.} a.b.tXpXS.AXVX XR.F !.Y.bXAXnX}.&.!.;XU.{.-.~ -.J.z.+.2.6.3._ g.p.L. X< g (.#.' l *. X(.kXO.W e.z.i.}  .G.C.v b 6 C &.(.b W.~ c R.v i R.A.a.#.#.",
"] &.s T.$Xk.Z.x c pXoXO.c ] ] [ ` #.v =.| 8.7.X.E &.m k v &.;.x 7.} i.i.3.y.~ 4 ' jXpXO.g - h  XC b C.].n ; |.|.^.<XH n ;. . .P.`.c ' l.v.x.p.n.u.N.{.s J %Xr.5..XXXyXgXM k ' d.oX5.`.c D hXn.i.x.pXH.7.s.O.4.[.:X:X{.[.K.iXgX' g O.m.x.' u.n.4. .6.7.w.! W +.F...' 0X[.~ * 5 F.l.h.| 7._ #.@XR h (.gXO.! W +.[.Q e M.pXwXlXaX9X@.m.9Xx.p.pX3.4.gXW W 3.d.d.u.l.pXi.(.w.aXaXB.-.R x 3 0 }.,.V.J.n.c.tXj.5.p.a.O.' B.l.OX+.| #.x k ~ n ZX&.&.Q.E.Q.Q s.pX0.9.;.x l ~ j o.T -.;.}.ZXA -.6.5.5.K.d.p W gXc.c.j.3.q.&.1X(.g C E.' gX=.4 < m &...i.OXBX`.h (.#X;.+.l.iXB.* < W.;X1Xu ' iXtXdXj.j.#XW t ..O.K.oXp.hXL.p ] N.A.1XU.* =.` +.tXcXu.` aXu.6.:.i !.>Xx O.[.F.E ; u m t ( -Xk =.L.,.e @X[.' ] !.AXPX}.v / m ( E K.jXJ.+.x.H.2 Y.gXI.BXC p -.| O.R ] NX XT.1 r w.p.lX:X=XU.m : m Q ] e a pXtX5.| =.).k (.xXaXF.W x.jXS.*.;XY.(.B.iXyXK.[.[ &.U.p =.[. .W Q g T.4 u.lX..c a.zX_ a B.W R G.k.G.{.mXU.&.!.U.4X&XR C.G.}  .8.5.+.' j -.~ m A 8 m {.' q.-.j j ]  X#Xv V 5X6 v | OXL.W x r.k p X._.T.p &.R.!.ZX!.v ;.| p.tXyXx.m.| R ~ 2XR.B.k.q. X].[.| `.Q.; s &.[.I.B.c Z.kX`.[.aXyX+.` 5 e R.;.s.k.c $.[.z b W.&.:.(.< e -.u a _ _ _ W W E x ' aXyX4.6.X.j R Q Z - p B.s.7.+.} ` $.dX0XnXLX'.kX{.3 Y.!.<XZXR.<.[ } q.].F.X.x X.OXj.3.! q.X.4.9Xj.D.`.< R [.a.c | F.`.>X[.`  .s.p.h.9. .q.l i 9 a M &.Y.U.Y.a v U.9 9 ^.NX|.E :.",
"Q -.s !.F.k.w.c z pXpXl.` R.M v C.| e p | +.7.6.W E s b C U._ W @X` +.5.8.t.4 2 ,.sXb.| -.< E `.;XF V.@X&.U.{.).{.1X=X0 :.6.R G.C.' O.u.tXtXj.x.H.r.!.Z &Xs {.k.n.tXtXgXt r ' H.l.3.E `.@.gXJ.4.b.gXa.@.i.j.i.[.*X^.<.V.d.J.jX@.#.+.iXaX| p.XXtX3.7.d.7.(.t.G.4.c 7.iXd.5 e a F.J.5.3.+.' D.OX .x ] F.} R } ].].~ e @.hXgX0XsXp.O.m.hXhXu.h.k.P.[.p W  .p.x.@.u.pX| x r.pXsX7.! W k b C >X' a.gXoXj.i.i.p.v.pXI.| E #.Z.Z.7.w.E ~ Q.E.ZX=.r.~ r Q.T.+.l.e.y.(.p e &.R t.^ T.[ }.KX6 x +Xz.c.tXu.e x pXv.u.m. .} :.{.|.Q C m { kX] - < b &... .gX[.:.x (.].e.5.OXK.O.k 2 ;X,XQ.k (.L.n..Xp.G.$Xg r -.E p..XXXiXp.| C.O.kX1X9 u #X` | x.jX| | iX' ..&., mXQ.x Z.@X].v 4 5 m y 7 y :.a.I.p.@.gX| ..&.1XLXmX{.#._./ m U.K.aXsXp.i.O.2 M [.[.>XQ.h W O.#...x ]. X|.r g B.J.kX;XJ ;X4 t ~ R o.~ h pXuXp.$.*.).r -.jX0X6.W x.xXD ^.IX{.R.F.aXuXzX>.[ R.2Xg T ! ! e.R Q _.< f.jX_ h b.pXa E B.| 3.OX9.q.<XJ * U.;XW.4X&Xt.G.G.6.8.G.J.D.E W ).k V V y y R.(.|.R h h e R.).2 &XP m ] #.D.OX+.#.;.e ~ t.X.;.Q ~ Q.=XKXQ.&.w.3.n.v.tXv.c.3.W ^ !.&.G.0.#.kX_ '.a.w.(.r c A.K.K.O.E kXkX X[.pXtX5.` u v T.[ 8.3.} r.v # 8 Z v ..`.5 - p v &.:.' | ` E x x +.dXyXz.].E j ] v b * p F.3.s.+.F._ O.iXhXAX^._ @X>.9 s b C E.Y. X} 6.5.k.D.#.j =.G.n.P.o.^ _.j.pXn.u...l s.OXi._ x.P.;.R.`.W | H.i.D.| W -.2 i 9 ] a M Y.F M p x s 2 Y.ZXBXR.a U.",
"t R.C U.6.5.3.O.{ gXtXiX6.|.n :X`.-.u - ` +.+.s.5.X.e 6 6 &.a ' P.4.| B.q.-.e 5 x.yXp.+.`.1 W `.:X{.gXgX:XmXb U.|.|.mXM ;.8.x #.F.c @.b.dXyXc.b.@XW U.,X%X< M R.D.iXpXI.T j ` a.B. .u '.d.gXP.7.Z.[.A.#.i.h.j.pX}.Y.wXgXk.p.zXI.[.7.m.aX' j.yXdX5.s.@X].|._.].O.` k.tXtX} ..%.O.j.5.5.O.' J.P.X.h &.h ] o.].].-.m 5 %.pXtXyXsX4.| @XNX X3.5.5.@XL.u O.3.b.m.M.9XoX8.v g Z.hXG. .W -.b M  X>.O.L.I.n.3.u.p.tXjXx. .W =.NX|.*.A.c U.%X=X<XE C.q.v t ( r.B.t.q.t.g &.(.} e.^ k H ZX=X- | oXi..XtXb.l _ iXyX,.gX7.} A.;.(.{./ p O.gXh g M t v #.3.gXL.$.R =.o.7.5.n.@.O.T.2 4X,XR.`.2X-.w.k.4.].).~ j ;.' v.dXXXp.u.[.' u  X:X3 B.gX} E $.V.l a.K.` ..k b LX&X2XV.@X`.k k ~ ~ y : 7 r.u.iXp.x.0XE ] bXZX&.`.[.$.e.-.m !.H.yXaX0XO.a u M kX,.[ {.q.6.} #.#.| $.[.@XW j ].C.q.p !.T.e Q q.W } #.' aXqXH.>.Y.,Xr ^ zXiXs. .p.jX~.LXUX~.Q r.aXaX`.v T.|.>X-.t T G.8.R ;.q.e x.jXc c gXb.p ;.w.| z.J.8.(.W.* b 4X&X-X&XQ._.j q.B.i.b.zXa.c E _.r C C -.Q R.1XT.p x v * n S B 5XV !.|.C.D.pXz.F...r ~ e. .6...~ %XHXKX~ ;.B.p.n.i.tXtXv.i.W -.T.-.C.3.} kXc %. XZ.e.W +.J.tXpX>.}.NX}.ZX}.0XiX7.g p U.&.=.6. .B._ @ # q U.{ 4.].a 2 u v &.Z.| | ` W h h #.dXuXK.C.4 4 ~ U.E.b [ #.#.G.7.7.+.' pXhXVXd l [.v s 3 ; b %X!.`.} 0.h.9.8.r.k g e.z.G.;.T -.l.pXx.$._ a j.tXb.@..Xz.| -.r.' $.D.3.8.h x ;.j x c ;.a n ^.R.%.| ] e U.NXBX`.v 3 b ",
"4 (.M 5 e.3.3.@.D S.iXiX#XR.*XmX:.-.v ; x 7.` O.5. .e b 6 s l Z.[.D.' r.-.:.M c 9XdXp.7.w.p W `.}.eXhXS.ZX,X; U. XA.>X{.#.8.W } [.x O.M.dXyXx.K.[.g ~ ).R.M < m B.J.[.[.C. .' $.B.].`.[.b.OX7.#.;.`.`.`.s.3.j.pXwX{ zXgXz.i.pXD.`.`.H.pX| j.dXsXh.s.'.|.).&.#.@.X.5.v.tXO.' B._ 5.5.3.4._ l.P.#.] 2Xe ] ;.q.t.-.s U.&.7.aXyX.X| | 4.=.>.V.5.W 8.Z.x 7.3.j.M.aXpXb.w.&.< l #.s.| ` ] n Y.|.'.<.O.| F.s.4.v.dXsXp.5.} ^ ;XZXR.~.R.~ Q.4XQ.r B.C.Q m 4 -.|.:._.|.E >XR.W e.t.k 4XPXE.r @XXXXXyXc.b.@.@.9XyXp.gXB.x +.#.] 2XC p 7.l.x -._.p h ` G.OXJ.4.R R } 5.n.n.O.>.>X5 4X&X=. X;XM &.p u {._.T.Q ` 4.yXyXc.u.[.F.` ] R.F F gX.X5.W ` a 5 L.H.$.:.e &XKXA 1XJ.i.;.p < m j k 1 1 w.u.x.4.x.b.c !.KXY.c [.[.| 4.-.( Q.P.dXyXaX{ 2 a v kX' ; r.G.9.`  .r.C.>.].OX5.j ].#Xg =.).- k ..q.;.C.@.p.fXqXI.>.*X4X~ ^ J..X5.i.p.hXBXIXSX{.~ q.sXaX=.u !.1X[ >Xg ^ ]. .` ;.q.W x.sXE #.zXu.g r.].7.+Xh.k...5 n 4X,XV -Xm T.~ < W 7.5.b.0X{ %.` j ~ Q.U.(.(.ZX;X&.x v u + V N 5XP Z !.6XC.s.oXK.|.).Q Q 6.+.5.;.~ ,XKX4Xv r.+.5.J.u.m.tXc.k.] _.T.-...X.| BX$.l NX|.G.3.k.m.yXM.*.ZX>X}.bXR.pXn.| 2 4 M Q ]...X.].l + X 0 R.a.H.F.g x &.v [ L.@.O.} =.h g | tXuXm.6.5 5 M U.,X%XM u ' @X8.8.D.O.pXb.'._ _ r.M b s ; n *Xv :.R 2.0.3.+.=.g 4 W G.w.] r &.s.pXb.O.l 5 j.yXM.b.oXl.| ..q.| u.O.| O.l ] X.W ` A.;.9 M W.<.C.].:.Q >XeX$.>.9 @ 6 ",
"g `.U.- 6.} i.u._ d.H.gX=.M ZX*X=.[ -.5 h ].E h D.6.j k u i >.L.$.Z.` ] X.-.v >.aXaXd.' ' ` =.`.a.gXwXkXAXA 8 b ].D.Z.'.O.k.} } H.@.@.p.dXyXi.pX[.R -.j  .].m 5 #.G.`. X[.s.' O.N. X6X].4.d.#.` | ].R.{.k.5.j.dXaXM.gX5.h.5.J.7.=.] D { O.iXdXyXi.7.*.{.R.] E C.(.e.c..Xa ..V.| 5.k.+.s._ l.pXB.{.2Xp W e.6.C.j C &XM c M.pXi.E k.d._ `.H.| g R C.E 7.7.n.c.tXiXe.g x 4 ; &.w.E =.&.;X^._ $.lXO.p w.5.5.aX0Xm.b.D.} o.j ;X4X1X:Xx T.,Xs p ]...[ -.e !.!.r.`.{.U.1X*.' k.].&.ZXKX/ p OXXXXXXXpXn.b.m.9XtXj.5.P.W } F.&.;X( s F.5. .w.(.g ] `.F.P.n.i.W } 3.5..Xk.w.BXa F ZXs ] #XU.~ m * @ Q.~ -.` E i.dXc.j.s.N.W ] :.Y.H NXF.h.OXO.x 2 u V.H.7.R p 4X4XC >XOXj.| ~ * t E x y - r.V.' ` iXd.c 1XE.a 7.pXd.O.D.] Q.U.e.XXyXaXV.u x [ lX@.* :.@X5.| B.r.(.v r.oX+XT Q Q.1 (.r @ 4 Q o.(. Xu.9XfXyXI.=.<X,X( T 3.j.3.j.p.zXAXIXeXkXQ.U.aXsX=.t 4X*XM 6X/ k -.t.W w.#.| v.sX' 7.pXO.p ]  Xw.G.5.k.x g {.4XS P &X~ T.b < ..s.3.n.L._ s.a.j q.T.Q }.AX|.-.`.`.*.m 6 V B &Xb Q.%X;XF.4.p.I.1X1XQ o.8.+.5.6.~ %XKX5Xm :.6.5.z.i.g.m.z.D.).;XT.R g ~ R.BX[.l ;X!.[.O.i.pXdXS.^.=X[  X^.&.OXj.' 2 * 5 ~ >Xx ).R.U.q # &.Z.@.s.8.j ` `.[ #.K.J.O.' :.g p | 9XdXtXs.E ~ &.a &.!.U.u ] ].3.G.s.i.pXu.,.d.4.#.&.~ &.p C W.i `.`  .G.5.7.R e e e A.:.u 1 -.} D.a.' l a m.tXj.iXpXs.x E 6.+.i.@.| @.' [ | x  .[.[ 9 H F '.@.:.`.:.:.Z.%.c 3 2 3 ",
"l ].{.1 R 3.OXu.' N.kX].5 ;X4XC &.E `.u 3 ].`.e 8.B.q.v s i `.%.%.`.=.l ..` v }.aXdXH.c ` ].(.' u.hXS.VX>Xn 8 6 r.n.l.d.O.P.X.` d.b.@.u.dXyXp.gXr.p (.W 3.@XU.u o.].T.T.gXK.| | N.A.-.(.' D.].` } F.:.:.G.5.i.tXdXsXH.' 0.3.l.e.g u d i _ iXm.u.' Z.R.).).] h C.{.(.j.pXu { d.| 7.8.3.a.c V.I.[.&.&.w.L.+.6.(.1 E.%XC 5 @.pX} W J.gXE :.@Xu.` o.F.R 3.i..XXXtXpXX.1 h 3 ; E.(.| :. X Xl i [.cXu.h X.k.c.aXM.x.p.|  .2.-.T.1XmXM c `.).- x #XE [ ..:.ZX).t.(.2X,X>X`.+.D.@X..=X,XM r oXXXc.iXzXgXb.pXv.x.J.+.P.` W ].*.4X=XE.F.5.5.8.t.g {.>Xx F.l.z.} 2.5.k.n.4.`.c u BX Xv ] |.T _./ ; @ n Q C.} O.x.sX+.7.C.h g Q &.T.;XQ.#.3.OX7.g p | u.@X| g U.4X5XW.2XgXl.6.-.@ m `.` ~ t ]  Xx O.gXa.{.U.p C.x.iXa.%.].h R.T.! h.uXuXpXE ` O.jXf.< (.OX3. .@Xq.W a r.+X.X .j t - t.j @ < j ! :.N.f.aXaX0Xd.;.1XZ / T 6.z.p.m.u.[.~.BX[.A.E.k p.jXx b 4Xb M 1Xm 1 Q.^ o.e.#.' yXsXO.7.P._ p j :.;.G.9.G.` | ]./ 6 &XV &.^ m y (.F.2.+X[.c i.J.| w.T ~ 1X:Xc [. X`.T.!.n 7 V V U.).Q.).gX5.' '.ZX%Xj ! 8.5.5.+.v U.=XZ v ;.].3.s.u.p.iX.XF.2X;X-.R R &.;XnX'.c U.W. X_ u.jXtXf.AX=Xc  X^.>.l.j.6.p 3 5 v NX`.|.Y.:XW.0 { J.i.| 6.| ` B.' 7.b.pX4.| ;.g p | M.xXsXl.] ] &.Q h R.;X!.] C.e.3.5.K.pXp.p.m.H.7.E &.=.e C !.c C.w.C.F.7.G.W t p p `.*.2 4 :.x E `.%.u ` iXtXi.K.OX| p ] 4.3.j.p.p.a.| W E W  .[.D 0 W.v [.| &.NX>.c A.A.a u u M ",
"c ]. Xt j @XgX| ` A.6Xp u mX,XE.a Q `.3 @ `.kXR ` 8.e.] a i `.nXbX{.`.h #...F BXiXuXH.D ' eX`.e u.gX'.ZXA.T.- 4 e.h.n.K.$.[.w.` u.x.u.x.dXyXK.[.x < q.6.k.G.v p Q (.U.v L.pXp.+.B.;.-.(.x B.gXi. .5.k.+.G.3.5..XyX9X' ` 0.9.h.B.m s ] c +.gXB.e l F.e.r.`.o.W q.).&.d.hX{ @.b.4.5.5.4.$.{ '.[. X~ &.kXzX| ;.Q.4 k 2Xs - a.J.g ;.pXD.e h @Xn.7.e.G.E 5.i.v.v.yXiX} 1 v i ; 6 Q (.` 7.hXO.a gXxXj.! -.l.dXtXv.tXi.5.}  .o._.!.&X%X*.].).1 g  Xc E %. X{.~ t.(.%XmX>X'.u..XOXA.H *Xh x oXj.tXgXF Y.A.pXv.5.iXk...4 j `.!.4X=X%XC.p.k.s.] p ;XC 4 r.s.n.9.2.5.l.J.a.=.4 0XhX' E U.Q.R $XR.* ; U.`.[.| s.v.pXc x `.h v ).~ ;Xn M &.j 5.k.r a L.d.kXE Q %X5X5X%XT. XW B.=.4 %X[._ T.~ R ].`.+.L.L.:.g @XJ.x.m.Z.`.(.* <.'.W B.uXuXsXO.| i.sXx.4 T.B.| +.G.e.p ..#.i.J.C.g < e e.8.4 - j X.! | x.sXaXK.i.`.4X7 m ^ 6.l.x.0X<.~.l R.~.[ Q.r  .zX2 B &X6 &.!.E.b ( ^ W G.#.W 9XdX@.B.V.l j R $.F.G.2.8. .@.P.e M C b T.r / m -._.9.y.q.j 5.l.7.6.! |.%X2 #.zX X] Q ).e m M ~ {.-.M ).zXu.' %.2Xm Q } s.n.h.8.W ~ U.a +.P.5.! N.O.@.iXn.k.2X%X-.! 2.t.:X^.>.[ C !. X{ u.hXM.eXLX&XM BXBX~.O.l.D.| ] a d BX`.B.>.`.{ { ,.K.oX+...=.} 7.` 3.x.aXi.O.w.x h $.0XcXaXn.` x *.`.| `.R.;XQ `.C.3.p.pXpXx.p.K.oXs.W q.X.p C %X>.H.$.V.7.X.C.o.r m Y.:XY.> u ).] p BXR.2 (.gXtXu.K.[.h u r.s.5.u.4.I.H.#.W R } E ].f H f >.[.E 1XZXR._ `.=.4 U.W.J ",
"_ Z.#Xj j zXk.' E r.x 5 ;X!.%XE.< M &.= + >.gX3.W 8.6.w.E >.>.NX:X;XnX_ 8...:XBXpXyXa._ z >.].7.p.g.'.nX$.;.e M e.h.c.oXV.].B.+.+.x.x.tXyXdXzX`.5 p q.2.+X8.] k ~ ).Q.&.` pXiX5.F.;.(.x 4 | pXiX5.9.+Xh.5.5.i.oXsXx.O.5.9.9.5.G.m s ;.4.5.OXC.< e C.k.k.X.W B.].!.e a.aXv.M.x.u.i.s.@.N.>XbXkX'.T.R.@Xi.3.;.E.m e :.- - C.P.r (.OX5.g 4 4.n.8.6.G.} i.x.yXyXvXiXo.4 l F = e p t.X.| jXp.O.xXsXp.~ T.3.iXiXx.x.j.i.5.! 2.y.-.E.ZX}.e.].4 < `...D `.NXv u :.{.J =XR.V.b.pXoXV.a ;XQ ` +Xc..XV.n H *.@XpX| c.z.x 5 g (.{.U.q J `.l.l.7.E u E.2 *.N.| J.G. .3.i.k.C.1 =.cXv.` r.!.4 2.OX#.* v NX[.D.' s.iXP.h 5 -.x e / E.,X< T.v g 3.P.e 4 K.K.kXE ~ &X3X5X=XE.&.x $X` e T.] ' (.j g NXC.g s.+.E ].pXc.9XI.[ !./ a [.eX-...aXyXsXp.+.i.uXx.4 -.+.i.u.7.q.g F.O.` G.[.] - M F.k.:.x } e.! 5.9XaXgXH.O.].,X: ~ ^ 2.k.tX0X'.;XU.).>.R.-Xk  .gXu 7 y Q.2XY.J -XV m } [...g u.dX5.V.O.x x [ 7.L.9.2.k. .n.l.p (.&.!.^ t T.Q Q _.! T T.g  .J.s.7.2.|.~ 5 _ L. X(.:.-.k Q Q t.t.j ~ {.[.@.a.a 5 e W } h.n.h.z...] ;.#.oXoX2.g _ i D oXn.C.<X%X] R  .e.^.f [ ;.&.!.eXf.O.pXS.BX:XW.:.BXNX;.| 7.P.D.e.h i BXN.s.d.a.Z.wXgX9XiXJ.] g ' a.} @.v.yXu.O.7.W x B.0X0Xx.oX` c R.`.D.[.v U.).).X.3.c.dXpXu.{ I.pXi.W F.Z.a C ^.'.H.@.a.#.#.X.R r M bX^.&.> 3 R.&.=.BX~.M |.I.tXp.OXA.5 4 ;.k.s.| +.L.[.7.| 8.| E =.0 n z eX'.~.bX<X:X[ &.p h {.<XW.",
"| l.@X| l @X . .Q x u `.!.u s C C s [ d 3 $.oXXX .+.7.7.u.@XO.].;X;X%.O.P.| BXBXK.pXN.c v l +.OXP.d.L.[.| ..F R.;.@.x.oXk.7.+.3. .z.iXtXyXaX@X:.M 4 ! 5.c.p.;.T.C E.&.:.E L.pXj.Z.:.[ h < q.| OX+X9.h.j.i.4.5.oXgXp.p.XX9.2.9.C.-.g P.4.O.I.].E E | k.D.] a G.e./ < $.pXtXx.M.f.p.p.O.A.ZXZX X[.).!.-.x e.X.~ p r ~ - < ].B.e :.OX| :.4 l [.B.} F.O.u.9XsXtXpXn...h R p 3 M x q.q.W I.@.M.jXpXD.T.T.| P.F.p ` K.j.j.| } e.X.] {.].q.].r e |.Z.$.NX X-.j &.;X&XC Q G.b.p.m.a.p `.W  .z.c.tX$.%XJ < (.kX' 3.5.` g h :.$X=.; A `.OXJ.5.E u Y.>.S.OX} G.$X .' 7.@XW -  XlX@.+.C.Q.e k.oX| h `.`.OXl.` e.OXP.~ 4 5 a 2 s &X%Xu |.:.g  .P.x 2 M.0XkX< %XZ 3XP 5X&X4 Q #X' g &.Q ! ;.g r.`.| 3.5.| f.hXtXx.pXV.f <XPXAX'.`.M h pXyXvXx.3.5.dX9Xe ] s.hXL. X-.v [.u.g w.#X-.< m F.k.Z.#X[.[.R } m.tXhXN.E {.-X1 / Q ! W iX.X`.v k v %.`.T.g O.@XR.5 l {.2XE.6 Q.M Q X.[.Q 1 j oX5.s.7._ _ %.' k.0. .8.} b.m.+.e.`.>XM r q.W Q 2X-.g _.Q W OXu.s.t.T -.-.x `.A.`.-.j ^ o.} r.q.g T.{.[.' H.c 5 &.` ! h.+Xc.n.7.R l.+XoXi.| g 5 u O.m.G.|.4XZ &.} | w.1XH >.B.p (.[.@.c zXBXZXM :.u.pXB.| $.c $.@XP.E &.>Xr.k.iXg.S.lXiXtXaXb.| ' Z.N._ a.9XpX4._ 4.| ' L.g.M.j.n.| _ {.>X[.[.v W.4XE.j 8.iXdXpX@.D ~.gX3.` L.[.E U.{.P.m.a.a.3.2.E h t U.mX*XR.5 - T.!.>X`.C.NX`.l..Xx.0XR.6 + [ F.k.E E r.r.3.z.+X| E g M F g.hX}.mX=XHX<XU.~ p &.R.W.U.",
"5.n.OX@.E @X} e.j a 7.kXv e M M ,Xn &.%.$.a.+X+XO.$. .5.p.gXs.;.1X^.<.,.+.B.{.BXd.d.%.u v Q E I.V.V.oXJ.x _ {.}.a ` n.oXi.O.@X@.} D.M.M.9XpXF.E -.Q y.3.c.pXC.R.6 Z &. X] #.OXj.].h A.$.e r.O.' oXh.j.x.u.+.u.gX@X3..XXX2.9.3.G.;.R O.| u.P.O. .r.#.5.D.l a s.C./ < ' pXv.tX0Xu.u.i.O.`.ZXZXA.kX2XT.g o.e.6.:.~ p Q.- < `.W 5 ..@Xx kXa 2 `.F.` B.O.m.sXaXc.j.n.X.W ] r 2 &.#.6.w.' B._ f.0Xm.F.{.Q.q.8.$X< e gXj.oX7.o.+.B.` E 2.6.].R h  XL.[.BX`.w.| :.!.&X< ~ C.a.' V.a.' C.E O.j.XXm.A.*XA s Q kXc x 8.o.j x ;.G.F.s s r.@XOX .=.u &.'.g.sX| e.G.} c ].BXg @ `.L.O.i.6.T Q 5.z.z.B.x [ OX3.E 6.[. X/ b 9 F 3 b 4X%XU.`.r.W } e.=.; M.xX>.2 Q.7 5X8 5X8X1 T.@X+.} (.T ^ 2.6.{._ a.z.5.n.pX9XtXtXb.D *XPXPX*. Xa T.&.H.g.9XyXh.i.yX9Xp ;.pXpX,. X(.] gXi.p (. X(.- m ].4.G.[.lX[.! T i.0XV._ ` !.C 6 T.] j E jXc.:.- M a | [.` h O.P.>Xe $.[.!.%Xm f l ] 8.$XT 1 g 3.s.s.B.c c '  .k.0.o.8.| tXv.h.G. X{.k 4 w.#.^ Q.T.^ ).Q E P.b.d.R T 8.r.&.^.Z.C.-.g !  . .G.o.j ).{.kX` 4.N.R.{.`  .h.oXj.oXi.E c.XXj.d.$.h 2 _ M.tX[.R.5XV ] 7.D.`.ZXf w.+.e `.gXO.' VXmX4Xe e.pXtX+.| `.`.` D.L.B.`.-.` 6.i.9Xf.f.x.tXdXp.u.F.].;.a { iXaX4.' 4.O.V.zXp.m.O.3.+.%.!.NX@Xa.[ <X4XA m X.x.sXpX| &.*.K.i.O.I.[.' U.R.pXXXd.a.5.8.p h e !.ZX,X`.x 1 M 1X>XE [.kXa.l..X9XI.R.0 @ c L.B.r e g g k.oXk.} W x M R.pXaX}.*XLXLXZXY.k 5 R.T.R.M ",
"i.n.J.i.` V.x [.x | gXI.2 m -.p J *X>.[._ $.+Xz.;.E |  .5.gXB.-.4Xn  X@.| | ' NXD.| @.a r.:.E $.$.O.sXi.a =.'.a.` O.x.iXs.E kXL.` d.x.M.u.K.D.W ;.].9.5.z.P.].k 7 Z :.kX&.u B.zXe.x H.d.j C.gXO.n.z.p.x.5.+.i.@XC.#.pXi. .9. .s.6.E $.V.H.b.i.' ` | +.H._ | z.G./ - O.pXpXsXm.u.O.+.%.'.zX<.<.NXR.~ j B.q.;.:.~ / 7X6 < `.r 4 =.].x lX_ * M w.} +.8.tXyXpXm.n.i.5.8.-.4 z '.P.9.7.+.[._ i N.M.H.>XT.F. .OX| p I.x.j.[.w. .B.D.k.3.8.G.3.R B.L.lXNX%.s.s.F.] E.- M {.&.[ }.;.| 6.x #.h..XI. XC n 4 p '._ r ;.o.o.x c D.L.E h } @XOXO.R.3 &.eXtXsX| X.y.=.a !.ZX- 3 a l O.8.8.R q.k.3.OX .e h [.O.+.+.kXR.v k s <Xs U.KX8 %XU.-.}  .| (.2 ,.zXd ` ` ~ J 8 ( E.1 (.P.h. .C.Q ~ 7.].U.~ L.x.c.dXsXx.c..XS.[ KX*X~.D AX&.&.p p.u.x.dXj.i.aXpXh r.K.iX,.A.#.3.pXl.u {.|.(.y 1 (.8.5.k.OX[.T T | gX6.] >XE.A y ).-.p [ jXb...e #XE c gXB.W O.Z. Xh [.L.v !.Y.F h | s.s.r 1 j ' | #.;.h _ O.+.3.0. .6.| tXXXj.F.{.T.m e $.w.^ ~ -.-.!.&.W k.P.l.W 9.k.F.}.R.].G.-.r 2.9.5.s.! g m &.@X3.O. X>X&.` } h.oXj.n.i.5.oX5.5.pX'.h < =.iXiX].M 5XV ;.H.[. XY.; @Xz.u A.gXd.h R.ZXE.< `.jX@.+.` ~.BXO.d.I.gX].x Q r.' pXm.u.v.tXdXv.n.P.=.f ; *.iXv.i.3.5.@.lXlXx.m.' _ C.=.1X1Xk.8.=.,X&X7 ~ W v.sXXX3.`.>.I.x.@.pXpXO.v -.gXv.p.p.h.k.x ;.~ ;XmXW.:.%.e p LX*Xa #X[.i.p.tXtX0XR.f l %.D.w.p - < < k.pX3.} ` R g >.aXpX~.AXHXHX,Xs k 5 %XU.Y.c ",
"l.5.n.l.O.| x gX_ H.sXi.= s =.l * ^. XV.d N.5.0.;.u }  . .G.` &.%XE.>.u ' ` 9 '.].u O.'.r.R W ` 7.s.iXp.D [ [.| G.5.5.pX[._ ;.].O.4.tXM._ a.@X+.7.+.| l.l.s.:.r 7 Z w.@X>XY.] ].@X3.m.b.} 8.iXtXc.c.p.p.O.+. .7.c A.@X` }  .3.s.8.7.F.Z.D.l.gX| p A.s.l.p.n..X8.^ < { pXaXjXx.5.| w.R.}.hXf.'.T.M Q r.F.#.;.] &.-X4XA ; R.E 4 =.r.c cXd.@ 4 w. .} D.iXsXm.pXb.5.8.q.~ * { wXk.8.8.O.I.O.@ %.9Xu.|.&.#X .h.z.O.u.p.p.#X..} G.OX5.2.8.8.0.R X. XVX'.6.h.z.J.W / 1 ~ |.{.l >X)._ ] c ;.j.n.[.*.2 k x #.' ].R W o.W x ' i.OX].p j ].r.=.!.k 1X Xv.dXk.w.R v Q.ZX1X* M R.l ;.e.} W F.J.h.OXe.r p N.u.OX3.].&.&.~ H ZXH ,X4X+ C R...} e.' `.a c V.l F.+.`.m 7 E.Q.r :.P.z.3.} T -.].|.Q.s a.XXyXuXyXj.c.oX[.AXmX0 eX'  X}.T.r 5.u.g.aX.Xi.v.gXr.o.pXb.'.$.| z.tXl.a 2X(._.Q.- -.w.3.z.K.7.r k _ kXC.`.2Xs b / ^ :.p ] zX@.` p N.| 4.K.P.3.V.7.=...gX$.p k &.R.x | k.a.r < E `.] [ r.E _ 4.+. .0.2. . ..XXXz.[.:.T.M p B.e.-.T =.R.).-.X.P.I.@.+.@Xk.$.ZX!.L.s.-.t 2.h.i.@X] 1 2 T.[.@.c }.R.c ` X.3.p.5.n.J.J.h.2.@.gX`.e < :.0XpXw.r 5X8 R.L.VX Xh h gXj.D S.hXgXp ~ ;Xv l [.pX' w.] !.AX$.D.kX#X].] ~ )._ n.aXx.v.tXiXm..XL.-.s @ [ iXXXj.p.s.$.[.zXx.m.' x (.:.ZX{.2.P.R.!.b 4 T.;.aXsXc.3.] x OXm.+.oXpX' 3 =.gXj.v.c.4.D.O.[.).%X<Xs >.C.g U.LXY.v NXs.x.j.x.9X0Xz =.$.4.J.6.p - t e } z.+.7.` E =.w.pXpXeXbX&XKX!.p s s U.n *.l ",
"N.E l.J.w.l _ @XO.l.pXV.* d :.c ; `.[._ d a.3. .6.h j ..| 6.(._.M Q.&.p ' $.l 2 U.2 d [.` E ` | B.OXXXx.{ c `.G.@Xi.+.pX@X$.x `.s.O.c.p.a ..kXF.D.3. .k.5.3.| Q ( / e.F.{.ZX{.R $XOXiXiX3.3.c.v.v.XXx.j.| ..x ` a  X'.a  .+. .O.G.G.V.@.%.N.gXO.' @X| 5.v.yX.X8.T 4 &.kXpXaXk.} } r.!.>XgXhX'.!.T.-.[.+.7.X.a !.ZX&XA 6 k (.x $.' _ cXg.; e ;.s.} k.pXp.| gXs.8.`.v u ; 1.gX].r.B.| a.a.a ` aXg.*.&.#X` a.D.K.i.| D.`.h W OXOX| W k. .6.R W >XBX`.N.j.XXi. .T.4 O.lXa.` !.-X/ M Q #.n.b.$.u a x B.P.c  X~ t q.e.c [ ,.OXgX} t k U.;XT.&.ZXa @.jXL.r.e y 4XZX~ h s :X' e.t.T 2.k.n.5.3.(.p s %.@XgX .c >.:.-.{.,XE.ZX&X@ >.Z.| } C.` $.@.E f.' P.k.C.e C 1X;X~ ] P.z.3.W W (.{.ZXm < O.pXuXuXx.j.c.@.SXLXM [ [.{ ].{.!.r ' J.u.iXc.c.c.P.W ..OXl.].E +.OXoXB.R.;Xj `._.g Q X.6.8.gX| t ^ &.VXB.F.&.< r ).k ~ a a zXO.&.* a a.gXx.OXgX[.| %.r.#Xx x g ..].R.>.d.F.h - g NXY.a `.' E D.7. .k.2. .5..Xn.[.].E {.Q e C.3.q.R ..`.;.#.6.G.k.` | @XC.|.ZX{.L.D.-.t 3.z.h.P.-.m e &.#X' a }.>.;.` | #.O.3.j.oXb.!  .a [ `.u < q.0XpX] M &X: %XBXSX:.g ` jXc.M.0XhXL.[ r h [ d.gXpXu.} E ^.AX{ [. X`.].W Q (.| 4.jXx.j.aXlXH.a.#.&.m ; [ iXXXj.z.B.Z.,.hX9Xv.' c R.1X>X:.e.e.R &.u :.(.7.sXsXp.` r g pXc.O.oXpX' ; :.gXj.tXi.E I.4.[.{.!.=X9 ;.].~ 1XZX&.!.BXd..Xj.x.yXx.' F.u.i.P...m : y m r ] B.G.` W [ ].lXwX>.9 mXZX`.x e M s &.] _ ",
"' p 5.J.r.< ' K.p.x.gX@.2 *.C.c ' @X@._ c @.3.W 7.6.R E E #.].j l (.-.x A.O.N.c 5 a >.'.c | | #.+.k..Xx.<.{.E w.8.` +.gXH.| e Q D.| u.d.R ]  X[.l.z.i.s.5.O.` -.~ T.q.X.U.ZX,Xk ..@XK.oX .3.pXv.XXtXv.K.X.X.E -.x  XZ.l B.| W  .G.k.O.O.` W ` ' L.F.p +.v.yXiXk.] e `.kXpXpXl.j } :.*X1XwXpX[ 1X6X(.' ' D.` * J PX&XA V - Q F.L.D @.vXx.] p O.D.}  .P._ _ OXJ.` &.s 9 d wXgX;.} C.@.%.' D.O.aXgXd &.`.4 | P.H.H.| a.|.e } gXP.k.W G.W } X.j ^.bX`.L.j.v.5.G._.1 s.lX3.;.3 -XC s &.#.OXJ.c x | +.D.3._ ;.&.1 `.C.x [ ' H.pX5.t m mXbX=.|.-X- _ zX| :.e C ZXb a &.&.:.6.k.X.T 6.3.3.L.} -.E.u %.zX@Xx _ $._ R ).;XW.mX6 - [.J.W 6.7.W @.V.+.l.4.pXJ.].t ).7X).-.o.} B.q.W ].`.1XbX> x ` gXdXuX@.j.k.7.AX!.&.l @.l.;.`.).k x P.| b.c..Xj.k.] 1 x [.(.< 4.oXk.N.1Xm p $Xo...R r.B. .OXD.t m {.ZXB.F.p - j _.&.~ u 2 S._ c ; _ gXj.| m.pX4.$._ E q.1 =.x D.[.|.>.H.L.=.p 2 *.a = ].' | @XB. .G.2. .k.oXs. X=.W ].x e ` ` F.W Q R.| B.+.| 5.O.' N.~.ZX;XR.H.D.:.t 2.z.j.D.v 4 / !.`...p {.].B.` X.[.$.` 4.iXj. .q.4 R.R.c e #.0XM.W E.Z 8 4XLX>X;.W  .3.XXM.0X0XZ.#Xg r ].I.j.j.l.} v ;XZX^.BX~.`.`.j R ).`.O.pXv.x.jX[.' ' l p ~ c $.oX5.j.l. XkXd.aXdXv.O.$.Y.;X{.`.X.2.] g E C.| i.fXaX$.x r x oXv.O.oXpX4.4 ].OXj.v.| _ gXg.S.~.H W.i ..r.!.ZX&.R.NX}.I..X| p.yXx.u.H.' D.D.x m 7 1 m 4 x [.s.} W ] BXkXzX%.d ZX1X].R 4 U.&.:.`. X",
"| R 3.G.(.- O.9Xg.tXpXW c A.$.@.OXs.O.%.<.O.| ' j ..W ] x [ =.t x B.G.2.F.O.d.zXC.x [.L.c w.P.| ' V.b.H.nXZX~ j t.` +.gXw.x r T F.5.@.[.-.x Z.H.5.5.p.k.k.7.| `.T.&.e.:.E.4X4X( &.:.[.[.} 6.iXtXj.tXpXF.;.:.T.&.l [.I.O.D.W  .k.e.e.c O...p 5 N.I.a.p  .M.yXpX7.C.j <.wXm.m.J.R W (.W.^.pXpXd ;X>X;.9 O.@X` o A KX5X&XV - j t.[.O.f.uXyXC.j 7.s.} } 5.| c V.OXk.] s W.bXeX0X#.x [.O.z l sXXXtXpX_ =.Y.- ' OXx.pXp.O.#Xr W |.q...} F.R j y.j E.%XR.gXm.c.h.P.^ t ].gX#.E * T.Q.4 Q #.I.J.l 7.5.b.G.| @.#.{.e -.p c $.' ' jXs.p ZXZX>.w.BX( C 3 c _ `.s Q.,Xs T.a A._ k.5.} } ].[.O.kXr.< Z %X' VX=.; D.l.| ` R {.;XH 6 < w.D. .7.O.| p.i.+.j.x.pX@X|.g T.|.j #.6.g :.R.~ NXR.ZXH <.S.g @XvXx.@.n.D.B...x w.` j.j.` :.m m a `.O.H.m.iXk.W Q g 2 !.T.e J.oX| :.%X< #.gX..:.| F.gX| x.gXW e bX:X'.C.4 - r -.-.=.a 5 N.' a [ L.jX@.` x.yX5.J.c _ w.x r.g m.m.i.| K.b.L.w.u 9 i 5 [.5.$.[.D. .F. . .D.J.a.2Xa X.B.E p p x ].6.v v +.OXa.` 5.4.d.{ R.ZXk :.d.J.:.4 } k.h.OX~ < b E.|.(.u R.| 7.` [.@X$.x Z.pXj. .W - >.' E g w.K.d.] U.B 8 4X,X&.E W ` ` j.@.g.m.g.BXR.4 ;X`.u.j.+Xq.v :XmX4X<X!.|.Z.W Q (.w.O.b.x.c.b.5 a =.x p :.#.u.b.3.n.D.BX Xf.tXyXv.j.F.c v |.].| G.:.e +.s.| x.fXaX{ e r x b.tX| oXsXp.a [.J.i.l.{ d.0XqX0X<.F W.M | r.,X%Xx  X1X&.[.x.W i.yXx.j.b.a [.].g M C y m s ] [.5.| ` X.C.b.gX;.R. X'.F.W 4 T.R.>.ZXbX",
"D.5. .k.(.- O.M.p.pXJ.p @.L.O.H.J.O.' A.<.l O.#.h ] _ ]...p R R  .i.OX5.7.s.i.oX@Xx D.d.O.gX@XW +.[.7.Z.BX>X(.j (... .gX#.p g g q.3.' [.&.g D.K.| D.3.i.l.s.NX|.Q.Q e.W E.U 8XA Q.Q `. X..6.gX@.4.oXgX6.o.o.T.l l gXpXf.J. .z.9.y.W a `.=.e E L.d.s.R ' b.iXzX7.e.| l kXx.j.OXW W |.u Y.iXpX&.1X|.w.i %.@X_ X B &X&X<X6 k |.g ].,.M.fXyXOX+.+.F.W E B.+.c N.pXOX_ i Y.bXkXwXc E [.O.3 %.jXyXm.hXD._ u 2 B.p.m.pXb.} $XR g ^ &.x X.F.Q t t.Q Z V ..OX.Xv.c.k.R g C.a l E a R.!.m r x N.F.W D.n.oX7.N.P.O.:.< v ; c [._ _ zX7.).1X>.'.`.6X4 E.a = v >Xm -Xm ).&.u B.W z.5. .2.|.=.` IXNX< C T.N.VXv * F.oXj.P.r ).%X2 U.- | 7.7.B.B.4.j.p.3.3.c.gXBX{.T -.].R  .C.R v s ,X2XT.1Xv hXpXg e.cXp.@.gXBX Xr.#.` 5.XX5.O.=.4 ~ g r.%.f.M.pX7.t j M E.s m (.gX.X_ ;.k k @XOX' ..e.| lX+.O.gX6.E 1X>X[.;.b - h :.X.x (.d D <.3 [ wX0XO.O.j.yXi.5.`  XF.| r.a m.dXk.| d.u.p.D._ c }.'.I.k.' 7.D.3.].X. .P.s.A.;Xp F.3.o.Q p g 6.Z.k 2 B.n.k.| e.+.gX,.^.*X; :.i.+X:.1 R 7.j.OX~ V < u >X{.M 2Xw.} } ].L.<.l  XOXc.3.h 4 A.C.E x w.4.O...U.8 & P V e Q R w.@XO.' O.I.[.VX`.s 1XE 6.z.oXw.E :X4X3XA !.{.].R R ] E O.a.u..Xi.; D ]...h -. .i.s.+.@XkX}.~.f.9XuXv..Xi.c {.NX| ` @X(.x a.j.+.p.vX0Xz * p ..9Xv.' OXsXx.x P.n.5.u.@.0X0XyXaX<.}.!.&.X.r.4X6 Q BXU.Y.[.x.4.p.aXv.iX4.2  XA.p k s ( m ~ r.G.3.| ` | +.x.pX%.c { [.C.h l T.R.ZXAX!.",
"z.5. .6.`.1 ' p.g.pXl.R i.l.@.k.4.@.4.7...4 ' w.l l O.gX[.h g 8.5.j.OX` } F.i.x.l.E pXu.p.zXr.p q.[.].>.{.>X_.W W X. .@XB.p j g ! 6.' #X] -.L.I.O.O.7.k.n.s.(.!.Q.p ].o.V N S V T.Q v |.r.3.pX4.3.D.@X7.o.:.R ' O.pXg.x.OX9.0.9.T h u (.r.p D.pXJ.O.4 x l.m.zX6.3.s.a V.iXp.n.7...T.; R.I.H.|.1X`.C.a >.gXc X =XQ.R.Y.&.`.e.e F.p.9XvXyX.Xz.3.` 3 } ].} l %.pXj.a A.<.`.eXNXv c @XO._ V.yXsXl.a.gX` * v B. .n.oXn.s.3.W g j m p | ].k 1 ;.(.A * %..Xc.x.x.@XR ! P.' l :.$.[.=.~ p 4 h r.| P.pXj.` r.gX| -.x &.2 l [.O.d.zX XZXk N.[.{.%X< !.*.R.= C Q./ 1 |.x l L.3.J.k.} q.-.4 (.SXZXM R.E i.lXk * ..k.j.OXQ %X&X6 ).g R 3.k.4.7.' b.i.+X5.i.kXbXU.T ! ].| W ].;.g U.LXE.;XR.$.qXaXR R kXZ.%.`.bXM !.] W k.s.' ..] l v x 7.O.b.v.tXJ.R R v !.s e >XjXj.j.P.g q.h.pX` w.[.g P.d.` P.@X X~.{.'.w.k 1 g :.r.j #X..9  Xi d [.O.O.3.J.h. .} _ `.O.@.[ l pXtX3.W O.a.4.V.B.a.D Z.I.D.7.| 7.6.-.-...| `  X&.&.[.|  .W g h ` ].v ~ OX0.h.3.].2.sXV.ZXE.4 :.+.OX:.t g | 4.B.k C b ;XQ r.:. Xw.| ` w.gXc i  Xa.l.B.R E `.P.5.W $.+.` ..&.* 8 Z %Xp ~ Q ;.r.p c [  XVXlX[.W.%Xj C.h.n.l.$.bX=X&XA q a ].R R R u [ +.5..Xp.O.a.[.` [ .. .k.+.w. XBXd `.0X9XuXdXc.4.=.NXZ.` j.a.x =.s.n.j.v.xXf.@ < |.a.M.yX| k.yXx.| b.d.i.@.p.iXx.yXaXrXBXR.&.} (.C * ;XZXm &.B.J.K.x.aXm.K.c u kX;.e R e 6 E.E F.s.k.#.` X.i.v..XO.h O.wXR.u E R.ZXPXU.F ",
"k.5. .X.y.t ' a.x.iX7.h i.n.s.i.O.s.i.@.*.; W C.=.l ,.K.gX@.` D.p.h.8.E g 6.d.4.@.p.iXi.tXhXW h q.e.`.R.&.R.].o.j R } [.P.W g g r r.| G.=.|.$.I.w.W r.W G.F.x 1X&X4 $Xo.< V N ( &.Q g R.Z.+.gXJ.3.7.P.8.! t.x +.,.0X,.wXD.! e.o.1 e 2 (.q.g n.m.oXN.M p O.n.P.| +.k.| O.J.k.D.} -.M u  XL.O.|.>X` ;.l N.zXl X mXT.].:.`.#X .| 7.0XsXaXx.XXXXB._ a ].$X1 c g.pXi.E lX@.'. X>XU.[ I.u.f.V.9XvX7.j n.s.< &.| ` p.m.4.OXk.} r T.m < ` ].^ 1 ] `./ < s.j.c.XXj.kXR X.s.L.E a ' B.] R.T.p 4 Q -.G.jX4.- :.kX' :.-.:.a h P.u.H.wXBX).Q N.`.1Xb m ).(.NX* = -XT.g `.a ' P.n.K.d.8.].k 2 Y.bXKXJ &.#.J.lXv @ x ` u.gX^ Z S b `.|  .8.s.i.' _ f.b.OX5.i.kXE.b ^ T 8.O.x r.e.Q <X=XC M `.d.uXjXW j  X;.R.1XH ; e - } D.e.x 5 R.c W E 7.O.@.v.j.oXk.j v (.k 4 -.@Xi.oXk.W 6.5.pXO.F.].r | V.E w.kX Xa |.$.w.g 1 p :.C.X.#X#X5 }.l D D i 4.D.L.} R ] .._ O.B.D [ pXi.| ` g F.B.V.OX+.c gXpXu.+.F.3.O.e R.] 1 ] |.&.(.C. . .R j j x `.-.(.$Xj 5.k.y.6.jXgXZX6 s =.| +X:.t 4 ;.| ..&.~ ,XZXp r.(...B.7.W [.L._ R.:.B.7.C.;.h e.OXp.+.7.O.W ;.l b %XE.,Xu k Q :.v < 4 M ZXBXwXwX1XC t t.8.n.oXa.;X=XKX&X* a `.X.} o.a ; ] O..XtXc.K.L.` ..` ` P. .#.BX!.> Z.iXM.dXtXn.$.{.1X#.b.pXO.u R.V.iXp.x.cX_ 2 !.[.f.M.tX' ' v.tXu.3.l.i.' m.pXx.yXyXrXAXR.Q ;.=.1 m 4XQ.9 l W 8.H.p.aXx.4.l @.@X| ] | Q - C =.D.B.[.`.] #.5..X.X+.E @.[.&.3 a >XIX=X= F ",
"e.W W } q.j W Z.b.d.[ 3 d.oXJ.3.| G.l.O.] - E a.#.c ' 0XhXO.O.k.O.D.F.| x #.C._ O.K.pXi.dXpXx W e.X.T.!.U.U.:.-.g j X.OXOX .j ^ 1 -.3.s.(.{.` a.s.#.&.; ` kX] 1X5X: #X .* V 8 A T.=.Q &.`.$.gX@X`.R s.n.j X.W a.x.b.{ BXR.j |.r t p < :.q.R k.j.@. XU.4 E l.l.3.} s.p.4.l.4.' p !.k p G.pX@.`.&.[ ' ` B.@Xi # 4XT.t.C.].`...w.4.iXiX[.d.c.dX$.%.a.gXt.4 d.x.tXi.u.pX@.[.{.s a =.[.u.O.,.qXcX#.t k.@X` E x O.@.J.@.OX$X .r _._.1 ' F.~ r R.`.x W oXj.j.m.@.].o.} k.D.W e [ `.a R.(.j e ).r.| zX_ * `. X`.R W w.7.| H.oXb.VXZXv ^ &.!.=X< :.w.].|.@ q &X/ T ].h B.u.n.x.p.l.].3 E.M ;XKXU v =.O.].~ < &.l S.kXm Z y U.F.h. .3.c.J.+.` O.H.+X3.a. Xs U.^ W $X3.h =.e.|.%X7 * M eXI.xXhXG.g (.T.BX;Xs E.e g G.5.[.l &.:X;.W E 7.].<.K.j.XX5.g =.|.] h u :. XgX| X.o.5.oX@.[.t.g h A.7.` #X{.4 |.c $.g x 4 U.#.6.-.BX1XW.R.D 9 , $.J.a.#.r j >._ | `.mXY.gX|  X(.} 8.C.F.s.J.oXm.iXu.7.[.k.+.g `.E e {.(.` [.B.} #.R R R e ] `.R.-.1 k.5. . .b.zXC @ s =.| @Xt.r 4 T.&._ r.:.ZX2Xp -.].} Z.Z.W +.b.hX`.*.w.| >X{.j 7.G.+.i.J.7.#.:.R.{.T.<X%X; p -.-./ 6 ; *X4X~.I.lXZXm r o.} 8.pXa.{.ZX<Xf d c #.3.3.8...3 h =.J.sXtXtXk.E #.` x D. .;.;Xn *.I.tX9XtXm.D.:.1XU.| pXpXa.&.R.I.aX_ H.zXl ` F.N.f.qX0X' O.K.gXs.7.F.s.O.m.x.g.uXaXNXBX=.=...R j ).4X: s l e ] V.x.sXx.' ' b.l.O.w.#.] - 4 :.].].NX!.M ] 7.oXj.3.` @.V.i > %XIXmX# q %X",
"w.j ` } 6.W ` ].k.4.l 2 D.oXJ.3.+.k.l.+.[ 4 | a.| a { 0XpXO.i.D.$.C.w.E E ` .._ a.pXp.c.sXXXx X.B.W M %XU.!.R.-.~ j 6.J.J. .j ^ - Q +.B.).Y.=.w.5.+.=.3 2 w.].T.5XZ ].3.4 U.7 S T.W ~ &.R.r.gXL.{.p i.oXR j ' a.b.S.*.1X!.Q.|.r ` ].l ;.q.x J.u.E kXQ.M ..l.n.5.` 7.j..Xi.+.] l U.e E i.n.V. XM &.l l w.#Xi % U M t.#XkX` _ C.O.gX@.*. X.XpX' l K.gXp p jXv.v.v.x.c.p.kX{.5 a >.OX@.c N.wXVX..g  .P.].` x x ' l.O.5.0.} g -.|.j W ].g @ v 6X` E z.c.c.oX` W ;.R OXl.| c c E 5 ~ ].W p ;Xq.g A.c _ ].[.X.` ` 7.D.E L.pX[.SX1X~ ^ U.E.y M w.5.P.(.@ A 7 ~ T 2.g H.4.j.x.n.J.w.6 &Xs W.FXA 5 -.r.E k e (.z eX`.t S ( _.J.j.5.0.tXn.| E ' gXJ.` a.`.a ).^ q.@X8.>XBXe.6X%X; ; {. XlXzX@X6.j ^ ;X;Xn 2XR.e j 8.J.].}.!.s l _ W ..SXBXH.tXXX5.E `.].' ;.c k {.q.E C.j 5.J.p.@X! r h ;.@X` >X!.< (.' +.p :.* 2 ..C.;.&.4X4XR.i n M A.B.h |.e < (.#.} =.mX<X[.J.NX{.e.} 6. .k.oX.X@.x.b.$.].[.| `  Xx ~ 6X~ @.D.o.W -.h W W r `  X..4 k OXj.W | O.A.t 1 ~ C.3.D.:.r < v v ] ].;.|.R.v ..[.3.#.| ` O.pXzX X:.#...;X{.W 6.Z.` l.z.k.X.`.|.E &.4XE.* e ] T.V @ @ %X*X~.I.kX;Xm ^ ! ..#.OX| >XZX&.:.R.[ #.k.3.k.a.[ R.6XgXtXyXyXc.| 7.O.h e.+.;.Y.W.`.f.9XtXx.K.#.{.W.&.V.pXf.{ ~.}.gX9XD S.d._ p.u.@.0X0X0X@.Z.kXkXN.A.' @.b.v.p.x.yX0XBX/.] ` ! R W ).=X: !.] 2 h O.p.dXx.O.B.i.u.@.` O...< ; R. X`.{.M m ] 7.D.i.z.3.O.{ i H LXPXK o =XmX",
"r.R X.} X.` ..C.J.k.d i J.n.H.4.4.s.k.O.E x #.N.[ c [.lXp.' L.O.l R.*.E ] W ' E p.hX| j.cXj.` 8.+XE * %XR.R.Q.-XT.g +.n.z. .g ! j t.6. X&X5XE.-. .5.} ..%.l ].~ E.<X$Xh. .].6 7 -.} j &.R.`.pXH.R.e i..X+.R ` d.n.I.nX!.1X!.q.` x kX[.a.;.E F.c _ kX).!.#.5.c.j.W 6.b.pXp.5.C.a e h 5.p.j.4.|.R.s @ ; >. Xu $ B A Q.|.kX;.`. X`. X5 M {.J.oX@.l pXb.; Q jXp.x.yXx.j.m.[.!.b h C.pXu.c `.*.{.E W 8.+.@XW e W O.d.@.R ! G.R ! @X5.| `.M * a #X#.| k.z.j.J.` E ] g j.oXs.+.X.x l 9 F.7.g T. XW c R.[ ..[.B.' ` @X5.u [.[.VX1XW.T.T Q.m g r.3.J.D.w.* 6 e T.j o.` I.4.@.x.x.D...E.&Xs C P N s ] |.x r j  XO.kXR.y S Q.-.OXXXh.h.tXpXW x 4.gXB.p +.s.c ].t.6.k.s.6XR.o.NX1X5 x #XBXVX`.x j g ^ 7XC %X>X;.- ~ F.B.NX{.o # 0 f *.R.LX^.b.yXj.K.O. X..` V.B.p Q.Q } C.r 3.oXj.P.j 1 k c zXO.1XA - >Xw.s.e `.e p ` X.C.Q C 4X,X> = %XNXE l 6XC @ ] C.7.Z.!.1X X@X].].W j w.8.OXj.iXu.f.gX4.F.Z.| ' @Xh ~ 1Xp B.P.R Q ] g W } ` D.@XO.3 {.P.n.} | N.E k k (.V.+.8.-.g a 2 l `.-.x ;.].$.W z.l.' x s.l.d.'.NX] ;.`.(.:.} X.;.| l.oX7.r.NX] j :.E.q ; M -.^ : o b M !.~.[.kXU./ ;.W -.:.].x KXmXh `.:X[ 7.+X5.h.i.L.!.Y. XlXdXyXx.O.3.w.c `.`.#.(. XN.@.m.v.v.J.R.%Xp `.gXd.{ d $.zXhXp.{ x.u.u.l.@.b.b.S.eX>.}.VX XR.(._ Z.K.x.i.v.tX0XZXF >.W T T ] |.m m >Xl 2 u c p.sXx.O.7.5.u.' h | ].2 C 6X|.Q.U.M k W 7.D.4.n.l.,.D 9 mXPX3Xn 0 HX4X",
":.5 ..] ;...W r.G.B.9 d P.k.B.O.+.s.k.| W W ' %.=.a S.hX@.u.@Xh v ^.v T.] E X.E u.aXj.| OX5.5.k.@XW @ b Q (./ !.|.j 3.OXG. .j w.].-.r.1XV 5Xm t j D.s.O.kXL.F.R @ M G.j.c.].t 1 -.;.e &.!.R.pXpX(.e u.iXh.3.O.d.P.wXBX*XZXp w.7.u Z.J.+.| c [.l 5  XT.T.#.O..XoXR } b.pXm.i.F.< e =.5.j.K.O.&.m A o 0 T.].E U N A ;XW ].;.=.*.:X{.5 / M e.OXL.d.pX@.- =.zX| u.sX.Xi.OX>.=Xb g F.oXi.O.`.i [ x X.F.R G.7.g ].a.O.Z.[.k.0.R W k.n.5.].M @ p  XN.7.s.5.z.L.;.(.E } j..Xi.R 6.` &.3 L.D.W R #XR.k !.T.] k.J.| | pXz.p |.>XBX, T.:.^ m m q.k.+.pXl.' ; 6 ~ _.Q -.L.K.b.O.j.z.s.h W.A 2 =XI 8 C Q `.g 1 Q kXf.'.&.s y ( -.gXXXh.5.g.jX .` b.pX| 4 O.z.W @X .g P.w.T.~ &.6X>Xl ` kXSX X] < ~ ~ m ( ( ;X;.O.g T.x r.BXi + o + = M ZXKXn gXdXj.m.d.[.c ..d.@X~ m -.r.t.j | pXi.D.R < e g lX'.4X+ 5  X7.D.h C.g -...| y.y.s V 4XJ > ;X1X3 ] `.C 4 r ].2.8.|.*.`.#X7.[.E t C.8.h.+Xm.H.gXwXa.F.>.E ' @Xe U.-Xe ].@.e e ] '  .3.b.pXH.%.R.nXP.j.7.w.F.R g Q #.c | 7.! h v ; _ |.).&.| V.s.| n.h.3.a.+.k.wXrX>X&.`.kXC.6.6.6.` w.s.n.} [.#X_ o.-./ 2 ; M (.-.y 8 Z U.~.>.'.`.k R.e.} E R.-.s PXU x  XR.D ].J.5.oX3.gX>Xi d L.dXXXx.O.s.kX{.{.`.7.[.F.D.@.iXv.c.H.)./ ] O.J.O.D 9 d.hXm.f.,.pXm.K.b.u.pXO.,.eXbXIXNX~.{.R._ [.0Xx.i.x.tXhXZXn ..` j Q R.{.p ). X3 l _ c g.vX@.` #.@.$.[ u W  XM ZXNX|.U.E.U.j R 6.Z.4.5.i.{ 0 J PX,XW.H W.4X3X",
"!.@ u ] ;...j q.6...@ D L.d.N.E  .8.V.+. .| ` ] ;.a 0XpXO.l.k.R ^.%X; R.=.E Q r O.sXdXi.`  .5.D.$Xh * ~ =.E R.*.#XW | @XF.W W @X=.- Q.W.* V m 1 R +.i.b.0XpX$Xj @ u ].z.j.zXk - k R.p a T...pXaX].a 4.iXn.k.4.a. X X<XZXW.u ].[.a ' J.3.a.' a.{ = `.] ] C.O.iXoX} W i.m.K.u.G.j p (.+.u.jXa.e 7 &X7 H z ;.`.;X6 Q.U.p | C.] = ;X%XE.C 1 } s.OXn.4.7.; -.gX' @.jXj.3.'.F =XC h e.J.p.@.]._ ` E 5.@XW } [.` @.a.a.|.`.F.2.Q g  .OXh.[.m @ e L.L.@Xx } b.a.(.R.R D.XXc.OX} 2.X.&.9 4.OXP.W v u b %XKXv D.i._ A.oXK.x R.1Xb 3 &.].Q r T y.5.@.K.P...4 p W 6.2.! oXv.K.O.p.l.F.p E.n , KXY 8 m -.`.r - v kXrX~.i m m ~ t.pXtX.Xi.f.pX . .n.l.O.a @.oX .OXR W BXR./ ,XQ.-X{.`.`.CXgXB.p < 7X%Xm ( %X!.C.+.).g ; >X XD # o o X C LXbX{.kXs.c.m.0X'.l ;.Z.BXR.k -.t.G.3.' pXi..X..p e l kXNXA + &.| O.B.l w.j R ..| 2.y.-.e Z 4XR. XU.a }.>.s n - _.2.2.[...h 6XD.P.q.t 8.5.0.5.u.wXBX}.%.].R.a ' @Xg ).C ~ |.p @ * ;.s.8.k.iXg.d.Z.BXNXiXv.B.[.F.W g ! w.a V.B.] Q x E P.X.2XT.7.OX7.` z.XXh.j.| b.BXNX[.Z.L.gX8.6.8.3.| a.k.3.| D.D. .! _.m y 5 p -.:.R.2 o M =.{ {.x g t.k.s.W R.m 8XUXA p |.:XAXC.` 5.pX5.P.`.z c u.dXyXx.O.8.#X1XU.r.3.l.J.p.@.iXv.p.L.&.T.`.E i.4.c l pXpX,.M.pXjX0XiXj..Xn.+.' bXIXLXG >.{.{.$.a.0Xp.i.j.tXhXbXH [.3.j ^ ;X).] C.A.i B.$.{ H.xX' _ =.#...R.v x  X1XZX`.`.U.U.Q ..W  .6.O.5.B.i , LX4XF {.v !.2X!.",
",X> + M :.E W o.} c X F L.D.N.a 3.4.B.a.k.7.$.$._ ' H.K.p.J.z.7.&.Y.* Q ] ] Q e ' hXXXpX| E 5.P.=.< c :.[.l `.'.gX3.W #X$Xh | zX] @ W.b 2 M ).g w.| s.j.m.oX].r 4 k |.j O.lXT.- p ).R.2 &.` hXgX{ l @.K.K.i.u.Z.BX{.mXKXb M }.NXl >.zXu.p.' ' S.' [ E ] `.7.iXK.;.-.a.H.b.i.i.8.} X.7.u.aXgXm : A 5X;Xd ;. XM C 1Xa W 7.[.p @ *XC ( m 1 g 6.OXoXk.#.; >X[.` g.pX| F.}.*X&Xq h G.J.x.| P.].' W D.J.W R C.7.O.p.wX{.{.C.W -.R R 5.h.k.s * 5 [.pXJ.r  .J.4. X-.W J.oXp.OX3.W =.U.3 _ I.OXe.a V V E.( ~ G.l.u A.K.OX} ).E.s {.] t.j r -.e.s.@.pXOXW p Q  .8.2. ..Xc.K.b.x.i.C.e Q.%XC PXP $ ^ _.} R t p lXVX~.* ~ ~ Q t.jXyXn.O.x.hX| X.D.3.] c +.@XJ.k.o.(.1X{.E.-Xy %X-. XNXCX@.[.s b KXZ m Q.( / `.].>Xs T.>X:.{.M X   o 3XZXY.NXN.u u.pXL.`.E R.}.NXT.-.q.6.6.G._ pXp.iX| c p ~ AX>X* 6 `.$.| 7.` A.x E [ ..o.q.t.^ ; C {.(.p *.kX$.s n < -.y. .s.].1 &.I.pX6.W 6.} 2.3.3.[.ZXn A.].&.D ' [.E ).y T.|.] 2 @ ] G. .G.g.,.,.eXNXkXx.c.[.[.F.} T ! w._ $.w.] j | F.k.x 2XU.4.b.B.` z..Xj.p.h.gXnXnX[.i.J.K.3.8.k.` | a.j.j.s.L.k.|  .-.m y m p -.R.~ + o M >.w.(.t R 8.i.l.| T.C KXPX4X).|.AXbX` E p.iXi.J.<.c @.K.iXpXiX@.7.(.4XU.`.3.j.h.n.u.0Xb.J.D.E |.w.E j.j.' [.gXm.b.0XjXhXhXK.K.K.j.s.>.AXLXmXG D >XNX| @.u.O.i.j.M.L.bX*X#.G.X.-.2X>X' F.O._ gXO.O.0XxX{ =.c `.>.!.W.c [.BX{.`.' =.&.j t.! o.} E  .w.v <XKXb '.N.&.!.2X-.",
"%X&X# w ).e E ` t.l X *.L.gXO.p 3.5.u.d.OX+.@.w.,.V.O.| D.oXn.D.E :.a ] 4 ~ ~ p ' zXu.pXH.` e.[.-.x 8.5.G.| *.NXhXh.E ].$X} f.pX;.4 ;XF [ [.#Xg $.@.5.h.n.H.(.r e v &.* _ lXR.1 r T.2X2 5 `.nX{.d i ' n.tXg.a.|.6XQ.PXHXq %XY.:X2 v zXg.u.f.u.[.r.x x ] -.#.iXb...x $.[.J. .| G. . .s.u.dXhX&.7 8 &X>Xc `.1Xb <XNX_ E q.$Xe ; T.!.m &.p p ..G.9.z.+.3 >XB.| O.gX+.C.bX4Xq 3 ..J.n.x.| 7.].W E OXG.W g | J.j..XI.R.!.C.W ! T R ` 5.C.< E.5 I.sXtX .6.D.a.|.=.` D.@Xs.m.H.v 2 m u a Z.hXd.v %X( / T.-.s.V.4 &.G.OX{.;X4 R.[.7.q.R j q.e.8.O.oXOX .j ! 2.k.5.5.tXXXm.u.x.p.>.^.E.&X4XLXJ * T.C. .X.j p lXzX..u R.&.r w.dXyXoXh @.cX$.;.`.R `...E e.].X.o.Q R.2XU.< < ( M  XSXeX` |.n &X%X6 ( m b n T.{.!.U.R.`.] _.{.= X % HX=X'.[.@.,.{ zX[.>.E R.mX%XC.lXF.` r t.x @.c.sXE Q x U.ZXE.1 ^ s.K.| 3.O.[.Q e ~.}.p W C.q.r 4 R.*.4 {.@X7.v U.e j e.3. .SXb 4 a.pXk.! R } 6.3.9.;.,X6 (.F.Z.' ` [.`.{.s {.t.(.b @ h P. .k.L.%.<.BXC.L.i.J.[.#.P.} T -.q.} w.' p ` l.gXo.~ ,XE.7.h.a.W 9.OXp.p.j.zXBXbXg.m.aXp.5.3.J.| ' a.b.jXkX[.D.|  .:.t 7 / M Q &.C @ o M `.q.] g B.3.O.d.#.;.H IXFXA Q.2XZXf ' | x.iXj.5.l l O.oX+XG.[.@.$.>X=XC ].3.h.j.j.5.P.B.#X| 4.[.` | K.c.` P.[.O.K.hXCXgXgX0XwX[.7.N.bXLXZX:X*.i BXnX#.+.` E s.p.' Z.ZX2 h C.X.q.NX>.7.P.O.@.gXO.@.iXsX@.| W ].&.U.!.W [.|.>.`.E ;.} E e.6.} W R +.#.W.KXW.*.@Xs.&.,X!.&.",
"V A =Xw ;Xp c ` `.c + &.K.pX;.[ 6.5.u.H.d.@.O.' ' S.F.` k.n..XK.' ] Z.;.e M T.Q ..BX[.gXP.s.E {.R.Q G.5.l.V.>.<.gXoXR (.$X+.9XaX].j v *.a.K.gXh a '  .h.oXO.:.k g ~ M o _ zX|.4 r ~ &.2 * *.{.*.i i ' k.pXp.Z.BXT.%XPX5X7 C %XU.1 g gXg.f.p.p.I.w.j a -.] w.pXb.c c [ w.[.3.O.3.2. .L.f.dXpX;.b V J {.>.BX%XA 4X}.] p e.gXO.c v ;Xv A.$.a x e.o.0.G.D >X].W _ pX5.w.;X&X6 p 7.n.c.x.' ;.#.| W @XG.} r p k.n.OX[.i U.`.! -.T q.W 3.C.6 E.u hXyXtX[.X.C...R R | @.@XV.oXgXi o m e 2 %.hXH.c Q.,X/ Q.1 $.[.e k 6.F.BXm k (.L.s.#.} ! e.B. .3.k.OX2.R } 3.h.5.+.XXc.oX4.iXd.{.mXA S ,X;X&X@ -.(.W 6.R g hXiXO.`.{.-.g X.pXyXgXE _ CXa.;.T.T ] :.W h r.R -.r o.NXT.- E.m e NXSX'...&.C =X7 4 / ( ( ; U.Y.2 3 [ ].~ g  Xz X q 3XC NXE ' kX[.kX~.c p 1XKXZ '.lXD.W e ].x ` u.oXE Q a !.,X6 j 2.i.jXs.+.| #Xg 5 ZX;Xe < q.].Q k R.m - &.G.B.] !.g j X.#.j |.&X< >.gXP.j h ].8. .0.X.A 7 ] 7.L.' ' gX{.F ~ {.t.T.< @ e [.5.3.kX_ `.>._ s.3.OX X_ NX6.T -.;.| ].x 4 r.gXh.j E.8XA #.OXs.E ! 5.i.l.n.kXmXmXb.dX.Xi.k.7.z.l.} | wXlX,.[.V.| 6.Q 6 V M r j -.Z V + u (. .R ` pX@.l [.8.#.*XPXP S 1 ,XKX2 N.i.x.tXj.5.9 D @.gXF.t ]. X~.ZXJ b t.3.i.z.p.+.V.B.e.| OXW p $.oX.X@.zXC.>.[.VX'.eXkXeXnX<.%.`.LXMXnX<._ _ NX X+.[.w.c D.' c NXM * p q.o.e.C.@.3.s.| s.V.' u.pXjX@.h `.`.&.M k R F.F.$.A._ | o.E w.q.o.Q Q 6.r.;X!.a  X@XF.F 4Xv -.",
"A @ *X^.{.x x #.A._ i >.iXm.w.:.#.6.O.,.O.a.O.D 9 z [.i.l.h.XXoX:.a [.V.2 s ^ Q &.{. X XI.L.p ).&.:.J.z.j.s.[.D K.zX] X.@X5.9XsX@Xj 4 `.4.J.gXp 2 %. .i.b.O.E x Q Q v ; z A.#Xj t C Q ..< -.(.[ d c ' 3.tXg.bX;Xg 2XKXZ 7 ( Q.T.k e K.iXH.@.p.pX6.x h ;.E ' pX0Xc x E w...;.F.+.2.6.V.{ hX@.` R.M s =.6X1X* =X%X!.x a [.gXs.l 2 -.] F.i.s.3.2.2.h.J.'.}.A.l 5 zXgXw.Q.W.&.R 3.c.c.K.c E 6.6.g ] w.X.p p  .[. X{.; 6 T.Q o.! 8.O.h.;.7 A ' jXtXoX`.R.~ k k ] #.` [.O.5.gX&.+ ] j ; %.hXV._ &.).%X( 4 A.kX~ 1 R ].Y.; j t.s.s.r.]  .0.8.3.3.h.+X3.T ! 5.5.3.2.c.n.4.D.b.V.Y.%XV Z ,Xn ,X= ] `.R ] ).` pXpXO.[.>XT.j e.gXoXs.s.a zXF.r.).m s U.E e ].o.] j  .[.c v 2Xe 6 LXBXL.Z.x Z &X@ v / ^ Q.b *XW.C s a |.Q.< ] }.+ U &XU.>Xe i bXBX X(.e c NXA n ;.@XB.W j ].W | u.p.X.r m <XA y ^ 2.5.oXl.5.3.L.u U.4XE.U.@ g |.e.-.).2 p (.| | d 2X_.r E ..} -.,X* z BX].g x t.8.2.0.t.4 C x w.F.' O.kXR.5 T.R.{.s 8 @ 4 [.p.4.V.O.`.l a ].D.].|.&.BX:.T _.o.o.[.h ; `.@X6.Q / : A :.h.pX5.W G.@.d.pX[.mX<X,.dXx.5.6.6.p.OX7.W NXnXO.pXD.` 2.=.- C ] W J.o.!.&X6 u `.6.W s.pX4.u D.n.a.mX=X7 m y 4X4Xn gXXXm.tX.Xh.[ }.%.@X..2 1X!.!.KX=Xb R 9.h.OXk.| u.s.+.k.@Xa e C.n.tXx.[.=.&.:XZX9 :X:XAX^.>.:.AXIXPX{.' ..A.NX[.3.P.C.l e.} OX(.* @ k ..o.].7. .5.} W C.h z A.N.lX,.` [.Y.s U.k g X.[.N.>.l R q.E ] :.Q Q Q ..;.{.a _ zX#.R.*X,X[ w.",
"Z =X= !.#XE ' B.w.l D ~.P.H.:.&.;.#.@.,.O.O.,.S.z 9 [.D.J.j.j.pX`.< O.gX2 - k ~ M U.&...D.B.Q.%X~ `.3.oXh.E wX,.' ].).;.+X3.M.sX@Xj ' [.| P.@Xj a ..` 5.K.b.g ] =.h a U.f > @X} t b x :.p r.r.E i ] #.O.c.K.;X6 ] (.;Xb 7 %X< U./ 4 f.xXA.l f.sX8.W | Z.] x b.oXE e x -.>...[.s. .9.%.z gX_ x #X&.5 W 6XC V &XC {.u O.K.dXp.3 5 E | J. .OXD.} 9.h.pX$.`.#.p c lX .` &.&.=.W 5..XtXpXc u 6.6.#.a h ..W r.E `.>XU.* 6 e ~ -.T J.5.l.-.A V ].pXb.kXR.Q.C e k E #.[.:.x | @X`.@ o.} 4 C.zXO.] j U.,X&XV _ CX!.< -.-.&.).r W 5.OX=.&.e.5.5.| i.c.oX9.! ! k.u.0.5.h.OX+.8.l.B.f E.7 4X,XJ ,X< ~ ).j -.T.h I.hX5.[.|.v W 6.F.O.E @Xl [.[.(.).b y !.r.} ].t.W #.@XB.@ v 6X4 V LXZ.J.F.c J q 3 >XT.T k ~ 2X;X;XC ;X{.M ; 4 {.H &Xb 4X~ e %XKXNX|.-.p `.`.@ C l ].e. .6.6.q.7.s.L.`.< &X,X* M o. .h.j.z.h.j.[.l 1X=XA E.- * (.P.8.T.- R.].#.c > !.).t x (.w.W / - i BX|.r Q W 9.0.2.t.g T...@Xk.} $.kX&.Y.R.:.&.* $ + e |.n.c.u.L.$.l W :.[.`.2X!.nX] Q _.! W kX2 4  X7.w.R.M * C (.D.J.OXs.L.[.P.u.A.KX=XS.aXj.| x } u.P.#.E :X*.,.u.P.}  .Q 1 E.#.k.n.} Q.C M e e.D.' K.oXp.u Z.+XD.KXU b m m KXZ v VXoXc.XXyXx.`.}.O.[.>.R.%Xb &XKX*XU.R 3.5.gXF.O.d.p.i.gXL.E x Z.7.gXpXL.R.M 4X=XC &XmXmX!.Y.:XIXKXmX{.r. X_ ` @Xx.l._ a +.G.#XQ $ $ k r._.(. .5.s.G.} j - v :.c kX,.L.].&.u !.^ h W @XV.[ a h -.Q j ] Q k g E ;.:.l D.L.3 F <X%X;.D.",
"5X4X8 m @Xi.5.L.Z.a _ `.%.`.&.&.-.+.u.H.a.3.v.hXi 9 eX[.D.j.j.iX$Xe h NX;.< m / < M v 2 4.].-X( M |._ L.D.' pXwXR.~ ~ -.G.+.f.pXOX .l.OXO.F.D.} a ` #.O.b.K.E 6.R x ; Y.W.+ ` -.k y p :.` G.s.' x q.F.' i.gXs * r.3.W ~ y S * ; &X5 D VXc ; ,.jX| W 4.H.N._ i.OXW e < ~ F.V.>.:. .3.O.' l.+.x  X:.x X.(.C %Xs W.~.l P.c.sXf.= 3 E 3.OX5.n.5.R 9.z.OX_ %.` O.OXP.W ..-.Q R } i.m.v.b.l _ e.3.k.N.a z E ].W :.>X4 @ y < m T.! OXi.J.-.V 8 R.<.>.{.!.E.!.4 ] E ' BXM e W B.].4  .6.` w.kXc :.Q ,X,X5XZ u BX(.4 `.x :.>Xj T 5.@X&.&.C.s.k.` | j.k.8.9.! D.i.h.0. .P. .k.5.L.9 A S &X7 %X:X; 7 7 g |.m * D [.p.@X).k t.6.].e x [._ `.a v T.< / {.@Xz.r.` | ].|.a + U.4X< m |.s.m.zX=.Z 7 {.NX-.T -.;.A...j ~ ZXn f R.2 c {.9 q ,Xy ,X4XmX>X`.R.g | ].z f g `.q.3.G.5.s.+.7.#.x u <X( * M 2.2.j.j.j.l.l.N.R.ZX8XA C t @ ] OXi.x e  X` V.;.v U.~ 1 a ).t. .R g u >XR.1 Q R ! 0.X.Q Q ] +.OXs.| V. X&.>X X|.a 5 : @ J ~.pXyXc.l.@.| =.:.`.{.,XM r.+.o.(.h ] kX< p V.D.@.).~ - ~ R.%._ [.[.[.gXzXO.R.4XE.zXdXx.5.}  .+.N.=.R.Y.D kX' @.| q.R r -.4.l.| =.m s &.g X.G.a.gXd.[...`.P.A.KXN V m C KXQ.4 &.#Xk.tXyXm.(.`.B.l.P.;.; B FXmXk `.C.0.5.P.A.<.[.p.c.iXoX .3.[._  X[.N.{.~ !.%X&XJ LX%X!.H PXPXZXR.~ T.|.h r ].p.u._ e G.$X-.y @ : &.|.>XR 7.i.3.gXs.g < M ).u <.[.[.;.v M T.^ ^ R ].C._ l x W o.R ! o.Q g ] `.C.| @X@.i F =XH >.[.",
"HX3X7 m [.c.5.P.Z.2 [ T.&.U.6 m ] O.@.0Xd.i.yXx.3 &.BX>.u.O.} j.@X} 4 '.kX..T.C - U.{.d 7. X%XC F }.h Z.L.4.9XwX{.~ r ] e.4.u.b.oXj.j.iX7.6.8.+.W ..].' g.0XJ.8.] x * M E.n z (.y m 5 ;.3.k.k.| #.B.P.| O.kXx a P.3.W &.4 < 6 = &XC 3  X2 * f.jXh E @.H.H.@.+.P.g M ; 4 6.zX`.;.q.| ' V.j.OXx ].C.C.r.:./ t M `.D %.pXv.vX,.> 2 ` P.oXoX+X .j 6.@XG.l %.W kX' O.;.` j R W #.i.m.9X@.z BX6.3.k.@Xa ; x r.=.=.|.- < m b s ( ^ B.k.8.X.b : 4 h F !./ !. Xe t.W @.[.2 2 ^ C.[.` 7.` } | `.a `.&.m 8X5X=Xc ].(.r q.' Z.q.Q R k.G.:.{.].G.3.+.O.p.+.6.8.} k.i.h.z.} G. .G.h.B.= 7 V y + %X;X- 7 V T.(.&.* [ '.p.G.R.k ].e.(.- ` B.O.C.; T.-X4 ZXR.z.XX| }  .F.{.- @ U.-X7 ~ ] i..XzX' s E.{.r.r -.|. XF.q.j (.1Xb F NX` e R.i f U.Q.4XB KX(.t.T.g ` B.].p j q.C. .n.+Xh.` #.e a T.1Xm < -.2.9.h.5.h.n.u.` NXZX6 S ( / @ e OXn.r ] [._ ' '.R.s p M 1X!.=.X.! q.x NXU.r -.j j G.(.Q ..o.k.s.l.| '.`.[ *.>Xh h  X6 A <X>.pXXXc.i.s.[.`.R.`.{.%X- +.D.} -.] :. Xu a H.gXw.~ / t ~ :.D c }.BXlXg.gX;.!.&Xn zXc.@.D.G.5.| ;.R.R.F NXVXW ' ` _.-.j W k.i.W &.4 4 (.` ` #XCXkXL.BXeX>.[.nXPXN 8 7 &XZX{.r.p (.NXOXpXpX_ {.].s.D.h 2 A KXV x [.OX3.0.G.w.A.I.x.tXpXn.i.n.gXa F ].@.(.R.Q.%XV 4XKX=XE.mXUXmXnXW ~ ~ &.g Q j d.H.>.x P.].~ - - C !.6X_.W OX4.O.K.D.' e v T.< ..kX'.[ l R.k ^ T.j :.|.=.l E o.;.! ! ] Q ~ T.{.`.B.P.a.[ {.E.M `.kX",
"4X&X8 C [.c.j.j.[.a Y.U.-XZ S V Q  .@.pXH.O.c.@.2  X^.&.'.d.W 3.pXh.p ' OX@X).y t !. X$.r.&.M M NX X[ `.P.4.x.hXx ^ W W  .k.d.p.iXXXc.pXB.6.J.3.6.h | _ p.iXgX| ` ..p R.=X%Xi |.m m 5 ..k.0.h. ...| G.5.' gXB.B.OX5.h &.e s M * C &X= M 4 9 m.sXE X.O.S.S.,.| w.< U.s ; ] C.gXL.`...@.J.c.gXe `.].B.+.q.j g `...l `.K.x.vX@.a E O..X.XiX5.` c c t.| x ' F.| ; a >.` W q.] q.l.tXtXK.E  X] q.h.P.5 + _ w.....r.x Q T.s V Q.k ..F.8.W s 6 1 -.*XY.4 (.zX5.F.W kXc @ 2 ] C.k.5.G.x 6.] *.>.$.;.( 5X3X=X:.[.:.R 6.5.J.D.j ! 8.k.W ;.].].O.l.pXl.a.} ].3.5.5.h..X .$X6.B.D.w.0 V / t @ E.).- 7 Q.R.x ..E NXO.5.@Xx p F.o.u * | i.5.F.2 U.!.M ZX-.n.pX4.O.+.[.v ; * T.( y k W $.K.gXO.E 2X`.E Q {. X Xl :.(.6X,Xn R.[.s.| >.&.&.{.(.~ &XKX;.| T.4 E ..@X| R q.[.R j.pXJ.` +.W `.(.`.x - (.2.5.8.3.3.J.C.`.BX>X1 y Q.Q.6 - F.D.r ].P.' a A.!.6 g ;XZX; k _.W $X' |.~ 1 ^ r R ].].! 6.6.G.R 5.@.[.`.A.>.!.2 ' VXd !.f %.jXc.v.x.V.BX6Xv M ;X=X- P.oX} -.>XR.{.i c lXa. XM s r Q R.a q mXAXlXg.K.' !.7 C kXi._ A.C. .o.-.R.d >XAX].x _ >.(.^ ^ ! P.O.u &.p ~  X] {.AX[.$.E C.V.' '.LX5X& 7 7 =XmX..BX-.< Y.BXNX_ l {.`. X<.=.U.Z 3X* ].OX7.R 3.k.4.H.m.m.yXtXO.w.OX[.u 3  X[.>.6X7XZ U KX3XE.J PXZX:X XE ~ T.~ h $Xh 7.C.r.r.r.].U.- 1 / %XZXj ].P.O.@.pXK.4.x -.k v wXkX~.&.x `.r ~ T.k R.|.:.p E #.2.} R R R v U.Q.=.B.p.d.D >Xa &. X X",
"*X%X8 4 [.x.XXi.Z.&.U.C ,XS A Z =.8.+.H.gX| D.` _ kXv &.' [.G. .OXh.| ' b.OXr.p 5 E [.+.).~ ; `.BXA.;XY.Z.j.p.pX} g ! ! ! 3.l.j.tXXXyXtXs.7.P.+.6.a | @.O.dXiXE | w.l `.;X2 3 NXM M &.;.$X9.8.7.;.x w.O.O.gXk.gXOXk.W -.4 g M * 6 %X= ; n c pXsX7.w.' a.0Xf.O.q.- n s !.u u K.K.A.` l.c.c.gX2 :.@XE ` 8.} e.[.| l  XgXp.jX@.c #.` j.dXv.3.' _ a j j N.Z...g v * l W q.].W q.n.tXyXiXl -.T.` k.D.&.@ _ ;.h :.#.r.r.T.s V ( m p `.q.Q ( m r  XZXs e F.+Xn.G.W kXz @ 5 R o.k.z.@X` | ;.a A.P.w.Q.Z P E.`.[.W X.e.5..Xj.T ! o.k.B.#.E  X7.gXgXu.F.#.kXZ. .3.p.iX+.G.| 7.G.C.U.6 v t 3 U.U.* s 1XQ p | kX|.4  .@Xp ] $X6.< @ ' k.@X].2 m %X1X/ ] OXpXI.| | ].u :.* ).-X1 g -.@.V.J.5.B.C.(.h R.{.|.{.; `.x l ,X> v %.J.k. X`.p  X} E mX4Xg #.u * Q r.P.k.x C.F.R h.pX@X7.3.F.].w.].j r (.9.2.W e. .P. XNX`.6Xg ^ 2X/ &X4 (.e.j @XI.c _  X4XE.e BX,X+ y Q.Q ;.| ].-.- j Q -.(.e.W 6.7.].g 7.[.[.A.V.N.;X=  XBX[ `.d O.pXx.c.p.[.NXR.k = 4X5X; @Xn.6.#X=.=.!.5 %.zXc  X2Xb v k T.s &XZXBXlXf.H.`.;X: Z ].V.<.NX[.} R p R.bXZX`.].e ' `.` o.T ! @XO.a -.4 / {.>XZXZX XN.l 7.@X%.{.PXN % 7 b 4X<XW $X:.u ; U.`.c -.~ :XZX%. Xv %Xb ~ @XOXB.j 2.k.u.iXv.yXyX@.x ] @X@.k u eXkX{ BX,XP 3X3XZ V 3XmX:XNXN.W j ^ Q p kXO.R r.|.`.`.6XT.- - C ZX7XR 8.V.{ g.pXd.@.E Q k BXzXgX{.U.p (.j M Q.u Q.{.T.p W 6.} 2.! ! Q u C E.v #.u.H.D *.u `.}.~.",
"R.{.C < [.p..X@.%.|.s E.%X7 8Xb Q e.:.c gXs.=.e `. Xp R.3 <.@XR k.gXB.' i.iXG.| u _ 4.8.6Xg 3 eXzX{ %XJ ` OXu.P.e.T T o. . .l.z.c.tXuXyXl.7.Z.' w.E K.m.@.aXpXO.B.C.x r.(.< 5 NX~ ~ [ @.$XT j #.q.` Q l @.pXI.l.OXk. .#.p :.v > 3 !.; s v ` pXaXD.Z.' f.qXf.5.-.< > E.<X; ] K.pXZ.' c.iX@.| 5 ' gX4.@.k.2.2.F.| c A.gXx.jXu.@.4.p.tXyXx.5.4.L.l e ~  Xw.< ~ R.3 u l q.].X.w.m.tX9XpXp &.R.W k.5.].4 ] R.p :._ `.|.&.2 b ( / h r.).k ;Xk r #X%X; x OXJ.+XP.[.@.%.&.< p W 2.5.OX5.+.O.x V.oXD.s V Z n `.@X .e.e.| oXj.} ! ! 6.D.[.E x #.kX4.+.G.e.NX`.@.O.p.aX+.5. .s.s.D.] p -.j l *.M @ R.R.p a s.zX&.s g ] R e.D.D.g 4 +.D.`.T.m 5 <X1Xt j J.pXI.[.' ' ` [.5 2X-X1 T o.#.w.E ].7.D.8.| |.1XU.T.u [.| < &XV n l R G.NX*.W #X6.&.PXP ; R.* @ ] C.@X` W B.B.x } gXE ] k.OX+.w.].R  .e.6.} g X.6.].ZX>XE #Xx q.=.Q / m !.] ' gXL.c ' BX=XA / ZXE.* y ~ ] 6.L.@Xr.e e x e &.y.!  .7.].(... X[.V.H.Z.%X@ R.NX' P.,.g.p.x.c.k.[.[ v s = KXZ m B.5.gX4.' [ !.i [ _ _ }.LXE.m / E.ZXmX:XhXaX0XzX`.2X* A 6X$.>XAXr.e.W Q ZXPX..].:.u [.'  . .! W @Xu.W R.4 2 <X,X%XbX].l.+.u.J.%.<XKX$ : 6 b HX&Xk X.W [.M * 1 R.R.a ZX{.[.a.v 1Xv  Xd.J.I.g W 8.n.iXv.aXtXp.l &.kX$.&.C :X}.$.`.m 3X5XP 0 C PX&X[.gXO.X.X...k h gXs.j _.|.(.=.^.E.@ * 4XPX&XQ  .7.O.b.K.a.%.p g -XZXI.hX}.M 3 `.v M M %XQ./ U.g ] W W X.! -.R.a M ~ U.-.@.H.Z.[ a `.R.R.",
"$.`.1Xt N.p.K.@.>.;Xs %XC E.&X< T X.&.5 Z.].u 2 |.:.E C.@ <.NXx +.[.[.O.' n.gX5.l B. .G.NX4 _ gXzXO.E.,X;.F.O.O.].! g X. . .9.h..XyXuXv.J.B.;.c $.x p.iXf.aXtXu.#.`.W #.].g * [.R.x @.H.$Xj j ..e.X.&.a a.pXgXO.4.s.X.` h kX*.d u >Xb M ] O.iXpX@X7.' ,.0Xp.k.! 4 5 W.W.* z V.K.H.d.pX.X_ E p ' zXO.u.OX5.9.6.W w.Z.$.V.jXO.p.3.tXyXtXm.j.i.L.A.&.&.C.| 5 &.R.3 > v q. .}  .iXtXv.hXa u &.W D.l.[.h a ~ -.l 5 :.|.&.0 > ( / -.=.&.m / 1 j _.s 2 ` J.F.} [.#.' D &.&.e R t.R h.J.D.5.5.OXc.d.x C Z t >.zX+.2.G.R p.iXk.! ! ! D.F.`.p e  Xh #.].r.>X`.u.i.v.hXE +.O.i.+.J.#.` o.} $.` T.p >X{.n u @X[.U.C p h W k.h.OXC.w.P.F.a s T.M *X,Xm t D.jXzXlX' _ u.[.] 1Xm 1 / Q t.e.x ].4.s.k.B.{.7X; ; l gXgX`.A P ( g p (.7X!.j @XF.R.JX8 n &.9 9 ' F.8.| 6.Z.F.4.k.| * 4 s.j.3.7.P.3.G. .8.;.e Q } ].{.9 p q.x @X| `.R.5 V / 7.gXwX' O.NX=XB / 2XE.C 6 M Q  .OXJ.e.x 1 h p j y.3.2.e.`.>X&.nXN.H.l.>.A @ U.>._ gXg.iXp..Xi.D.[.l [ > Z KX7 ~ | D.@X' 3. XM M a _ { >.ZXE.y %XLXZX!.{ aXfXhX{ (.Q.* Q.NX%.{.>.#.|.] >XPX{.@.B.x x [.O.3. .W ! G.i.P.`.s J =X= KX;X+.h.j.j.@.`.LX5X+ m m C KXA k ..3.@X Xv 1 ^ U.W.4X&.[.$.>XT.r.P.4.m.gXg g F.n.v.yXaXdXV.i M kXA.U.E.!.R.wX' < GXA S 3 mX4X, zX.Xs.| F.;.k g @XD.o.-.t.:.h &.C 7 &XLX3Xb -. .O.a.pXb.@.E 2 M ,X{.0XhX~.9 3 {.> n bXZXb b ~ h :.u 5 -.W ] r.x Q !.W.T.a.K.[...5 :.:XY.",
"a.X.T.g %.@.gXa.{.U.m Q.r ;X( 1 T -.U.3 E |.a a {.h F.O.9 [.|.4 ` r.:.(._ @.iXn.E P.5.F.(.p b.jXgX' c |.;.].u.' e.j r -.6. . .5.XXyXyXg.d.r.] :.C.E O.tX9XaXv.J.-.R.#.7.OX' * '.`.W K.n.6.r j =.B.7.] p 4.J.hXO.O.r.x h a lX$.l a NXE.M N.b.l.J.@Xa.O.D b.g.l.! < s U.v = 9 [.jXu.b.jX.X} ` c ' wX' ' H.l.8.6.7.J.P.[ >.zXO.oX| yXuXv.oXb.u.a.' x C.0.8.[ [ [ a = i [.5.7.+.tXtXc.gXa ; ] %.V.D.F.] * 2 T.e a :.>XR.M s -X~ -.W p g T.e r T.p Q  .F.-.< {.c O.d h |.R R -.o.s.pXoXi.i..Xp.m.4.] ~ p ' gXs.} G.W @.H.P.W R ! [.P.6.t.g g e `.>X{.`.].d.x.pXiXa N.b.c.j.dXk.}  . .OX@Xr.{.T.,X4XM [.[.e t ~ W 7.h.z.n.k.D.P.w.2 C BX{.%XE.Q.1 c zXhXzXB.W 3.C.1X,X- b ,X-X] C.F.O.+.s.O.`.7X,X@ * ..P.hXkX7 N b k p Q.PXC 1 F.[.nX5X$ = H f D D.z.| #.`.NX]. X Xe * @ B.z.OX@Xk.h.k.3.t.R < v q...5 9 j W D.p.| [.].~ b C NXNXnX>.'.R.4X5X< -X).p * ~ .. .oXj.} F.} ] ] Q e.6. .t.6X2XM >XZ.P.C.&.S @ Y.%.| J.i.iXp.n.5.5.P.@.A.; 4X&X4 ~ ].kX;.x J.[.> s [ <.`.i U.C 6 ,X4XV {.,.sXsX,.z 2Xu 1 ].@Xs.O.+.B...U.ZXT.x B.7._ '.d.d.+.6.! ! s.l.J.N.E.KX# A KXU.X.k.j.J.'.ZXPXZ s -.-.Q.HXN s Q B.D.[.X.r y &XKXb U.>X`.U.[ F.i.c.tXaX' e o.h.tXdX9Xu.A.,X;X#X;.T.E.W.T.kXa ).,X1 b W.ZX@ 0 lXc.H.E V...~ / |.C.T.j 6.6.c M &X5X5XPXA C -. .} #.oXi.a.h * C n {.L.I.`.5 2 &.<XmXnXR.6 6 k g :.l 2 T.-.o.} ] l ).k R.gXb.[.>._  XE.A ",
"5.#.j ~ ..O.0XN.!.6 / R.W |.m 1 ! ! U.; p `.g R.T.Q OXx.M.zXR.- x :.R.>XR.' J.iXu.+.5.e.h ' tXxXP.` #. X..].I.d.#.t g R e.2.} +.c.yXuXtXZ.:.c  Xw.O.O.iXiX9Xj.gXM U.[ 7.pX5.a N.[.E pXm.6.g p ` s.7...W l.c.jXd.x T.~ g a cXa._ c  XU.4 a.pXO.| [.w.%.D g.p.z.3.4 M R.l @ F kXhX@.p.aXj.X.] ;.O.L.O._ J.k.+.D.D.XXgXR.*.[.O.sXO.uXyXXXm.x.4.B.E ` @X9.G._ z $.[ IXH P.5.OXO.XXtXx.I.i 5 ..N.B.[.D.;.+ * T.a ..[ ~.}.Y.W.7XM ] _ v ~ {.e r k Q :. .].e @ E.u '.$.w.[ R.r j W E pX.Xp.+.h.3.n.l.` T ^ ..D.J.} s.s.iXM.J.| o.! F.B.} q.R.u v 2X;X1XQ Z.b.dXv.m.i Z.iXc.j.sX5.}  . .sXk.t.).M 3 =XKX{.`.4 m ~ j G.j.J.3.| [.P.A.Y.KXBX>X2 M 6Xt - A.CXwXI.+.` (.4XA m m 4X-X* ].N.x 5.s.w.{.-XA 8 = ..[.K.[.: S M Q e ,XKX- Q r.lX}.6 8 E.bX9 _ OX5.3.B.].*.BXBXa e * ] D.oXJ.| p.pXs.6.t.x e U.T.4 %.r.-.W @XE | pXzX:.- * U.VXY./.BXc P 5X7 -XT.1 t t E B.m.j.c @X[.| ] :.F. .2.(.ZXC &X;X[.D...&.: @ ~.@.3. .i.pXu.z.k.+.iXb.$.R.KX7 m T.BX Xc W gXa.* 3 *.]. Xa 2 E.C -X7 C kXiXaX9Xz >.1X< x @XgX' 5.OX' E U.u e -.q.w.<.kXd.d.` X.o.R 8.u.[.*.*X4X# 4X*XR.o.0.3.F.}.ZXKXZ g :.} !.3X& %X&.;.N.[.` t t V 4X2 W.;X!.!.{.} 5.iXM.aXb.x ] s..XsXaXO. XZX%XNX%.&.U.E.!.>X2 ;Xs / C 4XA o U.gXi.d.c a._ g -XR.`.T.j 6.P...!.4XA 3XHX3 ).-.X.r x l.5.O.a 6 KXQ.).| O.=.l 2 ^.IX^.<. X> 2 M E ] R.2 m -.! 2.} &.U.2 |.@XH.A.Z.s. Xb V ",
"3.C.~ p &.O.m.L.E.: y R.e.`.m - o.r.KXA p t.p q.-.o.iXyX9XI.[ @ j -.(.`.1XT.O.n.oX .9.} j 4.sXjX;.x D.H._ [.gXK.` g :.p 9.8.j W oXyXyXaX`.~ x |.7.5.O.0XgXO.j.F.< E.h N.gXi.' O.zX` tXiXD.} E R s.i.3.5.j.j.pXJ.- t E.< d cXO.$.d &.U.4 @.lXc 4 |...%.,.b.u.z.k.a &.] l M 1X[.gXO.K.pX+.} R C.O.s.d.@.gX].#.k.5..XJ.>.*.,.,.pXu.sX9XyXXXc.3.7.| 4.OX .k.f.,._ 9 UXmXS.j.H.u.tXv.x.H.5 a $.D.4.kX[...@ @ U.E #.` l :X`.{.2Xk _ ..U.U.U.; ^ g X.3.5.].2 V C k ..[.%.E R.p k Q } pX.Xj.| 3.+.J.k.W Q ^ o.| J.O.i.OXiXx.j.5.].j e.F.W q.[ v e Q.,X%Xh w.pXtXx.x.c a.iXx.p.iX5. . . .pXp.(.T &.v %X=X=X*Xp -.j W gXp.#X` l [.w.].`.>X&.&.@ &.6Xh @ =.SXkXJ.l.x R.U.y ^ m 7X&X@ |.;.h h.h.].T.S B 6 + M  XNXNX8 S `.[.Q.PXC T.:.X.VXc * n U.M i `.L.s.J.5.F.e ;XU.4 p e zX.XiXc p n..XO.7.} W k n C * '.V.} q.C.| p.pXhXw.6 + * ;X&X<X Xv 7 B Z E.M < ~ 1 h  XK.l.x `.kX .R t.B. .q.(.2XC Z A >X:.W M y s L.p.s.` i.gX4.J.k.| pXx.$.ZX;XU.C 7X`.`.h #.zX$.@ ; ~ (.kX_ 2 Q.^ ^ ( {.zXtXx.x.,.D.(.t +.pXpXO.h.D.r.R.n 2 ` ].-.] *.rXp.l.` Q o.! k.V.:XLXmXW.Z =XM (...t.e.x W.HXHXZ k X.q.).B % U.p 5 &.:.x g -.1 y M 2XY.C ZX!.Q NXkX0XhXI.=.Q +.b.xXaX,.:X%Xn NXA.:.U.U.%X).2 C b -X/ &Xo = {.Z.' $.c A.E r ~ &.>X).j W @XG.r.b Z PX&Xg ].2.o.j O.d.H.Z.D ,XIX-X~ R R x _ e {.AXF wXeX> s v x ..|.2 < ~ R 6.} -.h ;  X[.4.$.@XJ.[.> q ",
"3.e.=.g c _ b.gX%X- 1 ..Z.(.m 1 (.=.ZX4Xp `.x `.W 7.iXx.D hX`.5 ~ ^ =...;X{.E @.OXs.k.! } D.sXjX{.{.[.,._ '.u.p.l l  Xx ! C.e 4 pXtXyXpX(.k x ].G.i.@.b.L.u D.X.- b Q C.pXx._ #.kXO.9XaXk.+.t.W s.5.3.h.h.j.tXP.m b E.* { jX' A.d i U.g ' lX=.v ).~ [ N.l.+.j.k.c p ] l ZXT.V.iX` gXK.+.R T B.` $.H.u.OX[.C.d.3..Xi.;.>.' K.0Xf.uXyXyX5.j.5. .+.u.pXW  .hXhXS.[ IXAXgXx.lXu.tXv.@.[.l a a.OXO.@X@Xc a @ 4 Q e.' i {. XA.~ v A.<.Q.5 3 h T T $X5.h.e.< 7 < ~ > [.`.] * < m g E J.iXb.+.} } @XG.} ^ r ! W 4.d.d.K.c..Xx.l.kXr X.`.x Q W `.p C 4XC a [.iXx.x.f.@.p.tX9Xx.J.k. .6.7.oXzX`.Q -.{.4X+ &X&XT._.r ] OXb.].x * `.N.[.NX>.R.< p Q p e g E AXkXiXn.W -.~ v k / ZXZ 6 1X(.O.OXs.`.~ 8 S # o ~  XNX&.* S kXwXZX&XV AX(.E zX_ c {.U.a >.'.Z.lXP.s.7.j / < v W x pXc.iXO.O.pXc.O.+. .o.>X,Xb @  X' ` t.E Z.pXdXdXa.0 + @ H 4XW.}.c A N P A e 1 :.x a  Xl.J.D R.@X8.E q.e.8.-./ 4 C : 6 -X{.Q p y U.B.oXG.| 4.gXi.s.G.5.pXg.'.ZXT.!.%X7XE $.x [.gX,.* 4 ;X] I.@.~ !.T T t 2XlXp.pXK.m.gX..j i.dXpX3.h.k. XR.s h } P.T.Y.{ [.u.gXW T -.! L.A.mXUX1X~ 4XA h |.W :.].5 =XKX3XV &.;.r.{.B % b p 2 U.=.x x ].t b C 2X;X1X;Xe E.SXwX0XxXhX..Q e.b.xXaX*.;XV C  X>.(.a &.1XE.s s 2X-Xm : @ * NX$.' 7.| ' h R -.U.2XT.j g $XP.` < &XPXV ..@X6.! #.C.a.[.`.}.LXLX,Xg j E ..[ T.AX:X~.wX X@ M v h w.(.< 6 T.j  .2.-.4 ;  X[.x ' lX@X$.@ U.",
" .7.C.%._ c O.kXQ.- j q.`.!.m t (.;.~ s e Q.g ]  .J.hX{ 0 DX'.&./ g ;.N.E r.6.` C.q.9.} 5.p.iXVX;XQ.BX'.a '.K.p.c c gX| g `.e e n.yXyXpX:.k W w.J.h.p.b.$.2 ;.W r M u ;.dXtXO...|.' g.hXj.| ;.] 7.5.3.z.n.h.tX[.Q.A m 4 ,.aX,.`.i a R.` @.cX`.U./ / l <.3.+.k.D.] 4 _ r.T.x w.u.O.pXO.+.W R 7.' 7.d.4.pXi.J.L.a.n.p.C.>.@.aX9XM.yXaXn.` 5.| 5.5.j.pXR R b.qX0X1.BXVXgXx.gXb.tXm.c >XR.i a.gX#.[.gX{ >.u 1 Q F.} M H [.N.k U.[.[.W.@ u ].r ! $X2.c.5.u * h ] > BX`.[ l - y r j OXI.L.].X.R q.G. .-.r ^ W O.pXu.b.h.z.p.pXlXx ] T.E.;X].OXQ b FX8 Q gX5.K.v.9Xj.XXx.tXp.K.5.2.2.7.'.NXQ _.] NXH + 3XC (.].g X.iXm.G.x ; S. Xc `. XY.4 R R G.| (.:.VXeXpXc.8.X.-.W g / &Xq =XQ.|.E gXZ. XU.: 7 8 @ (.].|.b : S BXAXE.: V <X>XE OXL.[ p ~ (.B.L.'.`.`.r.;.(.T.k E w. .oXtXdXz.5.pXu.@.@.} :.>X|.v 4 NX2 c =.e (.oXyXdXp.F * + E.4XW.}.(.-X7 8 V 4 v |.j a NXu.H.>.]  XF.e.e.3.X.k < y E.@ C / ~ ^ < - j c [.G.5.5.gXn.3.6.7.hX,.nXZX;.(.4XE.;.' ` zXa.a.a ] #X` b.gXT./ ^ ^ 1 b  Xl [.@.d.lXo.W i.hXpX` s.7.B.r.4 h s.G.{.NXL.9Xv.gXx j _.-.`.~.IXLX:.-.,X; p (.o.o.].a 4XHX8X7 ] $.A.1XB % Q.h h =.A._ _  Xt 6 V &X<XZXM 1 C ZXI.0XxXwXh _.P.| uX0Xi &X@ s `.7.].a Q >XU.s x #X%Xb - t ] @X_ B.D.B.x 2 (.R.,XZ &.-.g ;.zXB.* HXFX7 Z.OXk.} c _ 6.O.>.F mXHXH M k x =.R.2XLX~.`.eX Xo 0 M c ].r.1 t |.j } q.(.5 p kX Xl 3 `. Xd 5 `.",
"} B.F.` =.' D @Xr 1 } C.&.T.k r |.R.ZX4X2 %X!.] k.oXgX{ G CX[.R.m y ..B.w.| C.| W ;.$X .k.O.kXSXm 6 bX~.9 [.pXg.@.O.hXl.g (.5 x b.yXv.x.x v R o.J.3.i.K.'.l x p j -.a a iXjX| w.|.[ f.K.j.5.! ! B.5.3.h.J.5.aXgX!./ C x ,.zX{ i d E :.R f.xX>.v k v i '.| 3.b.D.r.4 c ].p Q c ,.p.oXg e.6.! | ` W B.@.aX5.s.N.B.OXs.#.| M.vX9XtXuXaXl. .F.r k.5.j.gXT g g.aXf.S.VXVXI.K.,.g.iXb.c &.&.3 V.hX#.C.jXp.<.] Q Q F.C.%Xs [.F.~ R.`. XM @ A.lXj _.X.} oXs.x - #Xc + :X:.`.kXx t y R @XI.a.].`.] ` OX2.X.g ^ W | hXO.J.i.O.O.gXzX| g 1 V ,XNXO.q.~ 5X8 T._ | H.iXyXj.c.j.x.u.b.5.2.6...>XR.j ].6.].i 0 =Xn &.T j e.iXtXG.} O.Z.NX> ; |.!.p } 9.lXe.v M nX[.pX.Xz. .} #.j / Z P A U.#Xx [ {.2Xm - Z b u r.:.2X< : : mXbX* Z %X; ).] 4.I.=.i * x P.[.>X!.T.).=.|.{.Q W Z.G.l.iX4.XXj.pXJ.@. .X.].'  X-.p kX%._ &.5 k l.yXdXu.=.2 @ !.ZX*X>X{./ b : 7 e -.|.p ` [.p.D. Xv r. .D.D. .=.7 $ A ( @ ( T.k m k r j h F.n..Xl.H.pXJ.j h lX1.ZXbX].BX%XM ].+.+.zXz _ $.[.].| l.gXe g -.g y t &.E ..4 w.[.] E k.hX@Xj | C.8.6.1 ;.gXL.AX^.Z.iXg.hX` r _.).Y.ZXLXZX|.(.b @ h :.W } ].u &XFXN y =.7.eX{.@ 7 !.=.`.%.`.x $.'.T.6 A &XKX<Xk m 1 h H.tXlXS.u  XOX| xX,.n A + n ;.4.#Xl E ].U.k B.@XT.t k T B.V.x F.s.C.v m |.!.U &XR.{.&.R gXV.b KXB q kXiXD.| _ ' | a 9 mX4X&XM 1XT.p *.R.1XZX>.`.NX^.o 3 :X~.r.-.t k ].` R t.C.x x kX[._ l &.!.i E ].",
"| 8.D.O...c W B.r j %. XQ ~ m k `.{.PX&X< m x C.l.pXP.O.f.lX Xk 7 7 Q t.#...`.-.j _.t.e.%.>.AX^.u M %XU._ I.9X9Xx.x.sXj.W `.u ` l.c.dXf.5 &.j W G.` u.F.#.=.] 5 ] E ..c h lXB.].BXa d.u.i.s.Q R 8.3.+.h.OXi.yXxX:.-X%XM D nXd = %.| q.W p.cXO.W h ;.5 R.r. .c.p.B.` V.[.] e a A.D.s.l $.e. .} ' h #.m.v.x D.[.O.D.5.+.| yXsXtXtXdXdXh. .].1 3.k.c.@Xj t D.pXf '.AXeXZ.@X@.j.pXi.| `.Y.0 f.hX6.+.xXyXO.>.=.E 8.].%X- _ |.&.M e Q.< x gXgXW T r B.OXu.5 c CXl + =Xf %.lX| - 1 g ].J.L.*.>XkX| k.3.X.R y.! ` jXi.n.@.a @.n.5.2.Q Q.< W.>Xa `.).&X: k h _ S.pXv.i.XXv.x.p.n.3.6.;.x 1X< W +X+.gX(.&.F !.C * Q s.pXyXoX5.a.a.VXa =  X XW } $X].4 * A !.(.pXXXc.h.' w.W ~ A N + R.kXE M ,X( < > J U.&.e ).1X- - 8XHX% 6 ZX!.; S / | @X>.d 2 v L.@XU.%Xb C M ZX).e R.#.' P.V.5 pXz.i.4...` q.$X#.w.E x [.Z.R.U.6 u k.XXsXu.#.c @ {.|.=.>X~ / m 1 t Q `.`.a =.[.D.w.T.s -.` OXi.| {.A & A 7 * C ).x m -Xp ` E OXx.tX0Xg.gXs.t x kX'.1X,XNXBX2 R.`.O.d.gX2 c [.#Xq.6.i.P.g Q -.:...].W Q 4 r -.:.Q ] i.CXw.W R (.G.8.< ).gX[.AX, nXwXO.gX6.R e.:.mX4X<X}. XE * M &.` ] x ].p 7 &X% V -.7.kX&.* m T.].[.w.=.[ '.kX[.|.8 5XLX^.a ~ T.j x.aXjXrX3  XgX| gXl b 7 s R.c ' kXx V.[.&.=.oXoX..p T q.;.`.' 6.+.r.m W.U.;X&XKXC >X].R D.].=X4X$ n kXgXF.| H.S.w.u W.UX%X%X> ;XT.k `.R.1X1X..].nXY.o q mX:X` q.Q ~ ].$.R :.F.w.c @XzXx c U.V b R.F.",
"| 4.b.| ..] s.k.r Q <.BX-.k ~ k `.IX4X&Xy T j D.M.sXp.@.f.O.`.< 7 V k o.} r.(.>XQ Q o.e.R.ZX;X9 * M C Y.`.O.M.9XtXyXyX3.3.`.a ` k.j.pXg.a (.j r Z.c O.].x ` (.e 7.' $.%.u x =.BX>Xl V.@.+.e.W R 7.+.3.s.s.@.uXxXr.T.E.U.F ^., i S.B.6.W p.jX8.X.j NXv > `. .j.x.d.| K.@Xv i ~.c B.` ` a.e.2.7.#.p r.gXu.l [.[.e.B.8.3.5.yXdXv.x.dXyX5. .C.h s.x.v.J.r t | I.eXVXBXeX*. X' 4.iX4.D.C.>.z f.sX8.W sXsX{ E [ ` ` ].E.- p |.&.T.m y e Z..XpXo.t < #XgXW > zXBX5 C =X# '.jX' b : 1 Q F.@X`.c BX` 7.3.#.g 2.} _ 0Xj.n.a D [.J.OXT T.U.- / *X@ _ R.V : U._ d S.lXO.` oXx.v.j.z.5.X.-.~ &X< q.J.K.zXA.[ p 6Xb * ] H.tXdXn.5.7.3.lX' + {.`.| +.].< v = Z / _.OXtXc.oXD.7.#.~ S 8 @ Y.zX} -XZ 7 < * ZX{.k * E.4X- y %X8 $ ,X;XkXE 8 A ] #Xz + l `.zX%.< A 8 @ W.ZXR.g (...O.@X>.* l.oXh.3.;.R } $X .j | ..e.` Y.W.q M 6.oXsX5.7.;.> bX|.g &.e / / 1 1 r.[.;.[ ` [.7...p M ~ t.J.5.O.>XB & N * 1 Q.:.Q E.,Xa #.| iXtXtX0XH.gX` h ].B.w.U.U.AXl E ].| | d.D.3 &.|.].W G.i.J.#.W R.NXC.[.R g {.).T.^ =.[  XBXx -.Q g 3.8.e {.kXVX*X%XAX>.O.s.+.#.B.|.=XZ :X*.{.h - >X=.l ] e ].x < P @ b t.7. Xd - ^ r.[.L.| >.&.`.V.d.kX6 S ,XE.> ] t.3.v.aXlX<.i `.gX' O.u i M Q.(.p 7.gXc K.D...w.gXb.j R 2.C. X}.' B.+.;.U.&Xs b 4XKX6 T.]. .k.].,XU + M  XkXF.7.b.u.6.T.IX4XJ *X2 &.m ;X>X*.bX*X_ ].bXn * E.4X<Xa e.W o.F.' x (.C.8.7.7.jX| c R.q < ~ |.",
"| O.H.O.E #.@X3.g ] '.$...g t Q >XLX> b b ^ e.oXv.uXx.v.@.[ |.< - &X^ W o.F.R.|.Q r 2.} ZXQ.R.p = 2 v `.|.a x.aXyXdXyX3.k.e.e #.7.| aXpXW :.j t =.l c |.W W ..h P.3.' O.$.; M ZXR...$.| | B.X.j 7.O.3.s.+.O.9XxXr.m !.%Xn 0 = >.,.P.8.} i.jXF.o.x R.3 + (.7.n.p.u.5.OXZ.1XLX~.l P.j @.a.G.6.F.| h e.gX@.l gX7.F.C.6.O.s.m.m.l.E aXv.+.3.q.X.K.j.yXb.r r x L.{ VXNX}.v {.[ | pXu.h.8.| O.x.sXe.j .XpX' ] ..E x `.%XA ; T... X/ 1 ` OXXXpX6.t - kXlXp d CX[.= <X%X= kXhX$.( 8 - M _ '.kX_ U.;X] w.=.p W 6._ | l.G.a a [ C.#XR ^ k r - &X3 &.&.7 S ,X!.3 [.kXp g gXiXtXj.n.3.X.R.,X7 7 2Xq.O.kX|.5 _ kX&.- ;.V.XXyXn.+.7.` jXa.X W.Q q.] #.< NXb J m T.B.pXn.c.l.P.8.Q S 8 o v lXa.,XS &XA C PXQ.; ; 7 &X6 T ^ @ %X{.;.jX@X1 y Q  Xz @ =.w.gXu e Q.: 5XbX XR.|.E ].3.gX*.+ a.OXl.7.r.R W OXn.i.#.:.r.5 b 4XU.h E kXgX .s.w.U.ZX6Xo.Q j Q !.1 1 W [.;...j [.| E E (.p r.G. .B.{.8 & & + ( j T =.,X%Xa #.3.iXm.c.OXJ.@Xh O.D.OXP.g !.^.a @Xp.7.' @X+.a ~ >X-.W B.k.G.F.] ZXY.| [._.j :.(.Q e -.&.ZXn 4 T.:.4 R F.e |.NXbXH LXbXD L.i.#.:.(.2X8 3X;X`.,Xe r #X=.5 :.4 w.x 6 8X@ m q.B.$.&.;Xv +.OXD.E :...I.K.u. X6 N Z b v `.q.3.9XhXzX`.>X*.lX| 3.x l *.).Q x oXpX4.pXi.O.@.[.O.e X.8.G.kX%.| F.7...W.A b 6 PX&X< M e.l.h.].=XN * !.R.#X| D.p.i.k.|.mXX U J a >XJ KX{.*.:XR.E R.<X6 n <XHXJ e e.o.X.| ` ~.|.#.e.8.3.oX| W kX*.5 k ).",
"' O.P.O.e w.@XW p =.$.| NXg r Q >.NX3 t y k F.v.tXyXyXm.z U.T.p 4 ( ~ R 6.Z.Q T.~ 1 } ] Q.;  X- 3 ; {.].E a d.aX9XdXiX3.j.D.4 r.t.x pXoX' q.j t ] (.9 {.h x ` e.@XB.| c Z.[ 4X=Xd A.#.W | w.C.j 7.+.O.8.6.O.9XxXR.r !.%X# o v '.O.H. . .O.gXq.g :.l = n >X .n.j.p.s.+Xr.mXPX{.' @X} ,.@.D.7.C.| R #XzXx _ zXB.#.:.E ` B.gXH.$.c aXtXj.k.h ' pXv.yXx.4 p h V.@.xXeXR.9 !.T.R pXu.O.s.| s.v.sX6.j x.pXa _ W x x `.W.V < R.' `.m r F.n.XXoXy.4 2  XkXh z CX`.F !.F c zXpX@X~ - - b > 9 kXBXb &X&.:.-.e X.X.` ' 5.D.z + ; ] ].j ~ / 2X* b &X!.ZX7 7 Q.;Xi eXeXa u I.pXx.v.oX| ] Q.=X@ A 1Xh e lX`.e p.gX:.Q C.i.j.tX+.#.B.h sXV.X 0 g r.:.W l CXR.W.6 !.#XlXp.5.5.P.G.Q V : * l VX[.%X* 4X2 ,XLXE.o 8 8 Z 6 T ! R.|.g [.jXJ./ y k (.R.* N.gXkXa ..U.: 4X>X`.~ 2Xx r.| kXs X x P.l.s. .7. .oXoX@.a :.&.e V &X2XT.a NX]. .h.7.<X,X|.q.Q g v ).r t ` C.`.E h zX| w. XW x w.G.`  XU.& & & * T.T  .-.4XE.~ #.s.m.pXj. .OX8.x f.b.i.F.(.>Xl  XoX5.5.+.F.e l {.>Xp g Z.s.D.r.{.<XY.[.P.-.j ..r.x Q :.T.ZX8 m T.(.g x G.W `.1XM M 2X^.D gXb.W (.6Xe % PX^.|.Q.- R [.r.4 ;.x ..&.7 7 - &.#.F. XIX2Xh s.iXD.x `.`.gXK.O.;.E.8XZ A &.(.W O.tXjXlXD `.R.@XW  .s.| r.&.< ` oXtXv..X3.p.l.A.x t t.5.D.[.c O.P.7.=.E.7 C ,X4Xb 2 ~ | z.z.(.A % b 2Xh |.x [.a.P.8.:.# $ FXq c (.mXmXY.c R.R.c *.%X6 !.bXHXA l } R } } [.BX>.O.B.8.+.pXO.x kXZ.c k M ",
"' ' P.@.2 Z.F.j R `.#.W |.4 T t.4.gXp e k Q l.yXyXuXuXS.1X4Xk m 6 %XQ.j e.#.k U.s - j ! R -.(.u W.+ [ `.2 l %.pXx.tX.X .j.pXh ;.:.< ] w.E ;.p g -.`.3 Y.a x W 6.F.[.;.a ,.NXmXq f <...E E =.P.} +.5.| s.B.O.9XxX|.4 C W.# + D L.V.H. .3.' F.o.t `.9 =XmX&.B.J.x.p.j.5.`.ZXmX{.| 3.5.@.O.J.i.e.#.;.BX#X1 O.zX[.` R.k x q.[.| a c iXtXXXD.2 _ hXyXyXp.p k =.` f.hXkXF * E.U.h [.s.c F.6.} m.jX} t ` lX..x v p h |.M H p -...(.M v P.j.XX+X].< 2  X#Xx c CX}.R.*.[ c hXiXm.L.x * 7 : X D BXV : !.U.Q r 6. .` } k.a.3 2 a l ].j T.).Q.< + 7 4X,X- ( T.v %.lXZ.c 4 V.iXp.XXn.` &.=XV + Q.;X2 g lX7._ aXaXl Q [.5.5.OX` `.`.r j.wXo X 3 `.{.E W lXNX!.@ <XBXF.$.| 9.k.w.k S 8 C h NX[.u U.;X< PXZX=Xo 8 8 S 7 ^ ! |.x ' lXhXV.1XS V U.>Xh [.d.gXx t.~ : Z {.:.C &X&.x `  X9 + e [.D.D. .5.5.z.gX{ @ {.4 b ; b !.T.b C x } 0.F.,XE.).|.~ g R.:.j R |._ |.x +.gXg [. Xg X. .B.` 6Xt & & & * (. .6._.,XZ U.:.k.XXtX4.3.$Xq.c H.H.#.`.(.x 5.pXp.i. .8.=.@ e `.^.i * x ].t.>X1Xa ;.OXG.g e |.C.h `.} R.4XV k :.(.x _ #X#.#XR.s !.>X9 >.pXiXE 2X2Xr 4XLX>.|.t y ] e.r.e ] W [ ~ 8 * k ] 6.F.SX|.g R j.pX[.c >. XzXS.O.&.,XP N &XQ ..p ' aXfXlXu | `.[._ 2.k.} C.v = c d.9XyXc.5.XXpXC.p r t.G.k.].E l [.B.C.u 6 C 4Xy 4 p Q W 8.@X] * 8 -X).p 2X~ T.[ BXF.e.@ J 4X7 T.{.LXn C s v ~.c R.U.s >X;X%XM Y.E R j j kXNXd @.k.N.E jXi.a gX$.' x r ",
"| ` H.O.5 [.w.h _  X`.X.NXe Q W @.gX} W j W J.dX9XuXyX{ <X=XT.2X< ( m e w.q.T.M < / &.j ! C.{.u b o > =.x x a @.g.x.h. .XXdX` t.-.* a &.E (.r ] u a 3 f l 2 } +.E  X[ a O.BX%X= f R.W E e 2 H.j.` s.| k.D.| 9XxXR.- ;X*X+ %X~.gXb.z.5.3.} G.y.j ].[ KX!.u w.D.n.3.s.Z.BXZX:X`.' W 7.g.0XK.p.F.q.R.6X(.4 i.pXpX%.*.M p R.].x a 5 d.c.c.l.; <.aX9X9XM.p < =.c p.jX XU.- V s x [.O.V.C.q.R tX.XR j R @X#Xx Q.m i `.a `.g Q [ ] k x 7.h.OX2.e.p 5 `.#Xx l CX}.; x | @.n.K.4.n.lXe Z 7 o @ 0 6 : V C Q j 6.6.o.R G.s.a >X.._ ..j -.&.g 4 * q %X6 - T.|.E kXV.O.w.< ' iXXXtXoXE T.&X@ 5 !.v e j zX3.O.dXgXl 4 P.h.5.@X>.&.|.e ' kXo X 2 ).f *.3.lXCXa ; KX:.F.F.W  .9.t.k 7 7 / a NX>.u SXg 4 LX4X=X+ 8 N A y Q t.(.c 7.zXlX[.2X/ A C 2XA.O._ zX| r.M : S {.|.A 5X!.e E BXs o M `.kXJ.| } h..XpX' @ nXV 7 6 C m M b u Q  .5.$XW.E.2X-.1XC *.].} q.|.g {.p l.p.` kX:.g w.`  .q.2X< & & % 4 F.5.} ).,XS m (.D.m.pXu. .$XR l [.[.l R.;.4.pXc.l.s.| C.k * =.`.v :X; 2 BXt.NX] ] s..Xk.e 4  Xa.` [.} |.4XV v t.-.x [ SX$.#Xh T.BXR.* '.XXhX{.U.Q k AX:X`.`.1 ).] W =.p ] _ ..h - 7 U.W ` NXBXE T R x.sX[.p ~.BX@.I.O.~ &X: P V v :.4 i fXuXjXh g ;.#X| W G. .N.a = ] @.m.sXj.j.v.pX].R R C.G.` `.x 5 ].P.| 3 n &X%X4 g r -.W C. X4 - U.2Xg 1 T./ M R.VXP.8.* %X&X; !.AX1Xs J mXT.`.l =.U.U.ZXY.Y.U.h v Q T O.[.R.c 4.J.` < gX4.a [.<.' ..W ",
"O.' V.O.l [.o.h _ =.(.] NX>.x r 3.hXP.o.j X.hX9XaXtX9X%.E.&X|.(.1 M k h r.q.Q Q.2 !.&.1 Q ^ &.u q + o &.(.W p _ O.u.z.3.XXiX| (.U.- 2 5 l `.4 M E.H 5 &.v 5 B.5.h ].>.d &.bXZX*X0 ~.x ] 5 + f.hXh ;.| a.G.` v.xX{.e 2XU.> C ZX'.4.j.s.3.W e.y.W `.NX X>.[ A.4.l.} 4.[ :XZX*X}.#.E | *.A.p.s.F.:.&.;X|.t j.dXdXp.=.{.R._._.~ b = a.j.+X5.> [.aXyXv.b.=.4 p #.i.xX=.T.6 C e Q F.' d.BXq.g hXj.h -.x #.zX..M b > `.a.B.p &.`._ m 1 ` k.].r j ] a r.@XW a CXu h [.O.m.x.O.l ' VXp C E.+ + o 7 Z : Z :.} (.:.X.! s.J.W @XO.Z.e =.`.] k ; 5 }.E.u j q.#Xx A.' l ;.p h J.XXdXiX` T.y 2 {._ h ` p @X#.| D wX&.h L.P.` >X|.l R.p l BXo X 6 M + ^.7.P.BX3 1X2Xr. .OX .3. .e.~ y V _.]  Xe F.kX- C HXKXJ @ : N A y T y.x :.' [.VXZ.=.).C b ;X&.= A.gXi.w.k : S T.|.b 4XE.u | kX9 @ 6 AX[.s.k.0.0..XoXO.' [.M V 7 E.M j p ~ W 2.e.|.U.U. X=.b KXY.`.C.e.@XE h h gXx.oX[.Q R P.3.| ].).: $ 8 b 4 gXJ...-XA S C ~ ].gXlXgXW G.g ~ BX}.a v d.pXpX5.l.5.#.{.; < (.[.c NX; 4 :.t.r.l 4.z..X5.p 4 [.@.4.@X..2X4XC ` @Xe._ SXBX=.W g |.BXT.x P.c.jX:.e -.Q AX!.>Xg T `.} R #.R ` ;.;.g < m -.E &.SX Xo.T W tXsXa.*.AXnX,.m.@.`.V S 3X7 k (.Q c vXfXjXc < < [.O.R C.D.7.z i ;.' g.dXj.v.v.zX`.Q -.t.$Xg l 2 u O.OX7.E M 4XV U.j g r.W (.R.- g (.(.t r g ~ -. XkXOXs.4 2Xu b ,X,X{.D ;XLX`.|.x l &.-XKXq D r.4 ~ g T ].{ 5 =.O.@X' * J.4.z R.=.' [.s.",
"' | a.$.E #XE E z R._.R _ ].`.e 3.gXOX} ` G.iXyXpXf.K. XC &XR.p r p U.BXq.q.).~ 2 {.:.1 g ^ j u 6 q = *.:.-.g E c ,.@X5.c.sX} (.T.* - ; x ;.4 {.,Xn *.<.D ..G.5.' O.=.3 U.W.LXmXi {.x :.R.a u.lXu ] ' 7.B.' v.xXc !.`.] %X;XbX%.F.OX5.3.} e.6.} ].x p @X; O.s.s.3.[.G *XbX>X[ ' | [ i 9 V.L.`.>X&.{.|.j i.dXyXK.[ >X6Xx -.).s Y.[.n.OX| 9 zXaXyXx.H.%.=.p R 3.lXx ~ 5 / 1 j F.@.a ..x e.lX' p Q h x gXX.s 6 ; '.pXzX=.&.kX>.U.< e ].(.< g ;.l #.@X .E K.x (.B.3.v.iXO.;.@.[._ > |.= o O V E.S V t.e.T.~ ;. .s.G.` k.s.[.h |.`.~ u ; $.BX4 p ] } @XO.h ` _ >.`.C.7. .hXp...~ ; !.`.h } G.x @X`.4 = rXl ] @XF.< {.NX{ Q v 3 BX, X = > o F %.` R.ZX-XT.F.| OXJ.8.g  ._.< y :.W R.5 zXa.- %XHXFXV 7 @ V A k q. .p ].%.l kXZ.W :.!.s Q.i *  XgX3.-.p : V R.R.s <X&Xu O.zX> X HXLXr.8.P.k.0.5..Xb.hXA.M b V &XU.&.g &.R X.-.2X~ &.`.:.@ =X1X|.].k.@Xg r (.I.g.I.O.E E P.j.} |./ @ @ 7 C u oXoX] ,X7 S m ^ E ' wXVX;.-.~ -XZXR.5 ;.u.jXI.c J.3.C.T.* A 1X` $.kXU.1Xv _.[.` O.n..Xh.x 4 I.f.u.@X] ZX4Xb 7.OXB.BX|.T.&.R 6.F.e l ;.s.m.OXx R.R.).ZX!.U.p e.k.7.R W | c `.{.e 1 ^ -.-.ZXZX|.! R ` tXaX XNXLX}.0X9XK.}.* : 8 b r ^ R._ 9XsXaX| < < $.a.r t.P.+.' ..` ' p.yXc.m.iXkX~ 1 o.e.].e * e >.` l.G.W T.&X7 R.g o.B.R x a a ..6.q.] -.g v |.#X4.oXi.E `.* ZX,X2 `.%.U.s c  X-.v M 1XFX: `.Z.p k ^ k `.' 4 `.$.[.[.; u.L.c l a w.zXu.",
"O.O.7.O.| kX` ] 9 R._.! Z.z `.5 W gX@X} p.v.uXyXpX@.%.=.5 %X&.e j j T.BX#.e.|.h g ].@X! t m -.-.* v `.%.x ] R x 9 Z.gX5.tXjXX.R.!.* < - p `.=.`.&.5 [.a.l $.B.s.4.' l M M H LXZXH {.v :.|.5 ,.lXu a ..` #.O.x.vXa :.} ;.>XAX`.w. XW +.5.} k.3. ...j g kXc c u.p.h.[.K mX*.[.l |  ...= , D |.2XZXa `.B.3.u.aXtXK.v :X#X#.r {.2XM x P.@Xx D cXtXx.p.J.+.e.6.W 7.].h g g ~ 1 k <.'.e M `.N.lXh c T.k p G.W < e * '.tXjX>.R.kX#.Q.4 4  XT.< 5 :.x #.J.3.u.OXr.] | 4.j.pX@.[.].`.`.3 S.R.@ O @ %XE.g G.G.e 4 q.2.8.8.R 6.oX@X..2XR.M * f CXI._ W } W k.D.x x ` 7.C.C.q.h zXa...h ] ].A.c | G. .F.].; >  X*.{.[.C.@ U.zXI.&.f * >XW.o + + o q `.c ;XPX1 -.OX} k.].].j } ].t t -.o.=.u zX| 1 !.4XZ C E.@ 7 / T } 8.#.C.B.` Z.] E -.|.-.h h ; [.zX4.&.( 8 7 2XQ R.M %Xe @.lX@ J UX2 Z.5.J. .5.3.oXj.i.$.&.2 b U.U.&.e ^ X.|.U.T.E #X>.F @ b ,XNXJ.+X].e x #Xg.g.' c X.W gXp.x |.C : + m &.l pXJ.&.,X: 7 ~ -.q.j d.kXBX1Xm !.PXM x OXp.xX`.c D.5.;.h < ( ,Xv [.[.R.,X/ t `.W O.J.iXl.x e I.g.p.n...ZX&XS F.oXkX].Q -.T.Q G. .- v =.| D.+.+.].*.ZX7X{.j ..B.G.6.} ` #.] &.Y.4 e _.~ ZXKXC &.j Q E m.zXBXLX<X~.gXx.0X*.+ $ > b t g r.x b.pXiX7.p k O.Z.t -.e.} s.$.` 7.O.tXXXv.gX`.< - ..G.`.e @ ~  X@.D.B.Q ;X* !.T.p e.8.E =.] r.6.3. .o.t.p D NXB.+.iXi.6.Q b LXC v L.@X&.2 O.F.T.e W.=XP :  X4.h k g ^ `.z e  X%.A.kXh ' L.[ 2 e [.gX@.",
"7.O.#.E s.L.r.Q 3 ~.(.W zXb.[.u a  X@X@.tXyXdXyXpXO.:.&.5 2XR.;.x h &.{...8.$X! W 8.OX$X^ y Q `.5 c [.O.j ~ R Q i Z.L.5.tXsX] Q.2X@ 4 p -  X..x ).5 $.a.u $.P. .| N.v U.2 Y.mXLXb M l Q  X- _ lXc 2 w.W | u.x.sXa r.8.e.(.`.B.F.(.<  .5. .k. .B.` Q r.].@XL.H.p.c.[.=X=X<.wXN.e.F.%.F # , W.ZXE.u ].7.z.u.yXdXi.&.Y. XB.g -.>X2 p $X].< _ cXdXO.p.OX+.3.G.C.| p R.:.h -.- p ~.AX!.s nXZ.@Xe 3 v &.t } w.4 e * >.iXpX..`.kXW ).m < 2XC V 1X`.x +.5.h.j.P.} W w.4.4.gXpX[.l {.`._ @.VX6 + @ C ~ r 8.@X4 v X. .k.| r E oXK.* ~ 2XM + /.CXx.L.| } 6.G.P.E `  .8.W w.r.< F.Z.h R P.s.L._ 3.k. .@X].5 _ NX XNX X{.@ n zXjXR.s ; T.NX= + X # 0 R.U.PXZ r -.#X .w.E :.E R ].T r ! T p l lXR R ).=X8 A 6 @ ( ^ T 2.G.`.`.F.s.[.x ..j ;.(.4 p h L.pXB.&.( 8 Z T.] |.T.Q.~ a.kX0 PXC u #.5.z.0.W 8.gXO.O.@.=.; x &.NXR.r ~ :.{./ k | @X`.&.2 b A 1XgX+X@Xh j #XK.H.l h F.+.jXu.a  Xy ; @ R.&._ iXK.T.&X$ * 6X7.t.W O.kX&.ZX7XE.4Xs [.XXp.cXz &.P.3.x k < ( E.;X XA.&.;X-Xy (.u _ OXpXi.g l V.iXx.z.:.ZXA V  XzX#X} X.-.-.Q $XE * *.;.a O.3.h.7.{.LX1X!.e =.kX@X} G.3.F.[ a !.- g -.!.IX&XC p T Q | H.L.AX4X*X{.gX9XgXi + # 0 s -XQ.`.} O.[.oXs.e v %.'.r ^ ] W P.5.7.D.E iXXXtX[.R.6 * | s.:.e @ v NXa.D.#.R.U.* 6X-.e G.5.' E [.D.5.k.|  .|.e D NXa. .XXm.F.~ 4XU - &.[.D.] 2 O.@XM C %X7 V 2  XO.x Q ~ k U.2 x  X5 [ zX+.` B...5 E lXd.@.",
"c ;...x J.3.`.&.9 '.] 6.pXaXpXl -.(.$.p.aXyXdXv.tX' -.p E ].w.#.` h E r.} 2.@X2.` 7.OXk.~ 1 k -.`.F.d.7.R Q j x _ V.l.p.yXpX' &.;X* 5 =...t.1 E [.x [ *.u ' F.} | ].*X0 x &.ZXmXq s 3 z kX4 c zX`.* Z.4.7.d.p.aXi >.B.s.B.' s.[.T.p B.5. .G.s.B.W Q &.x gXc.H.@.tXzX<XE.'.cXF.+.F.| *.0 , &XHX: U.] ` J.u.dXsXu.`.|.F.P.} =.R.h x $X`.2 f.xXtX5.i.@X+.e.X.} q.<  X;.| R < b *.BXR.u &.VXkXr = s ~ j j r.W 3 @ *.pXaX$.].#Xe R.T.2 %X7 PXZX&.:. .+.gX@.k. .R L.| | K.hXf.; n &.~.d.zXR.@ @ y M x G.9...-.X.6.5.} p h oXzX; t !.M G eXxXtXI._ } ].e.@X| W  .0. .[.#X* N.|.;X(.5.n.s.O.k.h.` #X].x [.'.>.>X2Xb @ i kX0X>X<XC U.NXd o o 0 d U.4XKX: T o.g x -.4 R.e g `.t.T ! T - x ].W W 2X3XN B : + M -.T 6.#.p 2X].8.F.6.} R `.BXs u @Xp.pX4.&.V : ( x ].T.U.&XJ `.eXKXA @ ] W C.3.$X} W w.4.@.s.N.e ].E |.R.g -.;.-.U.l F.K.[._ :.U.6 Y.gXn.gX| g #XgXH.u p gXj.jXO.c >X; ; - |.c %.i.D.>X7 % * gXoXR -.' N.$.;.).ZX<Xf OXc.x.zXd _ H.3.p v - b =X4X^.ZXZX;X< m &.x | gXpX5.x ' ,.hX@.P.:.1X8 V 1XSXw. .2.2.! X.#Xp 4 ;.B.x D.OXh.B.bXKX&XZ * !.BX+.3.+X5.G._ ;.&.* j -.PXKX%XH - m R q.'.VXbXC <X`.0Xg.eX= o = > ;X1Xs R.:.- `.@X3.e &._ `.j y v p +.l.z.5.l pXyXiX_ !.- * D.u.-.- * v  XO.L.` {.a g kXw.h k.h.5.D.OX+.3.k.+.8.#X4 { NXa.+.x.OX:.%XFXo k -.#.].:.p @.kX~ / b ; C 4 kXO.p R.Q.s M 4 >.>.+ l gXj.' O.| l p.gX@.z.",
"[ >.x } pXp.|.2 9 [.]. .pXsXsX0XY.~ _ 0XaX9XuXv.tXO.] r F.k.8.} W ..#.q.R X.OX .} s.D.| l e l E q.@XE #.[ ).R.x Z.4.p.j.tX0X| &.Q.; a [.7.].g R P.a.&.*.c 7.Z.B.' C.Y.5 |.~ 4X&X; M 3 *.kXh D gXkX- | V.N.O.v.iX9 A.k.3.B.7.@Xr.~ &.6.h. .D.a.]...] Q ;.z.j.pXp.tXzX<Xn 0XcXc < F.A.&.H B 3XY $ %Xx c [.O.pXiXd.NXR.;.[.`.....#. .$Xr.5 M.sXK.k.P.B.} e.R j [.x w.E w.x < s Y.nXbXM bXAX#Xp > 9 &.j j r. Xu + &.d.jXH.;.AX4 r.`.m 7 HXPXu Q W W 3.gXp a.k. .b._ +.J.sXg.i C 2 R.L.lXV.a * m m Q ].W X.t.} 7.7.} x ` @X@Xp m T.u /.eXsXdXi.` t.q.h ].$.W 9.2.s.6. X4 ` ] U.6X[.D.4.+.OX| a '.|.:.'.kXV.#XQ.* ; l ,.a.nXAXE.2 BXc , # F F 4XPXZ 7 ^ ! < v ~ ; {.h r :.=.W ! _.4 s |.E x {.&X% U A - v W ! 6.` s e #XB.s.3.G.X.h :X3 M [.3.iX4.&.C 7 m (.NXR.J &XA n LX4Xo 9 `.p q.6.$Xq.* p B.k.p.H.| ].p E R.R o...-.R.Q D.K.jXc N.R.= M gXiXiX4.g #XJ.s.l e pXtXlX' u >X6 ; p #Xa $.@.V.1X; $ * k.jXj (.C.`  .B.~ ~ <XR.zXi.p.zX X..V.O.5 U.* b =X&X,XZX1X4 < / M Q 6.gXn.n._ ` O.lXc r.{.;X* 7 LXBXw.6. .3.W C.].5 e [.D.4.J.s.n.B.AXHXA E.- !.NX{  .G.R F.4.[.&.< a ZXKXq U.s ; m o.#.>XZXU.E.BX`.pXM.<.= + o Y.NX&.p v v < (.gX| e Q d ;.v < < - O.z.n.J.a [.iXiXe %X@ 2 gX| a * a  X%.O.L.7.*.:.4.gXs.W +.5.j.gXp.O.B.F.3.B.`.; <.kX4.+.i.D.^.C 8 + R.#.` C...E O.lXR./ 5 M U.Q gX' x {.k m M v `.z + ] D.XX5.7.6.` iXb.p.s.",
"c :.x } n.l.{.+ a gXO._ v.sXvXpXa T.p.uXuXuXyXv.i.7.W W i.3.7.} E ].w.X.R q.3.2.} k.D.E c u ] ` | B.p [.6X(.x C.[.` @.b.tXx.l U.b 2 ' pXO.q.^ j k.OX<.=.` [.[ a B.6.a :.R.s &XI 6 v 9 %.zXO._ [.lX4 a B.7.` pX9Xd L.D.7.7. XLX&.v !  .k.+.F.| F.X.` $.b.j.tXoXg.yXzXW.s jXxX3 * _ ].F J 5XFXN % ;Xc 4 ].| gXgX[.R.!.(.|.`.a x 4.5.OXX.a 9XjXI. .].X...=.;.W F.O.;.;.C.p 2 {.Y.LXmXZX1XU.>X< 5 `.R j x ` Z.[ + ] V.J.gXNXZX1 #.C.M Z IX6 p 4 Q j 3.P.g B.OXc.x.i.| a.aXiXA.R.; F [.iXp.8.e m n 2X(.R x ].W +.k.O.' F.@X` u U.(.5 :XnXjXXXV.].Q -.g (.Z.` 5.2.@X3.$X4 4 {.k / NX X4.i.P.x > :XZXv a lXc.gXk * &.[ u A.lX>.KXE.eXZ.M 6 F ZXKX&X6 k Q 2.R (.s * NX` 4 ~ Q Q T ).5 @ ).k &.%X: * %X~ 4.OX! ! q.] (.4 g |.7.5.G...k ,X* m R.` sXb.g !.%XC ..`.!.Z 5XB U 5X+ + [ kXp W  .G. X* e E D.4.oXu.].< a  XR ! o.=.R.;.B.K.jX_ B.|.= H gX.XiXi.E [.H.V.Q 2 tXdXOX' * W.> 2 #.kXu >.a.A.).; * 4 | @Xj :.@XE | w.X.x p >.[.` p.OX X>.].`.W.7 @ U.&XS PX-XR.e ).U.k r 7.n.i.sX' @.O.CX5 &.|.Q.o U IX`.#.3. .5. .$Xq.< h OXoX| k.+.D.`.KX3XM {.* Q.).l ] ..< |.OXP.).4 J LXB 6 *.*.; 1 -.r.ZXE.A Q.}.$.aXb.a + + *. Xc &.a u e Q .. X;.r x c W ~ 1 * 2 P.c.P.Z.i A.gXN.2 A @ u @X' @ = {. Xc ' b.D.h ] k.OXD.3.+.j.j.n.3.a.A.;.].O.=.; Z.lX3. .5.].W.= + z w.B.W w.e.` O.NX:.x h {.T.E D.n. .6.k m p &.{.9 @ >.3.n.s.e.B.O.d.H.H.O.",
"R.c x 6.c.gXM @ { I.%.| f.dXfXaXl R.pXfXM.uXyXx.i.k. .k.3.4.B.} E F.C.} j (.W 2.} 8.@Xl c 3 Z.6.R } h kX X_ ` N.F.a _ m.aXu.@ M * [ I.oX5.E T.1 7.OX[.>.7.[.'.@ %.#.` ].=.s &XN b a [ N.K.M.c N.zXh a Z.F.' pXm.z I.3.5.a.#XIXn k W  .5.} 8.' $.#.| p.m.pXJ..Xp.aXwXi R.cXx.3 s 4 >.C S 5XP % 6 2Xp 2 =.x [.NX`.* 2X;X-.].` +.D.| D. .| qXxX[.e :.R E ] -.j +.3.a.$.w.' [.`.M LXPXPXC p ).* | [.E E R x l  X* v N.@.gXSXU.t 6.7.U.IXmX* k Q ~ e  .$XR x gXXXtXm.x ' p.iXgXc ; C [.' p.@X:.e ; U.:.W p #X`  .s.5.@.H.B.j l *.{.4 !.AXzXj.Z.E ~ Q.e ] [.3.9.5.@X| @XE - |.g T.U.>X`.C.Z.h @ ZX;Xv i lXdXl.r r ..C.4  XlX$.=X%XA.zXg U.C mX5X7 ~ j T 2. . X2 e NX_ e C k T ! `.s @ ,X3 Y.E.* ( T.#.n.oX! ! :.j &.R.e ] 7.a.6.=.W.E.b 4 v h pXj.| BXQ.t `.:.n =XFXB B + : e w.[.x R 6.8.kXe E X.[.@.K.D.].4 4 {.X.R o.;.;.%.6.P.jXO.V. XM &.@X.Xm.l.| C.l.P.Q - m.sXO...u b + 2 w.@X2 `.w.[ ;X@ - / o.} a ..gXk.g R X.} u l kXN.O.V.[ D  X!.4Xq @ :X&X8 GXb Q (.2XU.m k r.| j.sX` u.{ VX`.>X2XC % V >X].' s.3.5. .kXx 4 | gXpXi.O.V.$.^.3X&X&.`.Q ;Xu * {.e - ).OXk.^ C PX3X+ b {.|.6 < {.6XU.A Z Z {.'.K.b.c * z NX5 *.{.u a E ].R Q &.x E _ h _.r @ 5 OXj.K.,.z ..NX~.: 8 @ M  X{ X n nX;.e ..5.n.| R 7.P.P.3. .z.n.i.O.B.a 4 C.#.=.2 L.zX7.} 3.`.0 + u ].F.G.x 6.D.' `.BX=.W g t.} ' 4.n.n.s.Q M 2 v >X5 3 [.s.j.5.3.7. .E gX' l ",
"~.x g G.pXH.@ s { gXc ,.,.sXfXcX_ x aXfXx.sXyXp.j.+X+.OX4.a.B.W x P.@XW g ].3.}  .8.OX| d i [.G.W R B.L.V.@.O.L.;.u _ 0XaX@.  n v ].b.iXJ.W / 1 Z.OXgXL.D.O.lX3 2 `.w.C.>.k P : n 5 c S.g.hXl l [.O._ d.J.O.pXK.{ H.| h.s.|.PXb p -. .8.2.+.`.NX$.u.g.hXV._ .Xj.jXS.i NXlXc a Q ; &.b A 5X8 * k |.g ` $.a  X>XM * E.;Xc d.m.gX .#.B.s.u.uXxXZ.- j -.x g (.g W D.i.| i.P.C.[ &.bXIXAXT.1 E l P.D.x W Q h = BX*.< `.' g.gXo.T ].>.Y.ZXn u g -.M 4 } G.R p gXv.iX@.l $.3.@XgXc * J 6X' a `.#XW a &.~ :.- 6X` ` h.i.0Xa.F.X.'  X6X4 M ZX}.A.(.v &XA p E ].q.3.7.A._ ].x * {.] ]  Xv 1X;X] u *X*X*.#.l wXpXl.t T ;.C.e =.NX`.m M `.kXR _.@ HX7 / 2XR R } 8.#Xs M [.V.;XC p g o.].=.4 ,X* W.M Q.Q.W P.pXl.R ) -.g &.|.(.p ` NX' R.%X7 !.* E  .iXc.+.#Xk 1 NXl @ A FXA = ; Q.g P.J.` W  . .gXh W :. X'.gXa.[.p - {.t.W ! 6.B.' _ V.jXg.{ &.{.`.k.OXoX@.r.#.m.K.] - H.pX| R.&X8 + ; ..gX; `.C.x ,X@ 2 T.o.R c %.d.gXW g t.R ] 5 c }.[ D d a `.M A &X5 BX&X% S V r ).R.M b m ] x iXtX' d.{ SXNX-.-X6 @ * t.k.+.8.3.7.j #Xp a r.5.pXc.O. X{.bX3X&X`.7.:.T.* k ;X; 4 (.OX0.e Z 4X% q M R.R.m < R.(.< E.: S ZXbXH.n.| x NXl + 1X!.u i #X6.} r r ] ..E r _.k * 4 gXi.x.M._ z BX{.8 % @ W. X>.X n }.a 5 =.H.K.7.} p |.(.;.6.G.l.+.B.`.i @ e ].Q 4 L.OX3. . .:.@ o a kX].#.W W D.7.`.`.} e.j 6.3.5.p.p.XXl.x M * M R.* l [.J.+.j.z.3.E g  X9 3 ",
"&.[ x @XOX%.M M _ L.%.A.O.tXcXcXl a aXuXf.sXtXu.i.pX| OX,.a.k.} ` OXG.W T #.3. .} 8.OXa.i z gX5.] -.C.V.I.@.u.gX..p O.pXpX{ X K NX$.b.m.OXW / m `.7.[.L.+.` jXu.u `.w.@Xc * A 8 U.5 a V.,.g._ c $.D.u.i.J.p.pXb.,.d.3..Xs. XIXZ < q. .9.2.q.>XIXF.b.u.hXi u iXc.zXS.{ VXBXa $.[ 5 U.@ P P * p |.$Xg l <.d |.Q.b 7 Z {.E m.xX' ` BX$.p.x.fXsX%.p h `.C.x =.` +.oX.Xj.n.D.;.5 U.f /.AXU.t u a..XoX` W _ =.i {.#X:.AXc u.OXt.r (.*.:XE.5 k e &.m - W 6.t. XpXv.iXu._ F.P.7.kX`.= m NXc + T.(.x ` (.-.T.@ (.#.E J.p.K.O.w.} O.kX|.p i :X}.BX(.k &XZ m a -.q.6. .] _ r.` < ] q.j [.`.M <XU.1X%XH  XL.NX<.hXb.g j q.} 1 R.BX=.v M >. X} -.,XU @ ].kXW W  .3.#X%X; B.VXY.; 1 g W C.t.Q U.* :X&.&.! 6.H.K.a.T ^ T.v g R.#Xx :.`.`.NXm s NX- h C.iXv.j.@X-.1  X; @ V A Z * R.Q j zX4.` j ! | P.' ` h v *.NX'.[.` 4  Xe. .! W l.i.` ` hXwXY.:X|.].s.h.' 7. X>.pXK.r.- Z.Z.;.2X&X@ + 5 #.[.- R.|.Q &XV r -.X.} l ,.K.OXj R q.! W r.e >.NX>.9 d T.U.: 7 R.BX=X% N S t ^ x v C y Q  .K.@.l Z.kXSX` ] -Xb : m #X5.} s.+.O.h C.- &.E O.sXv.' ~.{.<X5XA `.F.] - < ).U.@ &.q.n.G.1 V A o !.M u &.U.2 R.< ~ !.6 KX&XM gX.X3.[.] * H ZXF 3 _ zX .t.~ e =.#.-.r -.-.; u B.j.dXtXO.*.BXM + $ @ M R.1X*X%X!.a 2 =.L.| 8.2.1 (.).R.;.Z.| B.kX`.C @ 5 |.e 5 gXoX .2. .-.+ o d SX`.c [ x B.w.e ]  .8.W 6.k.5.b.n.j.5.R v u {.s @ ' @Xs.` h.+X6.W p c @ n ",
"c $.@.pXwXVX!.e E [.>.>.$.p.cXvX' O.pXM.g.aXm.+.j.iX .k.@.$.s.l.O.D.y.T o.| D.i.o.0.oXJ.z _ pXj.8.} ` [.[.@.f.wXO.| p.pXk.l = HXC ] gXj.L.x m y (...`.>.D.5.c.jXr.` [.6.&.1 7 7 Q.5 i V.f.x.@.N.' @Xs.5.gX4.sXg.@.OXl.OXH.BXUX,X< C. .3.2.=.BXSXL.j.p.p.@ d pXXXlX' f.zX X=.kX{ i b o P 8 b ..@X@Xp = F F <X< V 8 Z  XO.m.hXO.W [.d.p.9XvX9XD $._ L.h.OXx ' h.tXtXm.z.$Xi + &XmXrXCXv 4 l I.v.jX .R B.[.3 d kXkX>X9 _ [.t.t s ,XIXE.Y.&.e -.s f o.W VXVXJ.5.hXu.{ gX[.2 <.BX`.E |.u c *.e j W G.o.T.@ U. X| l.x.K.| e.} #.Z.] E 5 }. X X`.g ( 7 b -Xt -.q.} ] E (.] [ e t.R } F.q.&.KX,X@ :X`.BXAXi lXl.j R e.W * ;X|.[ h v 4 `.o.(.%X+ ' jXOX} W  . .|.E.+ _ VX~ * - m g (.].o.r p NXeXE X.k.K.H.x T _.k m s M [.@X_ ] 2Xm 5 `.BX3 = *.gX.XpX@Xj < U.+ - U.=Xb e `.p ..lXO.E W R ` F.| x a @ 0 {.BX`.w.a F.k.9.! t j.m.O.` ' }.%XH &.w.N.L.} ;.NXv zXK.].4 =.-.(.U.Z @ * (.+.Z.* R.NX`.C ( p q. . .' 0XK.d.g q.+.| W $X-.p [.kXD c `.u J V t -X&X: 6 y r j =.&.W.s j e.gXO.u NX[.VXs.#.).m 1 k #X3.R 2.2.6.x x 4 E 4 Z.hXiXO.=.E.B 3X: {.} :.t R ).V @ ;.oX5.@X&X8 Z < U.5 - {.T.&.F 2 2Xm ~ ,X@ s zXc.OX].a 2 mXE.c ' K.hXp &.-Xk ..;.-.g x ].a a ' dXyXaX%.&.;X@ % + 4 u 4 5 J 4XKXW.0 R.L.5.5.8.g ;.|.E R.x p BX Xa m - - b * a zXv.p.h.! -.@ X Y.AXs u =.c ;.W a ] 6.k._ Z.D.4.K.gXu.| h ] `.{.9 * s.J.G.E 3.OX#.W l = # Y.",
"l O.b.I.CX>.u h | [.> *.|.gXvXvXM.b.b.u.9XaXj.5.j.iX3.5.O.O.l.oXO.P.X.T X.| a.F.2.0.oXiXc ' oXj.z.| x |.gXu.g.0X` a.u.iX[.u =XHX; (.@Xj.k.x 4 y Q &.v &.zX| u.jXC.h lXE k ( 7 7 Q.3 i L.g.aXiXE ` F.+.3.J.O.aXM.h w.gXI.H.kXPX4Xj e. .e.#.E ZXVXL.i.l.u.d S.sX.X[.u jXJ.-.< nX*.H 6 7 J < R.4.J.@Xu + + 0 C < U.@ E.kX4.@.gX[.E @.p.g.aXvXyXg.H.@.gX+.OXW | n.yXtXx.OXw.+ , KXZXwXlX2 @ A.iXn.J. .} @X$.= l @XI.}.f l `.t.r E.&XIXb U.(.p g 9 !.;.} D.kX| r gXu.g.K.N.> d A.L.$X7.2 `.:.4 R.} 8.} (.* M BX_ b.p.OXg | q.| ` #.E 2 >X'.[.`.h ~ - ;X1X1 -.;.} } R Q ] =._ W ` W 6.|.1X,X: = {. X`.{.9 0X@.R W 6.t.1XU. Xh x :.4 |.|.6X= M lXsXb.} W 2.8.].@ * 3 NXR.- * < e -.@X} g -.wXwX_ t.z.c.lX_ R :.e Y.U.5 @Xz.+. Xm t h zXlXd + R.[.gXOXG.R k U.o e R.*X0 ] r.e '.hXg.` W l ` 7.e.4 u @ q !.v BX|.%.L.5.G.o.* n.jXO.@._ c ;X+ _ ].O.@Xe.;.2X2 rXI.@Xj p v {.a W.X < #X@.Z.; =.BX`.3 / r -.2.5.@.jXpX4.e #X3.| | $X;.4 $.I.V.Z.`.- f W.- &X&X* t Q.Q r :.R.&X6 g C.gX_ &.SX' hXa.] 1Xy y T t.X.j ! -.o.[ a h Q 5 Z.hXjXb.#.e &X5Xo !.e Q -.X.(.$ @ [.j.3.#XC : m Q.2 ; < (.).>X0 ~.(.j ] Q ( &.gXsXI.| &.M 4X9 _ ,.aXiXh < M s :.;...g e NXc c O.jXyXaX<., &X8 + o M k - m &XJ V mX*X>Xr.8.9.8.W #. Xl k T.6XZX>.> 4 6 @ - + k zXv.c.n.} &.+ + *X:X2 * >.l R =.T.] 3.z.N.kXL.a.[.kXD.| j `.Z.l 9 9 gXK.D.` } $X6.' `.d f BX",
"' @.d.zXSXi x t.2.C.+ f BXu.vXvX9X.X@.f.yXyX5.h.c.XX3.i.@.O.+.oXp.B.o.j o.' %.].9.9.i.pX' _ H.l.5.z.x `.@X .u.wXc '.b.f.~.ZXmX&Xu |.l.j.4.W k 1 ~ ).9 &. X3.u.jX| R kXc k 4 t m &.a %.zX,.x.hXE E q.` 7.F.' sXM.= &. XL.p.[.J Z {.C. .6.X.}  X#X[. .7.u.,.0Xm.pXK.| sXOX-XA C bX%XA 4XC h w.5.J.@Xh + X &X3 |.].m !.gXb.E D.[.E u.x.f.sXvXyXaX9Xp.zX5.3.R 3.j.pXx.m.[.a @ =XPX*X`.Z.; > K.pXC.x  .G.D.O.d [.iXn.kXNX`.;.].j ~ 1X%Xm p `.a 2 H U.o.9.pXgX;.- L.f.m.hXD <.c @.5.OX5.`  X'.2 `.3.k.R _.* g  Xh n.p.@Xp g `.} W 7.W v {.O.gXO.R ^ e ZXU.k _.q.} X.x -.] `  Xu :.} q.>X;X* ,XH !. X' `.c m.p.W W 8.e.-.&.(.g l F.3.].1XC ;  XgXgX[...R -.|.2X< @ =  X].x 2 ; 6 ~ BX} R q.pXI.e W 5.yXgXW R t.2 ,XM R.zXh.pX` y m #.hXI.D @ R.NX#Xc r._.t T.e -.).4X, T.#X[.gXaX0XX.W a a.W ].5 < @ 2 u v E.4XNXF.h.k.t.- G.gXB.' k.} k 2 [.gX| V.4.[.W.= Y. X@X| p {.].;.Y.# p #XO.'.h C.BXE ; 1X!.T.o.3.O.pXgXO.r @X7.| O.$XQ e _ H.K.H.X.e  Xc 4 V P @ m ).t.g x !.b 6 g e.zX[.BX`.a.V._ v 7XA k j ~ {.v &.~ Q `.[ v v E @XaXaXb.N.~ 4XA o B - 4 (.;.-.* > kXp.} #XM * y &X* 2 E :.1XY.{ kX[ ;.#.6.-.E kXVXV.| ~ %X,Xv Z.0XsXiX| e @ * v ..` h < BX>._ %.kXpXwXnX3 A Z $ + T.g p  X4Xo @ C *XmXR.(.C.8.6.| @.N.4 {.LX{.>.d * 6 V : + * ;.b.c.c.R U.+ # 1X!.b + A.$.x (.`.W 5..XD.[.].A.}.kX@Xs.} @XN.a l >.[.gXJ.3.W 8.8.8.[.' N.VX",
"x r.gXVX[.l 7.8.6.:.X W.`.@.9XDXsXpX' ,.uXtXV.].z..Xi.+.[.L.s.P.OX` W R #.| c ].G.9.` gXO.' gXG. .OX..] $XW +.P.D <.lX,.^.=X=XE.&.6.5.z.O.R.Q.< U.1XM R.[.4.V.[.e q.#Xh M 4 4 ^ &.*.`.[.d.,.cX@.E ` p '.kXh 9XwX@ 0 ] $.l.kXb ;  XB.e.} } q.].6.]. .a.+.u.b.n.m.c.p.dXl.C 3XJ %X,X4X&X3 [ s.4.4.F.l o % J 9 VXO.R.] u.iXx 7.I.c J.x.x.sXfX9XyXv.O.gXl.5.8.5.n.n.oXD.c v J KXE.U.:._ l D pXpXE @ 7.gX3.' >.%.b.x.wXCX`.c #Xj 4 2X=X%Xx #X[ l !.3 ].5..XpX|.] d.p.pXwX3 `.kXO.@XOXpXn.' C.E [.d.s.R |.< e #Xx J.OX[.p p t. .8.B.R ;X&.s.hX4.W -.~ AXY.m T.:.| | } g R h  X`.|.O.#.(.3 Q.;X:X}.zX| <.{ b.iX} W e.W l &.R.h ' H.pX@X2X* ;.kX#X;.r.-.Q :.|.).s @ 2 $.6.| R.2 b m VXR  .7.pX{ u ].n.XXpX' R ] !.*X2XNXk. .j.+.1 m ].gXL...@ U.BX3 5 ].`.g :._ -.R.4X@ 1XNXx pXxX,.| ` l gXx [.~ 2 + 5 a NXq b ZX].k.J.].e ....kXx z.7.x -.gXj.+.D.O.kXs 6 M :.@X5.x  X7.[.:Xf ; [.S.wX_ B.[.e 2 -X/ 6X|.C.d.xX[.' p [.+.7.` `.l 2 5 { H.k.s.D.J.C.U.S A * M ] |.g ~ M q 2 p X.@XSX X..@.[.{.%XZ Z ^ T e 7XM U.p g  XA.* &._ H.jXaXiX4.{.1X% & & : 6 !.).e + 6 kX4.e ].{.; y ,X: * ;.w.[ R.VXzXE e. .F.o.] BXeX[._ p 1X!.{.[.pXaXx. .R.< @ f v ] E l >X>.=.u `.rXIXAX+ @ 7 : = -.x  .VXU.o > 3 *X%X%X-X(.q.| $._ gXx -.{._ $.%.a ; 7 7 + 6 E O.aXn.h ~ + U.{.Y.f # A.7.E (.#.E 5.OXF.`.:.R.R.{.' 8.+.L.B.l <.'.a.S.K.5.W X.G.OXl.@.xX0X",
"= &.SX[.b.n.+X2.F.c V &X] 8.,.cXO.` _ x.yXM.NX&.` gXB.;.`.>.` a.lX@.R (.:.a 3 7.G.} x kXw.w.lX3.c L.B...R.Q  .D.$.' eXBX4XB ZXU.).x 5.J.Q ;XU.s Q.~ &.:.[.O.>.h 4 ].#Xx ~ r g ^ 1X:XU.>XZ.{ xXu.R ` 5  XNXe b.VXC @ &.#.u.kX;X; c ].e.W x Z.[. .C.} e.+.4.4.l.n.tXv.sXO.* &X,XZ mX=X6 p ;.F.B.l | ] * b 3  X[.c _ O.i.tX .| oXp.i.p.iXuXuX9XdXp.u.pXc.+X5.5.b.b.I.5 @ H KXU 3 >X~ r R.'.pXpX- u OXpXO.| `.@ ' H.gXVXi &.kXj e M A %X-.| lX{ 2 M F.5.gX+.E A.J.iXlXa.+ <.d.| r.W jXaXs.#.O.F.b.P.R |.e 1  XE J.OX[.4 | 3.5.+XC.-.<Xu O.pXO.[ (.6X~.M S @ Q #.| #.p } l {.#X7.3.3.R F.@XO.~.BXgX' c z @.OX| } G.` E x r.| V.i.oXzXh x P.@X).M (.q.x |.&.!.M * ].' W ` A.[ ; C kXx F.7.S.z SX[.x.XXpXE W R.1X%XBX#X+.+.5.D.Q e `.BXl &.@ %XE.@ _ [.].r #.w.` {.,X7 4X4 p zXxXD E ] l zXh r.Y.i + M $.[.a M ,XZXB.k.gX_ v &.lX5.3.e.x [ gXm.} F.d.kX@ M R.T J.l... XV.wX9 o 2 gXd.V.' | ].j < ;Xt k -XZXNX<.Z.' p ].$.BXAX{.m 2 = [ h F.z.5.u.VXZXV P N / Q M e k 3 b = e v AXSX;.O.i.S.BXU.- / ^ T e NXu s 3 a kX' 2 ].c  XhXyXsXu.].!.% & & & : b ,X- @ b @Xs.e R.6Xv m 8XB b 6X| u  XCXCXa.G.D.3.W ].>.'.kXh p -.>X] [.jXaXu.W ].R.+ i 3 E :.M Y.R.{.9 R.IXIX^.= = 7 ; ; %.| F.VXs > H @ 1X0 A &XC &.|.c _ zX] x ] %.d.F.!.6 7 A X 2 ] E hXa.c x u `.4 >.<.NX[.7.R ;.| +.k.D.'. Xv %XC W.- =.#.[.F.| [.Z.g.0XzXO.p ` G.J.j.p.CX{ ",
", !.SXd..XpXG.! ;.R.&XA R. .V.,.' H.{ tXiXgX{.i g [.].4 i R.a ' jXj.' `.=.; _ 7.$XT h NX X].[.7.5 Z.OXF.T.~ X. . X<.SXLXO 5XAX~ ).g 0.F./ &Xm M Q.m (.w.lXO.a < x r.].`.&.e T -.~ ZX%XF [.{ cXu.| ].c  X6X< @.kX*X%XQ.;.@.a.1X!.l  Xe.j g w.0.9.y.T 6.8.6.' ` K.yXyXaX' ; %X%X,X&X=Xs v r.'.w.l _ &.b 5 _ CXD c _ b.v..Xk.E oXoXl s.iXtXsX,.aXx.@.pX.Xc.OX+.b.b.@Xp o =X3X+ z BXk - |.kXgX@.* |.lXc.W #.|.* 3 [.H.[.o {.kXx r m < E.2Xh CXa.+ R.` 3.zX+.x %.p.iX'.d D lXi.k.r.4 x.pXOXO. .b.b.I.R 2Xm <  XW 5.@X[.4 F. .3.J.X.>X;X2 @.I.7.E 2X2Xi ^.7 + u ;.| O.R q.&.2X[.| B.a.5.zXi.4.{ wXzX| [.D a.gX6.} F.x e R q.k.I.@.pXJ.W F.z.kXm 4 X.2.W |.1 {.&.; CX' O.+.l  X+ C ].W ].w.A.rXSXV.pXx.zXW ` &.,XZX XZ.r.].s.D.(.< 1XF + !.> 4Xb M C.@Xe.r  .C.X.R.4XKXn ; E zXcXD e W c lXl ..*.3 o d VXO.u {.C mX#XV.[.O.p T.gX.X5.+.] E H.OX} B.V.Z.* ).-.g k.OXw.[.gXS.i i z VX,.a.F.B.kXx 1 2Xj -.k T.BX9 `.a e (.w.>.LXLXU.5 a `.2 c OXj.i.zX] 4 A : T.{.m t s b =X@ b !.;XR.w.5.u.].1X@ r ^ ^ T E #X; s ; _ BXc ' [.&.VXpXaXiXO.$X~ @ & N & % 7 C * ; M s.l.x E #X] s &XV > }.` ].NXNXCXD.s.@Xx (.NX9 eX[.u } #X:.x @.gXpX| W 6. X* 3 u l {.f v 1X{.M 1XIX<X}.= = A b i %.N. XBXp u C 3 1X/ 6 A b 3 {.z u.zX`.v =.| d.B.T.C Z S o * |.R O.<.[ 4 e.3.u [.VXS.O.' W W E Z.Z.O.'.{.4 %XZ b < `.'.[.[.' @.K.M.m.[.<.; v C.J.z.K.VXf ",
", bXSXb.M.J.(.g &.ZX+ &XM o.kXg @.zXO.hXwXVXR.z h ].|.+ i R.Y.`.jXpX#.x ' a <.>.6Xr l kXkX[.s.L.3 D gXk.).t |.g VXLXMXA O KX).(.U.p 2.].( 7 q / -X6X(.6.zXO.p ~ ;.` =.>X&.U.g _.h U.mXn  XO.vXv.` w.l eXkX- _ lX&.M %XM Z.O.:.).{.{.].j p E 0.9.2.! 8.3.6.X.x V.tXyXcXO.2 %XU.U.s %Xv &.; |.w.| _ *.C 5 pXjX5 l @.p.9XiXl.| J.3.h F.9XaXwXi pXM._ gXiXm.J.P.p.jXoX..+ &X: > *.NX~ 4 `.[.zXl _ [.jXO.R  .[.p @ [.i.K.9  XkX;.< m m p >Xc m.jX5 :.x D.G.} p %.M.zXF 3 zXhXp.@X].e 5.pXOXk.z.m.pXVXj -XE.* ].R 5.OXP.l @X3.3.G.R.ZX~ h @.[.| ] -X; >.BX&X: a C.` 7.s.].R.l |._ >.$.+.3.k.' g.hXzXx lX_ _ #X6. .].p t W 6.k.wXO.pX5.i.+XOX6.p k e. .] &.4 |.E ` lXi.J.D.a kXi ; A.O.].=.~.SXVXV.pXb.gXx } ] ,X=X). Xe E gXw.4 ,X4X@ * W.4XJ 2  XNX`.].x E [.R.&.4XmXb < | pXCX0 4 X.` CX` x Y.; * a lXb.' =.!.1X>X'.wXA.e ).OXXXl.} w.#XD.x g F.[.' l #XW p 8.OXi.s.pXd.u {.d VX'.'.@XB.6Xa - ).Q ] w.#.F mXZXF v ).;.<.>XLX;XM D Z.R.o @.j.i.s.| l m 1 q.zX).u b V 5X$ V C i `.7.7.7.`.v p |.T T T | C.@ T.; &.NXc p.L.1X>X0XaXz u @X] + & & & S 3XC ; < (.H.oX#.h G.e.m 7 V + v R.R.}.{.SXF.D.Z.c ZX0 9 lXF.l kXt.e 1XE D.gXW 3. .`.u * C m Y.M 9 ,XU.R.:XF ~.}.= = * C c l [.;X;Xp M A C ~ {.y m |.u ^.^.I.d.a p x ;. X>.] M Z A $ @ ].} l R.f u $X} 4.CX<.3 i O.W x h >XR.] '.;.@ Z Z - h |. X'.Z.| u.b.M.m.[.~.@ s C.l.j.H. Xz ",
"K LXlXm.9Xd.-.* 2X!.@ %X- T @XR _ [.u.hXrXAX'. Xx r. X* u  Xz ..pXlX_ ; N.[.>.R.>X< c zXF.[.l.V.0 , gXl.~ < 2Xa ^.%X&X  Y HXU._.k j } q.V $ > ,XQ.~ :.6.pXhXg ] r.W (.{.{.(.j -.j s ,XmX`.O.sXyXx _ a  X#X- l NXR.k V Q.r.w.] Q 1XNXr.W e R 8.0. .2.6.! 6.C.x +.m.dXvX' 3 Q.-.).!.s Q :.* 3 r.B.h R.Q #.jXaX@ i {.kXhXiXn.5.4.Z. X@Xm.aXV.9 jX@.l [.gXK.kXa.0XjXn.A.E.P * ,X*.`.~ ).-.@X[.a K.iXzX| x 6.F.x 9  X4.gXO.N.NXZX< y k 4 `.7.' CX' ' w.F.X.W h { zXkX&.f lXO.O.k.kXg | @XOX5.iXtXpXzXe !./ - |.` +.pXD.E @X5.i.].BX1XQ j g 4.O.R.4XV NX[.C 7 p ].+.s.+.F.R.; h c w.7.+.R B.@.f.hXzX4 L.' 5  XB.3.].e 1 ^  .OXK.u.x.j.j.oX@X] g Q 0. .R g ` w.| 7.P._ J.l.c kXR.+ ' B.|.[ H UX[.gX@.u.N.E `.2X%X4XBX`.4 l zX| Q.KX7 =X2 W.HX@ =.'.w.].#.E x `.U./ U.<XE.- ` lXCXO.e ..| VX$.4 U.; 2 c D.gX#.:.BX>XR.eXkX[.< _.J.XXG.| $.F.e.r h C.F.u.+.@XC.4  .+Xz.oXCX,.5 `.d SX{.BX7.| T.~ t ).Q R 3.@X}.W.bXH s :X`.A.{.{.W.Y.[ NX^.+ N.l.B.3.gX' M r 5.@Xg 5 6 A U X B 6 u [.G.7.].x u R.`.! T R [ c * NXp &.NXc L.NXLXf zXM.= R.F.r.@ & 8 % N 4XU.p e C.p.oXB.l O.zXT.< b n ~ BX;XU.{.SXA.Z.].}.E.+ <.zXa.| #X4 C 1X:.w.s.` 9.! w.l + U.M e !.u E.;X!.2 + *.}.= + o s ;.O.kXE.A u v J H l (.p p [.[.F &.lXc * ~ g ;.;.l :.v C &XV b |.@X_ R.R.3 t.W K.wX# o <.L.` ` l BX*.] L.| @ V 8X- g ;.'.'.>.#.l.m.x.H.`.!.> M ].l.J.V.`.{.",
"3XPXwXyXv.L.n : LXu s C m r 9.k.a $.u.I.eXBXeXkXW q.Z.* a zX`.5 ' VX>.- D.a.d :X,X* ' hXH.J.x.d.d # gXOXE 1 IXY.6 5X% O FX&Xb m p ^ G.} s : 3 U.m ~ _.;.K.hXW ! C.[ 1XR.`.! W :.r t 4XLX{.' yXuXl.+.h  X X* u T.T.v C b R.(.] h U.ZXw.6.p g 5.k.E :.9.2. .G.y. .n.dXsXO.{.1Xr.`.).v +.w.; @ =.[.E ..` K.jXf.X =XLX}.wXaX.Xs.l {.|.[.pXjX%.5 cXz 2 [.gXZ.>Xl @.K.c.#X&X@ M >Xv s J U.g #X` %.j.pX'.>.j } e.+.h kXl.n.d.' AX,X- m j R  XZ._ lXkX'.].#XC.;.h a zXH.<.}.z _ #.| lXW r e.G.5.yXtXyX5.Q !.k - ].| 3.jXp.` gXO.5.#XAX!.] j W C...|.%Xb  X'.s e 3 #.F.| ' ].4 e R +.OXn. .W +.4.f.xXlXe ,.@._ `.k.5.`.< - 4 W OXpX9X9Xx.c.D.:.{.R 2.k.2.j 7.C.Z.a.+.l 2 b.pX@.L.kX+ | @X X2 &XUX[.iXn.@._ M !.4XB PX{.r.e h gXF.ZXC q Z o Z &X+ >.F.` @X8.} g Q.4X=Xn <XC < l _ kXkX:.W c kXR.d T.* e [ _ F.kXr.-.|.B.A.BX*.e #Xn.c.@X].A.[.8.6.` B.s.p.h.gX].- W k.J.lXCX_ l :.G ZX;XSX(.=.;XQ.1 ).Q R 5.oXzX<.n E.s ;XBX`.Z.].W.3 ;X{.s 3 `.a.3.4.hX' E W l.P.- * u W.A N JX: *.[.OX3.e.j ' r.-.Q R T M * h BX=.R.BX>.(.IX&X@ lXO.@ |.X.-.s 7 $ $ S <X2 &.|.3.3.n.l.| j [.(.p 4 k `.BXU.W.:XVX_ |.NX;X+ 3 }.$.G.F.`.2 KXC &.r.x #.+.}  .:.@ U.p ~ ZXk C 2XR.; o U.Y.+ + + ; ] N. X4XA &.&.*X3 x (.r j ;.#X].Z.lXe [ ] x t.x E :.T.V S N E. X[.} x `.u p ..kXd   0 eX7.} ` | kX[ E OX3.1 y ( * p #.D.Z.{.c 4.c.c.l.R.n s Y.| J.b.d.NX&.",
"HXZXhXyXc.].A 3X1XM f &.6Xr R @X_ '.V.S.eXnXwX0X| } [.x x.iX| ..2 `.BX- 7.D.e 1X&X* ' pXoXoXj.,.D D SXoXe.E AXU.Z B + A 3X8 &X/ j o.e.q.R.s = %Xm Q.(.x pXiX .X.r.:.1XR.[.3.| -.e Q.ZXE.1X[ f.sXoX| p `.|.* e M M 2X6 C k =.$XR p &.e.F.&.4 k.J.p ] 2.3.1 o.q. .l.iXx.b.>X).C.` (...5.F.9 @ Q q.r._ s.iXxXD n IXV = 0XaXv.J.(.Y.c [.sXsX' ' CXd ;  XnXi !.5 A.@XgXZ.- b ).x M M %X6 =.].`.>.@.gX&.!.p ] e.D.x Z.OXi.gXc ZXS - t r q.kXC.| w.SX`.| ].:.E :.h kXN.d BX:.] #.| pX| t ! OXh.yXyXXX.X-.~ p < q.3. .jXb.O.gX@.4.kX!.U.-.R (.|.&.1Xy n R.{.m - l C.].' ' ].l v #XzXjXOX} o.| O.x.aXlXx @.$.h q.h.h.(.4 * r #.OXiX9XtXp..Xs.T.l R e.5. .} gXN.w.D.7...u b.pXu.V.zXa 3.L. X* 4XIX'.J.xXO.z b ,Xb U PXc r.* ;.J.OX(.e M n 8 A V * a gXh.zX8.` e ,XPX4X6 ,Xn - `.c 2 c ] Q R ]. XR.m - u =.x h #X..E [.P.@.>Xi g ].5.J. X XZ.I.5. .h ].s.i.k.3.'.u  .2.J.gX<.a w.A.*XZXY.ZX X{.1X6 1 T.y.T 5.n.pXzXY.E.E.!.R.{.D.].E.&X6 q H Y.l x F.@.hX,.x 6.J.P.> *XNXU.V FXY : {.7.gX} #.#.+.F.(.~ -.r ; > N.lXz 3 5 u (.2X@ * NXa > {.E e ).6 + 8 &X,X@ ] #Xj 5.x.n.z.g X.|.Q k e x (.2 / ;XnX4 |.R.@ = >XD u P.[.a b KX* v :.h r.#.#.W ;.u C p {.BXu &.R.`.a + M W.+ + o 5 O.%.>XFXN T.] <X+ h -.p E R F.zX[.gX< ..x E X...x -./ < 7 8 b {.] :.h `.a e T.Y.+ o nX%._ O.` _ gXh x lX8.j ( ( t e ].P.[.^.3 4.oXp.B.M 2 F ~.7.d.H.F. Xc ",
"LX<XgXn.VX2XZXKXC s c >.#Xg h [._ `.}.}.:X}.hXM.| W @X' m.iX;.] _ u 6Xe E F.h NXE.+ ' iXn.n.p.a.<.BXcXm.z.+.|.1XC @ i E.N N %Xe W 6.X.2.].l + ,Xm T.|.E pXn. . .`.>XT.~ zX .T ^ <XIX!.5 !.~.O.hXzX` 5 C.`.5 -.p ~ U.@ 6 r j G.k.r R 7.@X-.p k.n.l ..X.q.1 (.} R D.P.u.d.h |.;.h F.3.5.@Xv * j q.B.| oXH.VXSXPX&XX f I.aXyXz.].*.3 rXaXuX_ H.CXa ; ;XJ Z M !.>X6Xr.h j {.s ; R.{.5 U.R.{.bXz gXzX9 @ ; R 3.k.' +.gX5.dXB.J % 8 1 g ] |.;.C.W AX3 r.#.v 3 :.;.NX*.@ ^.SX` O.' gX@.4 ^ e.n..XtXXXOX].r p 1 | G. .jXi.@.zXE u.D.3 `.q.j 2XC <X,X* Q.*.R.M *  X>.E ..@.$.5 + 4 W #...X.X.t.' 0X0Xu 3 >.r.u t.z.j.-.M - s | OXb.b.0XS.n.OX-.p r.e.8. .3.@X..c F.4.| | u.pX$.O.zX@.h.k.|.@ mXIXF $.cX@.*XA b s PXq e ` 4 C.l.pXF.' ..T.V A C v = [.D.OX} :.5 &X3X&X* Q.;Xa B.zX' ` e Q R e.>X9 < < Q l &.; {.R.:.@Xh.[.{.9 :.x C.$.i {.u.n.j.5.4 `.Z.O.@Xe l *.#.} J.V.c 5 B.[.1XmXU.>X=.2XQ.- k r ].W 3.K.wXeX'.~.,X*X*.;.J.' 3 &XP 7 H BXu E F.' xXg.O.5.n.V.+ M NX{.3XY $ 7 h ` lXh W F.i.P.X.T Q.4 2 f BX#X@ X u c ;.&.@ * Y.a c R.x g {.* @ A 4X&X2 |.@Xj +.p.n.gXc x #XR s 6 4 Q.@ C !.{.2 R.; < Z.zX' ' [.] 5 H ,X> `.6.g ]...;.| ..k &.R (.~ x -...C._ @ W.*X@ o + r.4.Z.ZXB 8 U.R.*Xo b a E | x ..[.P.F.4 `.=.W W ;.j &.M 1 1 6 C W.U.F e r.x e {.n 0 Y.}.d '...' x C.] W A.r.j ~ ,X/ Q ].J.[.f 5 d.z.h.X.] i &.nXI.p.L.kX[._ ",
"&XY.D.OXc W.LX,X<Xs D N.@X| < `.N.`.&.bX<XnXgXm.k.T _ ' hXb...E u E [ } E B.} ].A + _ gXJ.5.d.N.BX XwXgXJ.3._ R.@ m :.).8 N y j | G.} q.@Xw.2 W.e ).{.| a.OXR e.|.ZXs p VXW j ^ PX=X).x *.`.,.hXL.` 5 '.A.` |.e R.h 4 s ~ x s.J.} g O.#Xp Q s.l._ >.e r.p {.q.} F.L.zXH.+.@X` 4 7.3.5.gX;.- W |. .B.N.NXIXAX<X3 o &.S.aXtXK.[.`.= rXxXyX' hXzX3 + E.P &Xe |.R.k r ] t.x M Y.[.a.* ;X&.ZX1X&.F.[.u * 2 h 3.k.O.` jXc.j.lXC o b m e ~ R.x e.` ZX1X`.x M * *.` (.u = i NX| H.@.oXL.r T.C.J.n.v.XXOX X4 k e E P. .pXb.4.zXc @.s.j t.q.~ ,X6 4XE.* )._ >.4 p  X2 }.z ' a.' z a :.*.4 q. .` p ,.DX%.; =.c e r.h.J.Q * C 2XB.J.H.S.eXSXV.[.x h [.s.B.' n.jX[._ C.e.+.| O.gX%.x zXp.h.k.`.> HXPX0 _ cXgX,X7 a 1X%X+ ] ..h BXk.pXOXW 3.`.Z V T.] = >.B.3.x |.C S A V - m {.E b.pXzXO.&.Q W w.}.+ 4 4 ).5 s @ :XR.] } l.@XR.v `.u BX] a  Xi.c.XXJ.< =. Xc |.< i ^.].} i.@Xx e 3.[.R.;XU.>X-.2X( t v 1 C.} 5.P.[.eXkXNX!.<XBX=.l.D.f 7 &X8 s >Xl ].F.p.cX,.O.5..XV.@ E.z ;X5X% + b ;X X[.l g B.h.J.R ~ E.< ; R.|.c o >  X XE ;Xp * i 3 u ] ] e !.* * &X3X; :.BXe.3.O.K..Xd.p h ].R 1 C Q.E.+ b 2Xa a R.x ;.pXx.V.]...h F n U.&.kX3.} kX[ E | X.] Q (.q.] ! W e.B._ * !.H @ o n [.i.].2X% N C {.C 6 > @ ..| p |.7.@Xw.e :.:.E W ] x T.p y 1 * %XJ J H 2 ] x @ Y.W.n &.%.c NX;.W ' ` ] :.; h Q ~ 2X< e t.#X`.; i s.n.s.} R.2 :.kXOXp.kXkX[.' ",
"8 M @X+.* C Q.e b &X;X|.zXO.; &.`.|.a *X*X}.S.m.F.t e '.zX@.` =...r.g ] |.6.5.|.7 * R.@XG.s.kXSX X`.>X>.].#X~ 4 j -.`.).8 8 y -.| 7.x ;.@X[.&.U.4 Q.&.|.'.@XW e.>X1Xd _ lXW ` :.1XH {.j W C.H.hXO.O.5 <.P.3.].e [.x Q -.`.E 4.z.h.W | |.R.(.5.n.' w.4 (.p &.R.:.Z.[.` H.oX5.E p | B.+.@X@Xx t.t.E  X;XPXeXnX!.3 + <.iXv.iXI.#X_ = A.sXv.u.lX=.= @ Z FX7 -.].e Q R t.T.@ {.`.0XXXk.r.Y.,X!.5 kX| T.* R.< ` ].' ` iXyX3.zX{.o R.h 1 ~ (.o.q.;.Q ;X:X!./ @ v a v p M > R.A.cX@.4.gX4 4 `.G.oXj.c.OX].e ~ k p w.| J.J.@.lXc +.D.D.7.-.{.1X; &X: - T.$.@X` `.R.i {...@.tXdXjXgXNX).4 e.6.;.a { hXCXu =.c p #.h.J.j t E.~ #.d.@XD nXSX[ r.[ l gXJ.O.O.j..XoX4.O.].`.4 ` [.;.5 [.H.h.z.].2 KXUX# d cXhXu 6 `.NX2 U.:.W ).R.h zXOX` 8...s m (.X.* u C.R ` ).b S P S * s | p.pXpXhX' j T.W :.{.= ; y 1X5 @ # W.u R.1 ` @X-.&.`.u ZXC =.@Xz..Xp.gX2 ~ >Xl :.5 *XZX*.O.5.@Xj ] +.L.A.[ R.|.{.R.m y / < t.W +.[.`.`.NXNX`.M ,X{.d.gX_ u E.7 * C l  X .J.cX,.u.h.z.$.o ,XW.C : @ E.;Xn &.[.V.e ..k.D.j ~ Q.e + 6Xn + o b nXnX2 %X).1 3 F 5 ] kXp T.* @ 5X&X3 lXn.} G.j.oX.Xu.p E (.t.t |.ZXr + s `.p R.Q X.P.pXj.a.].:.x R.a d >.gX .j.gX_ 4 #.+.} ! w.r.t.T R @XD.%.a 9 0 , o {.P.L.>X&X8 N Z !.v U.+ o *.Q C 1XE lX=.a v l j Q W ] {.p r y - &X7 @ J M a a ; f , *X9 [ x gXF.c %.l x T.@ U.Q Q m < e e 2XU.= d a.iXi.O.[ u C.[.pXu.kXS.gX,.",
"; U.].X.n 8 s ).V V 4 x [.w.> u x -.).W.H :X1.gX].1 4 eXNXA.=.h :.(.Q r ..]. .t.1 @ U.BXr.| SX`.`.R.bXv h #XR.< -.o.NXU.8 N r ;...].].;.kX`.>X~ < &.] >.*.NX..|.1X;X=.B.gX} ' [.*.T.>XW h ].O.kX$.O.9 %.iX5.@Xe $.B. .6.#.[.u.z.G.@X].c ZX1Xe.h.} 7.l R.u &.U.;X;.B.s.b.j.5.` ;.O.P.} P.lXO.C.j (.AXW.:X>.>.9 s 3 `.pXtXf.kXBXa * <.jXg.v.K.&.@ + &X3X= ].3.;.] t.:.; * ZX>.tXdXk.E 1X*XU.3 ;...(.- |.a e ].@.' tXyXi.oX#Xh kXE < / Q :.R q.o.).1XLXC @ = i R.M U.U.a kXhXtX' lXE @ &.].OXj.j.J.q.g v k e =. .k.b.4.zX@.4.a.G.C.-.BX2X> 7 * 4 r.OX.Xz.r.&.v >.,.9XdXyXdXgX[ v &.].j :.5 ,.g.wXi _ [ E +.5.D.-.7X/ h A.O.kX> AXAXl e `.7.b.j.u.@.n.j.l.| E #X`.< O.D.;.* A.[.5.J.@X; mXPX3 D lXs.< &.NX#.+ C (.-.M - ` @XgXc | -.g &. .e.; u ].t v 5 + V A V - T.L.pXm.tXpX3.g k Q :.`.2 @ m BX9 + + ;X}.(.e < #X! o.R.F &X&X`.s.3.aXp.zX5 ~ >Xu 2 ;XmX# d N.} zXE ] x 4.[.' ] {.&.e m y E.{.] X.W #.(.|.>X>X] &.C !.kXOXl &.-Xy % 7 l Z.` p.xX,.n.5.5.[.X &XPX6 < U.!.5 9 i a.V.p E D.a.r ~ Q.U.s 1X6 = o q bXH + ( ).Q l *.2 x lX` v ; - 4XV W.lXi.R s.pXj.x.K.@.W =.q.r -.|.< < &.].` |.W R D.pXb.[.A.c l >.c ` N.gX3.XXiXO.p ..X.2.} e.F.X.T g zXf.O.>.> mXw 3 [.I.kX*XA % N &Xm Q &.w o Y.v ,XU.W VXx 2 z l j Q W W {.l t Q.( A $ X 3 Q.5 u e !.X n *.a L.P.B._ .._ v p * U.-.j M k `.h - 6 3 [ a.oXn.4.` c w.L.gXu.H.,.hXf.",
"- !.|.:.A + v {.ZXQ.p < - C E.; k k ,X4XB =XG kX$X4 < >XnXz [ ] (.] ] h 4 &.].W 1 * M &.).] VXN.'.R.Y.Q.Q Q |.=.y.;.).e t / j (.>.BXNX;.NX`.|.r t t.E NX&.!.;X1XE.!.N.n..X ._ [.gXl :.2Xe ;XR.BXA.O.{ f.pXi.@X4 { '.2.0.l.gXm.p.` `.[.l V KXt.h.3.a.B.E -.&.KXLXR.F.OXc.x.pXq.R @.OX3.k.zX7.q.k ZX=Xi BX*.= @ W.M R.I.jXd._ AXn @ &.CXu.p.D.{.+ # HXb R.@Xl.h :.(.g * * &XW.hXjX6.|.F 1X!.* 5 Q {.< 6Xc _ L.' O.v.tXj.4.lX+.gXa.< Q.k T.W o._.(.z }.E.V > R.(.x ;X^.* kXf.pXyXtX#Xp l |.J.j.j.j.| R Q j r R 6.s.gXE lXZ...r.p t.(.AX;X@ : 6 x 8.tXc.5.=.H :XV.tXyXuXuXxXNXa s M x x ).l ' CXZ.5 E ` 6.7.| G.q.-.r p :.`.|.* IXSXM 5 `.gXpXp.m.@.sXgX X5 h #X#.e k.s.:.- #.@X7.G.#X2 *XmXY.,.zXO.1 |.NXu @ ,XT.&.- 5 Z.i.lX; e (.h t.o.G.5 f |.j b + t k m t t &.4.jXM.M.pXi.j k -.:.`.c u &.BXd # o  X[.l ~ @ ~ T _.*.3 E.m T.h O.hXx.jXr ]  X2 @ PXB   '.u.` #XT.- 4 | J.D.j {.s b V 6 A ZX:.| } ..R.{.!.%X; 3 !.h [. Xv i R.U.8 8 ] F.3.K.aXf.n.| +.kXbXLX%X4 =.e.(.x *X9 i kXE x N.| < ~ C E.%Xb > = X Z =X+ o < |.o.g `.3 u #XW e b : ,X4 NXeXA.| | oXj.p.iXoX .E R.-.r y t ~ E F.6. X] j B.' %.kX<.l -.{.>X`.F.oXj.dXiXp.w.4 4 X.6.@X+.g =.p [.iXK.$.}.&Xo [ H.S.BXE.N & 8 E.e &.u U.o b J <Xa ' kXv > F 3 v x ! W :.g t T.|.v # o 4 |.b @ p |.+ *.kXg B.L.[.' ' ] p e &. XQ x R.T.2.|.7 8 C D $.OXK.i.$._ $.[.F.O.p.x.0X{ ",
"; ;X{.U.V + 2 >X1X3 |.r.5 @ = - s m Z &XN B f  X#Xt - !.W.= (. Xx ] [.].4 - -.T.t 1 (.e U.t W [.NX{.; U.] r Q ].OXe.Q.4 p ~ j C. XNXW ;. X}.R.~ Q X.x ].&.s E.-Xy }.P..Xh.5._ O.cX4.~ s E.mX1X>X].V.[.pXpXj.@Xg i [ 8.5.j.m.pX_ @ &.kXW 7 =X#X8.3.s.kX' W U.LXKX-.w.pXx.tXpXW R J.pXh.5. X'.Q k =X,Xd eX>X@ # H @ >X{ zXgX$.Y.1Xb ; r._ c gX|.o J mXF  X@Xl.p `.-.* ; = 8 9 hXhX6XQ.2 NXM 5 *.&.).* c ' @Xs.c %.d.pXtXi.J.O.sXb.e ( t T.! W |.Q A.NXn &X= _ r.x bXF ; #XH.x.sXXXk.g h `.n.h.i.l.W W -.j g e #.s.D.W @Xp R.e 1 (.{.ZXY.@ @ n X.h.dXj.D.] mX1XL.yXyXuXfXhX>.2 s < a |.=._ l CXVX>.c X.| | O.@Xw.R X.`.D }.{.d IXSX&.v (.gXK.u.pXO.m.K.R.* W F.F.} J.i.;.5 X.].X.#.kXe M !._ Z.kX_ 1 NX`.+ E.E.T.u @ M [.+.lXp l h j G.} [.v &.].&.- o U.g ~ y t ] O.jXS.{ O.[.Q - U.T.C.;.l [ VXz + o [.I.A.Q + 4 ! ].v * C ( Q.x [.0Xp.pXg :.6X* U PX. , '.4. .=.).* e {.J.i.[ T.%XV b ( V 4X{.;.] ] &.;XV Z + C R.a N. Xv + 5 T.: * =.P.+.oXaXf.k.} | VXIXC 3 ] 6.3.G.` R.2 z BX&.i ' c * Q.2 b =X@ V # o <X6 @ A + ^ ..| BX5 e [.#.< Q.V b < NXAXM (.W j.c.p.aXj.D.p R.|.1 m t &.W s.B.`.:.W e.:.]  X' =.{.1XR.a [.iXyXuXdX5.B.* u ;.G.s.e.e -.E W [.L.[.nX# 3 kXgX%.!.B N $ V Q.M R.u ^.= o 4Xs {.' ].v 2 *.* x x o.;.R.g j j =.>Xw X 4 {.6 o h [.c VX$.| ` _ kX| ' =.g e `.NX] x ~ x 3.$XA 8 E.F >.I.d.d.<.}.' [.`.' 9XyXg.,.",
"4 {.:XmX: * 0 bXU.2 0XhXlXl ; ; 4 b P I & % b BX|.1 ; Y.A ,X X|.- x d.lX-.- 4 ).~ t ].x t b :.:.M @ 3 (.W T :...0.#X/ 1 ^ R x D.L.a.g |.`.ZX4XC Q 2.x E ' {.b Z 6 NXb.tX3.7.` _ jXpX[ ZX&Xq mX!.`.[.` [.J.j.OXg x e q. .u.aXlXu X f kX` &.%X6X`.7.D.VX`.] -.4X,X{.} K.iXaXb.' W pXpXc.8.{.T.j m &X4X[  X!.o A q , :Xv ].pXK.A.:XHXo f i 0 zX X@ 3X=X`.gX@XW  .].e + Y.# = v xXjXZX- z '.R.~ [.B.{.5 a H.gX4.e Q $.H.pXj.i..XvX9XW U.1 U.-.R ).u a.kXM E.Q :.;._ 1X> a [.@.i.yXv.` 4 E ].OX5.5.k. .W -.R -.1  .5.l.` | j U.+ | ].;X%XU.* @ C -.J.iXm.B.).4Xb [.u.9XsXjXd M e / 4 O.zXE ;.p BXSXi &.:...X.' F.].r G.].%. XW.^.IXVX..l `. XV.| 7.O.sXb.] e $.V.w.8.oXp...h R ].E _ [.e v a p  XR.* < BXW r U.; W.+ 5 -.C.E hXO.* * W F.p [.}.&.6.t.* ; ] ;.-.g g ` 4.xX<.X @ R.(.- 5 !.`.l i {.zX' + + D A.@Xw.; < 8.].u @ ~ T.~ `.Z.@.j.pXh r.{.9 PXB   R.$.r.~ e 6X- < U.N.D.(.~ W.C m ( 7 5X<XU.3 > (.&.8 B 0 {.`.| L.%.3 3 ; u / - E I.| oXpXf.P. .} kXx ~ Q X.5.x.P.C.`.g 5.lX~., 9 d ; !.@ + %XA %   z |.- U.%Xo 4 R.BXBXq 9 F.k.4 {.E.- ; LX=X* ].! 3.XXp.pXi.OX| | (.Q 2Xr -.` 9.G.`.&.r.].] u |.a =.>XBX* 4 @XtXuXuXsXj.} p k +.OX .C.t T.y.j &. Xa.F.i i VXhX&.C 8 N @ V r :.r.c ^.> U =X- r.3.Z.c u ..[ v R.R.k T.g T j p >X}.+ ; !.q + W @XwXeX3 %.zX@.| #.W :.k h w.#Xo.R j E G.X.2 7 V C i Z.gX' :XIXd  X;Xc aXuXg.c ",
"a R.%X4X+ b W.*XC 2 0XiXgX>.i * e C P & & N * <X2X- ; n % &XNX].2 u d.jX#Xg @ E.R.x P.X.4 y |.Q @ M =.].e.2.r.e  .#X/ 1 -.! | u.J.+.R t.>X1XA b -.6.E W @XC.( Z C R.@.hX5.#.W x gXD.NX;X+ J KX%X`.#.R R gXz.k.W ] ] |.W _ pXCXl o 0 lX} >.{.1X|.7.B.`.[ r.>X4XC  X' @.xXK.d.' | sXyXj.k.{.a p ~ A =X`.A., + HX, W.;XR.] pXv.gX[ 4X&Xm [ 9 kXA.u mXW. X@X_ E G...@ q W.o z  XhXVXZ + NXI.:.E gXk.:.&.@.gXgX| * a c B.dXyXi.sXfXuXB.~ - U.:.W U.u O.[.9 U.6Xr.' >.{.* N.V.3. .v.aX7.e c | OXh.2.2.R o.X.T 6Xe R s.@XE R -.~ @ 4.].%XA C 6 @ b `.@XiXI.(.ZX&Xq BXE yXxXS.= p ~ ).g | gX' -.e BXVX= z NX].+.` G.@Xe } B.|  XH mXZXnXC.;.{.BX` @XZ.E hXpX&.v _ gX| } pXp.' Q j _.|.>.Z.h g x 2 {.R.@ < kXR :.< %XJ @ ).j F.R OXV.* -.].k.p <.ZX[ B.C.* < ' 6.T g ^ o.4.lX*.X + i #X..@ F {.a !.{.zXd.v o o =.@X4.v p @X].2 * v Q ~ |.O.OXj.b.c ].&.KXJXX F Z.#.r.v 4 NX4 * 7 ] #Xx ~ E.m ^ ^ =X5X=Xq , @ |.T.N 8 6 &.;.7.gXZ.i C U.2 !.Q a [.' m.pXg.$.W } gXr r X.5.x.m.@.'.NXw.+XjXBX# 0 v u {.+ : ,XZ   % `.| t ).M + + M AXbX6 3 C.k.e >X;X; C PXV 7 _.2.} n.tXiX5.G.D.+.R ].|.p ..|  .B.|.a g {.x =.(.l {.:XZX4 1 zXyXuXfXsX} W &.] 8.k.} q.T _.2.X.p ).[.| + l CXd 5 &X8 8 7 / T $X`.x v @ A m ] 7.3.C.l _ e {.; U.!.u / g j ~ 2 3  X' * Y.q + x zXI.5 @ [.CX,._ w.] -.Q E | gX-.r g Q  Xg 2 E.Z n d >.kXi bXLX9 NX{.[ hXuXpXc ",
"4 ,X5XZ @ 1Xb %X> 9 S.gXNXR.* @ e %XI & N I $ 8X-Xr * E.8 q BX[.4 2 V.pXi.] * A R.} +X .j ^ 2Xr E kXO.d.OX2.` q.p ).~ k q.2.5.i.D. .W Q W.7 8 b ;.3.| OX+X .1XA ( M '.zX4.O._ ] |.NX..&.@ &XPXmX*Xl ].h 6.kXG.k.(.(.|.| | dXcX{ o 0 NX| `.`.{. X+.w.l 9 A.VXC W.[.n.gXgX' gXO.@.sXuXXX0.G.x W :.Z A  XZ.@ &XKX= W.Y.a ` s.n.pX[.C KX2X>.; `.>XY.:X^.>X=.2 %.].h o B n + @XV.BXbX@ 3 cXx.p C.gXD.x ` pXpXgX4 + f i ..gXp.O.tXvXsXF.R - R.o.! k v _ '.; R.r.e.W r.`.l kXgXF.E pXpXb.[.5 [ G.l.6.} R o.:.j ].' 4 N.gXO.} t.T.* D.@XQ.7 V b * b e w.d.VXM V 6 !.NXe dXcXD > e q.]...p `.E ..x BXVX9 d '.%.V.W 8.gXE u `.h  XF mX4Xq T.{.W.{.u VX].< O.N.3 s >.kX' 3.pXc.+.` j _.`.a G. .< (.; d {.+ < [.` ;.b &X+ u `.h ].p d.P. .e.G.6.u v ZXs q.$X4 x  .B.R g k W 3.zX..= o ; C.@X%.c !.!.!.&.BXL.D > X &.P.O.].#.e.#.e - g W -.w.x.sXl.B.x `.LXIX7 ; '.@.[._ &.g kXx - 7 v NXx g U.e ^ ^ &X&XP 8 @ o {.;XN 8 = > l P.pXu.x Y.U.; 4 Q c I.O.H.K.d.h 6. .kXx j 3.p.m.pX' |.|.| oXzXPX# n i e R.X Z C A B =X).g j |.0 o X H LX4X6 - r.B.4 >X2X4 PX4X7 m Q R ` i.pXiXE ' kX6.g -.|.g ' | 2.8.@XE * U.] `.Q &.ZX:XY.v 4 gXyXyXfXaXR -.] :.D.3.2.X.T T.o.2.Q -.kXl @  X~.+ C &X8 8 m -. .#X..v U.M M v G.j.k.| `.D > ;X# E.6 U.C t T k = + ] ].] v 6 @ i kXS.2 l VXAXz c 7.` [ =.w.3.OXo.T g =.`.- e M ;X&.F >.eX3 mX=X9 `.[._ hXx.gX_ ",
"U.E.7 V a |.* C @ R.d eXSXa q b 4 E.B % B PXB 8 &X6 * 7 7 *X[.@Xv 3 ..P.| [.* 6 |. .G.6.6...).4 E [.O.iXh. .j |.v k m T.X.3.3.h.J.3.W ~ C * 8XM #.5.n.gXh.2.U.y ( b :X XV.+._ {.ZX* p [.2 E.KX%XmX*X{...p ].@X3.g p C.s.@.hXcXg.o 9 [.@.].l r. XF.X.u 2 %.BXn ;XD.pXVXh l [.+.@.sXuXXX2.0.3.k.`.A q :.NX@ 3X4X7 n {.~.l } s.tXOXa b AXR.z R.ZX1X*.NX1Xa &.|.R.* + # , ~.gXL.AXq o D cXx.a kX5.h.8.O..XhXkX* @ H 3 d gXO.p.x.vXdXD.r Q ~ ! ;.4 R.`...* >Xo.w.W Z.w.` gXgX[.x pXx.@.VX5 Q 7.k. .q.Q T r Q ].#.* ..gX5.2.e. X* l.zXW.* 7 C 8 : ; R.%.BX= $ * BX|.2 CXf.0 9 W y.e.X.< R.;.l >X:.lXl 9 *.$.H.E +.pXO.h  XQ 2X;XLXU : %X-Xs &._ zXC.4 ` R.H E.>.N.E B.pXj.7.X.j W C.5 7.r.- -.; c >X* *  XC.`.W.3 5 ] =.g  Xx ` @Xk.2.+X .u M mXn o.G.W q.k.$X-.g r T } gXC.c 3 i R 3.7.].&.U.u c NXd z *.+ &.F.3.OX3.7.W v s 1 :.t. .pXiXkX Xg >XUXU 7 2 V.b.'.5 (._ zX%.* 6 m ZX[.] e m ~ Q u &XN & B # 3 m N & V f h @XpX5.E &.s @ ; :.$.I.O.b.b.V.gX$Xc ].(.x  .n.iXb.z |.a < OXZ.PXB f z ..[ o J = H FXS !.g ! |.= X X bXPX&XV + x |.3 ZXs ( PXZ 1 ~ ] $X .5.pXpXa ;.@X6.j :.(.h ` X.W } J.C.2 ,X`.].u !.AX&.2 u E zXyXuXfXu.h -.E e.G.3.h.2.r T.q.} ;.=.|.' N. Xs + &XZ : 7 Q +. .lX< 5 T.).U.] 5.OXP.x  X3 @ A @ U o n ( 4 g y o o v ;.C.=.2 = >  XkXu.p.lXY.o c Z.%.W r.P.n.n.q.g e `.T.p g h BX$.i {.~.F LXA 3  XkXh zX' V.{ ",
"%X< : < ' [.@ u p A.+ nXZX= C 3 p Q.N % 7 IXPX8 A 7 ; 2 H {.` zXR.u e [ ' kXM * |.(.`.W W ]._.1 / NXV.pXh.oXR =.`.p k Q X. . .3.k. .r M y A &Xm 7.M.dXv.h.OX4 U.-Xb J 1X].} ..ZXm @ d.pXv %XE.E.Z ZX,XU.h x D.F.4 4 F.V.a I.cXv.@ u #.P.%.l C.| e.E 2 5 A.VXbX).K.jX[.p e w.s.x.yXdXOX! 0.h.j.@X/ 1 k T.J KXU b v ].NX' R 3.tX.Xp R.2X1XT.!.KXE.$.kX;X< :.eXp ; b X 3 eXwXSX,X+ * *.zXi.a kXd.3.P.3.v.hX`.@ + A , > @.x.tXv.fXfX.X .-.j X.q.- `.#Xl ; |.W 6.} P.8.3.c.jX5.E iXp.+.#Xp M #.OXk.8.^ s @ k F.L.@ *.zX5.2.G.$X4 x.zXQ.@ < V V o 7 U.d Y.V o - BXR.a ~.= a h R G.e.q.4 v {.`.&._ Z.[ 5 !.L.l.T 6.OXp.N. Xu 2X<XLXA 8 4XC s `.jXaX| R 4 U.A =Xi ` w.k..Xc.P.W R ] ` %.x ).4 l _ [. X; ; >X[ |.= {.| #.h h Y.i _ @Xk.9.+X2.a Y.ZXM 6.zX' w.+Xz.y.T T W ! $X7.' a &.' e R kX`.g ;.] R.@ i [.> ].f.4.oXk.[.p 5 / @ !.-.w.l.I.z M u LXUXN V - V.d.>.2 [.c m.B.- 7 ,X2XL.P.k y h x |.Q.& & 7 !.3 Z N N A u p @XP.O.j Q 5 + x #X' gXO.p.x.b.lX6.E ).>Xe O.iXtXb.c {.).4 ].D IXA 0 '.kX[ @ A o W.V 8 T.g t.-.b X f bXHXB 7 + e R.; A B KX4X6 y ~ j $Xi.c.dXtXa.[.D.8.R ).>Xx ..[. .} 0.@XE >X X X2 !.ZXF s 2 ..K.v.yXxXD E C. .OXG.} 3.3.r ^ q. .} ;.`.|.[.>.> : V V : 6 =.O.u.[.v ,XT.j -.X.4.P.B.%.eXf     U U X C !.4 m y   o q a #.:.2 * o ~.zXg.pXI.i v d >.<.c J.i.u.J.6.g =.>Xp R.-.' zX@._  X~.:XLX6 d BX'.a [.x @.O.",
"C 6 7 4  .gXa s #XO.o :X<X@ 6 + E R.@ B U.W.KXP B N < s >X`.` zX=.5 k p ' zX#X1 &.2Xe * g ]./ ( s >XI.pXc.OX} W #XX.j Q -.8.9.9.G.} 1 E.y E.m k f.tXyXXXh.P.4 >X>XU.A 5X2X] NX{.~ e jXm.(.;X; ,XC n LXW.] j  .F.4 * Z.zXu N.cXyX3 v N.H._ `.#.l F.W - u &.ZXBX:.lXiXa &.e :.J.j.9XjXG.j k.h.i.zXU.- 4 %X3X4Xb U.:.gXgX[.W ` oXiXe  X;XZX1XW.&Xb [.gXU.+ p NX2 s Y.+ _ kXBXAX= + Y...B.| 5 zXpXj.pX` 5.hX&.3 n q , + l H.sXv.fXfXoX+Xj R o.W - :.#X5 2 `.p q. .+X5.3.dXtX3.W n.u.| (.* Y.] B.s.#.v m - p | gX3 *.gX3.9.+X[.5 v.zXU.@ @ &X&X@ &X@ `.~.V @ - 6X&.+ 0 = l E ! e.2.$Xh < NX>.* *.a `.s T.D.n.W 6.J.u.[.x p ;X&XHXA =X5X: U.$.cXyXc r.&.2 = %X|.].+.k.XXtXP.W o.E l {.4 M ~ 2 L.gX#X; _ '.{ l D CXx #.e U.mX9 c [.| $X+X].u ;X,XU.r.[.e r.@X! 0.} ! ! W F.7.O.; &.].h  .lXt.x ]...+ 3 z I.@.@Xi..XpXn.F.u 4 C ; Q.-.;.F.N.n <Xn PXKX+ 2 &.kXO...u NX3 H.#X< 7 4XC I.OXQ k x kX:.C N N : q 6 Z N N V o h V.L.@.t Q U.* e r.c gXp.J.d.Z.;.:.=.&. X5 _ pXpXu.>.R.-.u |.F UXA d VX[.[ 3 V n PX7 1 &.X.].r n s *./.&XN 8 o * R.0   Y UX&X< - / W e.u.oXdXdXI.' J.9.j k &.&.{.`.7.3.2.P.| %.BX&.@ 1XNX&.U.e r.pXv.tXcXa W G.5.@X5.E 3. .r Q X.2. .6.`.`.+.C.+ A : V 1 y t.| L.SXAXU.~ -.|...| d.kXc [ f B % HXB   C Q.t ( 4 X X b ; E ..2 C ;XBX[.{ hXO.5 }.F 9 O.O.pX+.` L.r.j #X`.T.&.W a.sXi._  XY.MXmX= BX|.Z.c B.c c [.",
"g / y e | zX&.5 zX|   K U + = > ;...; M ] >XE.Z &XA 6 U.ZX{ g kX X< T.4 l zXJ.e.1 1X6 + W _.m A &.B.9XdXj.OXC.j k.F.W ] } q.9.2.e.` - C m / g x b.v.iXl.OX .e ].t.~ P Y 5XLX{.x X.| jXm.r.U.+ %XQ.u W.ZX=.W W ].p + _ kXE ' vXsX' ` @X@.` Z.E ' kXW * 6 2 ;XY.{.CX_ 3 {.U.h OXx.p.xX-.p G.h.p.[.T.- 1 Z 4X7 s {.`.kXI.zX6Xg k.gXp  X{.u ZXJ W.=.@XkX6 + p NXi = F > @.NXPXB = U.>.u ;.x a zXm.aXpX} 3.zX}.;X> w , @ 2  Xb.tXyXsXOX3.j Q ] j - -.|.- e R.< -.| 5.3.k.oXoX2. .@X@...e s AXE #.].r.Q ~ m m =.>.z _ pX5.0.+X@X2 m.zXk 6 @ &XZ q Z o wXVXM 6 4 >X2 = C + u W o.! 6.t.=.@ gX| @ R.' #Xg Q @Xp.W | J.O.NX3 C q B HXH Q.A : M _ cXx.5 Z.kXl 2 > >X#XG. .c.pXD.W q.Q @ *X2 - !.* s.OX@Xu @.jXjX' sXcX| E ; C ZXR.c ;.R C.R ].v 4XZ Q.`.r.@ (.@Xr 8.8.! ! T C.8.].+ s ]. . .lX] p q.#.@ '._ pXlXn.j.dXXXj.w.&.u C C Q.T.E #X[ i %XJ IX5X+ = kX[.' | `. X> *.~ @ &X3X< ].L.h x gX[.- Z N N 8 o n Z & N A @ *.%.C.:.p &.&.c < v ;.[.[.kX>.R.s ;XR...#Xe l lXpX@...:.a `.U.C UXA 9 CXV._ n q 4XKXC r ;X).{.* 2 R.~.!.N P N o < `.&.@ KXJX8X* 1 ~ ] ` 3 gXyXtXu.h +X9.R 4 * R.NX;.4.D.} G.k.gX|.2 6 PX&.l R.e N.@Xc.tXzXu | J.h.OX| O.P.| g -.o.6.} 7.w.w.P.' > P : V 1 / q.O.SXNXv Q.Q -.] #.O.pXkXa *.o w 3XY O o o V m / 4 X   b 5 j q.>XLXb F I.x.m.| 4.[.v o O..XjX| c [.:.x #X Xa Q E 4.dXv.] v W.LXM !.NXX.[.u ] ` 5 NX",
"Q T.4 a | hX%.- zXO.X , B + @ F #.F.x &... XU.C =XJ ( R.VX%.5  XkX* -.h = L.z.OXj Q.,X2 ..(.t ( _.s.yXdXp.J.OXR } 8.W q.| 6.G. ...=.4 @ ~ Q ] 7.oXpXu.OX[.g | ].2.T V 5XJXKXR.;.! 3.dXiX(./ @ E.R.u M !.|.q.R (.y + l $.:.x jXsX@.X.4.4._ ].E E zX| - < V %X3 kX[.u @ *X!.p gXj.i.CXU.M ].5.z.G.^ 7 : P P * h ].'.lXb.gX6Xx ` gXl  X`.2 J <Xf `.;.`.= = 4 NX9 o i >.].BX3X% H 2 V.4...h c zXm.tXgXp.3.zXR.= o q b + > Y.V.u.yXxXl.W g Q -.Q * T.{.5 {.h 4 x F.5.3.5.b.O.} 6.L.' =.k ;X1XQ ;.NX;.t.Q ~ k &.R.a l oXh.0.G.].e OXJ.h m o A = A 4Xu lXH.f C U.p @ n # + Q o.e.e.2.t.:.a gXJ.; l [.@Xk _.gX3.< ..n.gXbX= > o P 4Xs -X- A 1 g jXp.*  XNXw.R.M p BXF.k.j.jXk.} ].(.+ q b 6 !.c OXoX@Xx x.dXpXjXcXM.| ] @ 8 4XbXc < x r W ].U.%X7 E.R.E + !.|.t 8.G.! ! T 2.+.[.= + >.| 5.@XE W W x 5 BX_ gXoXj.m..Xi.j.].{.; n !.!.R.:.] >.* b 4XPXU @ Z.lX;.- c '.~.> = @ 6 4XP < r.7.-  XVXh 1 N 8 & N o > &XN P V b |.2 c r.e x ] :.p ~ R.`.kXNXv n ,X1X(.' [.e c gXK._ `.&.3  Xa q PXV d lXI.{ f K PXA Q.v 7X!.R.o - R.`.a : N P X 2 {.F *XPX4XS 7 ~ Q (.p * kXiXXXiX4.h.0.W < &.{.`. XF.OX! 0.j.zX&.* ,XKXl R.:.l N.[.x.iX@Xp +.n.h.@X' B.B.| W q.! 2. .8.B.V.V.u Z 8 : m 1 ^ ;.zXVXD u ~ g :.] ' hXhX_ d F #   B 5XN X o 7 C U.; X   0 l } NXR.n + , gXyXu.O.b.'., + b.sXiX_ l |...] #X] 2 (.R ' jXx.#.3 <X4XW.;XW 6.@X5 h ;._ `.",
"6...1 x O.hX[.p gXD   8 N X + *.O.OX7.` q.|.2 E.,XC E.{.wXO.` r.kXe Q x @ [ J.J.:.Q 2Xa ..W t T.).p tXuX@.h.+X0.R q.` | 3.8.e.j -XU.h ] x ] ..a.c.XXW #X` _ P.7.o.~ b P FXB U.t.} ' pXpX:.m @ V  X4 ;.-.|.NXj T.V ; :.O.r.x tXsX+.w.` X...(.E @.OX3.e m &XV 3 CXgXa + ^.Q.t gXv.3.VX2 C (.3.+XJ.T 1 : P S @ Q `.kXV..XpXx Q p `.l [.kX_ i ;XR.1X{.v 3 F 4 BXY.+ z >X{.!.7 V b @ gXjXr.g E gXb.O.` zX5.gXc 3 @ 6 W.5 7 U.zXx.dXpXB.R e ] -.p * U. X1 &.&.e ..].5.k. .s.p  .8.4.r.; C ZXU.|.|.`...B.6.o.^ s m t p gXj.9.@X:.e gX5.W -.+ A 7 ,Xn [ lXH.+ Z ( @ 3 2X0 + -.X.#.$X9.y.].| 3.zXd 5 [.r.k R.gXO.o D n.lX:X@ = = P &Xm T.1 ;X1 Q zX' @ R.*.; | r.- -XNXa.4.jXk.} ;.>X> @ E./ Y.`.pXc.gXu p.p.Z.<.nXi w.:.; o mX=X~ - u 2 j r.!.E.V ( &.`.@ C Q.1 q.C.o.! T  .5. X= X n D O.D.W X.o.e _ L.O.pXn.n.pX4.4.j.[.!.@ C ;Xh M T.` ].g 6 HXHX6 e lXzXu + [ `.W.6 + q <X<X: : &.B.i.CX&.- 7 8 & N N @ @ A Z V 7 H [ x ].E j W ` ..:.=.!.!.~.>XM 3 &.BXR.E P.p.@.I.L._ *.:.3  X&.W.FXB $.lXV.l @ 4XFX% Q.).2X;X!.o u >X-.j 8 8 P V ; W.b ZXAX!.y ( ^ -.:._ 2 kXP.p.aX.X5.0.| e :.:.`.`.#X$X} 3.x.gXv q KXW.k `.kXl E @X4.jXD.g 5.OX3.B.p w.| W X.X.W o. .5.k.L.B.&.J X b m 1 ^ y.e.zXi e -.j t.#.,.zX,.@ n F , o % U &X% o * C R.< o   z  X].r.f W.3 2 jXyXd.O.kX_ X z pXdXiX_ ; U.e.P.w.j p R...x pXg.#.x *X4X=X4 R G.[.e e  XB.B.",
"8.W r [ ,.aXgX+.H.D X N & 3XK >.3.OXk.W ].~ a ^.{.M C !.[.O.| w.lXB.t.-.+ M N.k.t.W  Xh E |.-.(.T.2 aXv.O.z.0.+X .X.` } k.8.C.r C mX-.$XW E L.d.oX3.j ].5 O.J.5.o.&.,XGX5XP < _.Z.$.O.V.).y : 7 6X} ;.R ` BXT.y ( < (.O.:.E p.jXs.C.W ` -.] 6.l.n.s.(.m 8X6 { hXCXi + NXC < gXK.w.:.+ U.-.6.h.@Xo.- 8 S S y Q C.BXA.oXJ.c R.p -._ N.lXV.>.&.{.1XZXs i }.u BX>X2 d nX!.y ; 7 @ u oXsX].x R @Xl.` - ;.s.OX$.l 0 @ W.,XV C u.yXtXj.D.w.4 -.r.p * &.|.j ] ] p C.F.5.5.5.@X'  .8.| :.M E.ZXU.6X X| 6.k.3.X.-.~ y 1 e gXi.5.zXl e zX}  .q.< C HXE.< `.CX%.@ 7 &Xk u  XW.2 :.W 6.F.8.8.`.h c zX=.; #.`.m U.@XO.  i H.lX%X@ J 6 3XV -XT j  X_.-.kXu = ^.{.; F.#Xs 6 BXc ' jXz. .w.T.J @ b M &.[.pX.Xa.h K._ > Y.9 d `.&.+ + HXJ M 5 l `.g E Q.&X8 ( >X5 X q b t R ].o.! T } 5.kX3   # v c 7.C.} r.;.' D.' pXj.oXgXl n.i.kXv @ E.ZX2XR.z ;.#XQ E.JXB l D.jXK.@ q >X9 E.; @ ,XZXb 8 : g D.lXa.&.C 8 % & 8 7 6 3 U.V Z + 2 c  X X#.W q.| _ C.] ;X,X9 {.9 9 ..kX&.] [.@.x gX$._ c `.3 kXnXZX3Xq kXpXZ.i q PXY + E.!.!.Q.Y.* ; -.$Xo.- A S V =Xn b PX X-.U./ Q e.w.%.u kXF.O.iXx.0.0.} h l _  X' `.NX-.` [.`.i ;X4Xn k =.gXa x @X| jXe.j s.J.+.' a ].7.3.} q.! W  . .h.P.w.|.= = !.g j q.} e.gXa ..q.R e.O.[.VX<.@ n F 9 o $ &XE.&XB o C {.E 9 s NXA.u &.i U.a a.sXtX_ l NX; = kXM.dXoX` * !.kXs.| g h Q (.e a.@X$.a ; Z =XU.q.$X[.e a [.a.L.",
"r.R j | ,.hXsXj.x.rXo O 3XJX, BXB.l.P.} _.- 9 ^.`.&.<XU.gXi._ | BX4.D.].@ F _ C.t.W `.|.l ).|.Q &._ jX9Xj.5.9.OX+X2.} ' [.8.].4 @ 4X>X[.` 4.pXi.oX9.R W E [.3.J.+.{.LXU A 4X4 ~  X_ d eX{.6 $ 8 BXB.e Q E Q ).m S C `.r.-...@.lXD.C...W ] (.B.s.tXpX(.m &X1 NX@.CXd i BX7 1 kXL.R.M < U.x X.3.OXC.< : S A ~ W [.NXd $.4.'.`.Q j v '.dXyXa.| '.|.2Xo R.~.a NX;._ D NXR.* @ @ 5 O.j.dX8.}  .P.l.@.* p s.oXD.' 3 o Z 4Xb v J.dX.Xj.OXO.4 E ].x - (.e.o.] l ` D.OX .k. .H.5.7.F.' ` }.ZXR.-.SX..w.s.k.k.R j -.g 7 6 kXp.5.zX2 l zX} 5.C.e ,X&X; [ @XzXa + @ E.e 5 NX(.=.y.6.F.` ].(.Q e z NX[.- g Z.~ ~ BXO.X , Z.VXJ o H =X&XN ;Xt +.@XQ e NXa o NX>.9 ].>X,X* &Xv ' OX+X .G.=.A &XV m >.zXoXn.[.e m.0X, AXd [ &.@ + % 3X=Xs e p kX7.h A Z - 7XNX= o + @ m < =.-.W T } 4.gX3 $ + *.$.D.&.~ (.} W P.c l.j.gX>.9 P.u.N.[ C 4XQ.2X&.v h  X-.;X3X, [.jXjX_ o b >XE U.< o &X4X8 N * p jXI.a (.p o S S + s !.&.f p E.+ 9 [  X Xh o.6.O.O.F.} ZXY.2 }.# n ..BXe !.] ; x lX[ D d `.2 kX>.M FX7  XOX[.d 5X3XU @ !.U.C / [ ..* a zX9.t C m + &XJ mXBXC.X.,XC ^ 2.6.+.$.[.l $.K.x.5.0.#.E [ c gXs.$. XT.e F s M AXs !.j ..VXd p #X| zXE W D.H.` 2 >. Xs.s.6.6.W ! 2.5.s.D..._ o {.{.j g y.} G.B.` $.+.` ].4.kX*.f i v [ i o @ U.M J A X C :Xu f >XR.l * @ 6 &.V.hXXXoX3 9 R.+ $.gXO.pXOXg e 6X].| g j -.4 v h ' @XN.c < p 4 !.6XNXC.h 8.s.kX' ",
"(.h E s.g.0Xv.dXp.VXq I PXO q AXZ.l.OX} T.- > F  Xu ,X6 N.u.g ..w.4 J.gX* &.[ C.$Xj ..|.; m 2Xh >.S.vXyXpX} } $Xk. .} ' L.e._.< + q BX[.4.zXu.n.+X2.! r 7.gX+.@X:.BXb C C U.-Xs ZXz { `.R.C : : ].g 4 k T.&.1XE.A Q.p  X~ Q | gXO.@.w.W ] 6X[.@..XpXx Q./ r kX{ ,.wXi ).1 - >.eX!.@ v Q < r. .z.@Xh @ S / T W #X>X3 3 $. X].(.Q 4 :.jXuX4.s.P.F.&.* >X<.z VX$.| [.|.U.@ @ a NXa.| sXz. .E #XO. X3 5 B.OXOXA.+ q 4X&Xb |.D..XXXi.z.P.e =.`.x * ;.8.6.] :.4.n.k.3.@X` i.J.8.B._ E 1X).(.BX X#.7.J.l.P.R j $X:.A 7  XoXn.P.- x @XW 5.B.).%X* 9 Z.J.` _ n 6 Q.a a (.- X.q.2.F.w.q.=.t v o nXkXp E ].g k NXh   + R.ZX7 % 1XbX= Z ).r l.@Xe - !.< + BX'.N.|.BX%X; =Xn ` gXOX .D.;., &X&X4 <.lXiXl.%.4 H.VX^.AXA.#.u @ + V &X6 v ] ` kXgX_ P N < (. X2 X C q s a R._.R X.#.O.wX9 , ^.*.@.lX5 u ].k.` a.| 5.K.zX5 z [.V.a.l ZX=X> 2Xh Q j (.|.1X4XJ wXdXiXa @ > >X] &.Q.6 V U @ 8 - e.lX$.E _.k + q S * a  XR.5 T.!.> &.(.;.T.@ X. .s.s.5.6.6X3 i BX+ H >.BXM 5 >Xl ' VXl v 3 `.2 VX>.> FXB :.P.%.!.HXB %X+ ;X%Xb / ..Z.u [ z.z.X.Q ~ * b <XAX`.[.q.-X6 j 6.q.| #X`.o l V.j.z.5.6.E :.c OXj.B.`.W.+ A = ;X{.-  Xj ..CXD x $X' [.4 ..D.H.] c >X`.D.5. .e.R }  .3.5.B...5 c BX} R T y. .[.| @.+.s.e 7.L.kX3 + Y.v *.3 o !. X] C &X8 =XW.+ &.*.&.M =X+ * :.pXc.J.O.d D =.h [.d.u gXP.g C.|.`.; g ~ ).- &.-.g w.[.$.4 < - -.*. X Xw.s.P.>.* ",
"R.x | d.g.g.u.dXp.lXK PX&X# U mXN.n.oX3.o.1 i f {.a Z ; l %.x p - E oXpXu v W G.+X .x ~ s %XM u A.wXsXv.H.R ! G.9. . .3.l.7.T.- @ b  XgXoXn.+.L.z. .! R l.pX| |.ZXC = NXr.Q *X&X,XE.&.>.NXp @ < (.l 4 e U.1XR.R.-Xt u  XT.Q _ L.@.$.e.R -.R. X_ pXu.] >Xr =.| S.9 eXD l - : v nXu * R.Q - ] | l.gXq.* N m Q } #XNXv 2  Xa.[.} g b k L.pXm.h.5.P.` ;.zXb.z zXw.x } {.J o l NXNXD _ gX2.e.p U.1XZXT.e 7.l.j.@X5 H GX7 C >Xl s.J.j.h.gXu ] NX:.* :.3.F.[ ; L.OXi.2.@Xx _ @X5.9.E &.E.; 1XBX7.i.3.l.n.k.r Q 6.|./ m ;.gX+X+.* u kX| n.zX(.m 3 F [.u.` [.U.2 R.R.M v x ].y. .7.zX[.o.e u X /.kXx 3.[.g -.NX5 X , W.mX8 + *XW.U.{...W oX@X&.@ b * @ kXL.[.}.ZX&.M &Xn =.P.OX9.s.' 3 7 Z m $.hXm.4.e l `.SXLX1X[.F.i # = H &X* (.#X_ [.cXZ.Z 8 < `.lX2 X >X2 s T.x X.W W W ` N.`. X[ i m.CX5 a G.J.W $.7.O.P.#X+ &.[.u.L.[ mXJ !.{.:.E r ~ ZX,XA %XV.pXi._ ; * ).r r {.J Z ; 2 ; a VX| >.>XQ ^ 4 A 8 * ..zX] {.2X&.z >.>.:.&.- |  .P.3.5.D.-.< _ BX+ b >.VX X- >Xu O.gXi f a I.3 VX[.M FXN l #X*.ZX5X7 ;X@ Z A / / ] c (.w.n.z.e.] R 1 U.:X#XP.D.r.m s ` #X:.{.7XM > 5 A.p.n.l.8.W >XR.L.J.4. X%XN U # ;X5 r ].j E CX{ ` t.` (.* R H.oXw.|.}.`.OXj.3.2.W W 3. .5.P...h L.P.} T ! 6.X.Z.` 7.s.I.l F.@X X=   Q.R.U.; E kX[.u # J J 4XH ;XR.v ~ mX3Xo @ `.K.OXNXa l { ' V.V.O.l iXp.k.G.`.R.+ l Q 2Xs v T.g E kX' e 1 r t.@Xa. XN.F.#X@ , ",
"&.E | l.u.m.@.dXu.zXmXKX0 C 5XJ <.oXoXs.o.g i F = M Z - v &.Q.e @ |.m.jXc g j 8.+X3.x s mXb * F ' hXxXM.h ..R q. .} } a.OXk.(.p - M eXK.oX3.` F.G.3. .3.pXn.] !.7 @ ' lXa.6XC KX&XJ *.BXkXg - C |.a e 4 ;Xv O.[.-X4 u  XT.-.' gXgXu.8.} _.-.>X>.I.' 6X(.r ].x >.3 }.BXx * 7 M :.< U.:.=.3 l } 3.pXP.t 8 y T.r.#XR.2 d eXd.zX| r m C c zXzXx ` gX} 6.K.hX,.zX[.W r >X6 + f.hX Xi x gXk.7.l &.W.LX:X] 7.5.p.pXD Y.Z + %X~ x [.@X} i.OX%.`.#X;.- -.3.B.3 3 S.m.z.9.@Xg p gX0.e...U.8 V LX:.G.i.+.s.z.P.e h w.].2X&.>.[.5.3.g 5 kX| zX@XR ^ 5 :.gXx.pXV.&.5 =.~.m U.|.].t.T ' gX`.Q &.4 X f kX+.h.8.p T. X; o %XJ 4X@ 6 ZXY.c ].} e.I.kXBX@ b @ ; BX>.=.LXZX`.{.V ; ] 3.OX0.5.' 5 n 1 E.eXS.gX%.&.i , H mXC kXC.a 9 n b Z * ] |.2 [.jXVXA : Q #XBX3 > NX@ C U.< t.W W R E $.NXa u I.aXM.i R.P.5.| ..].' ].'.o ;X[.B.$.*.LXU %X!.BX[ h ~ ZX3 A %XF.OX` =.2 2 T.o.W ].5 6 u U.T.ZX:.- >X&.g k 4 b o 9 VXF.R.2X~ 2 >.'.` `.:.x +.3.P.` h.OX~ ; %.NX+ i l lXr.< ~ a +.@X{.Y.[.b.d VXkXi 3X% 2 >XF <X7 7 2X- A N C k R.r...h OXz.OX .Q r 2XBXF.+XG.W < T.x r.1X7XU.E.E.M `.' gXO.s.} ] `.BXO.B.`.+ 5X&X+ >X2 } $Xj x CX{ E t.] &.- x K.i.@Xx v }.jXj.h.2.W T 3.3.3.@X;.h ].CXq.R } 3.B.4.O.s.OX@.$.kXe.E U X u &.*._ gXJ.@.[ o X B &XKX%X4 Q T.LXA   c @XgXC.).; d _ u kXl { O.b.b.J.8.(.<X@ l x U.n 9 U.p ~ ;.p v - j $XJ.pXN.w.BX5 o B ",
"W R 7.oXu.aX@.jXp.zXAXs 0 :X&X# A.pXn.5.e.[ 5 {.+ C 7 * !.T.( * e [.x.pXa.W r C.+XG.&.5 E.@ > `.z zXxX,.* |.r ^ 6.} } B.@X| 8.` u ] pXtXoX} } e.B.} +.i..Xj.`.C + , wXlX].{.W.4X# C BXN.VXE 1 / `...~ M f [ L.a._.t a [.|.t.W V.jX@.5.9.`.&.R.~.O.| NXE E [.W ~ H LXlX$.+ 7 &.g g t.q.].2 c ] 6.oXgX/ t k _.].r.-.; >.kXH.[.B.-.y ( u R.NX2 +.8.0.! @.lXg.I.@Xe E ].= 9 jXaX$.a @.hXn.u.c NXQ !.AX(.} } O.hXL.`.m * -X< | J.G.< W jXP.7.BX5 * =.2.P.; i d.m.j.5.[.E c zXk.2.(.!.8 FXZXB.j.5.5.s.oXD.k * h  X!.f *. X6.k.P.` Z.O.lXs.R (.u '.hXx.K.+.=.p ..>.u &.5 `.t.j K.gXM s ).i q , [.5.h.k.W `.|.@ , bXJ &X* {.:X0 a `.W ]. XAX>Xl e k 2 AX9 Y.UXH  X`.* * 4 r.OXh.s.O.u M m m VXV.R.9 Q.s , Z 4X+ U.] =.i , o ; - r T.o ~.wXlXu b w.@XNX@ O.'.o K R.- e.R ~ < ].[.V._ 5.jXdX@._ Z.k.h.F.h ;.` >X*.o ^. X X>X;XHXB 3X6 :Xe E =.NX* ; &.#X3.j -.< k (.} 8.B.-.p ] ;.#X>X- * >XR.~ < y t * NXBXp 1XE.T.l <.V.#.q.` W k.D.D.W z.G.p * F nX@ `.J.iXW h a a (.BXNX].H.u.> VXBX3 P % - 1X^.E.m t ).4 S 8 &Xk r.kXg X.zXh.n.G.W g NX>X$XP.q.g 4 !.h - 1X( U.k U.R.`.2 gX@.s. .s.@.].;.'.M   &XV = NXp 9.$Xj x lX{ x `.Q x 4 Z.gXO.P.h i [ pXXXXX .! j | 5.+.J.].p 1XLX~ !  .s.z.j.i.i.hX' ,.kX X~ b 7 v W #.L.gX@.p.*.o . + HXJX$ M j 1XE.E.M V.H.Z.x C 7 u e L.[.+ >.a.p.iXd.-.!.,Xo &.T.U.b b C M &.-.p m 1 j ].d.K.@.'.;X3 o Y ",
"w.` J.u.,.aX4.m.@.hXkX= D BXq C N.M.K.5.q.x [ {.o n < / T.U.b - ] H.9Xx.L.o.g 6.J.k.-.- W.E.o }.D zXpXD 5 {.g -.X.W :.].gXp +.6.g w.tXpX5.} } } +.' 4.s.c.l.!.> = Y.,.lX].g C 3X> Y.<.@.lXx 4 ~ kXZ.Q v =._ 0Xd.t.j l [.[.w.} @.jXu.h.k.|.~ U.R...].|.Q a.lX] M 4XPX<.'.; m _.j j e. .F.i }.:.R i.@X).t s !.|.W !.- `.wXS.u 6.|.y A C s E.@ ].! 0. .O.wXf.gX].e s.F.+ *.sXdXB.W s.hXK.b._ C.(.t ).>X(.w.` gXV.[.e m -Xe +.j.D.D.zXP.c 4.VXa * -. .OX] [ gXc.3.k.B.E | gXB.}  X;XP KXR.P.j.h.5.k.z.k.~ - < R.s o a  Xe.+.jXb.%.[.zXl.W Q p kXzX_ 4.].(.2 *.[ 4 T.o v q.T gX[.@ * %X%XM d BX@.h.5.|  XR.o z VX,XE.:.NXbX> R.o.R ].>Xi nX>.- !.&.nX> ZXKXs VXx @ : < =.@Xz.k.7.l m p p `.NXa + ; , , 5XP + + p :X> # + %X< < n n 3 eX Xp p 6.zX`.a kX[ X A !.< C.W ~ - #.c d.n.dXvXtX,.H.H.l.k.k.#...] 6Xa u {. X_ F PXP P P + ,XM x | kXa e ] VXw.g :.< ~ ].} 2.G.6.` | C.[.u 4 %XT.R.~ M m < ,.CX:.u U./ !.:.A.a.#.q.j W D.D.D. .G.} 4 4 M ^.; NXb.n.@Xq.u M R.]  X$.b.@.> BXkX2 B & ; ZXmX@ / ~ _.k 7 V ,X] F.e.|._.X.G..XJ.] &.&. X[.R _.4 x {.s * %Xb !.Q p =.`.a [.' s.3.k.P. X*.1X> X 3X@ T.gXi. .+XT h zX{ x |.&.x 4 lXzXb.l.E > D jXXXXX ...R } 5.3.l.].h %X/ -.}  .n.c.c.j.j.I.' >.R.(.~ m < R.E ' hXJ.O.d.*.X . U UX5X7 M ~ 4XA C }.d.pX;.T.&X@ 5 A.lXl + ~.@.l.j.L.p 4X&Xo &.>XR.U.C A C M ~ M ~ r e #.P.d.Z. X9 &X% &X",
"d.J.n.@.,.jXj.p.' pXxXd &.!.E.W.A.gXoXi.r.u !.<X@ 3 a `.a &.-.E | K.iXb.e.t.r 3.i.P.{.; l BXH /.{ hXgXl _ ..l -.=.g [ '.zX_ x [.x B.jXi...j j -.6.O.s.l.J.].s ; &.A.i lX@XW 4 C R.kX' I.kX..r ^ kXp R q.a a.jXp.B.R ' [.L.V.} } dXx.j.OX`.x =.;. X{.W.m  X[.=.* PXLX0 BXv h |.R E s.n.gX' `.].h u.F._.t m Q.).j m - (. Xi 3  X:.b b U.b 8 < ].T 9.3.| s.u.[.x e F.7.* '.uXsXa._ I.M.' OX3.` :.h r ~ U.ZXE Z.Z.].x T.m 1 e.h.XXlXC.l E L.kXl - ~ X.F.`.%.jXc. .P.C.h E OX .X.{.,XHXZ ] k.j.h.i.j.j.5.o.^ < U.6 X d kX[.@.jX0XeXVXpXn.R j E lX`.5 a.].!.+ H 5 c R.2 + W W BXe o : KX* M `.'.kXgXD.O.].R.* c VXT.&.kX].W.s |. .5.gX[ @ SXc * ;XBX^.A 4X,X!.VXe + : - ~ @Xh.5.N.u s R...D AX).- X o B 4X8 S * > J @ , # BX4 @ W.M X R.1X- M w.kX2 z  X9 % A A ; F.` l < ;.W M.uXfXvXx.O.H.K.iXn.k.8.w.] >Xu u `.[.N.0 PXN I N # b v [.' OXP.@...2XT.] &.6 Q.(.2.} k.5.+.R.{...:.m %X2 {.2 5 T.p jXlXM E.2 *Xs h >X:.r.r.X.g B.D.| OXG.R h s C U.e kX_ [.[.x 4 a `.5  Xd pXx.2 kXVX, 5XN : KX5Xo ~ -.^ T.< Q.|.C.L.kX>XU.&.C.iXoX:.{.l kX#.] / 1 ;.`.5 %XE.V m ~ k u `.;.kX' D. .} @X[.z <XB % &X< [.hXj. .$X! x >._ E [.=.v a VXzXO.x.f.9 { lXiXj.+.j W W 6.3.h.[.[ 1 r _.} 3.tXn.4.i.gXD ~.v s ).M U.* m &._ gX|.p >.F . B PX3XJ C C mX8 S n R.V.K.gX[.v + l lXF.h x >.O.B.P.W 4 KXV X >X`._ R.M E.M U.4 U.~ h 1 E #XC.:XW.@ E.=XU ",
"j.m.gX_ ,.vXc.xXp.g.cX{ Y.%XH R.S.jXv.p.#.e ,X<Xb 3 O.@Xe &.w.| _ pXiXK.j Q j 3.4.V.ZX- e `.W.ZX0XjXzXh _ N.x q.Q T c [.gXa.p #X+.D.OX_ ] k j o.q.+.p.K.#X&.@ n r.O.l lXD.o.1 Q.[ $.pX0XeXSXg T zX| 8. .l 0XsXu.s.| x  XwXF.X.! OXx.x.pX' -.q.|.|.U.C ;XC.w.R.@ PXKXo }.=.g ].r | J.n.gX5 A.[.h O.#XT.y b ( ~ t m 1 T.&.+ Y.>X4 C y Q.( S b ].! 3.3.! 7._ A.< e |.W 5 hXfXdX4.' zX' } G.F.R ` :.T / 6 ,X6X..7.8.W `.4 t k.oXzXW v h | P.@.E ; k ;.G.[.; OXp.| OXG.g  .@Xs.} |.ZXJ s :.G.i.j.c.j.h.3.X.R 4 m b   $.hXS._ kXkXSXeXgXJ._.g O.zXA.; 7.`.3 b !.@ h R.C @ p @X#.* E.mXJ * {.l *.SXd.p.@.eXU.M [.[.l NXgXA.m m [.i.x.gXa ; [.i + ,X:XH B U *X>X|.e s ; - M @Xi.i.F.; U.=.`.v BXNXc X X A &X- E.= : 7 + , # NX=.* %X*X# T.{.4 &.|.h u [ T.C A X V ; [.E ; 2 [.O.tXfXvXuX,.@.s.@XgXl.z.5.| _ `.4 p Z.j.[.,XFX& & % 8 o a kX' i.jXl.' m - T.&.Z Z (.R R F.5.7.bXQ.;.`.~ u - Y.Q.; g O.cXS.C 7 n {.h ~ |.u :.:.q.j t.N.O.OX6.T Q p C s W D.e `...x < u l `.=.l jXpXW lXCXD U N 8 &X% : *._ T.g r R.].F.4.C.] !.M R.h.gXNX9 ..[. .(.r < [.'.%X4X- ( / m Q.@ x NX'.' D.s.r t.@X_ E.3XU 6 ..D.pXj.R $Xr W *.[ c  X5 &.l w.#X; p.pXwX[.gXu.u.$.h W W 6.3.k.G.X.- ~ (.` j.sXpX| O.[.D 1X= !.1X2 Q.C 6 !.gXpXR.s R.i % UXA A %X3 =XKXX 7 3 R.[.4.gX_ l u gXpXO.W ' N.7.G.F.4 J GX7 = ZX;.;.`.5 R.~ T.< V k ~ 4 x NXNXs n ; F E.J ",
"XXm.[.d p.sXXXpXl Z.cXS.<X7 !._ { sXdX5.+.`.U.mX6 2 [.P.l :.e.4.c pXiXP.< r R 3.3.[.!.* x `.+ :XxXaXI.x ' [.| | -.W ` gX0XV.* `.+.OXF._ v s T.Q X. .x.[.{.3 + &.F.p.@.gXl.7.` `.=.O.j.H.eXAXj T $X} q.#.l.K.zX' k. .W C.N.w.o.X.` a.pXi.g ;.`.).U.Q.).`.F.7.;.M PX3Xo '._ h |.- O.b.b._ @.pXV.W x kX^ m S ( t < -.j ).m @ Y.n @ b V -XQ.Z ( Q ! h.h.` w...l * m R.c _ aXuXsX_ ;.zXl 7.k.6. .=.).T T.< s !...l.n.W ].^ R D.[.3 ; %X2 _ @XO.r.* < ] B.OXE pXO.5.OX+XW 5.gXJ.` `.AX5 2 Z.OX5.h.XXc.5.6.t.< ; v U.h K.tX[.z f ZXAX XlX#X&.e g.jX4.' ' kXF Y.|.< f &.&.E | gXE v KXU , *.`.a  XNXH.v.u.kX3 n SX`.`.].V.;.6 U.@Xc.XX@Xi = kX_ n KX3 H P Z !.|.=.x |.5 - b [.h.3.5.5 ).9 ^.Q.&.cXu.3 # P A < !.q + + + $ +  X@X5 1XZXY.*.:.Q ] R.@ ;.`.u =XB X Z ; #Xx ; 3 zXp.g.cXcX,.l d.| ].kXs.l.j.i.@.7.g  .s.u.kX,X5X% I P # o F Z.@.4.sXpX' u - r E.Z A  X< < e.l.[.:X2 C.G.r.Q @ 5 >X4 p kXCXa E.; {._ ;.`.c 4 R.E t.:.!.u D.z.j o.j Q !.p x @X} =.q.Q 2 6 5 ZXc %.zXwXx gXCXD B & 8 N @ M `.p _.g R ].Z.].>.5 U.u ; U.+.kXW.@  X+.4.w.1 v @XZ.KXS < Q.~ R.).* * `.:.| a.7.` r [.>.s J C > kX4.I._ h |.e ] R._ l `.* s }.= u 2 pXjXV.l lXO._ C.j o.R q.3.5.h.8.1 r `.' m.aXc.h...u Y.^.X *X<X= Z ,X: C zXpXu u !.H PXY + W.M n LX4X: o !.}.].O.kX_ _ i.hXm.P.` a #.[.s.e.g =X&X6 &.`.|.A.w.p ;.` -.- V ~ ~ 2 !.AXU.= A 5 >XF W.",
"j.gX[.9 [.,.hXu.= `.CXSXE.; `.u M.sXyXj.i.w.3 ,XC 5 kXb.' %.8.s.c J.iXL.- y g o.a.[.m - :.:., 0 hXuXiX` ' gXB.W R r O.m.9XpX< q.k.3.[.-.* s ^ T X.+.I.[.U.@ + R.F.i._ zX| gXB.p ..E u.I.nXZXj ! G.+.] NXK.x.@X` 5.B.x (.u `.} q.x E zX3.' |.|.~ M U.].B.D.| :.1XFXA , NXl p |.- u.pXO.O.sXv.J.x g ].^ ~ S Z - e ].^ 1X2 i Y.n + 6 E.T.p ( E.-.! n.c.W `.>Xk * 6 5 _ x.uXvXpX' `.kXx | X.k.3.p R.-.k - b 2 a J.j.E t._.W OX_ + b ,X* E @X| ].p s W 8.oXaXK.' x G.pX .3.OXJ.O.#X>XR._ @XK.z.5.c.oX5. .`.- _ (.&.r.XXyXD R.K J 1XBXBXx M u M.cXk. .@.lX3 3  X] e M -.W i.gX;.AX%X6 &.>.] ] >X`.iXaX@.kX9 H BX X..;.>.*.6 Q.gXc.oX7.+ i BXd J 4X  n 4X, *.].E ..[.x - 4 ].5.5.D.g |.= U.U.a pXaX<.b 5X8 4 R.n o * @ o n zXa ' nXF ;Xa `...-.[ 3 F.`.!.&XZ B W.2 BXE > i hXaX' pXjXO.@.kXx ] #XB.k.s.pXl.3.k.@XW ' VX=XP & N U @ + v a.K.@.iXjX#.s - 1 ( &XA 1X; * | h.P.9 U.`.#X#X`.H H >X5 u VX[.i U.E.!.c %. X[ _ `.E j !.M e gXk.t &.j W ;X< +.@Xh j :.~ * : E.;Xg '.kX<.g L.CXD : 8 N A M `. Xa Q Q ! r.B.Z.`.2 R.5 @ U.x >X* b |.| P.$.2 < A.BX&Xo M x -.(.`.; a (.:...F.Z.].u $.kX5 ; > [ hXu.<.0 a R.p =.].%.l |.> n SX; u kXzXi.L.a zXl l ;.W r.R 6.8.5.5.4.R e C.O.iXaX.XW |.s 4XH o ;Xn = 6 V P 2 kXs.3 b 3 4XHXo 6 !.5 !.LXJ q + <X{.c #X#X| 4.sXpXp.lXc 2 R.L.3.C.Q ,Xb ; R.{.(.w.G.| e.w.R.* 7 ~ v C ZX!.@ 2 C 5 BX&.&.",
"XXP.[ , bXd NX>.* ^.SXVX; Q D.n.M.sXdXj.i.C.*.H b i [.O.' @.7.a._ @.dXOX1 y 1 Q B.].~ 4 r.;.a i aXuXiXO.O.hX7.Q p e V.p.yXdXu E B. .6Xp + M ^ Q o.#.kX{.6 + = >X`.g h zX' gXgX| ' x D.kX>XZXg ! $X7.`.`.m.9XgXE s.8.-.{.* `.| X.8.8.F.W W (.{.4 U.>X+.s.[.` R.1XZ 8 :XSXh j 6X4 u.pXl gXtXx.kXe p ] -.^ y Z - &.].:.E.- ZX1X0 + ; Q.~ e A Q.|.! XXtX_ `.).V @ = # [ yXfXM.{ O.$.[.x c x s.k.p c -.~ - Q.s ; OXn.x |.|.W aXp.@ 6 %X* 4 6X| W v &.p 7.n.pXOX' e D.gXi.5.n.I.kX>.`.[.D.[._ l.i.p.OX5.8.].; =.:.]  .pXpX@ H mXA n AXQ.s H i aXvXO.| oXL., F  X' T.M t.W b.wX XU.2 u VXlX=.U.U.-.H.gXO.[ H ZX>X X5 6X&.&.: U.gXXXOXW ; {.{.> KXA 3 W.mXC ..@XE #.@X`.1 4 C.s.} ` W  X@ 9 2 _ d.lX[.i P : R #Xn @ s U.X {.d.' g.[.;Xb F `.o.q.] ; A.|.%XA H %X4XZXNX=.2 a xXuXp.| s.4.O. XM / NXF.H.O.kX[.' gX[.c _ BXU I & N Z V o 0 I.aXO.pXpX7.~ 1 - ( m E.*Xo ..| h.OXc `.R.{.>X;Xb V 4X;Xa CX`.>X&.;XM !.BX[ 2 A.W ..s W.v `.@X7.- t (.x {.4 8.e.< k -.&.* @ ZXT.E kX>Xv W 3.CX{ 6 : S / (.C. Xa e :.(.B.D.D.N.>.>Xe 2 (.&.e * ( |.| gXA.@ * !.mX@ @ R._ ;.X.[.l [.%.T.4 =.C.gX' l #XQ 4 p V.sXM.*.# = s @ ] kX{ a }.= v CX@.jXzX$.z kXx P.l l ;...q.R X.6.s.@.O.+.` l.u.sXsXg._ M q &X7 4X*XX n C 1 2Xm -.&.5 * =X4Xb 0 a R.F ZXZXn q W.ZXH F BXZ.O.v.dX0X_ I.c = !.w.4.[.x M u u {.m 5 w.D.J.D.C.U.: S / g 4X4X= @ U.v h 6X[ &.",
"].;.= q <XW.ZX^.+ <XVXeXa C.l.iX9XaXsXc.7.[ {.d 3 &.kX@.c Z.7._ ' _ dXOX4 6 - e ].7.Q r ].` c %.sXfXc.5.x.jX4.=.u f P.p.yXdXE :.F.} t.- o W.~ Q E =.>XU.@ X &.NX&.< _ gX' jXCXs.h ` W [.ZXmXk :.q.r.|.a 9XsXgXl 5.k.).e e [.#.} D. .w.- a |.T.e  XNX5.J.C.x !.( % Z IXSXE =.kX` tXtX_ b.9XpX[.< h h X.-.y A 1 (.B.#.~ - ZXLXn X 2 Q.g &./ M _. .tXdX_ |.m : @ = + [ dXvXz { >.$.[.E a ..s.oX` :.Q ^ C E.U.a gXu.x BX-.} dXhX# = &X6 2 >Xw.E u m e #.z.pXgX` +.D.D.+.5.OXkX>.*  XoXoXgXa a.l.n.OX5.k.].{ :.l o.6.jXd.  Z KXA E.E.( %X3 D aXsXl w.gX,.X G  Xe ~ ~ o.G.f.wX[ < m {.VXO.2 1X!.-.B.zX..d ZX*X:X]  XBX5 s 8 C zXXXOXE [.|.*.,XLXU > W.E.{.$.@X' @X$X..4 4 ..P.` p w.`.@ # 5 `.c BXkX`.8 S (.NXH + 2 ).3 '.H.xXf.zX%Xo 2 `.o.! ].l l ZXs !.s 3 ZX}.$.`.2 D xXyXx.} | N.c  X&XZ >XB.Z.' '.[.O.P.[.l { nXN I & I &XA % # wXdXu.tXpXs.-.k 1 y r ,Xq   >.D. .+X@X'.^.,XU.ZXJ   6 U.>X Xh BX).~ * 1XBXi c [.a T.b E.g [.@XN.@ e 6XE x 4 k.].< e &.&.@ A 1X] ' kXY.5 Q | gX'.C 8 y ^ 6.P.F.u e -.|.].J.s.Z. XA._ =.(.U.; * ;X=.G.zX{ 3 b &XZ @ ^.A.V.Z.` OXiX5.7.).- &.`.lX@.e (.|.x x J.sX0XF # o @ 4 `.zX@.@ R.* u lXsXpXc l i Z.' N.c ' :.=.x x ;.7.k.' ' p.j.j.i.yXpX,.G X B &X=X%XM   Y.Q.< k 2X/ / u b KXA + R.h &.n LX2Xm *XZXK n bXNX' u.pXsXO._ L.i 0 <X#.a. Xc 5 v E `.; s `.k.h.s.] t 8 S ^ k PXU X q {.p ] :.5 &.",
"-XU.o q q W.mX@ % KXrXxX| 5.j.jXM.iXaXl.] *  XD 5 r.gXO.c eX_ l O.O.XXOXr 6 - * r.6.Q r e.5.` I.aXfXc.c.uXuXh.P.a >.d.j.yX.X7.#XG.} :.{.9 ;XT.T x =.!.J o , >X XR.< w.J.c @.lX%.h -.R :.KX4Xk W x `.`.c yXsXwX| 8.t.1 1 [.H.' 8.OX} ;.@ R.2XM v eXH.5.+XX.p !.6 + *XSXwXB.W gXiXdXtXO.m.9X0XkXa v Q X.`.S S < C.@.J.g v #XBXmXo C Q.e T.>Xp (.C.pXtX` ].t : 8 o @ c sXvX# Y.Y.a [.s.l ' x.pX_ `.B.! m < R.$.iXXX3.e.W w.m.gX# @ 7 6 = !.].h @ C M l D.OX].c J.J.] _ s.kXR.@ u gXtXtXkXa a.p.h.+X9.G.B.' ] 4 W X.VX9   3XB V 4Xn -XE.= *.xXhX@ =.hXg.  f NXr 1 ~ ^ q.kXCX#.r.T.ZX*.+ &.AX~ ` O.[.E 1X=XK %X2X6X=.@ 2 8 C zXXXl.` @X_ F PX=X: X 9 :.w.' [.} OX$Xe @ : v |. Xw.s.].@ X d `.2 ;XVXNX- Z &.c F + ; R.%.H.jXsXf.kXi 9 _ w.6.o.kX>.> <Xm Q.n n >X' d.@X3 D cXuXx.R x *._ NXV A >X].'.{ { F.u.J.kX@ z :X& N 8 S q K 8 # L.v.c.j.dXn.-.1 m y ^ {.+ X c ].B.G.@X[.:XW., =XmX# , ;XU.%XE.1X;X@ 2 ;XeXi i.D.u n q Z h #X[.c + ;XkX4.] 4 J.G.- t -.&.2 4X!.x s.lXp m e E +.| ~ y / -.7.K.G.R j ] ;X).B.D.kX XZ.h ..2 6 * 6 -X..D.I._ &.n &X@ [ kXhXzX' } aXtX5.P.r.p 5 ).BX>.e ~ |.| E lXaXgXf o   o -.B.gXO.@ Y.* v lXgXi 4 `.c c [ =.z [ (.k v Q ..i.z._ ' m.tXi.j..XgXnXw . 5X*X!.; &.d R.v e t T.-Xm ~ &.7 7 > &.p &.%XKXQ.T.n =XmXA 1X[ E l.pXH.d %.lX9 W.4X XV. X&.5 v B.w.- M ;.G.J.| 4 - S S ^ 1XKX% o U.|.j r.p u &.",
"b 3X$ o @ # &XX FX&X1.cXu.3.gXp.D hXiXa.&.+ <.[.E 7.gXO.9 NX[ ; $.b.n.[.k : : + E ;.r p k.z.O.g.aX9Xv.v.sXaXh.gXl Z.u.c.tXm.[.[.@X .`.z }.BX&.k x U.C &Xo =X X[.;...F.5.O.lXzX%.| ` R v 4X&X~ ] p A.A.O.uXfXeX Xe.W - R.lXx.+.s.G.s.}.= {.!.C ;XwXhXz.k.] k -X< - U.wX0XJ.| iXp.dXtXO.gXK.O.{.v p :.O.#XC 6 < ].b.zXr W pXgXAXV C s l =. XE l  XhX9XO.(.@ V S o 3 l hXpXo n <X2 V.l._ c x.dX_ _ CX].~ / |.O.iXj.3.} o.#.@.VX9 @ ; A + b  Xc + V C u a.s.].l k.OXl [ Z.].= = ' pXyXdX[.2 a.p.+.+X5.5.D.l (.< g (.nXX B 3Xo Z s Y.U.M 2 {.cX0X  D pXpX0 *.kXp < r ~ :.`.NXr.|. X Xz }.ZX).-.W ' Z.`.PX6 <XmX!.=.`.2 6 7 C gXXX5.} _ l :X=X+ * 6 i #X| ' '  .OXr.* o = s >X#XC.G.].V X &.*.C C AX] - Q.T.a *.> = 2 _ lXpX,.S.`.; R.` B.X.! ` |.3 q R.a mXZX>.a.@.OX5 d sXfX.Xh < a $.nX$ P >XC.|.:.x [.u.V.NXo d !.& N @ b o V A J '.u.oXj.XXoX:.- ^ t -.v o # W.{.h ].w.r.1X= @ + 4X4XX <XH b =X=XE.M n R.N.' hXs.2 = U 7 h ]. Xa R.BXH.zX` p OXD.< M `.x ;XU.&.l L.[.- Q.4 ~ ].R j y / _.D.oXz. .X.).,XM :.kXBX XZ.c R.a b * V m w.J.4.$.d Y.b ; CXK.lX[.p +.pXv.5.@Xw.p p :.%.%.p r ].| I.CXhXhX3 o X X {.} $._ @ !.U.BXkX3 @ a `.a _ ..c d a :.4 %XT.E h..X' ' jXdXj.k.OXd , K K mXY.v x ].}.&.g T.p k -Xm &.p + Z s v Q &.4XmXM U.&XHXU A AX&.} k.lXa u l CXS.1X,X[.|  X> v &.B.X.- m x P.J.#.k 7 S y / LXY O + Y.].E  Xl E W ",
"C b 3XO O X A =X3Xf 0XvXx.p.kX9 D jXp.7.&.+ i zX3.s.gX| @ Y.R._ a.oXp.F.m @ 7 + a ] 1 h G.J.3.p.f.aXtXx.M.aXk.OXc [.u.c.g.H.`.:.gX3.B.#.{ VX2Xp &.e &XZ &XbXZ.l.8.| s.O.u.cXwX[.F.} ] U.FXA v B.h %.7.u.uXsXeX`.w.R < -.jXp.c.5.o.].kXD NXu W.1XlXxXz.G.R U.!.- * !.g.9XpXh.u.x.sXx.9 VXD z !.s u R.O.zX/ < p kX_ a x +.iXpX_ R.6 t ] $.a.@.[ R.zXK.NX&.+ C V @ v l eXz 9 nX6 ; Z.d.,._ x.dXO.a.zX| ~ U.SXA.p.p. .R X.x H.VXM * < ( @ q 9 U.> q !.< +.D...u B.F.u M {.a @ l a.tXyXjX] ; O.p. .OXJ.3.V.` ].R r  XH   5XB Z &XY.NXNX[ U.}.CX{ X F 0XsXf.,.lXp - 4 j {.R.# = -.;.a.@.NX{.3 :.w.x kXLX&X&X1XR.` #.`.R.m 1 / gXc.j.5.h *.ZX= @ * 5  X`.h _ | c.OXZ.@ 3 ] 2 {.x ' iXN.t b Y.> E.b <X4 r (.`.[ R.@ @ > $.gX_ <. Xl ; *.' 8.X.R @ >Xi f `...KX# z zX' lX5 f.sXuXdXj.x ..'.&.$ 8X{.F.]...j G.k.V.kXl 9 U.: 8 t s X X A mX`.3.G.k.5.oXC.x ^ r k m + + &XU.* :.:.a 1X= R.> 0 4XA n M T.Z U 4XmXU.).a.jXjXO.u C 5X@ a |.|.[ { [.u.hX] g oXoX4 T.].| =.Q R.R.>.a j _.k !.`.} ^ g m T.zXm.j.k.8.|.%XV Y.SX|.`.C.:.*.T.U.* A @ N.K.7.] i ^.@ `.hXpXBX9 x OXpXg.s.].q.; e lXb.d.R r ..$.lXlX0X Xs o X   n &._ &.+ {.).|.`.= * m T.4 s.D.c i l `.+ Z k E n.n.O._ vXyXc.gX'.+ @ q Y.1X3 v ..#X;.` ;.>Xt m / / (.E - {.R.] Q / HX3Xq &XPX5X: 6 %X2XW ].@Xe l l VXCXY.;X'._ >.D `.:.=.a 2 b p [.[.p k C 7 7 ,XKXN o = -.`.#.kXi W R ",
"{.b Y Y O X N 4X# }.qXsXv.K.>.+ @.iXj.D.=.2 @ lXi.l.zXO.+ 0 u %.pXc.i.F.m * 7 @ v R.r g B.oXn.O.i 0XiXM.g.f.l.5.O.g.j.m.u.kX*.h zXi.O.E f.zXBX).M * Z 8 KX^.gX5.l. .s.O.g.gX,.zXD.G.X.U.GXA _ J.| F.Z.u.uXvXkXR.;.q.* =.lXj.j.OX] `.VXeX~.s 4X^.VXhXs.k.-.M Q.< < ;.f.9XiXp.3.v.dXiX@ >.F Y.C 2 5 a l BXU.< x ].&.= E B.iXpX[.{.< s _ s.u.4.>.`.[.gX{.;Xo b ( 1 !.&.c ; zX}.= ; `.[.$._ aXyXpXlXu.E &.~ |.A.I.5.6.j :.W B.u M < e Q.@ @ @ M n n 2X- x @Xl c [.B.2 v !.* @ R.8.XXyXdX| [ c P.3.z.OXx ` F.k.! W 6X# 8 =XJ A b ] kXkX>.R.{.NX9 O *.hXyXx.iXzXx * t ).|.R.M ,Xu r.' c NXM * :.7.x SX%XJ 4XM %.B.` e >X&.- / [.j.j.D.>.BXM @ @ @ =.N.] c [.u.c.pXD._ kXNX; U.] 7.K.P.k b C o 2 ( A < q.8. .` l = + b `.a [ `.*.*.Y.*.6.3.2.-.; !.&.:.e.:.q X %.jXi.iXc xXuXuXsX.XV.'.N.a : V ] [.`.j r P.P.d.eXc &.M : S T.s   . X C =.C.#.6.z.l.].] _.r r Q.6 X A < p x {.e W.* R.*.i # 3X=X{.{.E.@ V 4XKX&.@.xXgX_ a =X&X+ =.[.`.{.d hXiXjX' g pXoX4 :.B.7.| ..|.v * l 6.].2X5 `.#.t.T m r kXx.j.J.w.6Xb 7 LXZXv '.;. X; a R.s 7 ; Z.pX[.< Y.i _ zXv.gX1X* G.oXhX@.` o.(.; a zXpXJ.;.j h eXwXb.wX{ E.V X X + > s i 3 ZXv U.^.> F s &.p .XgX' a a |.b 2 &.x k.n.w.l xXx.v.zX&.X = C U.R.v `.[.B.r.%.[.(.t t m C NX] p ] r.W ! ).HXY o 3XJX% 7 6 < Q.Q 6XC.E c d SXVXn {.[.O. X>...`.a u * 2 x [.#Xp 4 ( Z A 5X3X% + 2 -.r.[. Xa 6.! ",
"B.>X&XHX& O U 7 9 lX9XsXv.H.*.o $.l.x.H...a [ BXgXi.OX] @ 7 3 _ xXc.O.F.Q e 2 @ ] =.!.U.B.J.pXh , kX0X@.vXM.p.x p.4.tXm.u.[.M - gXK.| a x.xX].2XQ.* 7 A C {.zX} z. .G.| L.0XI.I.b.@XW &.&Xb ` OXOXD.$.Z.uXvX'.z ..r.h ] zXj.v.pX=.R.SXSXU.2X;XR.AXkXa.6.Q k / t R G.@.0XpXj.c.yXsXf.d &.Y.,XE.@ @ + 2 NX!.< :.[ z i `...K.lX}.T.; m E I.4.d.{  X4.[./ &X= n ^ r M U.] c gX<.^.; '.eXi 3 aXuXsXtXp.a.4 e Z.zXj.p.6.T ;.E 5 ; m m e !.+ q K f 3 !.%XT.r.[.5 r.@X7.u ;XQ.* @ v | oXdXXXb.V.5 [.e.8.@Xx x [.+X0.3.kX+ =XK s t !.l [.hXH.{ NX}.f # /.jXyXtXm.gX..* b &.NX X*.n = c _ a NXb @ ].B.*.ZX; ZXn &.$.F.l + `.:.- Q.@Xp.5.H.'.R.; M - v lXB.h *.gXm.4.gXn.b.pXkXa M =.V.n.[.a 6 V : 3 U.s Q 9.k.E :.M 2 o Z H 9 a a l R.&.NX7.3.} (.~ %XT.x F.C.0 + a.XXiXi.@.cXyXyXdXK.[.}.N.] e ; c #X).e r B.l.H.gXN.NXr t m Q.5 .   , F ] -.] h k.gXP.a Q k t ~ 7 + V < `.` t.~ b + = NX}., q &X^.>Xb ; Y.3 4X=X' cXJ.l f 4XU @ q.F.1XLXd wXm.jXO.x pXm.4 `.]. XN.| {.v = Q 6.|.4 = eX@.].T y t `.d.b.L.].1X@ &XZXM ] C.Z.].&.l r.R.6 5 gXjX#.- &.i K.dXv.kX<X; OX.XlXd < (.(.2 c zXO.@Xt.&.s PXBXd.hX$.U.A U % X + 7 !.ZXT.* U.J X v c l h .XpX' i 5 #X;.] -.g k.J.;._ jXu.c.pX{.o + KX%X; ] ` C.$X#X;.[.X.j k t y (.;.x h C. .+.6X4XB X PXU 8 ,XE.- 6 U.Q ;.q.h d IX*Xi {.kXI.%.l [ R.+ b : @ u ].#Xp 1 ( 7 S &XS o + 5 &.` [.F.c e. .",
"B.`.%XPX3XN A 6 N.pX9XaXiX' i o ..d.x.hXE ~ &.'.jXu.J.W @ 8 0 d hXp.| ].-.~ s 2 ;.o.t v Z.I.gX` 3 eXd.O.cXx.a.' K.x.n.@.H.'.M 2 zXn.r.| p.xXF.Q ,X7 Z LX9  XzX} h.5.s.| `.%.[.gXK.+.} -./ - O.pXoX .a [.yXjX=.2 %.N.`.%.u.j.m.s.] 1X:X:X*X1X5 }.BXnXB.#.j &.y t } OX| H.hXj.p.j.xXD c `.9 &X&X= 7 6 + >XE.2 `.A.U.bX&.R.S.kXv C * C l L.u.gXc kX'. XM q 7 > T.^ s @ E C.d._ AXa ,.wXd + { vXsX' p.zXa h [.jXx.l.5.W 6.E 2 > s U.p R.o K W.o 9 {.%X!.5  Xl ].gX4.a ZXZ - * d B.n.pXtXx.K.- `.X.5.@X' ` @X+Xz.O.F.&.*XF &.).)._ A.hXgX' ~.ZXF X nXI.tXtXc.OX| ] &.(.r.BX`.+ o z <.= >XC * [.N.bX6 &X4X+ |.F.].> @ D `.1 k e.pXD.L.[.2 l BX-.`.D.F.5 {.K.dXj.pXh.j.4.,.f 2 E s.gXD.o C V &XC M v W 0.J.E ] &.2 &XU &Xs i u a :.Y.bX6.3.6.].&.U.!.- B.Z.&.@ 8.XXsXtXv.cXuXyXoX_ }.R.[.:.M * a  XT.- j 8.b.P.,.;. Xp t T R.5 . # f {.:.j a p W OXOX| Q T.t m 7 @ ; U.@X+.W ^ 7 8 o :XeXz = 7 1X1X- b U.Y.&XW.[.zX[.l M %X= ; w.C.LXLXz L.iXhX| _ pXm.4 (.NX[ w.' T.!.u =.6.].* = '.V.|.T ^ 1 o.C.[.[.bX,X@ mXU.v =.@.F.N.NX[ ].:.* M lXaXh E h @.iXyXyXlXJ C gXiXeX@ * R.:.e D.@.h kX#.] *XPXNXd.p.[.s = U U % X A LX9 ; u 2XZ o =.Z.c x .XpXO.a * [.5.[.p e P.G.l `.OXv.j.d./.# , 3XZ Z R.] g :.{.R.]. .E R.< 1 h R.l a e.0.J.NX&X% Y FX5XU ,X&X7 b !.4 R r...R.LXB n  X@X' _ %.[ &.2 Z 8 + 2 #.'.p 4 ( 7 S S N V + s &.W $.s.O.8.3.",
"`.u d W.KXU ; {.E L.jXpX[.> o = `.O.v.hX=.!.# '.cXv.z.x @ : J F D.x.3.$Xq.j v p e. .t j g w.lX3.9 NX@.,.cXM.%._ [.OXO.u kX;.M a pXpX].e l CX].g / E.4XZXM ] kX .h.G.4.] 1X9 N.I.d.4.3.q.-.t _ xXgX} | H.tXlX; * >.d.` O._ V.@X7.|.Y.4XU GXn l eXZX^.Z.O.R _.1 k  .OX| a.jXm.| 3.CXa 2 '.5 A U + @ q + U.E.u [.'.ZX,X5 `.>. XE.V @ U.a <.i.jXh :.BX] !.< N * T.).n 9 _ ].d.[.~.d gXzX9 o 0XaX[.; _ zX_ c @.jXb.i.5.3.D.` 5 2 6 b k R.5 BXf   3 ,X4X* * ;.x P.@X` F C A ; u _ [.4.iXiX@.pX` X.8.9.l.s.` @Xk.5.| I.`.] >.&.6X:.[ | [.%.:.u KXb X VXz I.aXj.j. .O.@XC.x 1XK @ > z '.o :X^.2 [.kX!.o KXq ;  X[.` + H f !.1 ^ W zXc $.zXd L.F.R 6.| [.u >.pXdXc.j.@X7.; {.9 ; Z.l.oXZ.+ # E.A U 6 U.h 5.gXd._ Q &.q B 5X+ Y.l a `.W.mXr. .+.#.`.e m U.F.P.`.3  .j..XdXx.v.tXv.gXu 0 W. Xr.6 * 3 {.U.* B.s.l.[.|.R.k k r Q (.3 . w f `.C.W ; p R z.pXJ.| ^ t m 7 @ 2 [.zXl.j ^ r y 6 , '.>.@ : <XM ; %XC 4X1X= *.BX`.d {.b @ v >.NXZXbX9 '.aXdX .` iXoXe {.mX@ ;.W p s ).(.5.#X* @ Y.A.(.^ T g R q.NX}.KX% 4X<X5 Q ;.' B.| $.a.[.c + }.zXb.` ] W I.tXyXdXF.7 &X@XgXY.= + )...7.zX4.x @XD.>.*X1X_ gXO.kXu 2 J , 8 % ZX;X2 ; W 6XC @ N.P.W h .XdXZ.z @ ].z.8.4 e F.G.a [.b.tXh.O.n   4XJ o J 4X%Xm r ;X2Xq.X.c R.v < > W.f h k.0.gX X7 N KXB FXZ 7 6 A &XU.Q =.=.(.PXFX8 !.|.| ` $.O.l [ M W.7 @ ` Z. X3 - ( V S S : A b ~ E -.x 4.3.3.5.",
"&.o  X X6 6 R.:.x _ wX<.a @ H E.!.;.sXsX] - 0 S.vXuXn.x * @ E.> ' P.} $Xq.r W ..G.9.1 ^ (.h $XP.2 kX%.@.cXx.{ u L.gX' Z. XT.e c lXK.} 4 5 kXBXh ~ !.ZX:X}.h `.X.s.D.O.`.*X= ].@.u.@.7.q.! T _ xXJ.| | d.jXN.@ * ' gXs.` $.C. XNXE !.3XN 3X* %.BX1XC [.O.| (.1 v k.gX' N.jXXXO.k.zXl O.kXQ e &X@ B = b s s l gXL.U.,X> &.>.{.&X8 * U.a ..K.j.h g >.>.2X6 N : ~ {.> 3 i A.gXgX9 l lX@.@ *.wXhX X+ l BX_ E _ cXu.k.s.+.E >.; 2 = n M R.<.NXH   # ZXA o l ;.x @XkX] E.@ C M ] _ I.4.c.aX_ 0X+.+. .3.l.J._ P.J.} 4.gXW ..` [.BXu ` | %.> i H E.3 # SX, <.pXh.h.+.oXl.h &.&Xo = R.%.Z.  ;XBX_ kXNXo =X4Xo ~ #X[.x + {.U.5 t T ! C.a %.hXm.gXO.5.P.l >.:.[.pXdXpXj.kX=.h ;X* ; ` J.i.w.{.+ o 6 q C &.j | lXgX_ | &.@ Z &X@ Y.l a nX,XmXr. .F.F.].W - b F.n.Z.x W k.O.pXaXtXx.tXgX>.b b &.&.7 * * 2XM 4 P.i.u.gX|.u 4 M g Q (.@   /.G ].r.(.u - o.z.oXj.' g t / V @ _ pXhXb.r ^ g r V . d BX6 + C 2 2 *X=XKX^.@ D  XR.c ;X- - R.{.BX&.F + >.iXtX7.} tXK.4 NXH 3 `.X.h T.`...G.`.; + *.>.h j ! W R t.[ bX5XB LXU.5 (.C.x F.E O.@X[.i @ NXwXD [ E 4.K..XXX.Xw.6 b kXkX* V @ 2Xw.O.gXu.' gXK.A.%Xn a lXO.gXz ; :Xo % PX&X%Xn 2 7.kX6 6 F.J.` p c.pX[.l @ `.OX8.5 2 (.#.u '.K..X.XZ.3 X HXq # E.=X&X( ( b U._.w.l c #Xp + A F ] 5.k.wXY.@ &X3XB 5XN * n Z &Xu R.g (.!.LXY & U.;.` a O.N.l >.u Q.7 - | P.kX> @ Q.S S V 1 @ %X&.x ;.R | 5.+.z.",
"&.@ '.NXe U.|.`.-.e = @ > > W.,X%Xl xXuX' a <.M.fXdXiXE @ ; !.&.~.`.` ].e.j E q.k.8.1 j kXE E ].< kX{ ,.cXf._ `.$.s.p.zX[ U.6 &.H.i.].p - l 6Xx M k >XA.CX$.s ; Z.H.O.>X7 = #Xp.p.p.| q.T o._ hXOX .3.k.zXl @ @ %.jX5.| V.$.BX-.h 2X4XN N 6 wXkXC q NXu.;.^ < k e.OXx H.sXv.5.6.kXl { [.w.h U.n W.o C m e E 0XgX_ %XU.s |.{.&X+ - T.5 d zX@.W g  X_ ).b 8 8 C ;X6 X i zX,.gXD _ lX_ i }.{ VXv @ 2 NX:.[ d eX4.k.a.A.3 U.* 2 s M U.;XeXD ^.. H :Xb @ v ].W zX=.U.9 i &.#.6.3.pXu.j.sXu.f.H.} W w.G.i.O.gXz.| L.$.p ] i.zXR.@ #.B.%.9 X *Xn f i AX  *.zXj.5. .gXd.e R.; o 3 gXpX<.X *XkXpXNX5 i <X@ 3 r.}  X2 o :X;X; t ^ Q ].'.{ sXtXa._  .#Xv M  Xa.M.sXdXl.^.> &.!.* - e D.O.A.F.r.o 9 i *.-.x x lXhX@.O.).= KX&XV >Xd d NX!.bX`.} k.OXl.6.- y @XpXf.' g (.u hXpXtXx..XgX#.< < < ( 7 @ * |.v e gXx.@.gXw.< ~ ~ j -.(.-   :X{.NX;.r.T.* W G.n.pXC.p t ( A @ d.dXsXz.T r T k C X a BXs @ A @ *.*.,X4XbX= %.gX;.|.!.< ] `.:X<X# H o [ K..X3. .iXH.a 2X@ *.] o.W 6X|.` C.v * + 3 R.^ T 6.C.T _.U.4XB HX*X^.- ].].g 7.' oX@X X> > }.<., h | J.m.v.oXi.t.- C lXV.2 ; * R.C.O.Z.|  .oXM.S.ZXq [ #Xu.@X] * BXf PX3XA Z ; ; i.gX; b kXD.#.h j.gX'.i @ *.OXP.4 * ;Xh e [.iXx.pXV.  3X3X6 |. X1X&XA %X/ k |.`.a a CX%.* 6 >.d.} P.}.Y.@ 5X8 P N 8 @ C E.b k T.h &.*XKXI & E.|.p 2 ].%.a |.`.T.2 2 c gX X; * -X7 7 S b - C M v X. . .5.i.dX",
":.l Z.$.R (.-.-.ZXM X w &.i s =X&Xi xX9X$.D H.9X9XdXjXO.* b F ZX>Xp X.G.G.T X.#.0.9.- j @Xk.g =.h '.D b.xX@.d |...O.pX@.5 U.n ).H.iX@Xp @ @ (.-.M M Z.O.CXlXb 6 C.D.|.~ * 6 ].i.pXgXV.j T 6.b.aXJ.} 3.P.[.2 = @ ' cXi.O.A.NX6X&.Q ZX5XN * &.kXD 7 7 NXg...g - m G.z.x J.dXyXi.' NXa @ { kXh p >XH 3 E.m ~ _ zXwX$.>XZXC R.Y.3X: 5 `.3 2 lX@.} h _ $.{.b 7 8 V 4X@ ,  XI.' K.' [.kX5 <.[ [ *.> * @ AX~.[ d NXI.i.Z...3 M ; ; , M !.BXR.+ w X ;XM H * ; A.| gX`.v ; >X'.a.D.i.pXu.+.jXu.u.hXE h ;.7.l.u.pXs.G.[.%.e r.pXlXR.2 C.P.;.l   C ;Xa z i . f %.P. .+.zX' h R.n + $.jXjX,.K H gXjXO.2 NX; 3 `.].j {.= + }.BXe r ^ r ;.BX' tXXXd.Z.B.E = 5 `.a u.aXdXJ.f + &.T.- ; x gX{ l 8.C.*.D BX#.X.` h I.cXx.' R.n KXJ C NXa c BXR.R.C.` | 4.OX#.1 m J..Xm.N.u Q u I.9XyXdXx.lX2 p |.< b 7 * < {.Q 5 pXv.@.pXG.R (.Q T ^ :.c = nX:X>X] R.R.< t C.b.pX[.4 1 V S ; hXdXyXu.q.r T j &.5 [ }.> 6 6 p  X`.1XW.nX; O.gX$.R.U.p -.-.4XU + C 0 l d.pXs.3.iXH.&.f 3 BXh q.! C.#X..*.u 7 7 * T.-.T 7.7.j ).;XJ 4X3XU.&.e ].].g | 5.c.J.`.o D %.z 9 _ 7.iXtXn.l.+.:.< !.lXO.M < < >XF.7.C._ i.iXg.kX!.C u [ [.L.:.u zXBX3XO &X4X= 2 d.pX* v [.O...h 3.gX'.5 * ~ @X+Xk + 4XM ..zX0X@.aX,.o JXV T.[.Z.SX%XB A -Xk Q 6Xu a cXH.= @ :.[.' [.`.M * &X+ A & : * !.,X- k T.v ; 4X4X& & 4X;Xu [  X2 5 BXR.i s 5 p @X X+ ; ZX8XS S y ~ ;Xs M .. .y. .x.sX",
"`.x $.| 8.C.Q @ &X4X$ W.VXa # &X&X; CXx.@.,.9X9X9XdXjXd.3 M *XAXR.1 W G.$XW | 5.z.e.1 g OXz.X.p q.F._ 0XcXu.;.{.3 a  X' ; T.{.].n.pX@Xx @ @ ~ T.&Xm H.sXlXl M C w.$X~ 4 3 9 ].' <.BXN.h g 0.pXaXj.3.2.].r.< e u f.cXb.O.NXAX;.r.U.7XN : 2 `.'.= S : '.L.r.k 1 / t.5.W b.sXuX,.a BX2 = *.kX+.`.:XC X &X/ U.D VXBX@.zX:XW.5 A B E.`.C.; D lXu.| h a kX>XC 7 S V ,X3 >X XW @.x.O.lXL.i  X3 , o s 2 > ZX,  Xl N.L.V.B.W ..v * * @ n {.NXv X $ n ;Xp / * ; >.O.gXr.u 7.zXZ.N._ p.sXi.` gXO.O.lX@.| } 3.k.p.d.(.-.a Z.' hXVX<.5 j 8.OXr.2 o +  X] s X   w i %.8. .#Xg x #XU.+ pXsXfX0XmXn I.dXu.K...t C.e.G.} e = @ '.VXE g ^ ! `...4 OXh.oX[.}.@ 2 R.;.@.K.v.dXiXd + >._ J s _ [._ 9 >.;.C.kXkX7.6.` c @.sXv.| >.<XPX&X0 NXu ' zXR.u e.5.E | #Xu 4 r  .c.0XhXz { V.hXaX9XyXpX[.o O.CXE < 8 - 5 R.c E hXx.@.oXH.' :.Q T ^ ~ h @.gX}.W.; U.).1 1 ].I.p.@Xp * S S M xXfXu.s.$Xr T R Q W [.>.# C 2 (.$Xq...R.eXi 5.s.l :.j j X.q.ZXA @ A 4X2 5.iX4.4.iXd.U.# d.aX' zX6.X.[.;.M 5 k U.M i ~ o.Z.A.j Q.E.J HXC !.x x ].[.x _ d.x.m.zX5 { N.*., _ gX9XtXx.d.(.).r 6X[.z v s 4 |.@X4._ _ 4.pX@. X2 E.n @  X'.Z.' BX>X, X q =XV @ K.tXa.Z.N.| R.E | gX].e * m G.$X~ - KXJ BXpXpX| i.'.5XY 5 `.:.NXNXl V * S &Xb %X= 9 xX0X> + e ]...|.{.i M Y.o 7 : @ 4 {.E.* s (.] 5 4X5X& I KX@ [ O.kX* a BX:X3 s a x @X~.+ :XAXC V ( t -.).y b -.W o.+.sXfX",
"C.x 4.5.k.6.t.m @ U U 3 NX_ 3 U B = CXf.f.,.M.yXv.yXsXp.l {.!.,X-.T +.k.OX} +.5.0.$Xe e @X2.6Xx j  X_ pXcXu.4 5 + U.`.R.* ).|.g 5.pXgXE @ @ 2 ~ &Xb gX9Xu ' H F #.F.r / 2 v :.e A.%.{ #.j 9.pXdX5.5. .].t.4 e a M.xXH.'.LX{.A.`.E.&X& * E zX`.; S : ~.wXR.t 1 T.q.8.| x.sXsX%.2 {.@ Y.~.gXOX[.] f o C / M !.AXnXV.zX XF Z @ + C BX+.2 [ lX@.| j _ VXR.< 7 Z V E.^.nXp 4 @.v.9XjX@.$.A.@ @ + ^.> V b *.eX_ ' V.V.;.x ..v + * @ f R. Xn o o ZXR.~ T./ > [ p.oX7.B.oXm.4.' c pXpXj.x C.[ a H.O.F.} 2.h.9X0X].1 -.a.x.lXrX  < T k.l.C.5 X X ~.].U.# . o U.; X.r.>XQ ;. Xl a wXaXvXwX%X; a.yXyXaXp ! 0.z.z.F.* @ # eXlX| T ! W `.` B.zX} 5.kXY.X ;XNX$.O.0Xg.dXiX*.@ A...K # %.lXz &.2 w.B.g g C.6.' ' x dXjX' >.W.LX&Xn BXu i.zX`.< B.OXW ].{.@ 1 r  .c.xXf.D wX[.p.sX9Xg.lXF o ,.xXA.5 * &XY.R.E ' VXlXO.n.gXl ] o.^ T.e 2 zXkXF 0 o H Q.4 * |.K.g.OX[ + V V {.xXfXp #.kXR g Q T ! BX[ @ 9 h ].G.8.O.gXL._ u.a.l  XQ j 6.].KXV + V %X< +.pXu.@.pX[.9 i cXyXf.zX`...F.`.U.2 k 4 !.v g |.`.>.Q Q.A 3XE.s T.p E @X@Xx ' D.p.n.pXx.b.lX'.= a.pX0XpXK.| {.M ] BXN.c ; 5 e [.@X' $.,.4.I.' R.- ( q o BXkX~.BXBX>XH X n 0 C 2 p.sXCX,.A._ k v ' gXZ.e n - X.$X_.s &X&XVXtXoXp.h >XPXN *.Z. X>XkXp C V 7 S &X&XB i jXhX, + = !.- (.6X3 c R.2 b m ; 4 6XC = 1XNX(.v 3XP O P U = [.O.VX; u NXZXW.= {.+.kXY.o bXbXb m ^ k -.^ r y ~ 1 g H.dXfX",
"B.3.l.3.z.3.j 2Xb @ Y K }.' M &X% 3 CX,.@.K.sXuXx.x.sXj.F.(.@ Q.:.W } k.D.2.} s.h.G.u ; #X} #.>Xp R.z pXjXV.W @ * >XU.M u 2XC @ a.pXjX' @ % ; ;XV C kXi pXlXv M B.k.g ~ * R.|.2 gX@.O.].t  .aXyX5.z.R e.e.R s i f.cXS.SX>X&.nX*XU B 8 ; ' lX>.; P * <.kX1Xy r -.| D.3.n.uXxX>.* - T.^., 0XpX .' ;.|.^ m C A 4X*XkXpXzXc 4X: ; {.`...5 c lXO.#.h _ NXa b 7 Z =Xb <X3 x u _ K.yXaXV.Z...i @ o ^.i o v  X%.<.5 { A.T.a `.d + + # v  X^., X w ZXM R.2X4 * [ d.pXoXc.tXv.i.x { gXH.L.} (.&.+ ' { zX}  .3.sXyXh C.B.O.dXhXH w Q.j 5.n.J.E o   D NX~., . q :X4 e (.U.i >. Xl &.AXSXCXhXs @ N.pXsXp.e t.9.+Xj.@X- @ $ nXxX5.T ! R e.C.lXlXR H.VXf *X^.*.>.%.lX' dXaXw.e @X`.n 0 z kXd 9 x gX[.5 _ '.B.' ..c b.cXO.}.A HX4XY.BXu j.pXkX< | G.| #Xa + < k 6.p.aXM.,.lXl ' vXuXf.'.9 # ' lXgX5 7 J ,XT.a >.SX{.' gXgX' x -.Q _.C * (.`.; = + n !.r @ `.gXM.@.;.+ N m {.xXsX4 o.@X} g Q Q ^ >XR.d D @.P.+.p.5.jXO.D gX7.c  XE j 3.[.,XZ : 7 ( p O.zXP.O.[. X= NXlXiXpXZ.c R.;.;.(.a h h &.`.x >X~.z p s HX3Xb 4 R.p @.OX@X` W G.D.J.tXiXI.,.eX_ 0XtX0XkXz v U.v `.kXO._ z kXc G.F.E OXP.| [.c T.4 U.E.@ zXBXbX4Xp >X{.+ H n Q.a p.sXwX' `.5 ; u x kX`.5 *X@ g $X#Xp N =X[.dXK.w.Y.KXP : [.D.%...NXp / b N 7 / ;X4X^.hXjX9 % : ; * R. X..O.C.2Xe v v u ZX* H ZX:.].] A B & A 3  Xn.n.VX2 u eXbXZX> {.` `.M o 4X=Xy r -.Q g / k v s < * [.vXuX",
"G.k.h.5.l.F.e &.-X< 8 =X^.G C &X% n CXf.D hXyXuXv.j.c.j.F.e + / C.s.` 0.+X9.} 5.5.P.U.2 `.#.c 5 C n [ CXwX%.(.h ` `.6 C >XY.+ > w..XsX@.@ @ 7 -X: W.[.b.CXb.v a C. .x Q - {.BXe x.hX` ].4 #.jX9X+.OXr.].B.C.e u p.cXSXAX|.] Y.mX&X& 8 b f.xX`.2 P * <.kX;X6 k q.Z.d.` m.dXsX>.+ M 2XX , 0XpXi.} 4.| r k ( Z FXq Z.pXjX@.W.A a kXZ._ a ;.zXE ..E x ].5 C V A 7X7 > o {.e l b.yXsXK.kX] {.6 X n 3 3 NXA.' NX3 _ NXU.2 kXD + # @ &.>Xa q X =XAXM 5 Q.* @ D b.v.j.j.v.sXs.x @.[.[.].W -.!.3 hXhXlXE } 2.yXyX5.J.@.sXpX{ + =X!.R J.c.j.6.+ X 0 NX[.z + nXNXp < U.M &.'.$.&.F AXF qXVXF s $.oXpXi.x C.+Xh.j.zXe @ o bXCX3.T X.T } #.x lX` ' Y.LXmX= eXz N.lX' v.iXZ.r.kXz = V @ <.f + _ lX`.z '.Z.V.| ' ` O.CXV.R.B JX4XH nXp h..XlXe R w.G.w.; + @ U.B.p.pX9XdXH.> D xXuXK.>., , <.gXzXa b b ZXR.5 1XZXi N.[.kXO.E t.] T.%X@ j e + b , s !.M 4  XgXM.| `.; : b (.cXpX' y.P.F.g v ~ ~ T.M `.'.[.5.4.@.@.xX{ D [.c $. XE R s.$XU.V 8 : %X~ ' L.C.R. XR.>.eXzXzX[.'.Y.!.] (.Q ] =.*.[ ] ;.NXF f 5 C KXN 2 4 {.5 @.OXgXW x $X[.L.m.tX@.O.[.O.9X9XzX`.@ !.&.{.kXL.$.O.wXVXc Z.F.W | gXc :.f < e 2XU.* zX[.H = -  X X> f E.M p @.cXi >.*.a 6 ; p #X`.3 :X= g -.#X-.Z q L.sX' *.KX3Xo Z NXZ...~.`.a &.< 6 : y M C ZXhXhX3 @ 8 + u |.c ;.@X7.-.e ;.`.] &.@ M :Xc C.q.m : 8 7 u kXn.iXlX3 5 kX:XZXd *.[ |.n K HXB y j X.t.g 1 Q k m e 2 zXsXc.",
"J.k.5.h.5.F.] e _.g + K mXK Z A + 0 CX9X@ zXqX9XXXj.j.J.C.* - &.Z.s. .9.+X0. .5.i.D.R.* p v ; {.&XB n AXl R.T.h #Xp ; ;X!.= $ = w.c.sXb.* @ V V @ H *.' cXoX;.[ r.] Q ~ e  XNXu .X.Xl (.e :.lX9Xj.F.-.:.B.kXe g u.hXBX!.>. XZX<XFXN + h pXcX>.* A @ %.[.m < Q w.L.H.` c.dXjX&.+ !.@ X , VXsXn.+X3.} } &.S FX5X; $.dXdXiXu M _ L.gX' ..Q a _ ;.E x ] &.s C b -X: 7 + !.2 l jXx.aXgXBX{.!.n o A 3 Y. XD %.VX| NX1Xm ; VXD o $ # {.&.2 n @ ZX!.b ; + ; 2 A.pXm.n.c.yXxXP.e 4.a.'.g W ! |.5 aXxXZ.u !  .tXuXp.u.dXdXm.a.U.ZXt W l.x.h.].> X # eXgX@.{ VX@Xj < v *.`.K.J.D ;X^.# aXaXD l B.x.XXXX+.k.h.3.5.B.j u   bXA.g ! ! ! R &.@ [.{ X =XPXo i hXf.oXxX| @.OX;.(.|.+ + V l NX+ 0 V.lXv F _ H.pX@.| ' x zXlX>.A HX5X!. Xu z.c.jXE * ~ |.x M + + ).C.i.dXtXpX{ z , 0XsXpX%.q = ..I.I.l m 2 2X-Xb PX6 m ..A.eXi x t.] R.s e 6X- s W.@ 0 {.] ..[.pXg.c kXs * y U.zX' k.3.l.[.a E.U.k Q.- Q NX[.@.iXO.p.cXD %.V.c `.`.] E k.P.p !.q * ( a >.'.9 !.U.3 `.'.VXBX*.~ Y.R.R.`.a &.[ R.M e ' BXv f {.1XZ @ - v `.l 4.oX@XW R `.nXz O.m.i.l.k.u.sXaX[.*.@ &.:.#XgXd.N.[.lXf.3 NXC.+.g #Xe Y.6 4 Q >Xk 5 zXP.5 + -  X[.a z {.k l { gXu ].:.&.C b c ].].9 :X@ 1 ^ G.#X=X= D.pXu %XHX8 @ ;XZXZXY.v &.] {.p ~ ~ < ( + H BXL.* : 8 @ R.:.e B.J.OXg r | gX].a + ^.>Xl e.t.&.< % N Y.BXk.pXVX3 9  XVX1.%.C.c R.=X=X3X+ m T W (.r ( 7XM u 4 c VXpXj.",
"z.k.5. . .| R.p y.T @ A 4X4X5X8 @ Y.CXM.+ <.0XyXx.5.j.5. X; 5 ;X'.wX+.9.z.k.! 5.i.H.!.* @ @ + mXZ 8 K H ; |.M - `.E ~ -XC , % 8 r.j.dXpXe @ V : n M D X ' iXD.].`.x T.k p  X'._ jXx._ T.;X&.L.iXi.C.u &.B.| e l  XNX*.^.*.SXIX!.U HX= c sXcXc - S - *.c M < -.w.@.I.p.c.yXjXl + M + $ O D 0XoX .5.3.G.o.6 5XP * { iXuXsXh h S.b.hXu.[ < 3 l ....x Q R.e C A &X: S @ M a ' lXf.lX[.[ ,X%XC + &XA v i { ,.zXBX`.!.b * VX%.X o F :.Q p M *XAX:X7 8 A + D kXm.9Xu.K.yXdXa.l L.O._ -.t.R ].a M.xX*.a o. .v.dXO.aXsXv.d.>.LX!.r R l.m.c.@XM X X '.hXx.u.lXD.W 2 u >.gXiXx.' BX~.z aXaXi c zXp.XXXXm.h.XX2.@XR g h X *.' F.R ! W R U.3 l [ K PXB   1.M.m.cXjXO.' I.' h &.  + B D NX+ 0 lXd.F , @.pXsXi.` | ` L.CXc A FXA <X[.u n.p.jX4.* Q.R.4 :X+ @ kXB.i.c.tXK._ *.X S.g.jX<.= 7 9 Z.lX$.U.- / %XKX4Xo U.[ '. X*.Q :.[ R.l &.6X@ 4 J + # ~.#.`.| iXx.i BXR.+ y ~ [.i 7.3.b.[.3 =X/ g Q.k * {.|.| n.x.@.CXD >.7.x { >...W OX+.p {./ * U.4 :.>X@ &Xn >X`.NX XnX{.u M *.x -.p &.z *.Q.5 x lXF n IX!.@ ; M {.;.a j.oXP.g a `.}.z gXiXz.5.| n.dX0X}.R.] *.w.[.H._ I.lXCX{ {.>X;.6.1 `.4 M 6 2 Q ].v ; pXl.a 2 h F.@X{ 3 >X~ v &.}.c `.].x U.W.R... X5 ^.@ - ^ ].=.= 3 P.gX@ 3XY $ = ZXmXLXs M Y.&.>Xe j _.t C ; f BX' 2 8 $ * >Xc O.D.b.zXg k 7.@X Xl @ bXBX>.[.X.o.r @ 8 ;X:.| OXlX9 =  XVXlXb.I.p {.&X5XU + / R R  Xr Q.s F m - c CX4.s.",
"z.h.9.T } #.[ l 2.y.* H q HXY % = ~.lX@.+ D aXaXd.O.k.i.gXD M 3 D VX7.2.+X+X! 3.i.L.!.* n @ X q q &XB Z M >Xk @ c #X).M !., O 8 >.p.yXhX&.* ; 6 ;X> '.i 5 pXs.P.X.j Q.e } D.D wXhXb.[ Y.%X- F.s.$.`., R.VXk.;.&.ZX^.&.}.AXLXBXM $ U ,X~.vXvX..r 6 b !.2 U.< r.].O.a.f.m.tXjX9 + C @ O O 0 [.gX . .5.3.q.m 7 7 < i [.sXsXE 4 [.0XdX.X` 4 >.a _ #.x Q < @ Z A P : b @ v c d.pX1.kXz x E.=Xb A &X, 9 D wXd.kXc x ).6 = eX1.X f `.} o.2.'.AX X{.Q.; C Y.H.v.tXiXK.K.sX9XkXD O.@.w.].6.! C._ g.CX}.i Q } m.uXx.sXpXp.c !.ZXM R  .i.x.c.OXR.+   F jXtXd.[.'.`.2 * Z.pXm.x.gXV.>.z aXaX{  XjXi.i.oX.Xn.oX .|.p T h i S.hXgXR ! } >.1X# i f n 4XA o gXdXH.gXx ' ' OXb._ `.w B U i AX@ + { '., d pXXX.Xi.| | W O.SXa f ,X= %X'.| +X5.hXL.* -Xs 2 AX2 a cX@.s.n..Xv.{ *.o '.,.CXD @ V q U.~.d F * 7 &XPXZ o m l '.kX>.2XT.` C.;. X#XW e n = o <.V.C.` oXm.i BXeX* t k wX@.@.O.'.nX# 5Xb y -.-.* C (.' oXx.f.zX_ %.C.| `.].` #.P.@.p Q U.- ] `.z *X* C R.6X`.c `. X{.e :.#.4 j x R.*.R.R.5 O.gXc ,XZX+ # @ u r.N.x XXoX].r M &.{ I.pXn.oX5.i.m.v.I.bXM |.F.C.kX' ' 9XcX%.}./.>X@.B.j k k s : ; =.C.=.e gX5.l ..@XOX@X_ i eXx a W.PX&.].#X#.k Q.(.a kX5 n @ @ / U.- + > D.L.* 5X& & q ZXZXmXv :XF 2X{.< ;.t.-.T p ;.@X7.T.b 8 * ;Xc [.p.p.@Xe v `.$.L.%., AX<XAX Xq.q.T y m m @ x OXlX9 * '.lXpXx.@X:.M , 3Xo 6 _.T ] |.~ / e &.M 2 ,.lX< `.",
"h.OX .r } C.d ;.! 2.- Y., &XI % 2  XgXl o ~.0XaXV._ i.J.m.I.U.# + d D.} h.OX! 6.4.[.!.* U.#   % 8 U FX5XU.;Xb u z >X&.a *X+ FXB =.n.dXsX(.4 2 !.>X2 lXO.D zXs.F.! j ).!.q.s.{ S.pXzX X>Xs @ =._ `.SX:X^.A.E :.;X4X0 *.SXAXH >X9 % % A NXvXvXx m t ( T.k U.~ `.F.| | d.gXv.jXb + %Xo   K ZXNXgXn. .k.8.R ~ m b 4 ; %.jXjX].- <.zXhXl.6.r.#Xx ` ;.R =.@ * &XV P : -Xp c $.gXp.1.eXN.] V &X%X4X7 Z 9 kXS.[.*.l ..T.* 0 `.# , '.` P.9.C.SXSX:.(.M / @ A.iXyXyXpXd.@.m.m.[.l z N.| [.6.} #.V.f.,.v = j E M.uXtXaXv.O.i ,Xb T.o.9.k..Xc.oX[.>   i xXyXD.E A.NX5 ; d.pXm.pXpXpXO.V.cXaXa.[.aXp. .l.n..XOX| =.h ] ] $.b.jXiX} W a.SX^.X 9 U.o q Y.3 aXsXO.a ' 7.7.+..XoX X9 N &Xi F q q :X~.,  Xn.c.n.L.` ..} | BXi *.2X; C  XhXz.5.aXgX< Q.2 s bX@ x.pX@.| 3..XiXH.Y.# Y.VXkXD o A A 3 d d F =XB N E.E.; * p Z.lXD ~ 1Xx Z.w.F.5.7.v !.@ + kXH.C.` .XiX9 eXzXu < M gXaXO.$.>.Y.&X&X- ^ ! |.t < ;.gXiXb.d.D c O.w.6.BX[.` | zX' x R.).e x |.a Q.6 n :.B.:.< >X>X&.u N.w.p &.R ].l Y.d l K.@X&.mX0 + J + &.#.7.' c..X6.e M 2 d.hX,.b.z.z.j.j.d.SXmX3 [.5.r.`.E | oXhX# LXnXeX@.8.T y s b : ; :.C...j OX5.j X.J.n.J.+.{ '.c M *XLX5 r.P.e.e Q.(.5 BXz , o b &Xy * @ u [.w.b P & & A mXZX;X:X;X9 ZX{.* q.q.q.! t.`.lXO.&.* C * ; _ OXm.p.C.e / SXNXA.i '.AXmXLX).|.2.! ^ ^ - ~ G.J.lXd + A.xXx.x.OX`.2 Z U o !.].j (.~ m ^ |.l a v  X$.- {.",
"j.J.W j  .P.z >.X.g p T.b &X8 @ &.zXpX_ o Y.wXpX%.' D.OXx.zXi 0 [ i k. .h.@XT 6.u.[.!.- s n   & 8 HXU N 5X=X7 6 *X!.4 R.!.# UX, `.@.tXhX|.< d  XgXW @.f.S.kXZ.W ! o.&.U.(.B.pXM.iXb.a.`.u * 4 h BXR.3 U.F X 5 ZXs Y.nXnXd Y.M 6 & 8 + eXvXxXh 4 1 m g _.Q.T.|.E  .k.V.gXv.gX4X8 b H <XbX^.`.D.oX9.G.@Xx T.m m t ; ' gXzX>X* ..[.{ ' $X ...h _ :.R -.< =X%XS A 8 (.C.' V.zXO.{ eXzXX.b 8 -X< 8 K 9 lX'.AX*.{.R.~ @ M eX= V.V.R ].2.y.ZX^.=.=.-.:.>.[.p.sXdX9X' O.j.b.J.l d  XS.[...E _ gX,.f = &X,X&.p.dX.XpXj.' !.J o ).q.e.h.n.n.n.gXl X f hXdXgXh ' BXM - O.jXhXK.x.pX' L.jXf.,.g.iXp.E 3.j.iXjX` l M 5 :.O.u.yXdX .W L.kXf + = !., #  Xl jXpXc ' zX5.G.} x.iX[.F # V H o 4XUXKXb Y.'.gX5.' NX....| #.c > *.).V 7  Xi.z.i.yXhXe / * Y.0 , xXv.V.E 5.z.XXgXn o AXnXi n o 7 A ; kX{ bXUXA * v (.H + 3 A.hX,.M 2X-.`.B.+.x.P.h f @ [ zXi.B.W j.oXi rXlXl - E.wXtX5.O.$.D &XP 1 ( ^ |.k 4 oXdXM.K.O.O.l ..} e.BXN.' +.gX_ l v R.E h &.e !.Z M D.gX#.< {.BXR.u a.w.4 ).W P.E _ i [ gX[.n &X+ M J + ).o.D.O.XX.X] e x l hXv.x.x.P.8.s.d.'.IXM v $X .{.M h X.#X3 K IX'.L.4.B./ 6 7 * 8 b &.|.t.j G.8.x ;.@Xl.P.+.O.VX`.&.mXmXu W OX8.R R.).; `.v > @ Z 8 8 + < R.C.;.A 8 & % P KXmX%XKX, =  X|.- } e.2.o.Q :.lX` l * C e 3 ~.P.m.l.O.< E.E.H z D SXZXPXFXV M :.X.^ g ~ ).P.n.jX_ * `.jXx.x.i.].Q =X, =  Xt.j {.p ~ Q #XO.;.=.{.u M {.",
"j.J.E g 2.@Xc '.r.1 ..Q E.Z @ q `.d.pXgX0 = @.0X`.r.' J.v.xXd d eXL.5.} h.@Xp :.u.@X/ - p H N O 5X5Xo U A FX8 : 4X3 4  XY.*XUXH '.O.x.P.NX&.l V.D.5.a wXz nX&.1 2.q.p M l ].lX0XJ.s.N...s + 3 :XBXi ; H f @ mXJ 5 `.~.`._ NXM * $ + = VXvXaXv %Xt k j ].T.~ `.t 6.8.a.hXM.0X^.mXU.bXZXi ^.a k.n.5. . X&.v / m y 2 { gXV.&.2 c >.9 <.zX9.W a E :.W &.%XA m m S 1 ] | | I.gX{ 9 kXzXt.V @ / / Z = i BXbXbXD NX:.j @ v CXM.pX' h $X9.X./ * [ N.`.u '.gX_ jXM.9XOXO.` @XF.l d >.<.V.| #.a.d.wX[ + GX4XM $.pXH.4.u.#.mX7 9 &.o. .| n.n.+XiXd.9 D 0XdXgXE _ BXR.* c lXlX@.@.' a.L.f.g.d.O.pXk.E } pXsXpX_ * !.U.&.'.d.x.sX| W wXrX:X= * / s = [.iXsX.XE ].H.5.6. .x.jXgX[ 1XA q 6 H 4XIXAX{.A.[.7.g R.:...' w.c c  XT.Z 7 R.| OX3.yXjXh e * 3 o 0 zXm.A.E h.j.oX[.o *XZX*.# q @ 8 E.< [.N.LXUX&X* g |.Y.= ; N.hXp.`.v 2XR.@X| tXjXl 5 i kXgXs.W R l.b.z kXcXO.@ U.I.tXi.B.c &.7 S 1 Q.p (...F.jXtXiXf.$.O.x `.R r.#Xs.' 3.gX,.l a ] ..l a 5 U.C R.K.iX#.- U.<XR.c D.#.< k C.G.e.p 9 <.$.|.C ; u ;X6 @ (.B.L.@.XXoXE 4 h [.gXp.iX@.e.e 5.d.AXIX# U.].r.mX3 Q _.{.+ LXLXkXpX4.B.k : * 6 V b a |.(.R 9.B.W `.[.5.k.P.hXS.` R.PX<Xk R s.5.! X.:.u a ~ ; B @ U N o r (.| `.S & N 8 7 KX3X&XHX@ = `.r.e j $X! y.p x lX| x e u U.5 }.I.b.J.$.2 ;Xb H d NXVXLXPX5X@ - W 6.o.r r (.| J.hXa.c [ gXv.j.i.OX-.C * l kXq.Q ;Xu Q.Q H.p.A.&.v i i *X",
"h.D.] r } gXl [.[.p G.R T.6 * Y.`.i yXiX`.o 0 zX X(.4 F.oXpXO.' | gXG.W i.gX4 ..p.gXT.1 M > B P 4X7 7 4XU 5X3X&X&X> _ [.~.bXAXNXH.b.| kX!.ZXnX`.C.` u.[./.LX6 - ].] 2 6 ~ p ]. X' ].c v e u *XW.AXF 2 2 , ZX4X@ [ V.C.@.d.VXx @ y 9 9 cXfXaX&.- 4 Q R C.-.x (.1 q.C.O.I.d.d.CXBXl R.:.R.n > +.z.z.} ).s T.( y m v <.,.lXR.M R.&.l NX@Xz.r.g h ;.} -.Q.; T.^ y t R e.p.iXL.a = VX$.x E.@ m Q.A o 3 mXmX, S.jXG.T - [ jXjXD.g j $X2.-.C * ;.I.N.u [.` { jXg.aXH.3.B.eX{.> i ~.BX,.| lX[.,.lXBX%X7 ; l O.gX] p 7.w.b + U.l 6.3.O. .i.c.tXi.V.L.g.sXdX3.O.[.`.2 z VXlXO.a.c '.F.,.M.a.O.K.l.3.} h.sXjXl X =X=X. `.s.v.aX| ' rXrXBX4 - M f > m.dXXXk.R [.K.@.6.W b.sXgXl T.C 2 U.a `.9 AXZX~.[.| u < k -.;.].| gXzX`.A : ] zXpX+.tXjX..- + # X 3 zXiX;.p } z.c.wX/.LX{.a @ ^.q @ !.u _ eX=XIX8 ; r &.Y.> 5 A.gXu.].E Q.2XP.5.yXjX_ ; [.zX[.{ h ` 7.Z.{ eXxXg.3 M I.jXd.].v 3 Z N 1 Q.e -.OXjXH.` zXu.[.c ' :.Q =.B.s. .l.K.V.`.>XC.E c >Xs E.5 &.pXpX] 4 V mX`.@.a.;.6 6 ` @X6.x 9 rX_ R.s < :.(.= 3 #X3.A._ iXK.h 4 u kXN.' L.4.w. ..XwXUXJXo !.:.BXE.; ] t.g C UXJ zXyXc.P.e b 5 M !.a l  Xq.W 2.G.R (.].|  .OX0XwX>.}.LX*XQ j 3.8. .} #.[ < M ; 7 q &X+ o k $X| |.6 8 E.* s ZXq J 4X0 > }.].p } $Xo.`.M ; @Xn. .q.e T.l F.K.u.u.$.2 NX{.z g.CXbXKXHXU * Q.].6.q.g t Q E '.kXN.a =.gXg.H.4.J.C.s M N.gXt.~ C 6 !.E l.J.`.u M ;X= Y.",
"j.OX] * h #Xc [.zXi.e.W ~ e p |. Xz M.aXkXl 9 VX|.R.; %.pXc.b.d.' z.OXW j.gX< #.c.jX;.- U.> o HXV b * V &XA JX3X$ ; A.H.NXSXlXI.a.' p.VXU.6 ZXZX`.O.iXwX!.<X: < ].r.b * R.W p -.v R.; s M W.= %XZX!.C @ bXZX# > %.I.#XW ' %.-.p ~ c ' cXsXiX] < r Q ! t.Q r T.4 -.6.i.f.wXeXVX%.* :.`.{.o = w.k.J.` Q.,X).~ m m u D { zX X< &.!.U.NXOX+X8.x ....-.v ; m -.^ k k g ` m.iX..3 9 CX`.M &X* r T.b o o =XB = xXfXl.R r $.aXx.r.< | @X2.-.m * a.oX%.>.NXl O.hX9XsX3.#.|  Xs @ &.}.D d k.gXd D VXBXC ; s c $.kXu ~ 7.;.+ @ n e F.5.3.|  .z.pXp.* 4.sXsXyXc.g.,.A.3 {.NXgX' ,.z [ _ m.m._ @.wXd.l. .W oXjXz X mX% . _ _ g.hX6.W '.VX:.@ * M d { sXyXu.J.x 6.zXi.2.W i.m.gX| >.v * U.x Z.' `.}.R.w.NX;X; 5 U.|.O.z.pXpX].&X7 l lXl.' v.cX`.; o % X 0 xXtXw.E W l.K.wXSXbXF 9 i  Xs o R.W d /.LXU n m 1 m }.5 5 R.wXg.D.` l {.@X3.yXjXc a gXhXc h Q -.#.[.' wXvXM.a &.N.f.D NXs : I 8 - !.v ;.jXgXx h N.[.gXa %.' Q R.7.H.| J.K.' l `.kX@._ [ C 6 e ' hXiX#./ 7 4X{.`.$.:.6 * < F.G.W 3 VXa T.< &.C...+ i A.+.p u J.s.a 2 l kX9 [ SXkX:.C.j.wXPXY @ W.^.:X* 2 _.q.Y.mXJXw 0XuXj.D.e C M *.NXa h #X6.} 2.G.W (.C.O.x J.0XgX%.:XZX*X~ j 7.a.9.} c A.* u * @ &X6 + @ g t.#.`.* V C + R.:X+ J =Xw F  X(.x X.;.R |.m * s.OX} } j v #.@XOX@.4.' u  XkX_ cXwX:XPX5XB - ).e.3.6.R Q &.< {.NXd p r.gXH.V.l J.G.&.u B.gX(.* A , T.] 7.F.R.; ;XR.a ~.",
"i.OX} e !.}.l I.jX.X0.! ~ M -.|.].,.f.pXpXi.0 VXF Y.> i pXx.' d.p.h.@XW p.gX* [ j.sX[.1 v 0 B 4Xs / + % Y Y FXFXB = [.M.hXxXpXpXV._ d.kX9 X B W.`.V.xX_ D 4X8 - :.R.: : [ @Xx 4 -X- b E.7 = 6 &XY.U.;X2 4Xw # '.,.OXp a '.a h ~ ~ ..M.vXyXc.@X} g ..! t.U.m ~ 4 } 5.iX0X{ nXmXs ; `.[.'.,   [ ].F...ZXE...-.y ( - 9 d.K.].1 4 E.E.`.G.+Xz.k.r.-.Q.; > M Q g C ( k E hX0XR.= i CX X~ 7 7 t / U.+ A 3X+ b xXuXc.} ` b.yXM.&.@ s.n.9.o.m - H.pXZ. X>Xc <.0XfXyX+.=.`.*.M M >.wXf.,.OX6.* 9 BX9 - 4 &.NXW  X2 a r.W o 8 > 4 [.5. .7.g a.iXpX; ` O.jXdXtX9X,.$.`. X$.zX' $.d 9 d I.iX@.Z.wX@.pX5.p 6.[.z Y.IX# # VX| { gXw.x wXCXi + - 2 ' cXpXXXu.OXj ' lX4. .} p.p.hX| ].l 2 Y.2 {.>XG { '.$. XZXn 2 !.|.c oXxXb.'.=X7 e [.u.i.p.jX].; # O   D jXXX .w. .e.[.VXlX[.9 # [  X|.* ' ;.9 mX<X3 SXZ.1 r T.v 4 =.lXd.7.X.h ' P.l.j.zXT.R.@.lX2 h h ] .. X9 S.sXsXl v 3 = <.~.C + N 8 4 C.i.pXlX' 4 p a [.[._ L.c l M $.J. .OXJ.' c $.gXd.$.a 9 u |.zXdX9Xl.`.b &XW.U.~.*.e < E  X[.| i BX5 p x w.F.c + R.[.a.h g G.e.h > a eXnXBX/.v ~ ` @.wXAXq @ =XmXq @ M t.] !.4XHXW.gX9XXXD.- s u [ [.O.l @Xs.2.} G.t.(.#.8.R pXu.I.*.:XKX=X!.R $.4.s. .a eX; e * ; b = C @ 1 -.].l 4 E.b @ |.NX@ W.=Xi 9  X;.W W $X- Q.U.- ` $Xx ] :.j ` L.I.i.[.h p zXjXO.hX XmXHXB N < T.C.8.9.} t.T.+ E.ZXG c F.OX0X<.2 @Xs.`.p < #X] f 4X+ !.] -.|.W.* Y.[ [.S.",
"j.OXW ~ 1X9 2 @XdXXX0.! r -.] ].]._ 1.wXn.J.%.}.2 1Xs > zX.Xz I.K.p.F.' j.gX; [ c.dXgXp a 6 3XZ M U.@ + B PXI Y 5X3 I.v.fXaXsXO.> _ a.kXi o # # c I.CXg.e ;X6 * Q :.A 1 x CXNXg V @ A q @ 7 J 9 3 M U.H A + '.0Xu.oXx * E R.e 4 p >.aXvXpX' n.3.x } ! ].T.;X;X< ' b.yXjX`.ZXZ 7 * '.H.[.H   2 ;.=.NX,Xe ].X.g / 2 F zXu.@Xr 1 C U.-.k.XXXXz.` T.V + F *.Q T S ( &._ jXL.,Xo ,.CX%.M + > t ).-X+ A A @ U.jXuXiX| 5.pX.XgX2 * P.j.5.W v < L.gXB. X>.d '.jXuXtXh h  X3 !.{.eXg.xXb.i.].i 9 VXz e k p ] 4 |.4 p `...o J 9 5 @X5.3.F.h $.iXoXu (.E OXjX9XyXu.A.BX[ %.lX_ `.d z A.L.gX[.[.[.a.sXoXg x ;.~.ZX<X, n SX' f.,...] VXlXl n : * S.cX0XO.| gXh ..zXc 6.} J.u.J. .F.h 2 Q.* *.W.n z gXO. XmXC C ;XY.>._ lXa.{.A @ s :.[.pXf.jX X2 # O . *.jXXX3.F.e._ AX}.S.<.n o [ ].{.; @.A.W.KXX }.lX} 1 m Q e j :.eXz `...l _ B.k.5.| ZXU.H.hX> M e ] %.].@ S.sXsX_ u 3 ^.SX&.6 + N : Q l.XXsXa.< M p l [.K.g.lXd 9 = $.n.3.z.n.5.c O.hXM.V._ 5 R.{ I.sXyX@.`.C Z 4XLXPX}.s * l  XF. .9 :Xs p ] 7.L.u >XNXN.B.w.W G.7.h @ >.SXBXY.:X> p ;.@.zXbX# + KX5XU @ U.t.=.mXHXKXW.S.aXm.P.>.v v D [.d.O.@X5.5.} ].].:.E F.5.gX_ [.Y.bXPXJ C T.` V.s.+._ VXa s ; C 6 2 R.4 t k {.p g U.> * ].kX> Y.W.o l kX..` j |.p 4 M + p :.g Q ;.W | a.[.` [.c O.hXsXp.' z PX3XN 8 t ^ t. .0.3.:.v = b LXn l @Xu.K.D 3 P.OXP.E * R.Y.ZX&XX M ~ p !.%Xo 9 A.zXf.",
"XXJ.] s H o > A.n.XXG.R < :.W 8.P.` d { L.L.{.5 i BXM + ,.gXi zXjX| c ' p.J.* l m.sXjXZ.9 B 4Xb &.=.u + HXFXO B 3XH 0XyXuXsXlX> o v ,.zXF   M d | lXVXSX[.(.1 r =.x T.4 c lX].R.b Z E.; @ s T.u v 3 ;XQ.@ <.VX,.9XpX@XR 5 a Q &.; D cXfXgXx c #Xx X.! C.Y.%X;Xp ].pXaXhXnX4X( 4 = ~.lX[.~.X i &.C KXM :.].o.^ r &.BXd.' [.R r / !.;.l..Xh.+X(.k @ + ~.A.! g m M r.O.jXzX=Xo rX1.`.u @ v T T.U.b P % 6 >XpXfXpXO.p.pXzXO.@ i gXj.9.o.h 9 VXkX' [.O.,.{ cXtXOXh 3 :X:X:X>.wXzXlX,.O.>.[ 9 lXO.x :.4 M Q R.4 Q #.w.a 2Xv h P.+.+.gX[ _ n.jX< ] } k.sXuXuXb.}.v _ F.lXO. Xz %.L.b.f.O. X[.H.sXJ.g m &.BX= :X3 M >Xo ,.wXR.&.[.BXkX2 * @ hXvXS.5 p.gXg C.A.h 8.2.n.h. .| C.x u m u !.=X, { wXS.nX&XA ,X/ H IX9 `.i {.q @ 2 {. XwX@.jXkX3 X X   Y.jXXX3.D.w.R.LX$ G D w X c `.v 4 >.<.IXK { lX[.u 1 t ~ 1 ^ ] eX0 &.&.BX'...e.B.(.,X* cX0X* U.M -. X>.* wXxXaXZ.v 3 ^.AXv q 8 N : [ c.yXiX_ R.).; ' jXx.pXaXD = 9 S.m.3.z.h.s.l ' dXdXV.a a.N.$.[.zXf.* }.&XU Z ZXZX}.k p :XNX[.+.3 }.a x F.L.%...NXa _ N.7.7.OXO.a `.CX'.# w 4XW.a #.O.zX~.# V KX5X3Xo ^.6.=.=XJX3X%XS.pXm.l.@X>.i , kX_ i.oXh.h. .$X..(.e r.OX.XO.'.<XU KX=X; 2 ] Z.d.O.@.lX_ a ; ;X2 k r.` 1 r U.g ` -.@ 6 kXOX' eXU.+ `.[...x j _.r s !.@ * R.`.h X.} 5.d. Xl `.` | pXsXsX_ i PXP B : y ^ 2.2.9.6.x 5 q &XmXX c C.' pXD I.pXj.n.e.* b ;XLXq o q k m -XJ @ '.zXwXD ",
"XXoX(.@ o , v ` @.n.].R p ].X.} G.} [ a <.`.;X@ >.nXW.@ z VX3 kXcX` x %.p.P.3 d 0XsXsXwXH 4XZ y ] W k ,XFX& + &X3X,X0XfXuXxX<.= X f S.lX`.d  X$.[.L.*.}.].G.e :.`.1 y.g l kX X4 A A b s + &.:.x `.2 1X* c CXf.{ x.pXOXW ;.] e {.M 9 xXsXV.x c #XW #.} F.M > E.U.`.z aXlX^.< E.4 = ^.lXI.'.3 D 1XHXZ &.r.;.p ~ g -.#XK.K.k.X.~ ~ ~ :.5.c.z.0.#Xh o 6 >.P.! T k g ` @.tXkXV + [ V.`.* i >X_.g ~ E.S : b >.iXdXsXu.tXpX#X; * <.K.x.9.} l d SX~.O.s.O.hX{ xXpXh.].f n ZX>X X XkXO.V.> z ].5 pXx.O.@Xe p v &.< ~ ;.Z.(.{.] ` B.5.O.[.=.a m.pXp =.!  .sXuXyXoX[ 2 ;.B.kX' '.' d.p.jXp._ | N.gXlX' p b E.9 @ ^.= J n o D VX&.!.*.'.VX> * > xXaX1.= iXpXg ].[ h 8.9.XX.X+.` e.j a s a U.n o `.zXeXU.A 5XE.y %X%Xo d 9 {.,X: ; ,X~.{ M.jXgX,     X ~.jXc.9.P.(.PX&XX G *.#   >.kX&.&.R.AXLXY.hXaXD + T.1 t k &.=.eX0 s ;XBX>.[ ..6.`.y > CXf.i 1XM a BX*.+ '.xXaXN.c 9 M &.a b S : 6 w..XsXO.W 1X;X9 g.dXg.jX0X{ # ^.gXx.5.z.5.P.u _ dXdXd.4.I.L.kX[.lXD z nXq U b ,X> F ~ < AXBXL.F.9 &.e ;.G.J.' `.`.5 a @X5.i.J.| kXNX[.d o H %X> !.=.@.lX~.n KXHXPXA + {.F.=.3XJXU b N.iXoXj.H.L., z S.d hXc.j.s.6.#.r `.< c gXu.c nXHXB LX&Xb < 2 [.d.@.p.lX| l * {.e ] 3.B.r k r h q.-.@ > Z.oXoXzX&.+ > '.` W j `.p &.{.5 + {.R.h W W 3.D.c 2  XW h gXyXxXV.F KXI N : k _.y. .| B.g @ <XPX=Xo c ` O.iX,.jX.Xj.K.].; b ZXmX# o 6 t m 4XV s kXhX{ i ",
"XXoXR.o X ~.[. .5.n.G.j E F.8.} 6.q.-.4 f bXY X  X X*X+ , nX> L.jXM.$.' 5.@Xx E M.fXfX0X!.PX+ Y.R Q C mX8 o f R.&X<XwXyXdXlX9 $   H <.S.lXI.f.B.6Xk 2 ^.| k.E [.].4 q.R h >X!.@ 5XB C Q.5 >.B.| ]. Xi , hXcXi A.O.zXP.' 4.].< R.~.{ ,.M.hX@.u.D.| +.} `.s o ,XE.M = VXeXT.- v U.0 bXhXpXI._ /.IX-Xe R.}.&.< -.x x C.gXoXk.8.` v b C w..Xh.h.OX6.o n >.F. .} W W W +.b.N.= @ ` @X7.` + :X{.1 ~ ( - b ;Xh b.dXsXv.9XlXQ * ' pXj.j.3. .j Y.ZX5 |.@.I.lX{ H.jXp.0XNX= A ZXnXbXY.d [.Y.~.].x p.pXsXpXr 4 x R.- / R.; (.t.x h C.3.O.$. X> p.jXR o.! W tXuXyXtXq.E #.| ].c [.,.g.g.vXuXb.+.' O.kX2 y 6 H # &XKX, = # + 0 BX{.U.s [ DXD = n CX0Xi @ lXtXh gX`.5 8.5.yXyX5.| 8.} x ~ ~ u o 0 eXeXH , Y 4X: b / g + &.z :X4X% 8 =X*.N.s.gXgX0 O . # kXjXv.2.].LXHX# +  X%.@ F I.gX<.Y.mXPX*.kXpXH.+ @ 1Xt t y :.:.^., mXC {. X..E 0.].p u CX,.[.`.2 C !.z + '.sXaXO.` D :X4 Q p e 2 R.d.pXoX3.h 1X=X9 hXaXf.[.A.[ @ *.I.c.h.h.l.F.a $.0XxXjXK.L.N.L.wXlX9 D nX0 =X8 =XM &.^ 1 {.nXI.a.5 g R k.n.oX_ ].].h | L.p.z.d.[.NXD ~.5 = W.W.= 2 &.{ lX>., PXHXHX, 3 ].Z.[ mXFX8 s  XzXH.K.b.b._ S._ d.sXv.h.k.`.l j ].4 e L.p.u bX3XY PXH 5 v < `.s.4.x.lX| l =  XO. .G.} Q M < &.|.v @ @ O..XpXzX*.o , '.;.} o.q.e R.|.h > >Xa k R  . .F.- ; =.' h zXsXyXpX%.=XN 8 y T e.e. .| F.[ ; PX&XH + -.W p.9XyXdXtXb.`.; - %XPX=X+ + 6 2 E.mXB n I.gX9 9 ",
"XXJ.{.3 + NXG.2.z.J.].R } D.3. .' ].-.p 0 mXO o '.kX*Xo @ }.9 { hXsXa.' s.8.x | x.dXfXhXZXmX3 >Xj ^ &XB o @ ].A.3 ^.N.jXcX#.+ % X ^.D V.hXu.x.L.{.< : C r.3.3.@X$Xh 6.W p %Xb 3XN $ ,X{.x $.Z. .q.:.= rXcXx.@ }.' gXgXO.F.r.; &.{ gXp.l cXv.u.3.' +. .r.3 &X,XC %X*XAXd |.4 z F <X:XhXuXtXu.VXAX~ -.E }.M * *.E p :.K.m.n.O.7.>X: 7 =.J.j.0.XXP.# v ..7.O.7.+.3.+.k.hXL.; 2 [.l.J.$.+ bXQ 1 m ( t m ZXp ` pXdX9XaXwX< r k.XXj.oX8. .x 2XC @ `.[.lXzX@.O.jXf.tXwXH =XAXbXH M }.BXAX^.].| ' lXvXiX~ * :.`.t / Y.9 (._.(...w.7.' d NX* O.lXW o.! } p.xXsXaXX.W [.E (.d  X,.g.qXvX9XH.+.7.' [ ; Q.&X7 3XUXW.  C = o # eXNXa s i DXqX+ ^.VXi @ 3 lXc.{ CX%.W 3.j.tXdXp.O.k.9.E ] &.m + q { <.# . JXP % V m ^ - R.] e Z & & B {.L.} zXkX, . . Y.eXxXuX2.#XmXB @ 9 kXD  X<.{ jXkX^.PX=X>.zXK.F.+ A %X4 t r -.v Y.LXKX> x r.`.g 3.G.-.] CXlXN.R.i ;Xv 2 @ ~.aXv.O.O.z NX_ -.Q g >.wXb.iXi.8.^ E.@ /.aXaX%.[ ~.*.9 > 0Xc.j.h.l.O.e '.hXDXjXg.V.@.@.hXlX3 # Y.^.W.7 =X> U.^ r [ '.gX$.< p W J.oXoXx [.R W [.@.i.I.zXkXD ; {.= F f f 9 6 k <.wX'.F PXU Y = d <.L.>.HXB b T.` ; _ K.f.M.0X@.3.OXdXv.h.F.2X9  .$Xe * F.I.i 4XY FX=XH u &.3 >Xa.+.K.zX$.c = kXl.+.P.W R.2 * M !.5 @ @ | dXv.V.*.X G d ..} } ..+ :.#Xp $.NXM M j } }  XM * `.` p L.iXtXyXI.V % 8 m T G.k. .O.F.`.bX4XB &Xs ] G.v.uXuXfXyXH.i @ Q.ZXMX% % + b ; E.=X, ^.wXO.+ 0 ",
"XXOX XbX, '.P. .z.+XF.R i.j.h.| q.Q W ~ q 3XA 0 L.lXK o + H Y.>.f.pXV.' s.F.2 ] i.dXfXjXAXW.}.`.g Q.B o 2 *.gXoX' %._ lXVX2 : O # /.<.L.gX' tXS.M * S : T.t.X.P.OXh.B.] C P U 5X. B %XT.u `.[...u < %.hXlXd @ '._ gXiXu.|.5 * c ,.pXjXm.cXg.@.' w.B.W (.*X=X,XA Z LXF d BXa D ;X;Xv jXuXyXu.1.'.X.q.h {.M ; >...g ] J.m.OXO.' :.* * ~ ].z.0.z.gX%._ V.s.7.8.+.5.+.m.dXx.x ' gXp.sXO.D  Xj t m ( v ).U.; ' K.dXg.hXA.< ] J.c.x.J.8.W {.1X= s '.A.F.@.$.O.zXf.aXgXW.4X=XLXb + bXW.<Xi wXp.a V.xXd.u * ;.e.-.~ &.{.u U.(.[.+.;.v @ NX* d lX7.X.-.Q D rXgXhX8.j G.E f s ~.0 { aXdX0XN.`.| Z.N.:.1X: I KX:X*.9 R.o # f 1.F.h C M xXvX9 }.NX3 + i cXp.@.kX' X. .5.iXaXb.| 5.G.j ] R.m + >  X[ . % JX& & 4Xm k R (.q.< S 8 N 8 |.s.| zXVX#   B *XrXsX9XW |.s A > [ 0XhXnX0 m.jX'.F 4XV '.iXO.`.0 %XU.- k g &.f LXPX0 &.p o.zXR ! 9.C.$.SX'.*.;XW.,X5 * = *.gX@.| B._ kX$.].Q x [.K.gXu.5.$X^ < D VXuXaXD &.{.}...9 pXx.5.h.z.[.d }.SXVXS.K.,.g.j.sXzX0 + Y.W.A U 5Xo U.-.g ` zXL.=.; *  .gXoXl.E [.5 c NXi ~.VXkXA.c a ] i !.# {.D u {.'.kX X<X&X% 5X+ 0 ~.L.'.HX8 k ].< x zXM.{ jX0X@.j.n.aXv.k.kX<X> F.@Xp @ #.B.R.mXP 3Xn ~ e T.W.&.@X` ,.zX%.i = rXpXi.J.C.!.+ + V E.+ 6 3 | jXp.d.*.X Y.= ] W ..Q + `.D.3.jXa.a v p W E `.!.* r.r.p [.@.pXyXpXF @ < ~ R $Xk. .4.L.'.&.C &XA C x G.x.uXuXfXdXu.@ i >X1X<XB % o b * U A i nX].a 3 R.",
"XX@X*.a d A.@X2.j.z.G.E j.j.n.3.-.R W -.A + %X>X$.'.n X + 6 n *.'.BXZ.E p.F.; M ' jXcXb.v Y.kX| k ( : 7 Y.6.m.jXg.I.l kX).* 8 X 0 :X~.u @.@.pX,.; @ A S y m g [.OX5.G.-.4XN P $   q {.r x `.].p 2 &.pXhXkX# 0 '.D gXoX[.!.> m l ,.sX{ m.xXV.[.N.F.` } `.:XLXUXJ Z W.=  X@X| {.ZXv ..aXsXpXd._ V.2.6.=.&.M ; >.`.~ k @X.Xn.l.u.|.m - u {.G.h.l.J.u.gX$.p k.5.3.5.4.iXdXp.3.D.m.x.dXjXK.O.:.r / ).R.l o = ..J.9XpXVX&.4 q.oXc.c.oX8.! >XM @ ;X XN.w.W [.O.d.H.cX,.;X*Xf :X!.Q.;X1X=X= [.H.h D VX_ + ; ' G.Q Q v U.@ < ..@.7.:.,   >Xi 9 BXC.q.-.l bXG D lXP.R #.E > s F d 0XxX9XgXnX!.:.` r.R.Q.V A = &. X`.*.  H }.D kXh @ C hXvX,.>.~.0 i z lXK.9 ' Z.7. .} n.hXK.O. .$XR ;.R.F 5 T.NXz . 3X3XO U PXb g ] X.6.|.8X% N 8 `.l.@.gXBX,   &XG eXxX9XW |.s 3 3 %.aXaX= 1.jXhX'.*X&X6 [.m.a.[ W.V W.* / s n KXPX&XD NXR j #X! T 9.a.'.~.Y.Y.<X%X;X3 @ 9 *.wX_ E P.$.[.O.kXx E 4.gXs.c  .$X^ p NXhXsXaXu Q.Y.}.A.b.pXx.5.5.pXV.D AXAXeXI.u.O.x.c.sXkX# 3 ^.H &X3XA + !.-.j E lXO.&.@ @ :.lXkX$._  Xv !.>X3 >XLXl Z.c g _ >XM @ BXa [ NXl `.>X<XB B U @ f ~.'.bX&X$ e [.W #XhX,.f.cX,.p.n.p.sXv.H.AX, n @XJ.a @ ..C.;XJ B 5X2 R.x :X<XU.Z.@._ K.%.>.F >.jXx.J.;.n * @ : &X+ U.x 3.sXx.H.F X :X3 E T g Q o [.j.XXxX' 4 h l h E (.&.* ;.r.a :._ d.v.aX}.; 4 ~ R $X .W i.I.F.=.f J q 6 x [.x.uXuXfXjXc @ !. XR.=X% % o > Z 5X+ *.$.}.F D `.",
"z.zX] > >.L.G.3.j.j.h.O.x.p.j.F.r Q C.t.- k R.&.1X* , X o # # n ^.nX}.5 p.[.* 6 _ @XCXa @ |.].! T 1 < U.%.u..Xm.V.kXc ] b @ 8   H AX*.9 i H.gX{ @ E.E.7 N S e C.OX0.+X].( * + X X 0 |.r h ]. XE l [..XjX*.o d $.' K.f.'.= &.2X[ ,.cXi g.[.# [.gXD.| } 6. X>XLXW.7 n <.xXl.$.AXY.l 7.dXaX' ~.$.k.3.2.X.Q U.; >.r.U.g B..Xv.dXj.@X&.t ; %X].5.h.n.oXVXz @ D.i.3.h.i.pXdXj.j.m.p.9XvXtXO.w.|.< m ).R.a o = ] P.b.VX;XM x D.oXj.x.iX5.2.R.; + H :X> A.+.z.z.' [.lXD bXY. X' :.T.&.ZXJ + F.@X9 9 NX' ; ; } G...~ f i 4 h N.O.3.=.o X }.D # }.:.(.M n ZXo d lX@XW c a s s > { S.M.tXzXbXU. XW *.!.~ ).T.- v ).:.u = q 0 d kXc @ q zXcXhXD G $ { a.CX{ o ' F.7.}  .5.jXK.3.! @X .;.R.*.a {.6X3 . PXB   HXHXm g j #.3.#XZ 8 N 7 r.XXj.K.lX= 3 W.d hXhXCX`.(.&.h * Z.xXqX  <.jXaXnXW.W.M [.b.a.`.=XO W.M =X= J IXZXY.*.VXq.j -.T g 2.k.kXi W.n 4X%X*X0 ; a A.I.3.W F.@.V.| [.u E F.$X} ' 3.6.Q Q NXhXxXg.5 E.b &.L.0XM.m.3.h.pX%.mXIXnXV.zXc @.,.c.jX*.X *.*.H 3XHX% 3 *.:.R j gXW T.- @ > = 0 f ..;.a bXY.bXUXbXa |.] g ' kX= 3 BXa M.wXd M 1XZX8 U B + `.[ bXKXN @ u @X .3.pXf.sXyX,.K.d.@.dXM.nX^.o R.gXgXF + &.}.J & JX5X* !.&.AXR.>XV.@.9XO.gX`., i jXv.I.l 2 n @ : V 2 |.E j.pXtX0XF o :X9 ] R t 4 u kXj.tXzXu E Q u p x r.(.4 Z.F.c &. Xl @.sXgXc p -.Q `.=.x m..Xl.C.9 <X,XA ; ].x.yXuXvXhXu @ >X;.{.W.% % X 3XKXB 7 }.%.Y.F =.].",
"OX' u i i Z.s.3.h.XXj.@.OX@.I.$.r ~ t.o.4 -.|.~ %X3X. X % + X U H H AX XD.].= = Y.(.2X* i NX].! k 1 r r.$.I.K.x.hXS.| Q 6 N % U W.i U.z l gX[._ 3  X2X1 N S m q.k.+Xz.$Xk ; !.o X D ].T p A.[.E 5.K.jXL.o # z <.u.b.@.eXd BX] 2 @.cX,.hXwXD gXOXs.}  .B.`.= }.Y.6 U.hXsXP.;.<XM ;.' lXa.9 R.A.O.5.2.q.R.M 2 E ] k g 6.oXXXyXj.b.w.M @ Z |.9.5.XXc.zX^.f B.h.+.i.i.pXtXx.x.i.p.pXsXx.O. XSXe ~ ).=.] o = v Z.VX<.> C ;.oXpXp.v.tX5. .R.* o n !.i E B.5.n.@XL.nXAXY.*.gXK.W g =.2Xq X [.D.@ 9 `.E + * } C.=.&.1XF =. XkXV.e.l X X i >., f @ v i W.3 = S.hXgX` 4 a M a 5 [.H.g.v.zX;Xn (.t.M ;X-.j |.&.5 2X(.p %XX , f kXE @ V 1.xXxXi Y.3 A.[.BX, 3 `.7.k.R 8.' pXn.i. .@X3.7.`.E u >X>Xo Y HX% N UX3XE.r g } s.W ; 8 : m B.p.c.b.VXX H /.@.hXVXVXa R.|.].' VXCXf.# rXaXxX}.M ~ {.D.p.[.BXA o H H HX5X&X3XH *.%.kXq.j T T t ] @X[.*.H q 4X3X&Xb ; a [.l.k.j r.' L.' gXw.] `.t.`.r.#.[ ^ =.lXaXjXu.e / 6 M [.u.g.x.i.jXS.}.UXmXZ.d.gXa ' H.x.lX3 + '.[ V PXHX, Y.`.R.] x C.j ~ * @ X X o n }.c = n mXUXZXW.u {.&.h 3.L.* F  XD aXO.3 n U.C + &X= 9 eX[ PX5X% S R.].8.3.tX9XxXx.O.hXO.i.yX0XbXf @ kXn.gX9 + F ^.A N JXN : W.bX1XF *.L.,.cX9XI.*., # jX.X[.i d ^.+ @ ; k |.E oXtXyX0Xf o :X= ] Q ^ 1 `.[.c.sX[.; h ).&.a x C.#X< ' [.c (.bX* c hXtXp.x ] x x v u pXtXb.$.e Y.3X8 2 #Xp.c.yXvXd.p @ 6Xc ~.w % o U KX% 8 &X XV.f n |.#.",
"| < M 0 ; |.7.5.h.XXl.' [.$.[.l ] Q ^ T g t.`.&.7 HX3X. O O O 5X# ^. X{ kXBX0 + ).T.A + l lXs.o.g 1 R w.@.L.L.hXsXaX+.W b % 5XPX, @ * l D CXA.l O.].].m N N b -.8.z. .$X=.e '.'.{ S.P.! j F.B. .n.pXBX2 o o d L.g.{ >.{ [.@...a g.vXaXcXaXxXpXK.i.+. .F.&.@ }.'.v c xXaX[.2X6 b :.W |.2 , {.{.W 6.q.v M M / k e |...3..XXXv.yX.X@X-.8 7 ).B.3.j.c.I.v i '.7.+.k.5.sXpXf.x.u.K.I.hXg.,.AXKXy )._.q.l X + M |.NX3 @ n @..XiXp.v.tX5.8.q.@ q 4Xs 9 l 6.5.J.u.' AXmX> ].K..Xc.E j ).n   7.V.+ + 3 :X@ @ ..F.=.x &.}.].#._ '.;.&.+ X o ~.i Y.Y.+ C n = '.M.iXpX3.e v k 5 _ zXm.9Xi.zX{.C -.6XR.x ].j -.).2 !.).h C @ w 9 BX[ @ q S.M.cXz 0 Y.kXeXH o >.A._ [.x 7.O.4.n.c. .J.5.s.Z.h c ~.^.@ HXB $ U PX5X;X&.e j 6.q.s : 1 ^ P.yXj.b.kX# *.~.K.zXAXn * {.|.w.zXgXnX/.D 0XfXaX/.E.p `.h.i.eXZXo   w =XKXHXB E.q W.].[.W j T ^ r -.$XB.Y.H Y.1X4XA q + u P.5.G.r r._ Z.@.M.zXB.R o...;...x / R.hXsXdX5.g m = n  X,.x.x.yXjXrXIXLX`.d.x.zXp a gX,.lXd i >XY.mXJXJX8 &.'.{.e _ :.< * * @ z <.0 = ^.s + 3XUXKXW.Y.+ U.R.h d.N.o W.c z zXf 9 n C > @ &X+ R. X*.HXY % &XM =.$X| @.jXVXD { sXl.u.tXgX*Xo ' gXpX,.= @ v F 8 N FX& $ 4XIXF F i { xXuX,.D }.0 @ @.lX X> [.}.o @ < M ;.} pXv.yX0Xz X bX+ h Q ^ ! c L.j.gX`.2 - / 6X2 a ].#Xe W gXE R.R.o a gXiXm.c `.U.i (.x M.iXp.B.2 D &X+ 3 [.p.j.yXsX_ E < |.u {.> # 3XHXV * * ~ jX0X&.W.!.g ",
"#.c b + + (.#.5.+Xj.i._ | A.=.a T.&.~ g R C.(.2 A 8 PXY   O B &X;X}. X' N.BXW.o ).).N + { hXi.} t r 8.k.l L.zXgX9XsXz.W m 3XUXU # ^.!.h i VX&.4 D.k.6.T.8 Y 4X/  .+XW C.e.| b.u.aXb.P.} h B.D.J.v.hX>.> n = d wX0Xb.i A.gXf.#.a sXuX@.f.fXyXpX|  . .3.@X9 + kX$.#.O.aXxXNXs = 3 ;.` v * >  XR.-.r.:.u s n Y.U.u 6X` +.OXXXi.xXcX4.=.A : &.e.+.i.n.gX&.= `.N.O.5.+.pXpX@.x.iXgXu lX,.}.IXV C |.-.(.F , o M 1X&X+ : M 4.pXc.p.x.tX5.5.X.&.KXJ M i A.F.D.s.d.D KXq 9 [.oXv.yXOXj r U.4 @XP.; s @ :X0 @ x F.|.; T.BX X5 X *.(.v K #   ~.F Y.{.+ n > '.pXK.x.pXh.r r r p V.pX@.pXj.gX!.&XE.ZX|.g -.#Xp !.U.v &.* + H , , kX_ : # '.g.xXd.@ }.<.}.w + '.' + ;.E B.gXc b.K.W 5.OXs.+.x h R.W.C 4XX # mXJXB AX>Xe j X.t.~ 6 y T pXsXx.J.'.G {.>.$.VX<X+ * :.].F.zX%.W.=X XpXfXf.Y.E.-.e.5.V.BXW.X X K PXUX3XV Z , *X&.l ] -.k m C ).8.B.&.s U.ZX3XB B o O.OXh.G.t -.a ' x.aXlX#.r -.:.q.x E M &.M.sXXXs.&.C , q {.{ g.yXfX0XAXIX~.V.x.sXl.c _ I.,.gX%.:.^.<X&XY HXV *.A.] < `.Q - * 8 @ A.SXF o q 6 3XUXPXY ^.F + 3 !.3 I.V.@ !.d `.wX' *.M W.Z V q = nX'.Y.3XB : E.6 u @X .i SX[ @ x.dXn.4.pXA., , @XpXzXz @ + &.U.* I P % 8 IXbXi , '.lXjXyXiX9 3 H + i kX>X^.eX<., @ ; v X.3.k.4.aXgXG o bX# v j W q.x 3.XXJ.5 q - 4 ZX5 5 ].[.` W gX+.] {.* p gXv.pXV.>.^.i c c K.iXO.7.$.>XA + i gXs.j.dX0X_ r.h r.- NX3 q KX# 6 < - ;.xXM.= ^.b b ",
"P.%.3 X + R. .h.z.+Xp.u.E =.R.a = U.~ g } F.;X@ ;X= I PXB X bXBX&.l NXD u.[.bXC ).7XS + S.sXJ. .t R 8.D.' wXm.tXM.xX3.R ~ 7XP J , BX1X1 4 VXi i @X0.2.T : Y FX%Xj ].} W @Xk.pXO.p.b.K.J. .k.G.5.pXK.+ = }.%.<.wXgX_ @.hXpXH.' l cX9XyXM.yXdXzX- | +.h.[.=.> '._ lXj.9XCXR.* &.d q.2.:.- ' VX:.r `.] > 3 M Y.U.u %.4.' P.m.x.'.D <.5 C M ] C.| 5.j.gX`.5 $.N.+.5.3.x.pX,.pXhX@X> Z. XPXmX; ;X^ -.(.l 0 X C 4X3X% @ &.d.yX.X5.9XtXi.k.F.(.C = U.u 7.| w.V.d.A.J o [ J.x.tXtXjX#Xg e ).lXjXc i + Y.}.D W F.T.; >XBXR.@ X n `.;.v F _ '.u T.R.u a ;.pXm.l.| dXoXR g 1 p l d.@.$.K.[.&XP A * (.;.R |.~ &. Xa b + 5 ;X+ # NX' = o /.lXK.pX9 NX'.&.+ , kXf.5 l ' a.gXD _ gX' O.hXp.| x g &.W.,Xs i # LXPXB LXW.k g W ].t y m j b.fXv.K.NXNX%.N.`.bX> ; ;.' P.[.D {.B E.>.iXvX{ Y.U.t.0. .[.W.U %   HXUXJXP Z A > H @ s :.&.y V / ~ o.C.(.k E.PX&X8 8 M [.pX7.t.1 &.3 D jXpXVX[ h ;.q.W l r.h ..M.uXx.k.R./ = 3 ^.z 9XsXhXVXIXmXN.n.@.gXL._ f.I.u.I.A.=.E.=X: Z 4XC &.E a [.[.h r C : + D SX# O % 5XUXJX4Xq >Xd @ # !.z lX{ = !.] L.S.z i v ZXU.P # z kXAX!.A : / U.* 6 ].' = nX= d 0XdXm.@.[.p @ :.D.H.[., = + Y.U.2 3XB O &XmXv 9 ,.CXrX%.jXpX9 @ H ; = Y.J ZXBXZ.= o U.)...B.+.O.dXhXf   n + ~ R W ! | 5.h.s.2 m < < 1X5 * ].$X .' @Xk.W ].p e ].tXyXK._ }.z %.` aXiXx B.Z.NXZ * _ gX5.j.aXb.'  X` ] * >XW.mXn + n ; -  XI.3 = }.> 8X",
"m.N.0   + *.+.z.+X+X5.J.7.x Q Q.= W./ j 5.@XU.6 M 5 o Y HX4XZXu &.d *.i u.zX&.Y.1Xs P @ 0XuXJ.} g X.O.V.Z.wXiXp.uXm.x -.~ s U V 0 VX&.- e BX> *.OX3.t.t + N Y 4Xv q.q.r @Xi.c.c.x.n.pXzX3.2.k. .pX'   o '.wXS.[.K.iXb.i.tXp.D ' cXM.9XvXyXdX{ l ' 5.z.P.`.>.D ,.CXc M.VX> s {.c #.2.-.E p.CXr.g ] BXv 9 &.&.*.u Z.d.E F.oXp.0 D }.o f M ;.C.#.4.5.jX[.3 ,.4.O.l.l.m.pXu.m.b.Z.i `.ZXPXV m 2Xg _.:.u Y.X A HXFX& = R.0XyX.Xu.9XtXu.P.].e + 5 R.2 s.d.' Z.4.].H - C.k.b.pXv.K.:.v g t 8.lX`.5 + i VX' } ].!.i >X`.Y.n n M *.] D %.gXF.] R. X' ` J.XXtX| _ jXoX} j < < @.lX>.c pXL.V 8 $ 6 ).] Q T.>Xa  X*.@ 3 v :Xo # kX_ + O K AXI.O.c lXkX3 0 z hXp._  X[.S.0X,.d S.4.3.m.d.$.p h &.=X*X3 NXH PXHX&XJ =X- 1 ^ |.1 t ^ j d.xXf.zXrXD O.A.:Xn @ {.#Xx gX' 0 =X: Z >.gXjX' U.~ ].k.3.;.w 3X% mXUXHX5X8 ( y 9 *X= C ^.4 / m C k R y.R &.J KXB 7 J :Xp.pXp -.< M > [ jXhXBX* ] o.W R O.$Xh c 0XaXp.k.:.m A n R.l sXsXVXIXLXK [.J.a '.[.O.gX0Xg.d.zX9 ,XU > &XHXJ v W i.hXG.g :.Q.+ , VX}.  O B UXJXHXn R.~.9 @ # v *.VX= ^.F #.` CX{ @ F nXM P + <.VXbXE.7 m &.1X6 7 |.;.+ = F ..9XyXu.Z.=.e (.#X3.L.*.# = + &.c M ,X8 $ W.&.D [.cXxXD = gXgXv o U.5 + H H F BX2 F *XE.U.x C.$.E dXhX0   X o &.R R  .gXj.h.P.g s t < b 3 2 ].OX0.' J.oX} C.E < | aXtXtX,.'.9 { a.tXf.p [.$.`.&X: R.gX5.5.pX_ l NX;.` * }.AXf *., s 5 e w.[.zX X&.A P ",
"yXpX9   + &.+.z.k.z.J.D.l.` g T.i U.( j l.@X6 8 C 3 > # 4XmX, + s + F 9 { lX&.* >X2 B , zX9XI.W W ` x [. X'.hXg.sXp.g -.-.U.3X+ D xXh j h  X- |.G.2.~ @ % O I 3XQ.-.).1 B.J..XtX.Xn.pXp.3.3.0.3.' i d kXgXu @.iX9Xm.b.' K.u.' g.CXD g.hXdXcX3 ~.A.O.OXL.5 &.d wXkX+ wX$.2 {.d &...2.-.X.P.J.4.$.i bX:Xu >.[ }._ V.| x [.gXD D CXwX@ @ ] gXJ.w.| 5.pXzXa d.u.i.oXu.gXI.' p.l.].R.<XmX<Xs (.(.r ~ R.u ^.+ U &XB $ = }.hXtXn.+.x.yXu.@X|.@ 3 ~ [.3.j.hX@.V.V.B.`.:.} 7.zXlXqXf.i < Q.t e {.|.3 + , eXl i.].!.E.:X!.n W.F *.v + %.I.I.h p R.`._ i..XXXjXc E OXpX} g r } 0XxX{ 3 iXhXi @ 4 M m - &.&.>X&.`. XD l f > o o  X=.% & U bX0X@.p.jXpX,.'.D jX@.d.@.,.wXxXx.5 A.gXm.m.b.w.p h R.mX# $.kXbXPX=XPXB &XQ.t k ).< y T j O.zXhX[.wX[.D.|.E.+ q.@X`.3 `.Y.n Z 8 : x zXjX_ v &.t. .k.x 7 Y UXUXK mXq b E.6 U.U.= b M p  Xx y y T y.} q.M &X: b R.$.m.oX< &.< s 6 n  XBXn ; :.;.W ;.7.@Xh c zXf.| F.=.k W.;Xv _ xXhXAXPX&XH NX' = Y.[.u.0Xg.hXg.gXl C 7 k !.&XA ~ ;.K.pXG.j q.F   HXPX0   O JXJX3X=X9  X[ 3 @ # d ~.}./.mX> C.D.cXO.= f Y.M C = }.NXi U.m &.BXBX* b {.9 o ; T.$.hXaXO.V.e.t.W #Xx [.f @ # @ r.q.-.,X7 * (.L.4.cXgX1.F * ' [.] 5 &.9 + w Y.@ 5 >XZX2 @ M -.` N._ tXpX# X X $ M Q ] W D.k.h.@X_ p k r * C c 4.c.j.| l.oX| E h g ` hXtXyX0XD = D L.pXu.x ].L.NXV 8 T.#X7.s.J.a c `.].c @ NXY.* '.%.u 3 g H.zXkX=.u &X8 ",
"yXsXd   o M 3.n.k.[.D.H.i.s.=.p M Y.Q.j J.[.= $ U.M {.*XU HX+ = H o f i { lX-.4 R.;XZ 9 jXyXV.p #.B.a.[.<.<.gXiX0XlXNX:.X.&.V o A.hXe {.a c e #Xy.t.2 X X   & 5X%X~ |.1 _ gXc.yXXXXXpXc } 9.0.5.| Z.VX[.@.` .XtXx.iXu.l P.b.,.cXxXD ,.S.gXlX> *.].3.oXL.5 * &.<.lXl %.9 { R.3 n e t.o.} +.3.4.[.D !.2X4 `.%.eXV.@.| E ].gXO.l cXCX= ; #XJ.OX' W 3.oXjX' u.u..Xn.z [.'.c l.k.NX;X&X4XW.Q r.q.p U.{.u R.f A 3XN % = eXsXyXH._ x.dXu.zXU.+ M p @X5.x.iX[.V.[.Z.#.`.p ' VXrXxXI.i y )._.e s !.9 # # eX{ L.C.!.=X{.^., W.~.NXi o { jXV.[ E `.$.O.XXyXyXpX; x J.jXw.e R | v.cXz D cXjXr.a r.(.e + M ~ 2 i `.[.zXB.a 9 i 3 [.>.% & 3X1XhXp.p.pXdXsX,.f cX9XpX{ 1.{ xXM.9 `.gXp.p.l.Z.g l BXW.9 kXN.ZXHX%X<XZ S &X/ k !.; M ^ g p VXNXeXd z u.r.; s gXXX#.; 0 n @ Z % 1 l zXgX' e T.Q g G.j U PXUXU C <Xm / y / W.C 6 + @ `. X(.r m g y.0.6.;X,X* b `.a.dX@.; U.2 5 9 f >XY.@ ; &.W :.6X .B.x _ zX' W F.E p T.).Q O.hXVXIXHX8 K nX> n 3 S.f.f.f.CXm.m.Z.M 6 Q T.N N U...gXpXk.W |.n % PX&X, . 5XUX3XU J e  X[ R.U.o <.rXbXMXn 9 ' P.iXI.v 3 f i , C BXz ; U.p BX|.v @ C T.+ @ @ 2 [.aX9X` l.D.j j $Xx R.> = V + Z.7.E ;Xb s ' O.dXtX{ X f u ; R.R.u i n @ # '.eX{.;X;X* + m &.g [.c x.[.o O O X &.Q W W 7.3.3.@Xx g Q k @ E.'.4.XXc.3.p.iX5.x 4 j R K.yXyXaXd = d I.hXg.h ].[.R.6 V e  X#.| I.O.a >.|.a > BX:.e P.B.a u | lXl `.h M 3 n ",
"yXjX*.  X n w.k.'.Z.O.P.O.L.r.< h T.-Xk [.Z.= + s !.>XY.# 4X^.:XW.X 0 G D VX).M ; ^.!.' sXsX` x 8.D.'.BXd Z.pXH.&.;Xl :.2.2.Q @  Xa.3 NXd 5 E #Xy.&.o . B Y & P 4XC ).t W kXj.yXc.pXpXO. .9.z.z.oXgX*.X c oXiXj.v.XXu.$.E %.qXcXzXA.d wX'.D = [ P.p.c.gXs @ 0 0 lXK.l a  X[ + @ 2 :.X.} 3.5.d.I.A.{.U.2 '.{ L.L._ J. .8.jXp.; zXcX@.e kX[.7.x ' } oXjX,.u.p.pXu.> *.*...[.+.BXC # <X&.;.q.`.v v |.r ;.>XH KXI % , wXfXyX[.x b.tXp.zX3 o M e 4.| p.p.O.'.>X(.W } W ].BX{ xXS.5 k t.].{.s A U 8 o eXc $.`.,X*XD  Xo <X'.kX3 , jXoXc &.`.#.O.b..XtXsXp.c _ p.jXG.j R | tXcXd [.0XpXoXp..XF.v + = H n * %.B.[.kXc D }.{ a.>.O & 3X*XzX9Xu.j.dXuXD 0 CXu.pX{ @.{ hX0X2 [.jXM.O.H.F.h {.ZX# >.[.=.KX=X^.&.e b V A E.&.9 R.k j t.NXi 3 ; a.+.6.a |.oX.X;.i = n E.V 8 t p lX@Xp 4 |.a < #X .LXPX*X9 &XZ !.~ + %Xb &X, + W #X>XLX/ k r -.t.t.2X%X- R.Z.K.xX@.= M > v ' '.SXF + Q.Q g T.).;.X.x _ gX'  .G.] a {.|.] l BXSX<XB % U W.= q @ [.b.' a.cXyXtXpX:.g Q / 8 N E.c V.OX5.} ^.# Y mX$ # % PXFXI B Z ] ..a [ BXd f.eXmXq K = ' d.D._ v = 9 n b H !.@ < T.2X|.#.x * U.{.@ * + * [.iXyXx.J.j.h.k.k.l i + 0 W.# wXF.>.1X7 6 h @.hX{ { * u &.- m W.6 = n + o ,.VXM @ ( < @ n T.x [.l { '.o % N X &.] o.| ' |  .G.} h R ).= F zXp.XXx.i.b.pXb.w.h W } H.9XyXaX<.= i L.jXp.e |.BX9 * M g T.&.E @XD.u v R.5 !.:X Xc W `.&.i f.lX3 2 s u 9 ^.",
"uXsX}.X X 0 C.k.'.<.O.H.{ I.A.4 E j !.v `.&.@ + ; T.`.l @ n AXZX@ X 0 G z BX).- + F ].@.dXpXe =.D.d. XBX$.a.oXs.v = ; `.6.2.o.r NXa ' lXl a | $X`.3 . Y U   & N FX&X_.! v :.pXv.j.pXpX` ! 9.0.oXc.L.o   d.pXXXh.yXj.i.[.g 9 aXcXVXl 0 BX..a , l J.j.c.gX5 o # # wXgXp ;.BXa o = ; ] o.! k.7.%.<.{ NX;Xu kXc V.gXO.zX8.8.OXOX* '.cXfX@.Z.kX$.' | W pXjXp.p.iXjX' 3 {.9 R.D.#.,X: # H :.#.#. Xh Q ].r ..{.F A % % # wXvXyX[.p l.m.c.[.@ @ U.3 d.oXu.H.l |.>Xz r.#.l VX~.1.xXg.u r ! ].#XF Z &XP   }.[._ :.<XE.a BX0 bX9 [., A.jXb.3 a [.O.u.n.dXdXpX_ { c 3.jX@Xh x } jXaX9 VX_ gXxXi.5.G.] * @ 6 !.U.c B.p w.VX_ [.' O.{.o B FX*XgXdXb.i.yXuXf.d pXM.0XD D { cXg.a kXaXuXu.l.@.$. X3 2 kX>.n 4XmXnXx - s Z A E.U.*.{.h ^ |.u 3 > '.D.E G.| kXtXpX%.F > ;X1X4 m k g lX].p h  X3 2 +XG.{.0 }.D E.; !.* @ W.W.=X= i @X[.LX=Xm / m k ;.|.;X= t t.| m.cX{ + > > '.@XkX|.*.< U.] ~ Q.m ).W x ' [.O.3.6.=.c ~.*.`.z BXbX# Z % KXH n # 9 gXM.a N.xXyX4.K.].h j / 8 N W.&.' @Xs.x H B JXU X O FXJXP % 8 b `.W l 3 [.gXS.SXH = %X9 zXp.a.; &.9 n H , E.%X@ p 6X).=.`.e @ *.|.< @ @ @ %.jXyXK.p.j.XXXXG.*.# + U.Y.= kX@.`.ZXb @ _ gXH.@.c &.u &.< b C o n H o Y.wXO.2 : 6 ; ; s (.] C.c 9 ^.o $ % X &.W } ;.A.c  .G.e.E R (.f v zXx.v.v.j.x.pXp.4.W W X.@.g.v.sXwX0 u S.xXu.< 6XE.= e ).k r 2 l 5.@XD > s *X!.U.BX_ (.{.=._ M.zX; * M 2 {.' ",
"uXaXlX@   0 F.k.L.S.f.K.O.0XkXe e.T ] &.Y.9 X % 6 M R.a E R.*X,X. X 3 D 0 VXT.- u [ L.O.j.D.R (.k.x.lXlX$.| n. .[.p @ `.6.2.! q.#X4 iXaXl x  .@X{.X U Y . X N B 5X5XR.|.e k kXp.c.iXpXx ! 9.5.+Xz.J.{ f gX` i..XtXj.z.z. .z fXDXBXo F }.D R.0 > i.XXXXhX> + $ H Y.%.x ].NX3 + w * =.o. .w. X>.~.[ l !.U.}._ gXpXtXiXW q.C.e i <.vXfXV.$.@XO.+.| x P.xXx.v.sXgXc _ NX# *.a.].C + = :X}.A.B.kX] x _.r ].R.}.0 @ V # rXxX9XL.5 u.m.OX..o @ s > lXc.j.@Xc !.{.p r.;.v AX*.kXjXM.] g t.e.$.`.%XB FX% Y.%.' |.,Xb 9 BXG BXd $.D lXwX,.E #.gX@.c.c.yXsXwXi *.d | oXOX` R #.VX{ D CXz _ jXtXp.8.L.l @ 2 n &.R F...:.!.:XkXO._ {.+ U FXn wXyXtXXXyXyXaX9Xf.gX@.D '.1.cXM.I.K.9XyXp.n.p.zXv ; G.lX0 q UX4X`.F.*.* ~ m m Q.|.(.k m e > 2 u NXa.3.[.#.F.dXpXc *.> >XR.1 T.j ` lX].x E '.v z G.0.B._ >.h M r Y.  G /.w n *  XJ.L.AXV A A 7 ( `.`.J @ o. .+.K.xXD # = D BX X(.p `.p >X X&.M y T.g l %.I.4.+.W =.d :Xd [.(.KXA = W.B KXq J o v gXj.l [.lXp.' a.zXx g E.N % !.:.u |.OX%.o mXPXO O U JXY & 8 ; s &.v f = f kXVX:X@ b !.D zXp.4.a U.b M F , >X!.- q.].h :.R.< { C.[.g + @ + *.hXx.O.' iXtXj.D.F , + ^.s = kXz >XZX&.2  X| 5.D.c c 2 :.v a F 2 Y.; ^.~.@.[.E 4 * V ).a =.;.#.$.> Y.@ $ # # R.` W  X=.l } 6.B.| E ].&.D hXx.iXpXm.x.sXx.+. .T -.A.L.g.aXhXz l I.jXf.@ Q.q = x ].T T v u  .kX5 o J PX> &.NXNXZX).r.' m.wX= * k c kXD ",
"uXuXCX3   0 F.l.wXf.H.b.O.pXkXg G.8.j ~ U.+ X 7 b s U.l (.|.=X3XO   w f 0 VXr 4 -.' a.k.+.} r.].i.x.hXhXa.3.oXi.P.$.* r.8.9.o.q.] l vXyX' g  .BXs B 3X. X 8 U q B &XQ 6X- s >.O.c.tXoX3.} 2.e.5.l.i.wXwX{ _ iXiXXXp.n.j.l.f.aXDXF + M i %.]., i H.yXyXjX9 X q C 0 _ 3.@XkX; # ^.i &.! ! ' ~.~.{.VXz 9 Y.nX].O.iXx.aX} ;.(.p H f cXuX_ 4.gX@.Z.w.g B.cXtXx.pX[.c N. X@ D '.#XV @ ^.nX*.kXgXgX#.] ].r (.*.rX'., ZX0 rXlXf.[.e 3.J.[.2 o + 9 %.zXO.l.kX2 / ~ ] C.;.U.!.{ lXtXiX:.v |.e.a `.R.6 Y 5X3 '.H.].%X8 > nXrX}.D <.S.hXS.d w.c u.g.tXyXyXvX[.# + 0 O.z.jXi.x r.BXi 9XxX*.3 jXdXu.O.gXkXz 5 U.Q 6.P.#.< @ &.kX$.D Y.# Y 5X= S.dXyXx.dXyXuXxXf.@.z { <.{ hXhXI.{ tXaX@.p.iXH.u :.gXgXX 3XJXA `.s.`.u x v m k `.t.~ - + H = u {.Z.| G.e.@.cX{ d _ - 6XR.g (.j _ CX..g | `.H ZXe.k.s.D.l ;.j T.{.9 ZXf i U.< $Xl.kX:X%X7 8 S C -.`.b 2 :.2.+.hXcXG # + %.lXl &.* :.r.#X;.=.p t k e g ..I.H.6.x ;.l ^.9 A.BX,X$ s H &X5XJ 0 + >.pXc.c lXO.l N.O.@XW j T.N $ >Xw.- {.zX_ f KXHX  q HX5XB & N * !.d i n = , *.AX# + Q.&.l f.K.u.#.v = E.i 3 nX-.e $X3.x :.=.p Z.O.J.#.@ * + [ zX{ l c K.v.tXu.i F + ^.+ s nX[ bX;X^.D :.` 6.[.A.i a >.`.h c {.2 &.{.+ z [.c &.- ; M R.`...| `.0 H X o K F =.W #.`.Y.a W 6.k.5.E #.>.' gX,.0XiXm.x.yXx.3.X.T `.BXA.p.tXxXc ' hXaXd.< y E.; ..$X^ k 2X2 } ].M @ PXKX@ &.NXBX3 C C.+.tXd.3 b u `.kXc ",
"uXdXcXz X Y.$.H.lXS.H.i.O.gXzXc l.s.R Q E.8 5X% 6 n W.,XQ {.n B 3X  w f 0 VX2 r =.} W 6.0.3.6.F.j.yXhXd.D.s.I.b.x.pX' 6.8.0.2. .5 V.vXXX} g 3.kX<X3XX   , C %X< A ( j -.s m v _ XXdX.XOX .o.q.` @X@.z.s.' Z.p.dXXXi.n.p.pXf.[.NX@ = 0 v >.c # <.gXyXuXxX,   *Xi 9 ..J.jX X@ 0 nX, s Q X.$.'.i l BX{.d ^.NXv 3 zX9XjX| W >X<X# 0 eXf.iXu.,.V.'.>.u N.vXuXx.d.>.=.}.>.e |. XR.+ E. X@.wXS.g.sX+.o.C.p U.M S.zXnX/.o nX'._ A.g  .[.R.@ X q eXzXgX| $.(.* y j F.J.+.(.x ,.xX9XpX| ;. XQ ; T... X7 5XF zXpX[.A 8 ; }.AX<.D S.0XpXd.a 7.O.{ tX9XyXuXvXrXX + 9 E l.sXK.x R.p c uXcXM 5 pXdXj.d.S.'.i u {.j @Xk.e.g e `.a *.2 b 6 P A = { aXyXtXyXuX9XaXzX, { N.{ D CXhXS._ b.jXO.s.I.' u A.jXf.O HXY + >.H.V.#.e / g h #.w.~ @ u R.* s ;Xa x OXOX7. X@ >.l - ).-...w.| ' VXQ p 6.`.mXLX].0.z.5.i.F.j `.kX'.bX, Y.&.e @X[. Xc ;XC : A 7 p R.4 ~ t.9.s.V.cXG # , A.[.Y.9 > @X+. .G.;.e m (.x e _ gXH.%.] :.l W.0 R.6XY.+ D v 4XA U + , '.pXx.' kX9 V.' ..-.Q W k : : VX' ; {.[.,.{.bXHX  5X5XB 8 8 : * ;X0 &.*X@ , *XU   *.%.W Z._ [.u.B.v = ;X@ i lX%.#.OX3.E ;.E - ' $.p.[.@ o i kXzXd.l c tXyXyX,.' ~.> Y.X 7 W.W.=Xq Y.@ 3 |...F.kXa _ ' wX@.x Q =.>X= o D %.c r.s * = !.`.;.;.}.0 # @ &.~.D ' X.C.:.U.a W  .5.k.| #.>._ ,.O.hX4.p.oXtXp.3.2.} |.}.l z.XXvX,.{ xXiX@.h R.F > B.].~ M E.- W ].&.W.IX<Xi c lX' + A r.+.tXu.l &.d lXNXu ",
"M.uXvX{ z R.w.O.gX0XH.4.c 0XlX' j.k.#.R.U.=XP . 8 E.KX!.] l o q HXq , 0 3 }.h p ] 6.R } OX3.3.O.tXvXa.i #X_ @.pXM.aXgXs.5.5.6.! a hXvXtX6.j +.kXAX$ . X 3 }.k r ).~ g ~ U.{.x E .XtXpXL.} X.`.p gXf.5.OXZ.[.M.yXc.j.K.O.jXM.kXM + # 0 ^.`.a i wXpXyXfXqX+ , 1XU.l C.n.OX'.+ D ~.@ 9 Q ..$.$.{.Y.9 }.~.>X{.> 9 BXpXcXO.l LXH X n z { cXp._ V.nX&.e { vXdXj.@.>.R.*.a 5 `.:.4 a >X7.H.gX9X9XyX4. .F.j / k gX0XSX0 # }.'.i >.p 7.[.a o o :XVXsXP.` ' `.; b Q P.n.i...g L.xXiXm.O.B.(.a < M  .kX6 7 :X'.hXF.6 8 - U.AXnX{ H.pXpXm.i.J.J.x.aXyXuXfXfXBX  , , ` 5.aXM.a < ] ` uXvXe Q i.sXv.M.9 D <._ w.g 8.$X8. . .kX>.u M C %XA 8 V $.iXpXyXM.uXyXsXlX9 $.' <.D CXrXz <.d.hXj.oXD._ a Z.cX,.O 3X& o [ b.p.@Xe ~ k j 8. .M @ {.v > 9 :Xz O.j.pXD.a + }.l 1 T.|.w.O.x { zX] h B.BXKXHX-.8.h.h.oXu.a ].zXz E.6 M e 6.].NX&.l |.E.@ A S 5 &.r ^ y.9.7.,.CXf 3 i Z.[.F @ %.zXp. .k.X.e Q ;.t.p x hXM.c 5 =.&.*Xn m M nXd R.U.4XI U o 3 kXlXx.$.l z lXW ]...R ] -.; C SXc - |.[.[.~.mXHXP FXN 8 @ 8 C 2 Y.F :XW.o H <XX + eXO._ kX| w.5.[.v s E.; D gXL.a.n.5.E | F.@X>.c f.Z.o V bX>.kX_ _ @.dX9XjX,.{ ~.i n o # > &XZ = W., 2 &.] w.zXl x ' g.I.h {.&.M M   D A.' ].&.2 + W.`.` h U.o @ !.>X@ {.{ C.#.>.M i Q } 5.k.4.#.r.l <.O.K.k.x @XpXp.3.6.o.r.D = G.j.vXqX,.aXjX' ' `.v * Z.C.u Z A ; -.t.Y.LXKX;XU.l zXO.  b (. .pXu.`.{ [.CX`.a ",
"O.pXvXyXS.' F.x a.L.V.@._ H.zXx p.s.:.;XT.b % . % KX;XT.-.9 n X W.q o = , <.Q p X.e.} W gXh.| m.dXpX= M 1X; ,.tXg.jX0X` j.5.e.g _ xXsXm.6.T 3.zX/.. X X G `.5 &.{.&.p T.(.`.:.W l.gXVX(.E o.(.< I.b.l.gXK.g.aXyXj.OXD.a sXtXV.> q @ , ~.V.' { hXvXv.fX0XX J ,Xv O.i..Xd.>.o /.<.<.c h -.w.A.BX>X<.*.!.ZXY.= %XbX9XvXO.R.ZXw o n 3 wXDXx.@.[.;X< r R dXvXu.,.'./.F v * x X.E `...O.b.x.M.uXdXi.| F.] ( 3 [.pXCX}.= ~.>.3 D 2 s.Z.3 X 3 VXsXaXL.* %.`.2 m A.l.x.b.6.x D VXiXn.s. XU.s b M 5.jX2 o W.bXVXx - 7 y s ZXSX<.oXm.x.iXoXH.O.g.9XyXfXuXhXeXo , z :.+.aX0X4 p |.E vXsXE } +.sXXXtX,.0XjXi.3.} ;.#X[.5.| k.pX' 5 %XC V : C %.pXm.tXyXx.yXdXhXD 2 *.`.D VX{ , '.L.K.p.oXs.` p [.lXd w Y & + z hXj.OX` p ~ h G.3.a C C + = i nX'.u.n.dXL.M @ Y.z 1 v `.D.4._ ,.jX6.} J.#X%XZ v e.z.h.K.O.l V.'.~.n b 5 u +Xk.bX, _ ].U.+ S b e x k ^ 8.3.| $.VXw i :XO.lX5 i gXm.x.} $Xq.h ` } G.E l pX0XD 3 T.{.*X4X7 ; NX$.&.4XFXP N X f BXzXl.$.; H.gX! e.C.W ` :.2 {.SXx 4 -.[. XY.KX5X5XP % : * q q n E.<Xn M 3 &X8 X 9 BXO.$.#X[ ' 4.L.c a C 2 %.zXs.s.oXi.W ` zX@. X9 V.>.+ HXq U.kXO.` l.tXpXgXd _ nX9 # o + + =X7 s &.R.v e ~ (.[.f._ >.O.kXZXQ.@ , E.o i kXO.C.] &.@ E.`.h a a X , F d X ~.].7.` ;.a s &.R k.l.D.| C.c $.$.u.@X5 R.gX4.3.2.3.r.3 + B.p.dXuXg.aX0X_ +.[.v + ] BX%XZ Z * r R.LXmXJ ;XU.p zXO.o 2 :. .B.%.D i A.BXx l ",
"d b.fXsXS.c ].g ..{ [.O.' S.P.h j.P.`.U.R.m B . FX4Xp {.] Y.w   i Y.6 @ 9 >.=.g 6.6.;.x ].+.j.iXsXu.+ W.C > K.tX0XSXhXO.j.5.].1 _ xXsXv.2.T 5.lX/..   X ~.$.3 A.[.`.4 R.C.' (.E s.lX>.R.W W (.- { 0Xa.zXiXM.uXdXj.5.8.5 u.vXH.5 , = 9 '.[.K.D ,.vXv.vXg., mXU.[ u.c.pX| *.# ~.3 lX' 4 R.r. XBX>.NX~.# W.{.i =X}.dXsXA.ZX*X3 + H 0 [.cXuXp.[.!.6 t h iXsXv.f.*.}.f v :._ +.C.].u O.K.pXtX9XyXd.` 6.:.m 6 ' kXSXBX_ [ R.* z d O.$.o o rXcXdXtX[.9 Z.>.5 &.L.b.p.pX+X6.= }.[.J.BXT.s n b ] c.jXd o , mXAXc < / k p ZX:X' b.pXp.yXdX@.@.m.M.uXfXO.lXNX# G NX..| iXpXl e e.` vXuX|  .3.oX.XtXuXvXdXi.+. .j R 8.OX .5..XlXi u E.S * b z 0XH.p.jXv.yXdXf.%.z >. XBXZ.D = '.V.@.c..X+.' p @XgXz A N O @ c pXc.oXF.Q U.).@X3.*.!.+ s Y. X,.H.@.c.dXJ.Y.@ f a e 4 e B.H.pX9XsXO.} OX7.> e ~ 6.k.j.m.{ _ [.kX9 n 0 M ..+XgX%X@ w.w.5 @ 6 b M Q W X.8. .h `.BX, <XF Z.gX> A.pXv.iX+.@XC.W #. .6.` c dXhX[ o M mX&X3X& * [.gX*.LXB & %   F kXJ.OX| _ jXn. .T e.} ] ] d kXVXx r -. X'.n KX3XY & : s ).M @ H KXB q n C A @ u ~.rXD O.l a `.7.B...; 3 d <.VX| J.J.5.! 8.B.i R.> >.*.&XB 8 <X[.p.+.iXtXiXa.S.%.<.9 3 o 6 A Z ; U.; Q {.&.t Q.kXL.<.`.D IX<XV A @ F = 3  X' A.@ R.s f `.l u a R.v 9 i @ ~.O.| W ] &.u T.R +.s.a.| F.#.z >.O. XU.4 kX+.5.2.2.e.3 @ w.5.yXfXg.iX0XO.i.F.l 2 = IX4XZ P @ 3 ,XHX% =X*XM e gXa.D 3 -.W -.` z  X' 9 l ~ ",
"a %.aXjX<.l t.j &.] Z.| c V.B.W h.P.{.&.(.v B Y PXM a r.].z o X = *X&X@ i >.r.g +.F.=.x E #.OXpXgXE + q b > pX9XrXSXlXj.4.k.`.1 i jXxXp. .W 5.jX}.X X w ].E a [.I.[.l ).' A.R.R.Z.+.@ >XR Q _.* V.I.'.wXaXuXyXyXj.} w.p O.jXxX' @ 3 c I.I.wX' ' vXx.jXd 0 4Xa N.p.oXb.@.i D '.9 jXu.@ ;XT.]  Xi D nXW.^. X>.bX~.pXxX|.;XH = X H v z cXuXp.gXQ.6 M 3 p.sXyX0X3 f M a gX5.3.@X' ` K.0XI.g.yXsXL.a | (.< 7 v nXAX}.@XL.R.+ 9 z c }.o i DXsXdXu.OXH.[.D i A.H.K.d.gX+XG.u s `.|.bX2 s ~ x O.v.jX~.X o &XAXs r _.o.T.ZXY._ K.L.O.yXdXO.K.yXyXfXyXc kXBX= f.cXO.| .X.XO.g  . .cXg.|  .} k.i.v.uXuXXXn.| ..] p +.OX3.` W kXA.a ~ b 7 C *.wX@.B.kXO.j.aX1.i >.$.zXpX@.L.2 `.Z.u.n.h.8.| a P.zXd K % = s O.x.XXn.OX=.%XZX7.5.&.5 5 NXNX_ ' K.@.b.jXn.`.2 *.d l 2 + [ V.jX9XiXO.4.gXO.4 =.o.X.h.j.pXf.@.jXxXD f 6 =.F.k.#X3 , ].%.@ @ - m ~ ] } 9.k.3.4 {.}.G =X# nX' l OXyXx.dXm.x ....| X.} E | sXvX'.+ 6 mXA 7 % - [.s.*.mX= % X o :Xl l.pX+.5.jXh.q.1 ` ;.~ x O.jXjX' r _.].*.w PXFXN + M `.[.9 f HXHXX $ > C - T.E [.<.0 >.a 3 '.O.B.w.a 2 M VXBX@.gXl.5.! [.z 9 , + F PX3X% 4XU.7.c.i.oXdXtXi.@X[.z *.i X &XHXJ @ >X* s R.).* Z M + *.f %XKX+ C ;X9 Y.9 9 Y.i R.@ R.W.5 '.l @ M nX' i [ d '.| | =.l l l g j ` |  X#.[.c i v :.6XW.; A.|  .9.2.e.[ ; w.s.x.vXg.M.iXp.j.J.p v E.PX6 &XU o q PX5X% 4X%XM e V.H.'.9 j ^ ] ..c VX`.; M m ",
"v d p.CX~.< -.g m M =.#.a Z.} } j.@X;XU.(.p &XPX;X&.e :.[.2 o $   !.E.< u R.].r | [.&.v M `.gXoX5.].i @ A > hXpXnXAXlXv.4.D.(.- > zXxX@.2.! 5.hXeX, O }.].j O.S.gXO._ |.a  X*.R. XE h `.g ~ -.=.NXeXNXZ.aXuXyXyXh. .w.' gXp.sXiX2 5 ' gX%.<.wXD tXtXCXa b C _ J.p.pXgX$.D rX'.{ jXp.+ 4XM Q '.{ %.{ bXbX[.| >.~.pXzXM 3 s + = C 5 5 hXqXp.gXm 6 C i ,.dXuXpX9 3 u W gX| z.5.` P.iX9XV.D x.jX[.5 -.R.* 7 M 1XZX>XjXcX*.s n @ a  X>.eXcXsXc.| gXV.[.a _ L.b.b.'.F.z.OXR.2 M 1XC @ M ] } i.tXaXkXo # 4XKXm g o.2.=.4XE._ [.V.' tXdX| iXyXtXsX@.{ [.<.> sXvXc E .XdXu.Z.W 5.jX@.4.}  .| 3.c.dXyXXX.X` c r.W +.oXs.s.2 _ BX_ M y b 2X*.Z._ N.x 2 | m.S.3 @.V.gXp.p.pX; D kXd.5.s.k.W g [.lX9 V @ s =.s.x.v.j.P.:.W.1X[.l.' >.VXkXi z x.XXn.p.sX.XA.v }.9 {.a + R.i hXM.M.i.n.pXb.' C.e R G.j.pXpXp.x.xXg.9 3 kXa.F.r.o C `...; * * C k ] 3.9.h.8.< F :XbX# Y.R.u @.tXyXyXdXoX` ;...#.q.} R 4.uXsX}.o q FX6 V 8 < F.| A.Y.@ A # w }.* h..X3.3.pX5.-.@ c {.U.l b.sXjX5.g _.A.D =XHXN % 3 |.V.V.z bXPXN $ = 7 b e o.x P.~.o *.|.9 '.Z.#.N...; ;XIX'.V.OXn.n.3.F.d n = # &XPXO U 4X3 L.i.h.XXsX4.| D.zX3 '.3 + q &X@ ; BXs + &.T.S A > f H MXPX5X+ = M v [ D l l > F 2 {.U.> `.[ o M `.{ l A.L.gX$.| ` e e M < p ] '.] c @Xh > 6 1X{.W.4 [ E W e.2.e.r.2 A.@.p.sXaXM.tXp..Xu.h T.PX&X= %XZ X HXHX$ B 4X&X4 x i.K.[.d 4 T.-.] ` [.eX5 4 y ",
"E u { lX`.* Q k M s M R.u :.g  .h.P.Q.Q.`.h KX4XR.(.3 *.[.4   , # ^.&.p h (.].r |  XF <X&. XzX5.2.k.D.[.s 3 sXtXnXAXlXpXp.H.-.- @ rXzXO.e.W p.jXlX9 z BX=.g V.S.I.kXL.L.l zX`.Q 6Xl ' _ R ~ (.v F ZX`.d.hX9XyXyXh. .o.w.'._ dXcX[ u u.jXi 0 zXf.l hXCXu 6 b w.c.c.sX[.5 '.BXwX@.hX@.n =Xp :.Z.S.eX*.W.^.@X4.[ R.NX..> : = # H W.9 u D 0Xv.gXt y ,XF s.v.sX0XY.0 v C.@Xi.h.5.3.n.XXdX{ 9 O.[.nX- :.&.@ C C 1XZX:X0XxX>.# W.^.%.O.pXcXuXdX}  .r.l `.a s.n.p.N.>Xc 7.@X].v n mX= 5 :.} 3.b.iXpXlXd o q ,Xm T 2.X.:.;XE.>X>.O.,.iXi.' aXdXv.jX_ _ zXa.i cXM.a O.c.yXiXf.p [.9Xp.3.X.W p 7.p.yXuXyXiX' c #.+. .P.k.k.=.+ `.'.m y / {.{ N.` O.g s.k.i.pXf.u.I.pXc.yXjX9 i  X_ ' l.7.} u '.lX>.2 : M `.d.u.iXoXH.BXi ^.gXi.3.CXNX, 3 >.oXXXtXx.pXm.@X=.R.i NXi * |.d gXO.m.XXXXXXv.@.(.@ a P.p.M.jXl.O.g.lX5 l kXE `.h o *XU.M 3 = - ~ x W 5.5.h.7.4 6 LXW.o >X[ c d.pXuX9XyXiXB.B.#.X.e.} E b.dXjX~.X Y 3X2 {.4 1 6.h.gX<.@ = , }.'.a 5.oX3.5.+X8.M + f F T.&.pXdXvXg.Q _.w.~.4XB 8 : R.'.S.z F PX&Xo # b q 3 &.t.7.[.<.9 3 {.'.kX[.#.w.a 6 PXbXA.[.d.j.h.5.3.9 H , Z JX8 % PX7 4 Z.i.h..XsX@.r B.k.' }.@ X 8 N o h BXM X M M 7 7 ^.Y.LXUXFXB o o m a [ D >.:.3 9 5 R.F 5 V.N.2 ; `.l l [.zXb.4.' `.x ; U.< 4 NXc + a #Xx = > ZX).&.e &.h R C.2.0.B.e F.c O.hXsX9XXXu.K.a.h R.IX3 > W.7 Z PXN + Z 3XB @ -.s.oXlX_ - / j p w._ 6Xv < m ",
"] E ,.V. Xe e s n C > W.u - j  .i.@XM E.{.{.ZXn }.}.i a `.>.X q 9 {.&.h ;.C.].g W  X*X4X3 :.l.5. .0.h.[.@ d sXtXbXZXNXzXb.P.Q @ + ~.eX7.].W j.sXgX1.wXS.*.[ L.S.VX[.u.gX@.gX[.5 >X] O.| :.h 2X!.b ;X>.d.hX9XyXtXn.9.W W u D m.lX|.e p.lXi X <.jXp.K.kX; 2 e [.j.yXpXc D wXwXS.D jX_ *XU p ] kXSX~.M ,X2XkXD.c &.|.; M C + n Y.Y.M ;XD I.m.OX1 m =X^.$.x.jXlXF ;XBX'.@Xk.3.3.O.c.XXpX; v >.d 1X5 T.p @ H T.2XmXnX0XjXkX3 X nX[.` c.dXsXi.R _.4 c >.l c.v.@.Z.bX2 l I.P.r.&X4X= v `.3.i.j.9XpXpX%.o o A y R 8.} r.R.m !.~.{ gX@X| O.aXdXyX0Xu.c jXK.K.jXD O.d.i.dXtXx.| D.pXx.7.6.x w.@Xs.tXdXc.pXa.O.i.i.h B.J.5.[.5 @ {.s b T.-...].| 8.+.jXz.O.x.aXgXgXH.p.fXsXi >  X$.4.p.e.W a `.VX<.@ y =.%.I.@.iXiX'.BX9  XoXc.5.pXD # z Z.oX.XhXu.x.iXOX..i D VX4 1 ].@.0XD pXXXc.uXtX_ l @ l d.p.0XjXi.b.x.p.l N.%.] `.< ; bXs > = > = U.R.W 5.i.z.O.p 2 4Xo 9 >X>.%.b.pXuX9X9XdXl.3.' X.8. .W k.tXpXi + 3XA 5 (.4 t } 3.aXK.i + = rX'.V.5.+X0.3.0.w.9 o , + Q.] pXuXvXyXX._.| [ ,XN 8 b  XS.'.9 1X3X7 + @ U.= v ].6.W A.D F = !.VXD.F.#.;.a 3XKXv kXwX@.z.h.9.4.= w , JXP % HXKX@ 2 F.5.h.pXc.i.h W D.gX>.# 4X8 $ * +.zXi o e R.< U.Y.bXPXHXP % % X s u [ d #. Xs + a &.f 5 [._ M = ].l p [.gXO.O.#.].x @ v e ).{.3 + M |._ @ 6 1X`.] u -.h p `.2.9.OXg a._ c I.xX9Xx.n.4.| c >XPXn @ C J KXP % = ,X3XN o &.s.n.eX3 * / 4 2 kX#.e U.s y ",
"-.h L.' &.3 = f H H @ J s 4 e. .h.@Xe Q.<XZX|.-.R.<Xb 5 ; i o $ i ~.[ x | G.P.g a nXHXN @ >.4.5.2.3.h.D.= i hXpXbXmXnXkXK.L.a @ # 0 {. X`.! x.sXpXO.kX].D `.[.lXI.{ b.K.p.pXgXe >.NXl.i.w.l bXq Z H ].4.p.iXyXXXh.9. .j ; i @.zXl g l.VXn   i Z.jXpX>.* 6 e P.c.iXO.> [.0Xb.A.%.aXK.1XV M x <.AXmX7 7 mX#XD.r.Q C @  X] + !.d {.6 M '.0X0XL.1 / q H `.$.hXlXZX1Xc Z.D.3.k.i.u.v.pX| - {. X9 !.s M 3 @ &.`. XbX'.0XdXcX,.0 lX'.a.c.vX0Xi 2.R @ {.c | c.XX_ eX,X= D V.5.`.mXP s -.G.5.D.| x.tXm.wX3   C j W e. .w.:.v Q.!.[.gXL.h u.uXuXdX4.d.@.sX9X0XiXc m.p.@.tXtXsXO.d.jXM.6.X.c gXP.5.v.dXc.iXu.p.j.l.h ' OX5.z.L.@ s &Xb R.=.x #.3.z.5.yXpX_ u.iXgXH.'.d fXsXD , AXeXm.j.7.` a `.BXl - ~ _ N.pX' tXzXH n d gXj.c.h.[.> # <.I.c.hXZ.D iXtXOX6.a >XlXp j 8.gXm.l zXm.v.yXaX' 5 a [.@.p.hXhXi.p.cX@.@.lX#.c {.* u  X, , + 6 ; M &.X.5.5.n.3.g 5 # X J ^.c $.x.dXuXuX9XpXpX .} +.5. .W L.pX,.i q FXN 4 ].< r ;.} pXhX>.o i kX'.L.p.oXD.7.3.(.= X # i ^.>.tXuXvXvX+.q.O.[ KXI : C wXM.Z.&.=XU B + = n 9 '.7.#.h &.f n Z b r.OXs.F.;.Y.PXZ _ zX_ %.z.0.2.e.= X HX5X  5XPXq $ 2 B.5.i.pX@.P.E x 4.zX*.MXmX= 2 x 9.$Xv > h ] t.(.W.LXHXHXO B % X s x [ _ c NXmXo F &.u a NXa l *.[.| 4 ].lXi c :.(.h ; &.`.#X9 %X@ b |.&.@ %X>XN.Z.h :.R r ;.e.2.D.` _  X{ V.jXx.x.k.x `.v BXSX{ @ A &XU & % ; -X&X& + f k.J., o * M = + 6.kX- ,X&X8 ",
"=.- 7.#.a @ X w L =Xq b M (.e. .s.].< %XZXbXE ].v ;XE.2 &.U.o X o :X`.x u.l.P.h 3 AXZ $ = |.D.+.8. .5.J.` z pXhXbXH d  XgX[.> + o , bX&.o.} v.fXaXd...{.0 <.wXgX@.H.' K.iXm.zXE _ [.J.jX#.*.C 7 5Xs kXE _ iXdXc.W $Xe.q.u @ z `.< E b.lX3   X F g.lX*.C 5 &.P.c.pXO._ gXm.hX= D hXCX;XE.M a =.~.,X7 5X,Xw.OXe.-.< < NXW * &.5 }.b ; A.I.hXa.1 m > <X`._ eXSXbXi z NXD.+.n.x.g.m.@XW g (.`.3 n C n # = N.NX X1Xz f.M.f.pXsXK.V.P.tXcXD i (.1 * NXl 4..Xx._ VX%X+ D gX+.#X4X7 T.C.k.0.5.| u.pXv.zXf o / R ! 8.` C.t.~ E.2 `.BXN.u g.uXsXx.| a.m.sXx.iXN.$.0X0Xi.iXyXsXz 1.jXiX$Xq.i wXI.O.j.tXc.pXpXgXi.l.} E +Xi.j.I.*.o J W.(...p x s.j.j.XXjX{ ' b.p.J.A., vXfXD /.BX<.hXp.4.` l >.VX; j q._ a.iXO.x.lXn o { pXj.c.j.@X0 9 %.I.gX$.@ { pXyX+X7.E  XgXx R 9..XoX9 kX0Xx.uXiX[ + _ lXu.u.hXlXp.b.gXf.dXjX_ ; U.*.$.$.= H 6 = b M Q | k.k.n.O.j s + + &XW.a d.v.uXfXyXyXXXiXi.| 7.5.} } a.hXf.9 mX3X$ v (.1 &.j R iXhX[.9 O.kX<.'.D.n.J.O.` `.o 3 }.nXNX{ 9XfXvXfX3.;.O.NX3X8 : U.d.iXeX*X= B &X= + v Z.D.H.| u 9 F LX5X: ] F.@Xw.] ZX3X= ' zX3 { i.h.3.].o U JXO O LXmXn # = ].+.u.x.| gX=.E | [.*.bX+ 6 e j 9.$Xs ; l E @X#.*XHXHXB % &Xo o s Y.F z 5 NXLX= n a 5 a NXD * {.'.B.4 w.kX9 a T.-.p 5  XkX4 H UX$ A ^.&.7 KX`.a.I.a.6.R j =.y. .k.3.5 NXc %.b.,.b.| ..(.F AXVXd @ C V 8 % @ k !.V & + 3 @XL., o = q # + x @Xp 2 @ 8 ",
"!.; | kX3 + + # O K W.Q.q.e.9.3.k.`.@ 5XKX!.E ].z !.W.- $.NX,   X # M [ i.n.[.g 3 ZX= s u @X@X .e. .+.z.].O.tXjXnXH > (.lXL.> o w H W.@ e. .x.fX0X$.&.M :XBX[.p.u.zXl H.pXp.hX_ O.V.oXjX X^.@ &X5X; #Xg _ pXdX5.1 ].e.6.=.a 5 i 4 ` OX<.  O X 9 { [.{.M e r.oX.XoX_ K.0XgX<.X # nXBXJ V m e ' `.!.b &Xs @.OXs.w.e < {.3 * R.D  Xs + [ [.zX` h v C E.c { NXAX}.i ^.SX[.j..Xx.g.pX5.2.! ].l z b E.i 0 pXcX Xk Z 0 { 0X9 wXxXv.H.O.jX0X@ D 6X- a lX_ N.gXf.,.VXZ o ' lXO.6XZ 8 !.`.s.5.P.O.+.jXm.gXF + k W 6.9.! 6.B...m + b 2X#X_ x.sXiXp.u.@.pX9Xf.pX-.2 = S.u.iXyXaXi <.cXp.6.e.d.hXV.| 5.j.c.dX@.{ f.H.e.j n.j.x.p.eXF <X=XR.t.e ' H.n.j.c.xXx.O.D.c.oXH.d vXaX/.AXf <.hXj.5.` a `.:X; W X.O.H.hX_ u.lXF o [.b.c.pXi.gXi i [.V.:.* , { dXyXoX3.w.[.pX| R 8.z.gX9 wXiXyXuXhXd @ m.sXO.@.I.lX%.i = ' g.gXa @ s v N.E > !.0 3 ,XM =. .s.s.J.| E a o q 5X&XD d.yXfXfX9XuXx..X+X'  .9. .W 8.hX@.5 1XA @ |.} 4 (.j W i.pXzX' u.gXN.'.D.p.OX@.z { z eXD NX[.{ 9XvXcX0X .W ;.AXP & $ Q.V.zXR.* @ @ B &Xu [.I.i.[.z @ w IXAX+ 6 e =.[.=.<XLXB 6 [ A.5 `.D.k.2.`.n KXB   U LXd BXH @ `.s.g.f.} gXa v ` #.nX3 o b 1 ^ e.t.6 # [ Z.C.x U.=XB B 5XU $ o Y.v n = + ZXZX9 > &.u c wX<.o W.C.[.g | eXo > Y.v p x @X>.= &XUXo %XH 0 &XmX` 3.iXpX5.W R W 2. .s.k.5 >.> >.O.b.a.| ` (.!.LXBXd @ C N 7 6 v `.T.: & N * [.D.F q # $ + o g |.k m V + ",
"~ 4 _ kX/ o W.w K q , !.C.3.W B.e.-.# HXZX!.x #XR.v T.- ` VXi   F = X D b.x.B.l &X7 H >X` J.gX' } X.W 3.k.i.9XjX}.J ; s `.#X+ o =XW.v :.].O.9XvX0Xc >X3 <XZXL.J.d.' 3 L.jXg.jXO.@.gXpXI.BXF = HX7 4 #X` ' oXdX+.- (.G. .F...; i x W OX{ . O X X z >.2Xe p s.oX.XpX_ m.0XkX0 O % K mXA b s 2 _  X).< C * ' pXz.G.x 4 {.* @ |.L.[.d * a [.gXj ` =.C ; ..[.>XnX'.D AXBXI.c.tXtXM.0X} 9.2.6.u >.> F ~.VXcXtX;.+ P : 3 zX9 D xXx.K.V.CXd + nX6X- D cX@.N.wX{ 0XwX6 o { hX_ 2X: V R.w.5.5.' u.3.XXj.J.{.= x o.8. .W 2.G.#.M A 8 V NXu.M.yXf.9XpXu.pX@.dXH.~ ; @ <.z gXdXhXz  XhX,.8.E O.lXa.` 3.5.h.sXi , L.H.F.R 5.j.p.m.Z.AX4X&Xa ] h 7.b.j.b.x.xXaXu.d..Xv.pXM.vX0XZXW.= D K.n.4.' a `.s &.] x | d.OXO._ VX*., wX@.c.oXz.@Xc d kX$.i = 0 D aXyXXX5.} @XgXO.E r.V.zX3 '.pXyXdXhXi i xXsX_ <.g.lXD X @ }.[.@.i + 0 R.kXB.c {.= > <X3 r.+.7.s.J.+...v # 3X5XV c p.uXuXfXM.vXx.XXpX .| 9.2.W 5.pXO.l !.@ C {.x u =...| O.pXpXM.b.u.$.Z.s.p.oXu.z zXBX' , zXg.f.9XxXCX'.} R =.1XN N % M Z.F.u + b 6 , n  XOXi.l.A.d q HXAX:X* 6 m p a ^.LXP $ 6 ~.D > ;XB.k.3.].ZXU X O HX<Xa VXn X T.].0Xg.| ].@ v ] ` NX3 @ M t o.k.w.= + `.[.:.2 U.A 8 3X: b   f BXi s o = PXNXc M Q.z %.d.Z.+ b R.F. .W NXX , H 5 =.k.zX..0 A UX# E., o KX%X=.4.x.tXh.! R R X.7.8.].z > &.>.O.I.%.E R `.<XLXBX, 3 E.: %X).(.r.-.- % B * [.[.f o $ $ # + g `.v M = U ",
"u *.a lXr.- F w MXB # M [.W t ].w.v &XFX;X].x  X;.e T.u h BXF ; lXZ.o &.pXv.s.|.A A ;X[ @.b.jX4. .2.W } 3.5.tXxXnXH B 8 * n + X J H `.@XN.O.yXfXI.a ~.n W.*X'.H.O.d 3 A.jXM.xXO.@.gXg.kXZX# &X,X; k (.7.' oXdX+.* -.F. .8.} p h h } gX%.  O % # z  X).p x J.x.m.p.u.b.zX~., B N Y 4XV 6 U.2 a >Xt - m < _ zXz.z.W x NX* * `.hXK.D 5 9 ].#XR | `.C 6 `.kX|.}.nXnXAXeXhXXX.Xx.K.p. .k.6. .c $.3 wXcXvXtXb.'.@ S @ 3 '.M.sXyX,.g.lX Xo 9  X{.- ,.jXu.K.I.' hXZ.# = [.gX*.,X* U.$Xk.5.O.' gXz.z..Xj.kXh | e.0. .T X.D.C.] -X8 8 &.D.9XM.p.dXyXv.b.O.sXb.x 2 , ~.d I.pX0XG &.d Z.w.R i VXV.' 7.3.5.gXz i $.F.].R 5.j.j.iXzXAX,XH &.` h gXb.m.H.@.v.vXx.j.pXc.x.m.0XrXbXX @ [ s.pXb.O.a c 4 ).-.l B.@.gXL.D lX>.*.pXj.n.j.+XOX..9 zX@.&.> , D oX.X.X5.R D.OX' 3 f ].kX3 { jXu.aX' o AXxXsXz %.p.lXD 3 3 NXBXz , # # &. XZ.,.[.> b W.2 r.+.8.k.n.+.X.v + 5XI 7 ;.m.yXvXfXg.vXx.c.dXj.3.3.2. .3.P.' 5 Q.< ).T.; l %.%.' W i.iXiXL.'.' L.k.5.oXp.yXxX~.= = wXu.M.g.xXAXY.Q ! &.&XN & % n `.` @ = !.5 5 R.[.k. .P.`.9 B 8 , SX= 2 k ~ 5 KX5X% 8 2 Y.d o C [.5.3.].*X$ X J HXq O.kX,   C :XV.0X| =.+ b ] E |.e * ~ r o.6.F.~.<.SX Xn @ B &XJXO + M , '.BXi n @ =XPXR.{.Y.3 ] ` O.'.@ = &.t.t.W [.D n n p [.4.kX>.F &XKXf F 3 b KXC l #.M.dX0.! ! ! ..].X.].F v `.A.d kX..d ` `.ZXPXbX+ H C * ;X=.`.7.] 7 $ S e D.@XF X , # o , #.e.` u E.4X",
"u `._ gX@Xx i X &XB # &.$X .p |.q.{.FXA `.D.` ` ..x &.p 5 kXR.' oXOXp l gXx.F.:X$ 4XF '.@.iXaXj.5.5.X.R 3.5.dXxX}.C I N : + @ @ C Y.[.d.O.@.yXvXwX> F :XK F `.[.$.<.a ,.xXM.xXO.@.H.K.BX!.o mXq 2 x ..B.| oXXXOX2 c G. . .2.W h h #.OXO.  O O X d NX&.g O.oXj.m.@.d.j.zXi A O 3X5X5X: < Q.!.l e 1 t y < c gXz.h.3.s.lXi + ~.jXv._ ` u r.#X} 8.`.2 E.NXNXT.;XZXbXnXwXpXtXpXi.0X,.5.k.2.#.%.' ,.cXfXuXx.[.{.@ 7 @ n '.fXfXaXf.f.lX>.+ _ w.(.* g.aXi.pXO.O.lXA.@ 0 wXhX:XJ @ k ].5.3.d.H.d.5.h..Xn.gXO.R 8.8. .T ! B.F.=.T.S * p ].iXv.yXdXaXtX' K.pX4.` a , /.[ <.xXV.Y.> , '.q.j d lXV.` #. .5.@XD = i B.@XW } z.p.m.gXeX:X%XNXW _ cXg.pXL.V.M.jXi..XK.pXb.p.xXwXY.W.:X[ 7.oX.Xi.l p g |.:.a L.N.%._ D wXeXBXpXiXs.3.z.OXw.; S.l R.v @ G J.XXXXp.W e.H.D @ + > c 9 f lX_ aXI.Y./.xXaX3 &.L.VXf i i NX Xv = = @ ^.{.[ @.eXc Y.n a A.+.5.z.z.+.' v A B 8 b ` tXuXvXqXM.fXx.h.dXXX5.5.2. .| V.$.u Q.r T.U.; z  X].W ` +.sXaXa.A.%.P.P.5.i..XfXpX0 + i wXf.tXf.zXbX, R.o.a 6 8 8 : U. Xl @ 3 nX* e #X[.W E #X{.@ 8 : + ZX3 9 k m C 3X& % C e &.d = s :.F.5.@XF   # mXJ , ;.`.o % mX*X@.hXN.d o > :.W t.p < ~ T q.W s.VXVX' &.o B 8 PXP 8 U.:.{ '.lX9 0 : PXmXR.BXs s `.l O.>.o + k `.y.} f.BXn 0 ] C.e ].`.i K w v a C 4XK *X3 ..m.tX5.} ! ! -.|.` ].nX{.NXc 3 VXd z O.`.LXHX=X= U.5 y ).(.[.N.E 6 S b k k.P.`.# @ # # > q.z.O.&.n b ",
"a ].S.x.OX| F , J n = &.P.9... X`.1XA 8 [.n.! W W (.!.e 2 {.`.p j.n.:.l iXg.nX> A 4X>.[.@.0XsXx.5.s.6.x W O.tXhXNXC S N N + @ s f &.kX_ O.O.yXfXwX= AX<X}.d R.}.A.N.5 ' vX9XaXp.{ b.lXnX, N 4X+ v r.3.4.O.oXx.i.a a F.5. .8.! W x X.zXN..   O 0 z  X~ g d.M.v.m.@.f..XD.5 q B HX5XU @ y / e ~ k ).t k p E pXz.j.5..XjX@.+ { jXx. .F.x Q =...B.[ q MX'. Xy 8XP 3X~.hXtXyXm.4.pXb.[.G.9.B.BXN.vXfXuXyXu.'.).@ 8 : # 1.DXfXyXx.sXtXu.| 7.#.&.; gXg.j.J.z [.BXE ; D H.lX4XN ; j k.5.@.gXS.H.` +.K.p.I.4.g o. .X.] W w.].#.:.~ 1 e (.pXtXdXuXxXf.' jXOX` } l i nX*.' jXf.E.@ 9 `.`.< a zXF.E 6.| } @XhXi l O.@X3.j F.l.b.9XS.<XKX!._ { hX9XhXZ.D nXeX@.gXa.V.'.O.xXO.,.SX[ c a.j.c.pXx W  .$X..l 5.B.&.&.,.g.wX0XpXm._ | n.j.].4 5 a (.E 9 i D..XXXj.} C.N.9 =X# X C n d eXi xXSX/.G DXqX= Y.BX>X3 = d `.Y.Y.0 o f ZXR.= 0 }.>.] d *.B.+.5.z.n.u.{ U.U o 8 p W 0XfXvX,.aXdXx.3.pXpXh.+.X.X.} O.'.u 5 j _.~ M &.BXnX` R | iXaXgXu >.kXa.s.5.p.jX' + + l L.O.pXV.nXW.q ;X-.E u : * y _.$Xa.9 D hXO.5.G.w.e 4 1X!.@ t s @ W., 3 ^ k =XV @ @ T.h [ d i &.r #Xh.pXD # *XmX0 i }.F X O PXK @.hXzX9 = 3 ] ..-.h g ] T G.x | lXN.; * o 8 HXPXA , {.E L.,.lXi * &XPX=X|.] i a |.h %.d o + p  X .3.O.lXv f ;.} 4 =. Xi H # F d W.,X, ZX; _ m.v.5. .! T !.;XQ  X XA. Xl l BXd D |  XPX3XJ > M &.~ ).|.>.>.d < : ( ~ B.OX[.d + $ $ = 6.OX@...U.C ",
"a ].d.p.sXi.R.M f v 2 [ OXh.u R.1Xm @ s I.c. .R `.`.s s = &.].} h.z.=.4 zX[.U.+ <X!.>.$.O.m.fXyXu.k.#.E j | M.jX[.M S N P + > R.R.e [.f.4.4.yXvX[.>XAXY.wX<.&.:X[.N.a D cXuXjX,.' V.A.}.= U U + v $.@.s.u.n.jXa.= i C.5. .e.! o.j 6.jXV.. % X f [  X~ ] H.g.iXg.{ O.jXd.F 8 U P FXP @ A E.- p )._.t Q ..L.pXc.c.h.c.sXg.9 z jXx.h.OX} x h ;.`.R.KXmX}.R.7 N I 5XD jXyXdXK.j.iX@.#X].q.C.VXhXfXfXyXp.a.'.a * Z * = kXDXqXsXx.yXp.oXOX} t.p 4 zX,.k. .a zXNX< p ;.a. XU 8 s -.$X5.s.kXV.O.` | l.p.b.} 2.q.W q.] W X.q.e.:.T.r 4 =.gXc.dXuXaX' x.xX7.x | $.BXbX0 z jXu.%X+ 9 '.-.[ $.gXP.7.`.W R @XjXb.u | @Xs.W 6.4.b.tX[.1X=X&.' D aXM.aX].2 W.;X>.L.kX' *.<.K.tXsXI.> D 8.h.dXtX4.|  .].#.' +.kXf F zXM.0XzXhXs.l ] k.+XF.4 ; (.C.] f !.3.OX.Xj.} ` >.i UXB B q 9 z `.d cX0Xo *.DX,.# E.LXE.; > &.z F <X, M SXBXF + = ~.[.' *.=.B.+.5.z.k.4.` &.= , ,Xe x I.vXfX,.cX9Xu.' OXsXc.| 6.q.W E kXl h 2.t.&.3 ;XBX>.` ` ` m.tXjX' 2 {.#.s.k.| K.D + + [ L.O.zX XbX# J 7Xt (.] 4 m T.X.G.J.' d.m.pX0.D.].&.e ( Z @ * M # , # = ~ k C @ @ U.(.] c D a (.1 ] k.b.$.Y.KXK F ~.R.0   U PXw <.pXlXi G F u (.=.x R } R G.8.7.L.%.= X + 4XPX&X*X2 >.N.$.D VX9 o KXKXW.*.4 R.l `.u ..F C o 2 NX .5.O.gX>.:.w.} p R.;.l n = R.v &XA 3 BX= l 0XXX9.2.o.h %X&XU.BXZ.L.$.' _ kXd @ c ZXJXI b u R.R.M Q.:X[ *.v 6 : y Q.O.H.I.z o $ + @ | gXu.| v ~ ",
"p R.A.O.iXoX:.j x (.a ' OXn.%.&.&X@ 4 :.l.K.O.r.6X! x &.5 u ]. .9.+XQ * gX'.= J ;X^.D ' '.M.fXyX@.[._ *.E ` m.jX X4 I N 3X&X_ [.`.< | gXu.@.yXsXBXSX{ L.iXgXd !.#XE D D lX,.aX,.z > R.Y.J &X8 + # { V.O.5.oXjXS.X 0 r.3.6.e. .} R 5.dX0X  B % o { [.` A.iXg.zX,.l S.0XeXH U P N FXS : 7 M Q E (.o.g R w.V.oXv.c.j.c.dXH.[ 5 hXv.j.OXr.l g :.>.AXPX=X1Xb N & FX&X{ xXuXaXK.gXx.@.:.).U.v I.fXfXuXyX3.u.d.i '.;X< 9 BXlXg.p.aXx.oXG.6.2.X.4 x gXp.P.W z lX`.< E q...v 6 6 (.F.6.E l.P.N.' | @.l.u.n.5.0.9.R ;.o.W ..x -.(.4 s Q q.F.W j.sXM.p.cXhX7.q.} ].NX*.f 3 jXJ.W.+ 9 `.R.E c gXK.H.].[ l V.iXoX> l gXl.! X.3.j.K.kX*XZ -.| @.uX9XaX`.; q 4Xd [ VXi d nXhXyXtXf.@ [ B.5.tX9Xm.V.e e _ d.u.zX= 0 wXx.aXjX.X7.5 / e.5.D.u p  XV.{ U.1X} +XXXj.o.j p H UXK PXn z >.%.' CX9 o rXCXG X 4XZXb ; f $.<.M %X3 AX*. Xs @ ; R.NX'.' | B.5.@.x.l.4.r.e * ^.W.3 g [.cXqX1.cXaXu. .h.sXdX} #.#.` x #X..`  .C.Q 1 {.*.] ..[ c p.yXdXx.4 r ] 8.@X .k.l + @ `.7.E kXZX/.X <XZXt t.} E ] ] #.n.c.p.z.z.j.3.OXkXa v m V o + M = o + + v x ^ t ] 6X-.;.d c l `.r t V.H.Z.:XmX# G ~.U.# o 4X3X, D hXzXS.}.# @ {.] ! ..` W G.gX[.].c Y.X V IX=XM |.p #. X'.1.CXD , KXU q l w. Xx (.p _ &.W.o * NXB.| u.n.D.[.+.6.p `.`.a F @ &.W.P * d NXo f gXXX0.9.e.x &X5XLX).C.+.a c c wXf o [ AX4XN M [ {.&.y &X!.F U.M 7 1 1 Q.c '.[.] + $ X o 1.pXp. .W Q ",
"p x  Xz m.jXG.R ` kXl ' oXn.].1X7 * {.#.@.H.`. X;.} ..;.i 2 w.} 2.G.v @ BXl 3 4XM |.2 z eXzXuXsX@.kX*.v (.O.m.pX Xu N N B *XNXG.#Xx a [.s.@.yXxXVX'.,.iXtXH.h k BXj D { c f.0X1.@ b Y.D ;Xn + = d { N.` 5.OXlXi   0 #.k.+.3.P.3.j s.sX0XX % O o >.[.` F.p.0X Xz 9 zX{ }.=X5X% N 5X8 7 6 4 Q ] } j g W +.l.iX.Xc.c.j.O.].*.2 m.v.5.s.N.j h *.1XIXE.b E.A 8 I JXw I.sXuXaXO.gXb.F.~ m ( R.sXfXfXuXj.5.K.f.,.CXR.; ; D NXD D jXK.J.+.2.y.T r ] l.n.D.l f.xX:.e } q.R.s * Q.w.D.W h z.J.{ l a.p.l.+.m.h.0.0.j 6.6.W X.g W r.> &.6Xj -.g O.sXu.,.<.> p `...].'.'.F = gXK.E.# i `.T.; l pXoXP. X] u w.gXoX' a K.J.R R 7.a.wXBXE.n (.| ,.sXfXaXC.p + &Xb 9 BX# F SXpXtXlXD @ *.#.+.x.v.tXI.+ * _ pXm.Z.# 0 zXf.sXdXl.] @ Q.e.z.gXO.l [.H.%.:X!.T +X.X.XX.j p :XUXY PX/.~._ ' ,.VXi o NXCXi o KX=X3 * R.P.Z.M > ;XBXi VX3 > 2 `.BXS. .3.D.5.5.c.k.O.t.R e T.n 5 e [.DXD qXfX9Xp.| 3.dXsX5.E 6.R R B.7.} 3.k.! g {.l c ..' $.b.c.yXpXW t x G.gXi.3.p o = `.| e :XPXB o KX%XM (.R R #.:.#.m.tXz.h.z.5.i.J.[.D {.C &X@ M F 6 + o = &.p ^ -.].].` :.l d _ ..j g c S. XNXC o *.~.F X 8 3XU , 9 gXhXwXi   o U.:.W (.g ` NX@X].=.i :Xo KX4XC ~ q.8.kXeX>.i SXY.&XHXB %Xr.+.h | `.e E a !.+ @  XL.O.l.5.3.s.3.6.p ]. Xu *.@ i E.N + >. X+ W.[.j.9.8.7.c &XKXZXv F.7.< ..@.'.n @ D AXP % c C.{.M - &XM H n C - : y t M >.#X_ @ $ X , S.aXn.+.g Q ",
"R h {.l u.pXc.5.| L.l O.OX[.R.9 * v (.E d.f.NX|.e.} 5.| d *.#.} ! $X5 o !.2 *X!.u  X* *.{.<.lXhX' r.Y.T.:._ M.iXlX] 8 8 N > -.].lX .< ..P.u.v.xXS.f M.pXl.O.W h R.- z %.@.pXf.S.o 3 %.kX`.a + ~.N.S.#.` h.lX'.# o Y.w.3.3.3.J.5.x D.sX0X# # # 9 `.Z.` B.b.S.`._ 4.gXi ^.&X$ o q V 7 E.s - e ;.' g j ` O.j.tXXXc.c.n.l :.`.; u.pX@.' (.g a ^.PXmX= R.s Z S 3X5X, hXfXuXx.c L.V. XR.4 ~ @XfXfXuXyX3.5.b.g.iXVX2 A 7 K bX0 g.K.pX5.R ].t.g x 6.l.i.a.a yXjX_ g | r.,Xm g t.D.l.x | D.D...u l.pXd.c z.z.5.8.} G.k.! 6.E ` w.' A.p 1 y U.B.gX%.d # o ] `.| 6.S.BX0 @ d.gXC @ i {.U.+ x sXn.V.D Y.3 =.gXp.K.' p.pX` p ' >.LXmX0 ~ ]._ ,.fXfXaX7.R.0 q =X= <X@ ^.VXg.pXwX9 @ &.#.| p.c.tXI.+ , L.aXwXz @ <XlXg.uXdXC.e * R.e.z.oXJ.h B.K.V.[.E ! G.oX.X3.T x ZXUXHXLX/.~.9 { S.VX9 , kXVX3 n PX&X; * `.zXu.=.a }.d ' kX@ w e w.gXp.3.z.5.5.5.j.J.} } X.] p b b p  XCX, qXcX9XO.W | tXsX5.x W R  .s.7.} 3.k.W R T.&.a 2 @.hXl.j.yXsX7.g j G.z.c.l.x + 9  Xu 5 E.PXB % &X6 T.!.Q W X.&.e oXdXj.z.h.i..XJ.NXAXF C &XV R.&.9 + s M Y.~ g ^  X].` q.l =.;.=.-.~ a <.NXR.@ 9 nX*.3   4X4XU # @ b.sXS.f $ . M (.W ;.p (.BX;.].< b <Xw PXV e (.C.P.' L.'.i LXw 3X&X, {.[.3.+.B.R.e a i W.o o }.pX5.e | h.h.| | x w.[.x *.; o q : 4 ].>., mXZ.j.5.3.s.>.4X,X!.x D.OXp _ wX<.G 9 Y.ZXN % =.@X^.6 8 A = Y.*.a - y ( y C ^.`.] =   X , wXsXx.O.p Q.",
"W j M 2 _ sXdXyX4.O.@.H.h.@X).* u R.(.W N.eX'.E C. .G.| ~.F c X.} (.< + 2 M ZX3 [ A.+ ~. XD eXVX&.p a !.:._ 9XyXhX[ * 8 7 M v W kXj < ; [.p.v.xX,.{ sXtXi.O.6...5 + 2 N.m.tXO.A.+ o #.kX[.l a ].[.[.` } k.zX9 o o f ' 7.3.3.k.5.` H.xX0X3 w 0 D [.$.x F.H.a.D R.k.OX[ *XU X n m 4 / ).4 - y |.N.j x W +.j.XXXXc.c.OX[ i {.; O.gX[.l =.a &.KXPXq 9  XC 7 5XFX% n xXuXsX@.{ gX%.NX6Xe g @XfXfXuXyXi.i.iXg.zXc @ 3XJ ,XY.3 lXM.J.+.x 6X] e ` J.OXu.@.d xX0Xl a -.|.!.- ] 5.z.5.5.D.| $.A.u u.pXH.x j.h.5.4.f.H.+X .} } | V.K.L.v 4 7 U.w.V.z f 0 o _ B.7.a.,.1.o o D  X7 + 3 {.n o p.yXiXd.> i F 3 L.x.x.p.u.iX' c z <XUX&X; R.]._ p.sXsXaX@.`.F 0 =XK K # :X XM.jXD @ @ M ;.` 3.iXx.hXi , 0XjX<.= W.AXhXyXuXiX' ; 5 ~ q.0.h.oX_ V.0XM.a.h  .0.n.n.3.R h bXUXPXLX}.*.> ' wXlX3 c BXkX, 4XHXJ 0 @ ~.zX| w...[.9 ,.'.o q u 3.9Xg.3.h.h.h.5.z.OX` W q...v C y r `.nX# uXvXsXu.E p v.sXP._ 6.6.k.J.6.6.3.k.R R {.> >.l hXpX| z.c.dXP.E j  .j..XoXB.; v nXi n U Y & % + 0 Q.s k X.-.p < jXdXc.j.3.j.pXJ. X~.3 ; B &X>X=.i = ;Xu M k g g NX X..-.u `.(.;.Q -.p `.BX5 ; }. Xi > q JXB B # A.jXtXlX<XU 3 F (.} ..x ZX>X`.`.@ W.*X*X4X8 k -.} L.@.V.eX}.AXw 3X8 i  XG.D.J.F.-.p a H w   X '.jXc.x ].k.k.` E x B.@Xx =.* o 7 - k |.&.=X<XZ.j.5.+.s. X4XZ Y.c s.J.#.u 0XA.H 3 ^.mXN % r.kXQ.8 N @ 3  X~.5 e t / m 7 ;XE (., X X # H.sXoXO.U.%X",
"-.R U.* a hXuXuXm.' @.H.0.+X] + l {.|.E *.VX{ l ].- #.:.4X= d =.W T.* * u R.4X@ `.O.+ *.[.O.<.AX,X+ s &.~ ] m.yXjX` $ 8 b {.;.:.v @ 6 @ *.d.v.sXf.M.dXaXu.+.k.7.l u &.' b.K.l  X3 o T.w.N.O.O.[.[.A.W W G.$.@ o # 0 d C.+.3.k.3.' iXcXM.# F _ L.lX_ E  Xd.[.f 9 [.s.>.>X!.< R.E t T.T.< - 6 (.C.X.W } 3.i.j.XXc.j.oXZ.; *.u @.gX@Xl h s ,XPXU + i NX7 N &XP + &.xXuXlX' @.lX_ `.BXQ 1 w.vXuX9X9Xb.i.9X,.*.@ 8 4X;X}.# d jXpX[.=.l >Xh r .XdXu.,.lXgXxX,.a ~ 5 R.p x B.8.k.k.@X` c $.L.l p.iXH.c z.5.5.d.p.x.oX9.} } +.oXjX@.;.e 7 %X[.O.[ >.%.zX@.b.d.@.lX0 X # 9 :X% o u |., 3 iXdXXXi.> o J + D wXS.gXi.m.wX[ F PXPX7 p t.].c O.p.sXaXN.`.O. X^.mX, s >XV..XgXY.+ @ F ;.' ' k.XXjX'.# f.lX9 q KX^.lXXXdXx.c 3 s M (.8.h.n.H.H.pXx.H._ ! e.n.oX3.W u mXUXUXLXBXf + 9 lX[.; l eX'.0 HX3XKXW.+ `.zXx s.O.kXz S.<.o w l s.tXv.+.5.h.5.5.l.k.W !  .;.-.b t r {.Y.O uXvXsXp.;.2 x.sXhX2 x q.5.l.w.(.6.G.R R kXa i kXjX@._ a.j.tXiX| j W s.n.z.k.O.[ NXZXJ 4XN N 8 # W.bXm ~ ] T.< < zXj.c.XX.Xc.x.K.S.9 3 + o B AX{.a U.U.u e r r k ZX|.] ..2 R.~.5 h `.e {.bX* _ BX`.> M mXU 8 0 *.lXv.x.cX/.w i {.;...;.|.ZX!.~.l - ).4X<X4X&Xr :.j [.l.u.wXBXbX3XFX@ c @XD.l.p.D.-.2 n n O w o [.sXXXp r.5.J.' a W B.F.E ] 5 A q r -. Xi *X:X[.5.5.3.b.NX4XA T.a 4.F.F.2 0X[.f o =XJXI @ w.gXU.7 A @ W kXY.3 s g k / A C g  X9   X X O.jXiX' ;X6 ",
"R.] T.< 2 wXuXM.sX,._ D.h.+Xq.R < -.NX^.:XZX'.l r.g :.1X=X# i *.x R.+ ; E >XE.o  X' > *.[.$.>.>XLXb p R.~ [ pXaXsX;.: 8 s |.c {.W.q A * = >.tXdXM.yXuXsX@.| n.3.E c |.* 4.i.e |.s   U.u ` s.4.I.].R.E W @Xc @ o w n 0 `.6.3.l.p.' aXvXM.# rXM.jXgX' l  Xa.eX:Xi { C.`.Y.`.- ].`.r T.T.e - s ` 7.F.` W | +.l.oXj.j.XXgXu a c @.gXI._ l ;XPX4X, U.F U.; V S A &XR.xXuXzXl u.hXA.z NX{.1 h gX9X9XuXx.@.v._ v * s ,X>Xl = $.pXpXq.x u  X5 h pXx.' zXVXI.hX_ l (.5 g q.G.k.5.s.D.H.@.c A.V.u.XXtXd._ l.5.4.H.M.tXtXj.} +.oXpXM.d.@Xx 1 E.].L.`.3 ,.sX@.iXi.V.BX$ O # 3 W.% + 5 `.> ' aXyXc.s.:.W.@ X z rXN.[.u.K.VX0 =XPXFX: -.B.B.l i.u.sX0X'._ O.lX}.:X, K >.H.iXK.{.0 + F A.O.@.3.XXtXhX9 D NXo HX&Xf gXyXdXO.c *.6 E.2X;.5.h.P.a.@.d.L.` W 6.n.XX8.` a ZXPXPXAXnXn + i VX<.; i  X<.F 4X3XmX, # }.zX` i.4.[.' S.{ X 0 ..H.9XtX+.G.k.s.s.i.7.W ! 2.w.Q 4 e j :.i w vXvXsXO.r.h 4.sXCX5 - -.3.s.(.-.6.8.R W gXi._ gXiX' | | p.tXx.O.W g  .7.h.z.k.$.BXZXU &XI N $ 7 PXPXQ.~ -.^ * b _ O..XXXv.@.@.gXZ.i 9 n : X W.ZXM 2X2 2 ~ ^ T r 1X!.....; {.R.; x $Xh ).M = [.gX~.o F <X% 8 }.lXCXa d CX/.# d  Xw.#.=.6X{.!.Y.z 1 ).<X=X&Xb r T x B.l.d.kXZXmXPXFX@ [ OXJ.p.p.k.=.; 9 0 , # eXhXx.iXl [ l.oX$.l x F.F.j E -.U.; g (.2 d :X>X[.O.5.j.iXkX=X8 2 5 $.V.L.' M.wXi o Y FX& + | zX/ 8 A @ +.zXv > T.Q &.~ ( E.] ].F   X o { gXd.Z.3 n ",
"p &.-.j + <.jX9XaX0Xc 7.h.z.z.3.#.2 n mXZX{. XE } -.{.ZXC U.d [ l -.@ u :.6X> *  X' a `.[.| %.=.BX(.W `.u v ' zXgX(.P $ 5 >X5 @ A &XS : + 9 jXyX9XsXuXuXf.` z.3. .;.|.- E B.6.|.+ @ W.2 _ V.f.Z.&.R.W W @Xx + o 3 0 @ `.7.2.p.b.O.pXvXuX{ xXyXyXpX` p  X'.kX{.i = U.1X9 ^.~.SX:.r :.-.g t ] +.3.P.E j W | D.J.z.j.XXpX' 9 z O.OXP.E a 4XKXV i nXU.2 7 E.-X;XC 5 aXxX X3 x.iXkXc <.NXe 1 >.wXaXvXx.p.x.l.%.l _ 6X;X4 W J.m.b.(.r e |.= [ N.O.Z.SXwX1.kX9 ..X.| 3.h.5.h.5.G.@Xl.s.c $.d.iXyXtXd.@.l.s.A.<.M.yXyXXX .z.oXK.,.,.zX| b m @X@Xz = kX@.O.gXH.'.bXLXU o , W.% $ 3 ;.3 Z.pXiXi.k.C.&.@ $ ZXNX>.%.$.eXNXf HXJX&X< e.G.$.' P.j.dX0X`.i g.jXxXrX&XH _ pXpXb.[ 9 = v '.g.[.@.j.c.cXf D Y.A PXo R.pXdXc.@.' R.q %X2X..5.h.V.$._  X'.E E e.n..Xk.W l :XPXLXAXnXw o { cX<.> u A.>.^.3XKX=X= o ~.lX5.j.j.f.a.wXd X f C.h.x.iX3.G.;.w.3.s.k.| W 8.q.] p p T =.{ 0XDXfXsX@.a._ O.hXcXO.@ v 7.a.2X&.2.8.W W m.v.yXvXiX4.| | 4.iXtXi. .j j } $Xz.h.3.nXbXA N P S O HXUX=X&.-.~ 1 - : + z pXc..X@.| ' $.*.i 6 + X w =X1X&.+ p ].2.r g !.!.-.Q 3 :XR._ ` @X=.&.= [ jXpX*.X U.U.+ F lXlX~.o = VXF 0 [ %.N.' M U.] T.*XW.4 ).&XZ V * j :.#.| L. XbXKX=XHX3Xo R.gXP.i.+.l.&.= 3 F *.{ jXqXg.zX Xa J.oXB.p R P.@Xx C.W 4 r R =.X f {. XB.5.j.pXv.kX&X8 > u E L.b.x.yXhXi , 3XU & : %.gXm : Z - V.lX= 9 R.e j j U./ ] ;.^.  X X %.zX].c c [.",
"l =.^ ^ + *.pXyXv.cX' ` z.h.z.i.D. Xq HX<XY.#XW x R.H %XM v d D 5 ).; M {.).; s T.c _ ].h ` B._ [. . .`.@ M i <.BX&.=XP ; !.@ # 3 E.&X8 % # V.yXuXfXuX9XpX| z.h.3.#. X- 2 `.[.=.@ @ W.@ _ gXV.O.a T.X. .$Xc + o 0 9 + *. .9.p.n.u.v.uXfXqXxXuXyXpX` e  X[.h {.v X H ZX0 *.SXVXc W (.e.e.q.8.5.i.@X| W } | 4.k.n.h.XXXX+.i a _ h.gX' p U.C t u >.v s s ;X2X^ r 4 iXhX~.= K..XJ.V.' BXM 4 a NXxXuX9Xx.p.oXO.h D.#X!.< gX.Xu.P.].1 x `.+ {.`.kXnXrXz { '., ;.} 3.h.h.h.k.5.zX[.i.K.%.c u.x.yXtXp.O.D.6.`.[ @.x.yXXXj.j..Xl.N.{ pX3.4 M @XJ.; 9 lX@.zXL.S.rXIXHXO O , C O O 5 r._ '.g.pXp.G.` 2 # K LX:.%.>.d `.nXbX4X4XV 4 F.z.' a.n.x.dXM.*., m.sXyXzX<X6 a.pXXXb.>.# n f wXpXI.e 5.m.aX@.i 0 U K # `.pXdX.Xn.c >.E.4XT.] 8.s.D.' &.:X}.h 1 q.i..X5.! h ^.LXAXVXnX3 o f.cX>.> d [.'.F mXmXH 9 + Y.jXj.c.x.O.a.kX3 o &.L.+.p.hX4.O.e 4 g 3.s. .W k.w.E p g ^ (.z aXvXfXyXx.gX@.| pXcXg.< - w.].,Xp y.9.X.E p.x.uXp.u.gX;.[.H.m.yXsXOXE j T 6.G.h.h.Z.!.8 % P S 5XPXmXW.-.T.m * - C + i gXXXpXx 7.6._ `.0 @ # 0 n H 1X5 - (.G.0.T r Q.W.^ Q v !.*.$.O.L.NX4 a zXpXpXf o ^.&.2  XlXP.= # o }.Y.# <.N.O.W ~ / ] R.4XZ 4 Q.C 7 q * j ].[.| $.nXmXmX5XKX5X:  XJ.gXE 4.J.D * > d [.hX0X,.lXSX/.+ I.OXD.x E OXOX` q.;.Q W o...5 ;X{.r.' l..XXXv.kX&X% ;X:.x F.b.v.yX0X0 X 3XN & @ | gXe y E.* E kX= ;X-.E h :.2X~ =.=.R.o X + Z.gXE z 0X0X",
"*.] Q -.* 9 pXuXv.pXL.R k.h.c.h.J.`.=XKX&X!.@X .u ;XZ V C ; 0 F @ U.2 Y.1Xa u :.5 a *.d * _ gXW OXO.3.].@ H &.e 2X/ V 5X( < o }.VX5 <XA O @ z 0XuXfXqX{ aXp.k.3.5.| |.e o M  Xl o 8 q + N.OXl.| u T.q. .].v @ o 0 M X F w. .i.v.x.aXg.f.D 0XyXXXgX' u [.[.p U.6 X n *Xf i rXlX_ 4.s.9.k.5.5.h.h.OX5. . .| G.l.n.j.XXXXl.>.[ s.5.D.Z.E W j Q &.[ _ E | NXT.r k r p.lXn 3 0Xc.oXp.f.xX;.t a %.jXyXsXv.p.z.5.3.J.[./ 4 gXc.j.OXt.1 q._ @ }.BXVXf , , ~.D 0 w.} 3.z.h.k.B.#XkXgXn.K.V.D p.v.yXyXu.@.k.F.T.&.{ f.yXdXc..Xh.3.I._ m.D.< m OXgX2 3 VXlXgXF.[.AX=X.   $ # n % o u ;.A.{ ,.jXp.D.E 3 q HXNX;.` '.l &.bXMXU 3X* v gX3.x K.c.yXyXg.' > v.vX@.'.W.2 L.dXyXdX`.o G f qXjXN.* h D.tXm.l w % o z I.hXc.iXoX@.>.,X4XR.-.9.5.J.' b W.|.< < ;.5.+X0.! R -.NXBXBXnX0 o ,.cX<.> ' gXeXv <X%Xi &.+ ~.jXx.v.b.b.` D.u + R.[.W f.hXd.O.x * O.k.k.| } k.w.c v p _.:.D vXvXfX9XyXpX4.| oXvX9X&.@ u ;X%X4 y.0.} E m.9XaXu.a NX}.BXI.K.x.sXpXW j g ! G.z.h.D.:.= @ S ( 4X=X^.>.x ).7 * - ;X3 , zXXXpXW W ].N.`.m ; # n 3 1X*Xs _ D.z.z.T j %X( T.Q ; M *.[.p.f.`.< K.jXyX0X0 0 Y.[ N.lXgXi + = # Y./.i [.s.+.} U.r ! R.4XZ V E.; n V @ x F.F.c z bXHX5XP HX=XM [.p.gXc O.[.a ; + l zXlX0 H LXbXH X ' [.gXh R @XL.x } X.X.o.y.W M *X;X`.` n.iXx.b.NX&X% ;X[ h N.OXp.yXhXi X 3X8 & : A.[.1 m Q.- ' '.d Y.[ R.v &.] `.] *.^.=   # gX+X| .Xv.yX",
"D >.R ~ ; = b.uXyXj.gX` 3.k.j.n.OX`.4X&X8 !.$X .4 U.S S E.* @ n 0 !.l {.<X@ [  X@ 5 *.u @ ..@Xj.iX| h.[.s n  Xe e A $ B -Xs @ z CX[.H A & o , S.fXvX,.D sXf.l.4.k.} ].k + = `.`.# UXK o [.n.h.e.e M X.X.(.m $ o b M # f ;.3.i.x.v.sXxX,.0 I.tXx.gXW h @XOXw.m @ w W.f {.9 lXgX' p.i.3.h.i.i.j.j.5.k.2.}  .G.i.n.5.XXoXH.[ d B.l.O.[.7. .y.-.] [ 7.+.zXC.- k T j @.kX0 0 gXc.XX} ,.cX[.h p E pXyXfXv.p.z.k.D.[.r.4 M zXyXj.OXX.R F.c = BXVX`.M o 9 }.3 _ #.5.l.i.n.F.|.NXa [.pXx.K.' p.v.XXyXj.i.G.].k R.%.u.pXyXx.l.3.5.K.u.dXP.m e H.lX[ 3 VXf.3.B.kXY.. O   X # *X@ @ &.[ R.3 @.jXx.B.a 0 3XLX&.t.R [.=.l BXH U &X; `.gX_ | iXx.sXv.p._ 3 aXsXx R.v u zXM.v.sX<.o D { hXjX>.; a l pXhX{.> % + ' jXI.| tXpXK.%.;X4X!.:.6.5.l.Z., q  Xe p [ 5.z.z.} T =. XVXlXwXf o f.jX<.3 4.zX}.Y.E.s =.(.+ G xXyXv.m.iX| 5.a.e r.B.g g.jXu.d.A.O.zXl.5.O.3.D.$.h Q Q _.] ' vXvXfXuXyXv.O.| x.vX9XW p + *XP < y.9.W ' pXM.iXK.9 9 ; D d.p.O.sXpX5.j g j y.n.h.l.[.u ; m Q.A b }.' t M * 7 &.{.9 , zXXXpX3.j C.Z...&.U.* F = {.U.&.+..Xh.z.} :.( 7 ^ ^ * C >.zXg.@.E ' tXsX9XL., n d ;.O.VX_ i 3 Y.F # G nX_ $.8. .-.r p U.mXZ A 6 e {.= = E kX[.a 3 ZXHXP B 3X,X{.@.n.gX_ i.L.u * * }.VXz $ PXmXn n o = kXgXc E C.[.l ` 2. .} ].g i *X!.*.B.n.pXp.S.>XP & s Q a #.gXO.iXzX0 V 5X8 : b [.F.e m T.* `.z v &.>.=.M ; l [._ R.R.9 X , lX5.3.yXyXuX",
"3 ~.] Q 7 + O.dXdXj.m.O. .k.c.oX[.|.1XZ : ,X$X8.Q m < C E., o q H *._ >XJ o [.'.@ 3 T.l ; [.P.oX.XO.p.zXs 4 zXD.< V 8 % M ).d , eX<., A % @ i S.fXvXD D aXx.i.+. .+.e.h @ o [ NXn IXUXO N.m.j.F.p M ] q.r.s % o b F 0 F R.+.3.u.v.vXhXg.{ S.m.c.gXx x gXoX[.5 > &XW.3 BX= kXzXO.n.p.5.s.j.i.x.c.5.h.3.2.2.5.3.p.5.j.gXO.0 v [.J.N.%.6. .8.e.}  .j.gX|.< t -.k r :.nX# i pXXXXX+.M.vXpXW j j p.aXuX9Xi.j.k.[.&.s ; {.gX5.c.XX9.6.F._ i LXNX=., + >.S.l N.8.5.j.n.j.C.AX=X+ *.gXv.m.O.x.XXXXyXc.i.].(.e (.' O.K.4.u.4.} 8.pXp.tXs.h u Z.VX|.l lXf.3.G.}.bXU   . O # R.; ).:.D q X 1.jXm.@.2 H JXHXa (.' w.kX| kXi A b h @XhX' b.x.v.sXj.D._ 5 gX' ..R.2 ..0X9XyXdX<.  F {.f.gX>.@ v _ O.lX{.@ o > d.jX_ D jXtXM.{ =X=Xm ] 6.5.h.P.@ =  X` h E  .k.z.2.W -. XVXhXwXf + 1.hXS.i m.OX:XKX,Xf R.{.+ 9 jXyXtXtXpX5.5.zXV.B.w.E u.jX@.i.b.n.lX5.5.O.5.B.%.D R.T._.E { DXvXfXuXyXx.| O.p.fX9XE R.@ J A - q.9.W a.0X9Xg.lXY.= = D I.u._ sXtXpX} T g g P.j.i.OXr.e j T.~ M |._ W Q E.Q.Q ).0 , I.XX.Xh.R e. XW p |.:.i > ^.M l J.j.j.oXP.q.b 1 T ^ @ C N.lX0Xd _ K.yXfXM.,.# F l #.;.;.@ >.D '.~.X F ^.> >.k.3.X.j < E.LXU b < w.r.+ > &.;. XR.b HXHXI N FX&XR.P.gX$.N.b.D.5 * c BX~.  n PX3 W.0 + + ~.zXc c [ {.l x q.o.X.].e [ bXE.v @XoXj.s.K.}.P & @ M h ` [.@.S.'.f =XP $ : ).kXA.e ~ T.e R.9 ^.v  Xc M o @.lX_ >.r.D   G zX3.i.XXyXuX",
"@ `.:.k 7 + c iXsXdXj.3.} 8.c.m.NX{.;X/ q M  X`.^ y 1 -XC V mX# U._ w.NX= = kX[.> 2 M [ ; kXK.c.oXO.x.wXv 4 .XlXT.7 N 8 e `.~.}.*.+ # W.= # G qXfXvX0 <.jX0Xi.+.6.| |.&.@ + = nX/.=XUX&X`.H.h.F.k p R q.W v : X s M X f R.| 3.p.f.cXV.0 S.{ iXp.@Xx c gXpXD.; n W.s i `., <.gXO.j.i.5.k.j.i.g.m.b.k.2.2. .3.u.k.5.OX[.3 @ f w.@XNX..X.2.3.G.8.k..XgXh * ] o.^ t -X;X+ *.hXXX.Xj.uXfXjX5.r g ' pXdXyXj.5.l.].< < 2 v c 3.XX.X3.3.B.A.AXAXkXa @ = kXV.' a.P. .x.b.D.NXKX7 o , wXtXpX@.j.j.XXyX.Xk.|.~ r `.$.$.[.c d.k.` +.f.O..Xh.C.p %.kX:.x f.pXz.P.*.w mXK . X = >.;.C.;.v X X $.hXpXH.@ &XKX=X< t.C.j Z.#.gX>.M 3 Z.hXK.{ .Xc.v.dXi.F.h a [._ `.u p [.0X9Xx.iX'.f Y.R._ gX`.@ 9 R.' L.nX* o &.gXpX, *.lXtXaXV.=XA 5 p 6.5.i.G.a i  X' a u } z.+X2.o.-.>XBXiXgXd + i kXwXD iXK.bXKX!.-.-.).> i pXdXyXc.dX' e F.J.s...c p.xXu.i.j.c.pX+.5.| 3.s.%.z {.{.^ c ,.DXvXvXuXyXf.| 3.4.fXuXE R.m b 7 y C. .E S.b.0XjXwXH <XBXwX[._ ,.jX9XK.e.R M u %.K.5.j.F.W j :.^ -.].h r (.!.< h `.w = a.XXXXc.} B. Xc p (.Z.$.c `.] ;.J.j.v.m.pX..y : m ~ @ n V.cXK.i u.tXyXfXf.{ , Y._ ].%.5 ; `.@.H.wXd /., o ] h.0. .Q - C PX=XC k #XE + 6 f > R.9 q HXFXN & 5XA R.@XP.2 _ K.d.; 4 kX'.i . mX&X+ :XU.2 + c VX_ 3 {.1Xv =.t.} ;.|.- D BXH v @XXX3.D.H.>XP & 8 / h c B.@.f.}.n A B $ m 6XkXN.4 ~ :.p F v u l kXc m o d.jXO.O.F.O.o  X@X3.j.v.xX,.",
", }.`.k 7 + 9 wXdXdXx.s.` 3.c.zX{.;XQ.Q v a {.>Xm 1 g R.U.E.4X= *.{ [.`.o F gXjXu 2 v &.> lX9X.Xl.' aXg.C.x x.aXlXf V % 6 *.[...+ o 0 /.f f { 0XcX9X= <.gXu.p.u.O.[ NXs = @ + *.nX/.LXHXG >.d.P.~ g E C.;.{.% o Y.*.X 0 R. .3.p.g.CX~.X { { 4.B.|.h _ @XgXO.+ Y.2X9 c [.9 [ [.O.s.i.5.j.j.p.p.K.F.B.6. . .7.+.3.s.].9 @ = 0 `.BXY.R.#.2.3.s.J.+XpX4.4 j } ! t.r &XZ @ {.gX.Xj.p.xXfXjXs.g T j I.yXyXc.3.F.R.- 7 > 2 u.sXXXc.s.G.k.kXVXnX X5 @ 3 '.d.p.j.OX3.b.H. XZXC , o + Z.iXiX@.K.oXj.XXXXD.T.b v -.F.O.`.e b.iXE O.D _ d.k.OX` { [.;.p = { k.].0 . # mX3X  = [.P.7.|.f n , O.pXtXhX# =XHXb 5  .[.j r.:.w.SXE.5 D.iXtXp.c.XXx.K.$.C.x #.[.#.~.z `.[.aX9Xx.OXS.*.:XM N.P.F.2 # &.Z.{ lX9 + !.kX%.# W.SXhXaXzX=X8 v g #.6.5.l.' c $.z n = | 5.+X2.} -.1X}.pXpXd # # rXhX,.pXS.AXmXR.(.x ~ C v b.dXv.v.sXu.+ > L.O.&.c d.m.5.i.XXXXJ. .5.| i.d.O.c >X!.k x g.DXDXuX9XtXs.E #._ uXuXW ] T.m * / ].! h '.V.VXI.' *XLXrXkXl i f.sXpXx.} R 5 M >X@X3.0.OXk.} ] T -.#.| k.].u * W ].9 0 L.c..XdX .s.`.~ v p w.a.V.<.l (.OXj.tXtXiXE b : y / * s K.xXO.' x.yXuXfX{ { 3 d 4.OX$.p a gXi.j.aXgX/., o [ OXh.G.] g 1XKX&X< &.{.5 o q n bXmXB Z HX3XN N 5XP =X'.L.+ v wXa.* U.BX3 ,   Y # d 6XC 2 e ;.P.| * 2XH &.(.t.o.;.(.; >.^.Y.&.zX3. .k.[.>XB % A k a l O.@.,.}.> * 8 7 E.2X X;.4 ~ (.g W.W.3 lXV.a M * _ cXf.O.l.4.d kXP.+.c.sXzX0 ",
"i `.-.Q 2 + @ `.sXuXv.J.|  ..XzX*.;XT.-.(.] v ZXA 1 j -.T.u q w >.N. Xi @ }.tXsXl 5 i 3 # gX9XpX5.| aXaXkXW M.sXxX$.&XN 6 g @XB.9 X d ~.3 D g.0XDXD , eXL.O.l.@.[ bX1Xn * + @ , kX~.KXJXq i H.D.-.p E w.|./ %   v ] @ 0 :.O.+.i.M.VX9 + { 0Xl C.6Xg _ OXgX| * {.2X2 r.Z.[ 9 NXw.s.i.3.h.j.p.u.P.B.` 2.6.o.7.5.3.7.e + # D eXNX!.= M C.5.5.4.n.pXl.E e Q o. .].Q V V @ >.I.j.5.j.9X9XsXP.^ y j } p.yXiXi.`.p 4 s 5 %.sXXXXXh.| 7.k.d.,.wX X< @ M O.x.v..X.Xp.M.wXZX*X# B 8 o { gXI.c _ 4.j.iXn.8.p k Q e 4.' C.p j.sXc d.,.@.` k.n.z._ kXC.R >.].P.X.w $   K MX1X[ [.i.L.:.i Y.d u.aXv.gXn 4X&XH eX_ OX6.|.v c BXe x J.dXx.c.XXyXp.b.` #.+.@X7.a &.D `.[.hXM.p.pX[.d F F C.} s.D @ i A.@.d.c 3 >XnX2 0 AXVXg.yXVX&X% u C...6.5.z.@.c { D i 0 E 8.+X3. .r.!.D jXm.D , @ rXaX9XpXwXAX:X;.t...Q %Xs O.pXdXXXc.OXz l Z.N.&.c O.H.7. ..XXX3.| 5. .5.i._ <.ZXM ~ E f.DXvXg.yXiXk.E q.' M.fX` ] ).k 1 (.t.R u '.L.kX[.9 LX*Xz kX2 c ,.sXsXx.` #.).1X>Xr.e.9.h.z.a.`.-.Q 7.I.gXE @ ; #.[.3 &.@Xh.tXdXj.J.|.~ &.@ l V.a.%.* < e.oXXXtXpX..b * y U.@ v jXx._ d.tXyXfXyXD { , a gXoXa.c | pXi.i.jX[.F + + `.J.n.7.] &.ZX4Xq p  XR.; * Z %XmXB Y 3XFXY & N 5XU &X].a.o *.wXO.; :XF   # % & o ] #XM ; E ].8.#.* 0 i {... .X.o.r.*.&./.;Xc 5.n. . .@X{.8 : m < u h _ Z.<.Y.= ; 1 m %X1X=.W p T.r.p ;Xf @.zXO.l v 5 d lXpXO.5.5.u.gXD.4.9XxXD $ ",
"*.R.E ] x &.+ &.lXuXp.iX+.R k.d.,. X|.R | %.&.!.7 : ^ Q (.2 B J ;.].;X= d pXyXyX5.` p @ # eXhXtX3.5.9XxXgXa g.fXdX4.!.&X6 1 P.OXA.5 D _ o { 0XxXCX, , }._ O.J.%.bXMX*X4X8 + + + >.rX<XPXHXf V.H.q.j '  X~ S % . &.E , w ..O. .s.g.S.# # b.jX_ ' #Xp ' K.pX| a {.n 3 &.{ wXz  X].V.i.+.3.8.+.| G.k.` W q.| +.pXJ.] * = %.zXVX>X3 + e D.i.@.u.p.pX5.R R ! 2. .gX`.b V * ..K.4.5.n.uX9Xx.| ^ ^ k g O.lXzXZ.t.t g R @.pXyXyXu.3.u.u.d.O.{ lXA.- @ >.@.tXu.tXtXp.0XrXAXK $ 8 A X D zXV.3 E 4.3.G.@X| j ] ] 4 @.s.J. .j.sXO.tXhX0XR k.h.jX_ kXkXW V.zXz.X.s o . K W.NXzXb.l.kX2 >  X` @.pXyXS.W.=Xd NXVXl z.@XU.* Y.h - w.iXdXu.m..XXX4.d.E 4.5.J.s.u 9 G ~.$.hX0Xp.H.'.D 2 #XF.R O.N., 3 ` F.@.' N.BXC A AXBXCX9XM.zXV $ 9 kX..6.0.h.d._ $.D # n l 6.J.5.3.B.l d xXx.N.9 o hXxX9X9XzXNX<.| F.C.R ( s O.n.pXc.c.jXN.<.@.CX XE l L.g E pXn.W | e. .O.@.O.[.1Xm Q ` 9XDXqX9XuXdXB.h #Xs.M.vX| ` (.p R t.e.x < [.D.gXS.}.KXo i >.4 B.x.sXyXg.O.@X].k M ~ 6.9.0..Xp.V.:.] I.K.' ; @ s ].` * &.@X3..Xc.yXiX$.Q `.; i [.[.l - 4 * %.aXv.g.<.b : 6 C + ~.lXD O.b.pXyXfXtXD D %.lXJ.5.k.O.b.pX@.OXgX*.$ X = U.P.oXs.O.l %X;Xl O.@X=.4 @ Z 3X8 X 5X4X3XI N B &X5X&X XN.; `.gX_ ,.}.$   o % O o ] ].-.- W @X8...@ >  XA.6.W 8.} } u H =X:X(.+.OX9.} ].T.@ N C @ 2 v l >XR.Y.M - r / 4X4Xp j h `.w.h U.&.K.pX' l x h 9 '.zX@.|  .c.tXj.i.aXg.w # ",
"{.T.l _ ` >X+ 0 lX{ d zXD.e x K.jX@X} g ` A.T.C 8 8 ~ R :.3 q *XN.[.M + S.yX9XdXoX[.[ > 0 rXgX' g n.x.aX{ u f.vXsXi.[ %XC @ +.oXJ.u.@.V.3 S.M.xX'.+ 9 '.' D.[.<.LXK n W.5XN X + 9 NXK HXKX=X,.l.6.W L.C.m A O   Y.l @ n [ O.| 4.u.L.D D M.pXl.O. Xe ' K.pX3.| ] = > > { VXa.[ =. XF.3.2.w.} ` F.n.h.R X. .} lXA.h ; N.zXhXwX{.- < E K.x.4.l.g.pXoX .} o.2.3.gX[.m S * A.gX4.V.O.sXfXfX4.-.^ k p ] CXkXA.:.j R | iXuXyXyXn.d.b.i.l.u.qXxX`.5 i N.p.yXp.dXv.x.0XVX<XA o o W.o D gXL.O.s.` 3.| | +.2.X.q.E C.@Xk.3.j.dXv.uXdXaX .8.O.gX@.V.OX+.` k.G.e.Y.@   w *.$.J.j.zX{.@ * '.j.@.c.tXS.*XZ 3 BXL.5 h.zXQ 9 U.e W OX.XtXp.m.tXc.5.p._ l.5.j.zXc {.IX~.'.S.,.u.I.|.u l gXD.| O.gX*.3 a `.V.,.kX:X&XLX}.0XlXM.g.kX7 + =.kX` #.5.h.H.O.kX*.3 f R.+.J.h.5.s.i D xXp.Z.c # VXsXdX0XgX[.O.| G.8.q.M / (.8.hXj.p.jXwX{ f.zXs.` _ [.< h J.J.x ..e.+.O.u.gXNXQ.y ^ | M.DXfXqXyXm.B.R #.d.M.xXO.| r.h } 8.w.p @  XD.l.[.AXA X n D l jXv.uXyXv.u.O.j t k T.y.3.9.j.iXO.' C.I.[.d 3 = U.`.u o l kX5.x.p.uXtX_ ] w.l ~.*.~.9 @ %X5 5 pX,.@.`.S : ; C + nXVXz O.sXtXyXfXaX{ D wXI.| 3.D.5.b.m.@.0XeXd o X q i F.j.i.B.a M R._ i.OX;.v o Z N . $ 3XHX5XN & 7 Z 4XE. XE 5 '.H.f.BXi X   X % % + h ].`.e T G.$XX.+ Y.eXc P. .} e.;.F w *X:X] #.P.k.3.8.-.* S E.@ = H s 1XY.F R.e r ( KXU m Q x C.6.r.|.'.b.K.l h &.&.a *.hXu.| 5.XXXXc.p.cXG G # ",
"*.&.l _ ` |.o # eXD + <.iXp.sXvXhX7.W j | q.T.b 8 : v E =.3 0 Y.d.gX2 2 jXyXM.fXg.%.|.R.9 S.gXa u pXaXaXa 3 ,.cXK.' -.M &Xo E J.z.j.x.tX{ 0X9XxX*.+ 5 A.O.zXgX{.mXo s &.C &XB o + }.^.n HX=X<.l.4.| J.8.-.m O X U.3 o q >.' +.3.7.4.a.g.v.dXj.6.6Xh _ H.iXj.3.~ * > , 0 [._ c g -.(.;.} (.R | [.c.c.} W X...^.2 l O.J.gXeX~.Q t [ $.aXaXu.u.g.iXiXh. .o.6.8.wXeXE.s l gXM.H.>.d vXfXfXaX] / ~ Q &. X$.A.] x ` s.yXyXyXyXiXH.b.j.z.5.f.xX>.c C.s.iXv.x.sXhXgXzX[.U.Z %   F D ,.pXgX| s.+.5.k.R +.5.3.6.w.|.;.7.3.j.dXuXyXuXtXs.+.E K.d.d.iX5.} x r.`.].>.# X ..O.j.gXAXJ = = %.0X+.h.c.V.*X7 > BX<.5 9.@X7.c ] R B.OX.Xj.i.XXtXx.5.p.@.l.V.a.I.BXSX>X9 i [.u.' 7.NXa _ jXK.x.O.[. X9 > `.[.,.nXZXPXW.D qXCXH.f. X8 @ C.gX} ` 8.s.L.D zX'.&.z |.W D.h.i.3.5 %.cXp.A.*.O lXsXdXtXK.V.| 5.OXu.].~ / T X.@X5.u.pXwX{ pXgX5.| @.V.5 ] 5.G.R | k.O.iXlX@X-.y 1 j X.z xXuXfXM.K.F.x O.0XM.xX@.' C.x 3.B.`.* 9 AXF.p.gX*.X + }.z ' pXv.dXtXK._ ;.p 4 k T.e.9. .n.n.p.j.pXA.*.5 > 2 ~.`.5 o 9 `.+.s.u.dXsXc ` O.Z.^.*X= 9 @ [ :.+.zX{ { ~.V 8 * * @ ZX~., M.dXyXuXfXsX,.{ BX{ | | G.5.p.v.p.hXeX*.X o 0 z kX' 5.P.] e q.} n.M.O.v + Z Z o % =X4X5XN & m U.U.s |.e < `.m.hX}.+ X   % O + @ h =.|.j r o.@X3.a VXl a F.3.} :.}.> , <X!.5 W G.I.3.6.|.8 7 T.2 o A n <XM f ~.}.r -X,X7 / g R G.q.`.NXV.E @Xa v ; &.m l pXx.4.p.yXXXj.x.CX0 G # ",
"c =.d l %.&., n { L.i ,.aXsXxXg.l L.' E 7.o.m 1 8 : e &.&.3 > W.[.a.@ &.lXf.,.xXI.u ~.[ z S.lXg a pXvXpXl 9 { CXH.e Q p Z @ g k.9.n.XXsXf.M.yXxXv @ 5 ..O.zXV.{.Z X i R.9 6 &X7 o F NX> B B R.V.u.@.5.8.-.k o X W.2 o @ [ %.O.+.7.| x.x.v.tXb.Z.>Xe l H.tXm.6.Q @ = 9 rXkX5 ;.x p T.(.] ! ` ' s..X.X} R X.:.H 3 <.O.O.zX}.v ] } 3.u.cXyXu.5.4.x..XXX+. .]... X}.U.p V.hXV.[.d i vXfXuXsX].R v &.v }.[.Z.` x O.b.dXyXyXuX{ m.m.j.+X| p.xX%.l [.J..Xv.yXxXgX[. Xh 2 %X8   , <.hXaXH.a O.s.3.+Xk.7.5.s.3.B.w.` e.5.n.sXsXuX9XtXP.` O.zXb.p.pX3.} Q h -.A.>.D i kXW i.[.LXq s d i gX+.h.p.[.U.= =  XlXc ! +XOX4.} ! l.n.pXh.5..XpXp.J.3.O.K.O.D I.VX[ v d z a.J.j.4.>X:.a.jXiXf.O.gXNX= o D Z.~.LXIX%X] f.xXCX'.$.{.: 7 L.m.` x 7.8.L._ S.d.z >.`.h s..Xp.N.] >.jXp.E i # hXyXyXtXb. .E F.[.Z. X:.^ t ~ ].5.p.pX'.D I.J.3.+.u.d._ w.| D.R } s.5.sXpX[ - 1 t j w.9 S.DXuXg.zX@Xc O.pX,.xXa._ #.W 7.B.*.> ZXZXV.j.gXD o n >Xu O.v.tXXXv.O.p (.e p p -.} 0.D.l.p.oXm.b.5 U.0 = a }.{.> o # 3 ' V.p.uXaX_ ] O.'.K =X9 }.{ _ | @XwXz i Y.A 8 : + @ n o 9 pXuX9XuXuXvXS.'.<.' %.W 5.h.i.m.0XI.A.*.# o 9 `.BXu  .OX=.c R  .pX,.@.[ @ A 8 U A 3X4XU & N ^ |.k e ).g ; ].pXhXD X X   O % + + Q ;.].e j R G..X.XzX+ &.G.3.| =.U.o E.ZXs ~ (.e.@Xs.G.o.- m -.u = =XA %X0 bXBX`.j -X&X: M x | B.q...#X5 ' [.u ~ d f J a H.tX+.+.tXXXj.n.xXf G # ",
"+.;.i i &.3 # &X>.lXS.hXvXxX~.= ' V._ V.8.o.m : 7 C < &.{.9 = F NX' @  XkXd ,.xXgXD 3 i 1.g.zX_ c pXuXtXa i D xXL.g ] g !.> c B. .k.c.tXx.M.fXhX> @ ; c [.d.O.~.o X i R.9 2 7 A 8 @ NXl B JXZX`.V.s.5.6.T.b X X E.- o + [ | ' $.3.u.iXv.x.p.L. X(.g ` s.tXXX8.W = # O.lXwXa 6.q.&.T.{.R...X.E $.pXm.} } 6.' D  XkX@.u.lXR.4 -.3.5.x.aXsX.X5.O.3.XXdXb.O.q.e R.^.u v P.J.[.|.9 9 sXfXuXfXgX' c *.&.;X XF.` ` 7.K.yXuXyXx.p.tX.Xj.J.+.9XxX' p s.oXXXv.uXaX0X[.T.- - C &X$ X S.xXiXD.j x 5.3.+Xh.h.h.k.+.D. .` h.5.].d.yXdXsXx.i.O.O.pX0X0XoX| s.w.j v c `.| P.@X4._ R.=X@ `.{ = eX+.i.j.@Xu + 5 V.lXO.j z.pXp.} } n.c.pX5.5.iXiX@.n.5.4.b._ z a.%._ a > NXlXp.iXK._ #.O.K.K.O.f.hXBX+ 3 D R.LXUXU 6 ..0XcXzX'.`.T.@ C Z.d.E p 7.V.L.z b.f.= ^.Y.a D.OX5.| v }.lXp.l ; 0 lXtXv.OXO.p W (.:.{.{.-.T.m ~ `.k.n.gX<.f  X$.3.3.a.' O.B.R ].}  .k.s.oXO.; ; 6 y T #.A.M.DXuXwXSXL.` x.dXD hXH._ g Q 6.w.i <XLX~.gXc.pX' + Y.R.a pXyXn.n.p.u.' ..#.=.s k | j.J.+.j.n.J.O.* E.= = v NXU.o @ # o F N.v.yXsXA.=.+.`.A <Xd gXgXH.5.OX`.9 + C Z 1 1 s =X# # }.jXyXyX9Xg.xXwXrXd ~.:.g  .z.4.b.aXg.{ 9 n + D BX'.2 5.@XW x x  .hX@.d._ + A o U A 3X4XP 8 7 (.$X1 ~ U.&.2 V.cX,.f 0 X % % o + + x ;.(.2 =.j | iXjXb.* r.s.3.k.#.M o 4X!.5 `.:.h @Xz.9.2.r Q q.e E.HXU A W.R.z `.h 2XA : x | s.G.+.;.=.o kXO.l Y.U., 0 9 N.gXO.W oXXXi.oXxXG w # ",
"s.` a > Y.> # q '.K.g.,.p.<.# + =.7.@.D.7.o.y 1 y ~ ~ &.nX!.; H BXi 2 BX'., { hXlX_ # + D 0XOXO.O.sXdXaXl ..z CXO.p R x }.d | P.+.5.z.c.v.yXsXS.@ : > *.nX@ O.<.o X 2 R.2 ; ( - S @ r.>.A PXbX[.V.a.s.+.-.y X X %X* o s :.$.X.O.@.x.dXx.x.H.`.|.T.-.;.4.iXXX5.W @ 0 0XjXZ.9 C.|.|.T.!.{.F.| h $.aXiX . .3.' ,.lXH.O.pXkXp g w.O.d.0XpXhXoXk.| } z.pXpXp._ 4 M %Xe E 7.kX{.2 * 2 qXfXsXjXzXa.[.~.!.!.$.d.x ` 4.n.yXuXaX9XdXtXc.c.k.@.9XfXO.' k.j.yXtXdXdXb.].s * 4 E.=XK f lXaXp.OXW p 4. .l.x.j.j.i.3.h.5.3.h.s.p = f.sXaXO.O.O.' pXI.L.H.O.z.F.:.x 5 c k.z.OXD.[ ^.W.> NX@.> '.d.z.5.P.[ h `.Z.hXpXR 5.hXp.` 5..XXXiX| 3.tXm.,.gX+.@.0XH.{ _ ..`.u = d ' K.0Xb.' NXO.4.P._ x.pXlX, <.&.mXPXP $ k ' v.cXI. X{.2 < !.[.@.z 3 | s.H.z b.,.= !.J m 7.pX+.' u &.zXV.a @ 9 pX9XpXC.4 x (.Y.M 1X&.] (./ C _.F.OXkXF 9 {.E 3.5.C.l O.s.W G.} 8.G.| ' ' ; 6 1 y T ].A.0 DXfXSXBXu.i.dXtXi S.gX' r &.`.c n IXW.>.zXx.pX_ o Y.[ d j.XXn.n.tXtX' ' 8.B.Q x D.OXk.+.l.s.L.' ; J @ 3 {. Xn X # % + 0 [.tXXXiX_ &.].&.B =XO.tXm.f.5.K.E U.@ V ( 1 t ).n o 3 rXhXyX9Xx.D lXVX{ 9  X;.g E s.3.i.gXd.D = ~.5 a.zX[.< 3.@X_ ;.w.G.gX_ H.{ @ V   q q 4X3XP 8 7 #Xk.1 ).2 @ c zXhX9 z /.  O $ o @ + j t.-.2 r.E x OXlX,.O.F.3.2.z.3.M V ZXU.e (.x 4 k.k.}  .o.! o.=.C Z Z , U.> _ %.R %XN * ] 4.J.l.#.p &.2 BXi i R.v 9 > f '.I.Z.x oXXX+.n.xX0 0 L ",
"5.E i > {.@ # # wXx.dXhX3 3 &XC a | @Xd.F.v 1 1 Q.-.'.<.&.!.; U.1X; c VXz z { 0XxXO.3 , ,.9Xn.u.9XsXfXyXl ' d CXd.` R ] :.{ s.k.3.3.9.z.c.yXjX@.6 @ ; NX:X3 D.Z.f X > &.2 ; ).p 6 2 g >Xq mXeX[.@.@.u.+.:.e X $ *X@ + ^.:.B.6.| ,.aX9Xv.H.' R.Y.(.q.E 6.iXXX5.` + *.xXf.~.@ R.>X).~ v `.J.O.g a.aX9X .2.3.p.pXpXu.@.hX,.- =.| $.I.gXrXkXgXl.+.W 5..XuXaXu.x s Y.E | [ 1XW.+ @ = I.aXD ,.VXBXNX}.>X] a.J.x | 5.c.yXyXgXS.pXv.c..XD.{ qXfX@.b.pX+.yXyXfXyXH.] ; + s v E.Y.zXxXiXc.@XR p B.' L.OXp.z.h.3.h.l.h.h.G.E 2 D lXpX,.u.p.u.I.>.~.I.4.J.@.7.W &.< } +X.XP.:.1X9 *.BXA.D Z.d.pXi.i.@X+.r.c O.jXx 3.hXp.| 5.XXXXyX+.3.iX9Xg.oX| @.m.iXb.i R.|.u * = = S.0XO.~.AXV.p.D.' dXyXcXD }.mXPX&X; k -.} tXvX,.}.U.< t ).zX{ 9 a | s.p.@.K.@.3 M Z n O.OX7.' c l <.`.u ; O.K.iXI.g - T.|.M s <Xm r.r./ Q._.r.gX[.9 3 {.] D.P.`.3 #.+.W k. .8.F.W h :.2 - 1 k g ].&.0 CXSXSX].p..XaX,.9 { hX{ x -.(.i LXKX# Y.gXm.I.' 3 >.' _ p..Xc.c.fXsX_ E k.k.7.s.pXoXi.7. .8.OX#.u C + q bX{.3 X # % X # S.sXc.pX%.D v 2 U K V.tXv.x.p.gX] M n b / 1 1 &.b 3 i wXjX9XiXp.9 BXAXG D P.@.` x 5.k.p.pXO.l u N.| m.pXpXx W gX>.l ` zX[.l pX@.i A   X q 4XU N & - |.R g (.c z m.xX X@ z nXo O $ + # * k _.=.l V.O.h ].nX3 O.s.3.5.h.G.&.-X4Xq R.=.&.Q 2.0.W T F.}  .t.~ m b 2 {.; $.w.! / : : ] @.m.l...- =.{ nX, 3 ;Xs 0 0 BXa.l.P._ j.iX3.P.lX$ D *.",
"F.{ 9 9 BX= + Y.wX.XxX@.n 8 &X<X2X|.P.P.(.r 7 1 :.+.@.'.M s 5 H ;X+ a.zX@ *.{ g.sXH.9 f eXf.x.x.uXuXfXyX' a 9 VXH.7.j &.`.V.n.n.O.5.o.0.j.tXjXu n ; > bXn F $.a.n   ; U.n @ -.Q e s g |.H :X[.L._ a.d.7.(.4 X , W.o 9 '._ e. .+.x.sXyXtXV.h Y.Y.#X;.j | oXv.D.c = zXxXz @ # *X2X).U.u A.iXx.E 4.jXiX3.8.+.c.yXyXp.b.wXl p e.' N.eX'.D [ ,.i.e.} } n.yXdXpX@.d z N.@X&.bXE.+ @ @ { c ; Z.VXVX>.`.|.h L.d.h X.5.p.9XdXO.@.hXv.c.XXD.' uXuXp..XpX5.x.yXuXtXF.2 @ 2 `.A.Y.l { lXiX3.@Xx p w.} D.b.j.n.l.3.j.z.h.h.5.@X7.3 eX0Xg.g.iXx.L.R.U.gXi.pXl ` r.~ Q ! +XoXD.R.!.2 [. X[.D V.p.oXP.| i.5...` { lX' O.K.u.3.h..XXXyXx.5.pX0XM.pX| O.K.yXpX2 R. Xu > R.# ~.gX{ &.ZXP.h.5.' tXtXxXS.ZXZXq 6 &.} 2. .XXjX_ R.C 6 p `.hX,.o ~.%.3.i.p.pX{ = 6 V M O.P.e.E _ `.{ &.5 4 F.b.gX` * / v v ; b %Xs |.=.M ;X).-.kX`.@ 6 M E s.D.*.@ $.O.` G.8. .8.O.c *.3 * 1 k j =.l i SXIX`.F..XtXpXD 9 i zX,.h =.&.<XIXA + *.hX9XI._ [.$._ '.a.j.v.uXuXfXS.c G.5..X.XpX@.@.+.R X.[.O.x M + n 1XY.+ X w $ 8 0 { sXi.n.L.l * o &Xq V.pXg.S.I.O.:.~ m / ^ t t T.H @ D hXdXtXM._ _ AXAXG a.J.B.W R s.oXz.D.x =.:.O.j.aXtXiX` x #X..d ' lX%.D hXf.[ E.  O n ,XP N 8 1 r.j e.q.c f.aXhXz + D BX0 # o o , 2 k :.;.N.H.p.j =.}.o O.5. .2.0.8.:.U.Z * v -.R.p 6.y.j g $X3.} =.>X1X< s {.= [.7.] k @ : {.a.v.n...2 _ eX'., {.:X3 F <X:Xa.j.P.` W OX} [.eX, G *.",
"[ &.v G BX; l lXpXpXoXF.3 * 7 b Q.{.`.#X^ 1 1 m r.$.O.>.U.; q %XC * wXV.o f { ,.sXu._ 3 >.D p.9XsXfXfX9XL.{ 0 VXd.k.E < _ H.iXc.5.5.! 2.0.n.I.* v 5 > n C R.N.$.f X ; M !.@ [ =.!.k x [ '.'. X_ c wXI.O.-.4   q W.X %.4.c B.W  .aX9XsXm.%.R.v {.6X-.W E oXm.I.c D fXfXxX# 7 4X,X!.(.h V.sXdX' } K.K. . .i.dXyXXXi.L.>.9 | 8.' [.BXF , + i H.O. .W l.v.yXsXv.,.O.g.wX&.!.b = V @ 2 ; u.CX XR.a `.[.W [.| R 6.7.@.yXyXc iXpXv.XXXXl.` qXuXv..XyXc.u.yXtXJ.] * e [ xX0XE v ; R.F. .gXc c N.} D.c.x.J.i.p.j.j.z.D. .OXD.= ~.1.m.pXv.3.gX!.a I.x.wX3 3 R.^ R C.@XgXE s v c pX@.Z.{ A.p.p.C...+.B.;.c z zXV._ K.p.@.n..Xc.dXXXu.pXM.9XpX' _ ,.yXvXp $.kXi @ bX= *.zXa./.ZXI.XX .E D.d.kXBX*X> 2 ~ ;.|  .W 4.zXd Y.n * Q D.dX0XX }.V.| s.4.pX{ > n M Q ` [.7.E R @XeX_ M k V.wXNXa < >Xv * @ J %Xe Q.s v ;XT.&.NX[ + U.R } l.H.>.@ _ a.i.z.9. .5.a...v ; * 1 k r -.d ;XPXbX;.D.XXtXK.{ 0 # S.S.l C.R.PX4X: @ d 0X9XwXl [.' A.[.d ,.tXuXfXuX0X| ` 3..XiXS.' $.` W ! e.` E u 9 !.>Xz o X # *XmX9 ,.cXp.l.OXa.` s U # V.gX%.}.~.d ..=.k k (.j g Q T.2 { jXyXyXg.I.BXZXW.# H..Xs.l R 4.z.n.6.c B.P.i.v.9Xu.aXu.x ] l c O.gXd { hXM.{ &.+ Y.M Z P N $ t Q W F.O.a m.jX,.3 @ ' CXF X + , n < T o.@.K.b.H.` ` >.> P.5.2. .z.5.F.-.Z * Q -.~ 4 2.e.j e G.z.|  X`.Q - T.!.* gXO.=.e * b ZXa.pXb.[ D _ gX1.f ZXbXf *.AX~.5.h..XO.x B.W kXrXG nXbX",
"!.Y.f }.kXl iXpXZ.l [...@ m * ; ] u e T.g 1 1 ~ N.a.$...!.* 7 &X* l BXD X n R._ xXyXO.*.&.> ,.uXfXfXfXyXc i 0 NXs.8.j x { a.pXc.oX3.W ! 3.k.[.x u M 6 V W.&.].' &.= + s Q.; v {.&.>XT.c a.'.>X&.z hXI.E R s   V n @ zXO.x F.} +.9XfXsXm.] ;Xf {.`.] W x K.iXH.D g.vXfXcX3 W.4X&XM `.$.P.sXaX .` D.@X| } oXpX.Xj.D.`.d a 8.k.W NXZX> 3 d 0XhXO.6.! 9.c.tXuXyX9Xg.m.[.R.b > + q n ; =.lXzX>.v p  XP.5.N.h W X.X.` v.v.v.aXtXc.yXXXl.E 9XcXx.j.XXXXi.x.m.L.; < R.O.vXfXO.-.4 < p #.kXN.L.V.} +Xj.j.n.O.iXc.j.n.OX} J.s.+ 9 V.pXyXx.@.w.C u [.b.gX3 @ F -.T ;.#Xa.<.n * d.pX@.,.<.Z.m.n.l c O. .`.u z  XkXc b.p.u.n..Xc.sXv.u.iXg.pXOX` D ' sXvXx %.[.0 @ ^.9 D gX$.W.bXa.oX5.| F.w.`.F = Y.&.x #.2.2.} ' [.z R.; < -.8.tXsX, <.kX' O.@.tXu.D Q.-.:.` w.B.R } F.lX` R.).H.lX>X; r ].{.2 @ ,Xs M E.3 &.{.m / 2X9 @ {.W  .l.d.`.> d OXh.5.5.3.5.@X`.= * * 1 k g ~ H LXLX/.O.oXXXpXu.>., # D <.` ].1X<X7 A * u pXaX'.i `.;.'.i 9 0XaXuXfXuX0X` R @X.XhX{ R.`.E o.W ;.x `.u i bX`.a o X bX<X# = M.cXi.s.gX@.e.&.A o N.[.z mXbX0 ..X.Q -.t.} g ] -.E f.sXuX9XhX[.i mX, = zXiX$.c x ` h.n.7.' _ d.m.m.g.u.dXpX2 h %._ gX@.> >.xXM.O.a i SXF 7 P S : y T 2.].E @.pXxX{ 3 * O.lX`.+ d R.&.a R W @.iXM.K.+.R #.l OX3.3.6.i.s.B.(./ m t.q.k p 2.].g e k.z.@X[.;.x 1 _.T.; gX@.! 1 - ,X:X$.pXJ._ *.,.zXD G mX4XH Y.AX<.8.5..Xi.x _ j kX'.0 IXLX",
"n ZX0 z F.3.pX[.2 : J ; E ..5 [ [.B.h k t r j -.7.u.7...).* A Z * R.nX0 X n W.i jXv.O.R.> 3 ,.yXfXuXfXsX@ + 0 '.$.7.E ..d %.pXXX.X7.p h } 2.k.F.z b + q W.&.C.` v n @ 2 U.u a >Xx x :X;X=.|.C M D xXhX' ..p   A 9 9 CXc E [. .5.g.fXdXOXNX~ 2 bX`.r.Q x K.tXM.,.uXvXvXpXi >X4XZ x B.b.pXsXpX .W C.].| O.kXP.].| ].r.3 ] B.8.| BXU.@ z 1.M.jXO.} } 2.j.j.uXuXyXv.iXL.{.b 8 o , F >.NXZXR.~.[ 4 ).P.s.` _ } X.x _ m.yXyXdXXXv.XXc.k.` aXaXc.XXXXXX.Xb.[.l * -.t.@.vXfXc.k.^ t 1 g <.{ '.V.| J.j.j.i.i.oXj.j.D.G.j G.' + *.hXdXv.j.5.| b < `.O.kX0 o 3 -.T ]  Xd  X<X%XkXI.| @.' H.oXk.a { 8. .;.p i >.kXl x.j.x.n.oXj.tXv.p.iX{ hXI.c > { fXvXO.{ <.# @ n G D kX[ J mXV.oXn.3.#Xr.h a '. X; ~ q. . .G.' %.a R.; ~ -.O.9XsXD ,.xX' _ O.sXp.z !.R.] ' ' F.h ' 7.zX' &.{.gXlXF * | P.`.U.V C g {.U.m *.{.U.&X&X# ; `.| +.s.s.Z.V.u.pX .3.h.n.i.[.'.2 @ * p v p n 4XPXAX%.| OXyXiX$.>.0 @ i <.p ).ZXZ * ( * 3 iXjX{ @ M 1X,X9 $.hXuXuXfXuX9XO.3.oXiXH./.mXv :.W R ] g 7.%.v :X{.i X Y.bX3 o 3 g.sX5.8.Z.|  .=.0 = [.$.M =XIXn &...=...e.e.E ] R._ g.sXuXiXF.l i <X+ f hXpX>.5 5 Q k.XXn.4.5 @ wXpXx.x.uXaX5 ;.G.s.zX@.9 ,.cX,.c ~.9 *Xn b A S 1 ^ T 2.G.x x.hXaX,.v h i.jXL.i A.%.{ ] X.T O.tXx.jXF.j ' #.k.2.W ].s.F.NX{.~ ! G.k.W W 2.].Q 1 0.h.oXO.%.R r ].` u gXO.Q 4 b ZX{.E @Xl._ l O.hXV.D ,X3XB mXbXrXB.5.oXl.c a h gX'.i *Xn ",
"G Y.Y.G O.oXzXc + 8 7 k `.| x gXoX@X).1 g g _.} | B.3.#.~ * &X7 4 `.{.# X n W.= zXg.l >X6 @ { uXfXfXfXpX= = > c _ ..E E + d pXXXoXW 3 >.W } 0.G.`.9 @ 7 !.(.`.c i = b s Q =.2 {.(.a M ;XbXU.: 3 O.xXjXO.} Q o F 9 <.VX3 E @X5.s.g.tXm.F.2X2 b ZXr.#.Q x b.9X9X9XxXaXqX_ ' }.4XA Q s.tXtXm.L.` R :.:.| ' a 4 ..j t.W p r.L.+...R.* = D hX,.hX| E q. .h.i.yXuXdXv.i.w.~ b @ @ F [ >.NXZXn eX' u R.OXj.@.7.7.} } O.K.pXtXtXc.c.XXn.h.} 9X9Xj.XXXXj..XD.`.; h C.w.O.qXvXXXz.-.~ m 4 >._ >.Z.3.oXz.j.5.j.iXm.j.P.w.e ` E c kXpXyXx.c.5.t.m * &.O.kXz o = R.] M !.Y.*.0 ;XAXNX=.| O.K.oX3.x 7.J.k.+.E < v w.c x.p.j.J.OX| p.p.p.x.f.jXL.W = <.vXfXf.{ VXf # 0 *.c ].c =X4X'.x.pXl.F.W W [.VX>.= T.y.} ! kX'.a a {.p R.T.` g.xX,.,.cXO.h { dXM.i M R.:.<._ ].g ` a.P.' R.|.lX0X= u D.P.>.!.E.e  XVXU.n R.BX-X3XZ + 3 ]. .+.a.@.d.f.hXgXj w.n.j.O.[.`.2 @ @ R.x e A P mXAX' O.oXdXp.c `.n + 3 *.e 2X-XC < - @ a M.jX>.@ ZX,XJ mX>XV.tXsXvX9XtX+.j..XoX@.mX&X@ -.t.R Q r } ].R.!.~.3 *.bXF , o 0 0XvXi.6.u h X.r.i ~.[._ W.K LXK &...|...X.$X| C.x 2 m.sXaX@.h ] ^.q q bXI.0XD @ * a 8.oXn.u.'.}.wXpXc.9XuXvXc #.B.+.gX_ O.f.xX9Xi BXM @ M s V S 1 Q ! 6.D.x .XdXg.N.5 &.gXjXpXH.S._ ' $.X.g @.sXg.jXF.g T 2.8.8.` ..F.kX!.M -.} 0.0. .X.2.[.&.< 2.0..Xl.A.x T ].} x I.| -.t %XLXR.e D.G._ _ d.gXN.z =X3XP LX/.eX7.3.OXs.D 5 x #XBX/.F @ ",
"S.{ Y.bX[.OX#Xp @ 8 s R.e.3.3.oXh.$X~ r W X.C.! g q.B.;.~ 6 P - E  X&.o o , E.> _ A.f *XY.d d hXvXfXfXgX# + 3 a l ..Q p o *.gXm.OXE a VX#.R 2.3.[.[ o q {. Xw.l n   , s E t.4 &.:.Q l &.<XHX$ = I.vXsXO.| W u F z VXBX@ ' gXk.5.tXp.H. XQ.* &X1XC.} E h u.aX0X9XxXxXx._ wX~.4XC ` i.aXg.c {.=.g (.=.O.' u p r.r ] j } k.J.3.[ 4 ; [ D jX' u.| E C. .h.i.x.sXsX.XO.h m m + s >.%.NX:XmXY.xXO.:.] l.XXu.O.3.} X.X.I.gXoXc.x.c.v.c.5.5.K.b.c.XXXXj.n.G.v < #.B.N.L.f.qXtXJ.g m ~ r `.` _ '.j.j.z.n.+.pX4.| OX3.' e h O.OXpXg.tXx.n.7.~ 7 * l <.VXD o = `.q.s E.W., u 2 Z mXZX`.gXiXn.3.' s.h.z.8.#.4 v c | m.x.j.oX[.p O.u.p.f.g.aXD.x = '.fXfXxXVXbX# f d *.l `.u =X=X%.u.jXn.' +.b.gXBXd ; (.e.o.R w.BXa u  X` (.~ p S.aXqXM.dX@.3 $.aX0Xi E.*.`. Xl `.p ` I.D.' {.|.lX_ * :.H.I.*.H C U.'.BXE.m :XZX,X&X6 @ [ Z.x 7.N.c u.K.zXc g F.z.n.D >.*.= + > {.h b A % B BXz @..XtXp.c ~.b + 3 n %X4X2 E.q @ v E i.pX`.<XLXB q =X<XBXgXaXsXyXXXj.c.iXp.>.4XA @ ~ -.R ! g R $X{.F R./.ZXi = 0 X i aXuXk.W * u (.W $.gXV.' 1XK HX=XM (.NX#.R C.L._ 5 ' tXyX0X2 E (.!.H ^.}.K.0X[ = * E O. .L.N.eXBXS.hXm.v.fXvXO.| :.e `.a V.f.sXaXz  Xd i T.k m m t ^ ! 9.8.3.iXdXg.S.a 2 D O.gXJ.L.' '._ W R @.sX9XhX#Xx r ! e.6.w.l ].NX7 6 (.} 5.k.6.j R ].-.- } 9.j..XV.x ! $X| | '...^ t <XZXR.4 X.P.c O.0Xd.=.s 4X3X3XZX~.[.B. .n.P.F @ s ZXE.n `.u ",
"1.<.d :X[.x  Xa + : h w.G.j.j.XXz.@Xj T -.C.].W g r X.r.] m A * =.[.9 o X o n d 9 Y.E.V R.D 0 hXfXuXx.wX@ w 0 ; a =.Q 2 > {.H.n.gXE ,.cXV.j W 2.8.#X> f #X[...h E.X X n R ;.x ~ =.[ ;.v b FX3Xw 0XfXfX@. .R c [ D nXZXo ` OXh.5.tXiX' {.A 8 <X:XC.' ] h O.hXpX0XjX0XM.wXeX*.,Xm W i.aXH.d !.-.Q _.=.V.b.K.P.t.t r !  .n.oX@.A.= 9 BX{ xXx.d.} R Z.+.3.j.p.sXdXtX+.h ^ g * (.A.O.~.ZX<X^.CXO.{.a K.tXf.$.7.} !  .L.gXb.j.x.v.v.c.i.n.b.@.h.c.XXXXk.;.e l B.D. X%.D f.sXpXc j -.t R.x u `.n.j.n.h.} L.a a.[.` q.j W @XzXE ,.pXx.l.B.Q : - 4 C.CXVXX , $.C.U.( J > (.&.+ 7 %X2XeXzXz.3.O.l.0.z.G.' k U.x 4.m.x.c.OXZ.* ' O.x.9Xx.sXJ.R > 3 9XfXhX{ G X /.d >.` `.4 P A _ d.@.' u.b.iXI.>X= e `.9.! h ;.kXp p r.X.`.p k Z.aXuXuXdXm.3 $.pXpXM E.3 ~.}.z -.e O.L. X`.;X{.`.9 _ [.m.0XR.W.m p Z.`.U.Z W.mXmXZ @ 5 C.+. .e.$.l K.pX,.5 x | k.P.3 [ ~.@ + 6 ^.u W.4X: 0 <.D j.pXXXu._ {.w # o H KXZ ; {.q o R.a.i.iXBXAXJ , HXK 7 %XNXlXjXyXyXc.iXD.' ZX&XV s -.} o.=.p x ].`.9 bXIXH X 3 b o [ xXuXK.E @ 2 c | gXJ.V.`.Y.C KXmXR.BX>.;.W } kXa d kXyXaXV.; |  X%XmX:XS.pXM.<.i ; (.#.` #.].nX}.I.pX.Xv.uXfXO.' Q < `.u u.sXyXaX{ i @ v R.&./ U.g T !  .7.4.jXXXM.gXa 3 Z.O._ I. X_ { _ ] x p.sXv.d.{.).r Q q.| D.| NX&.+ @ -.` 3.z.e.j h ].R.< W 9.h.c.a.W o.+X} ' BX!.^ k KXmXY.- x G.` b.0XO.l 6 FX5XmXbXwXH.8.3.0.F.f X C %Xo i [.+.",
"9 G z bX{.e  X(.* e a w.OXj.j.j.k.} r R -.`.NX].R.g r -.w.T.V - r.]., X X o 3 U.> 3 A , Y.c , xXvXfXx.O.D !.u 4 a R.M ; > { b.m.@X5 M.sXhX+.r ] 3.P.`.' gXP...p n o = F l X.-.-...X.s.O.s A HXmXhXvXfXu.+.o.g z '.<.W.F c OXz.h.XXu.l W.: Z ;X`.6.| ] h _ hXVX XhXf.f.wX:X*XE.M G.j.jXL.v Q.T.Q ^ Q D.x.iXpXB.g g `.k..X.X@.%.d bX}.{ xXK.O.q.W w.$.' 5.i.yXdXdXk.W o.g j #X$.[ W.mXf  X`.9 %X* pX9XS.$.;.W o. .P.@Xk.s.j.c.v.c.p.aXx.' j.c.XXn.:.~ x ..Z.'.NX> D hXvXaXd.` ..j m y 4 :.J.XX+X} x x ' gXA.' O.} h.gX$.5 x.yXv.z.F.] * ; p [.pX0X+ 0 %.].(.p b s F.@XD 9 = ; 9 >.P.9. .k.k.8.#.x k R.` V.K.p.c.J.'.= _ { 9XvX9XsXi.E = G hXaXhXi w # }.0 N.Z. X< A * x V.9 9 J.tXpX'.!.+ l C.9.W 2 `.kX4 R 6.7.`.4 M { pXdX9XjXjXa %.0XwXU.C d <.`.*.U.3 $.d.NX>XR.&.m ; A.K.dXtX[ &.h E zXO./ Z J mXHXb ; ..F. .3.F.w.a b.hX%.3 l #.[.+.u `.F # + = T.a KX4X> f D L.pXtXc.j._ A.> @ # =XU + ' kXF o { 4.j.j.NX&.# *X4X# n 0 H >XlXjXtXx.kXa <XLXZ 7 &.t.! 2.] u e (.`.Y.IXmX. K E.u 3 A.xXuXiXc 3 * 2 I.oXb.S.<.2 E.mXmX>X>Xa =.X.R [.wXeXwXv.pXZ.2 B. X<XZX'.m.iXj.H._ ; `.#.+.;. XBX~.H.pX.Xx.9XcX_ l e Q [.h { jXM.gX'.  d l Q -.T.T.T !  .| A.kXgX_ x.gXD > H.lXO.$.>Xl >.[ &.l H.pXd.<.{./ m ^ R F.zX_ R.; * e w.3.3.z.k.} W [.C.p T ! 5.+Xa.R 3.OX| |.:XE.~ U.LXmXU.@ p G.p.m.pXc u 7 FXY 4XNXgX5.s. .0.C.9 o = 2 ; ;.F.3.",
"# :X<XW.{.l  X>Xp p g F.+X+Xj.z.@Xg g ! ` $.zXgX(.2Xr r ;.`.- b ].%.@ o X X 3 ^.@ V &X# 5 [ , hXvXfXsXp.l U.U.4 ] (.M ; + { m.iXzX2 { aXsXpXp j X.+.@X[.H.@X] x H X , *.x ] t.t...C.n.k.&.b J ZXVXxXsXg.6.X.Q u ~.ZX&XC Z.oXXXXXj._ d E.8 J ~.$.| #.] p z kXZXF `.{ @.0XZX,Xb &.@X.XgXO.v U.&.^ ~ ! s.j.yXsX[.t r ;.l..Xv.p.%.AXIXi { xXpXc ;.R c %.E ` i.v.uXdXz.} 2.} k.F.| *.4X&X= NXD = Z = gXaXS.eXSX(.W  .[.P.7.s.p.x.v.v.p.jXtX4.c.c.v.s.4 m ] #.[.kXnXz ' hXsXjXd.x E R y y r -.J.c.z.} 4 E P.H.c l 7.3.z.OXa i oXyXXXj.D.] - 2 p gXsXwX, # [ F.q.-.m ~ OXdXL.c A : @ * ] X.5.h.k.+.| ..g -...i.iXx.c.h.[., i %.qXvXyXdXu.` ZXZX,.hXlXf o 3 nX= a.L.l * V @ #.kX9 > OXaXd.kXY.@ _ F.r.a ; ~. Xp W B.D.`.; 2 @.tXuXM.yXjX' $.9XhXU.b >X'.`.R.W.M N.V.ZX!.k ~ A * ' pXsXg.l &.r.@XgX@.M Z &XKX3X@ h C.D.+.| +.#.W iXiX<.u g ;.B.| %.~., + @ = *.U.4X= 3 &.'.gXb.tXv.j._ w.9 = q A , D L.L.&.+ i l i.k.[.d > mXA @ *.*.3 M <.zXK.wX~.n PX5XA t ^ t.} o.Q a u !.Y.LXIX3X. 5X*Xu d wXfXuXpXi M 3 a.pXm.H.<.<.* *X;X<X2XR.2 -.-.R C.VXNXrXg.gX`.> `.BXKX<Xd..XOXp.d.D @ {.7.| [.R.1X&.{ tXtXp.M.xXc ; < r.F.' { iXO.1.nXf nXi R.{.).T.R W } ' VXVXwX; @.zX`.> b.jXhXZ.BXM ~.[ T.i Z.gXO.c %X4XC ~ E H.cXc 5 - g q.$Xh.3.k.k.3.W D.B.` R T 2.z.s.R 9.+X].{.9 s k 2XZX;XU.@ p [.c.x.L.9 b 8 3XA %XBXF.` V.} 0.].= X 6 M w.G.G.k.",
"9 ZXZ o !.&.&.NX;.E p Z.OXj.5.oXOXR o. .3.u.sXpX_ (.^ r v U.* U.[.D = , . X 0 {.3 6 V 0 2 D , hXvXfXuXoX$.l k m (.;.v < > <.x.tXzX9 , rXvXcX} 1 W X.>.[.u.F.] &.<X+ 3 <.x W :.;._ kXgXi.o.v 6 %XZXVXxXg.#.W :.9 f HXHX@ ..J.XXc.b.a R.%XV U.Z.u.' | -.a d nX1X3 M a f.VXZX&X7 M $.oXk.| -.M ~ ).{.X.+.c.dXpX=.< g #.j.pXc.d./.IXIXf { pXjXO.W j l %.c a O.n.dXuXn.3. .h.OX3.8.`.=X= 5 NXD 3 M 9 9XaXCXVX|.W  .2.F.w.4.k.u.p.m.v.x.sXyXp.j.j.m.$.- S j r.NXnX*.~.V.hXhXxXN.E w.] k y r ^ n.j.h.a.h | lXO.; [ N.5.n.k.2 c K.XXXXj.J.W - 5 3 a.jXlX0 # =.[.} ;.j ;.oXdXz.{ C A 3 * @ u q.z.z.3.5.D.j W } O.tXv.z.5.gXi = <.0XfXuXuXi.O.^.0 f hXCX{ o i BXD d.[.2 2 3 c OXOX[ @ ' pXV. X3 @ =.A.Y.:XG R.] R  .8.V.R.; 3 gXv.M.tX9XpXN.@.M.xXH = }.eX'.%.&.!.`.~.mX6 j ^ ( - e kXhXf.:XR.3.jXiXa./ Z U KX&X* :.B.D.O.|  .7.5.pXiXZ.x x } i.OXNXU.9 # o , `.R.s * &.kXhXpXtXv.j.x.| B.[ &.&.v ` [.OX8.-.* > d 4.L.`.3 0 mX@ @ { hXhX<.v Y.'.kX*.mX4Xq U.g j -. .e.R v H W.<XLXPXY . 3XW.h _ pXfXuXhXi > 9 lXtXb.L.>.*.@ R.{.R.-.).2 R.u ~ (.`./.:Xz '.U.X H IXbX&.D.pXG.` 4.z @ }.A.` ].;.{.l c m.oXx.g.hXa + r e.F.O.@.jX_ D VXAX<X, {.|.(.-.o.} X.:.SXeX Xc d.I.'., 9XdXdXd.R.1X Xl *.3 '.1.N.>.J 3X,XM _ b.cX{ u h q.e.G.0.3.5.k.z.} l.L.O.! T o.G.6. .0.k. Xi E x m ZXbX{.&.@ c @Xj.oX' > b 8 5X: 9 BXX.` s.+.2.q.= # * v G.h.0.k.",
"<X4X$ o !.&.l l F. .4 C.@X5.j.oXh. .2.2.4.@.yXdX' j X.Q k e ; (.[.' a U.. X 9 }.9 2 3 ^.`.O.0 hXvXfXuXx.a =.p g |...Q 5 ~.$.p.iXzX9 o f fXvX[.- r -.R.<.V.7...p ).+ z [.E ] ;.E ' [.gX3.W -.5 W.bXBXrXO.#.=.l 2 &XK B + _ J.j..XH.O.}.{.!.&.I.iXs.E =.l H ZX1X5 2 d wXVXZX&X: s $.K. .w.] &.2X).^ o. ..XsXI.u - x | n.iXx.S.rXUXIXF { ,.jXO.` g _ `.[ 5 E m.dXdXpX+.5.5.h.h.F.>XC o l kX*., v _ 0XsXgXL.W o.!  .r.;.7.D.a.a.x.x.v.dXdXv.c.n.gX[ * : e >XSX}.D `.[.I.lXrX X].$.#.-.g g W +XXXj.L.#.| zXx u >.w.+.z.5.2 [ I.c.XXc.oX` - p e l ,.'.L # 9 `.q.W W 8.pX.XD.`.M s U.M @ * ~ ].P.+.h.k.` o. .' v.v.j.i.lX' o G 0XfXuXuXu.O.i G { S.xXf., Y.eX@.kX X; i [.@X.Xj.A.* c pXgX`.@ 2 ;.w.a ^.bXf a Q 8.k.C.:.@ !.VXp.@.9XsXm.@.@.M.lXs @ D kXkXd =.`.{.!.C 2 x Q m 1 - ~.VX}.U.|.i.pXb.<.M 8XU HXZ 5 r.k.H.'  . .5.x.tXc.$.W p ` n.zXAXH 0 , + = '.].{.{.'.H.pX9XiXx.x.l._ B.#.`.;.` i.OXP.' =.5 + F `.F.R.# &XJ o = { vXaXV.Y.U.R.>X<XKXb 6 (.j j o.} e.p v %XA J mXIXY O =XU.E S.aXfXuXaXz + 3 K.tXgX XbX0 @ ).).M U.R._ :.&.6X(.] <XbXu kX0 % HXLXR.O.l.gX` < Z.%.>  X>.E 6.].{.2 _ J.K.oXm.zXu * R F.F._ ,.hX>.d VXD   q :X{.(.] X.o.W ;.'.'.=._ c [.eX0 M.sXdXx.E R. X[ >., ~.z [.Z.n V E.~ ' b.jXu.g j 8.9.k.3.5.0.k.h.i.oXOX' ! T ! y. .} 0.OX$.d zXX.U.ZX^.>X&.> V.J..XgXl ; 6 &XY % ; 6XR  .@X} 5.r.@ , @ v P.+Xs.F.",
"4XA q # >Xa e x P.3.4 :.].5.u.l.5.2.9.y.6.| yXtX3.3.| ;.~ * a C.B.` O.`.  X 3 ~.3 5 9 kXOXp.D aXvXfXuXu.X *.:.E F.W x x :.a p.oXgXa + = qXvXjXp * b Y.E [.G.=.e  X_ _ gXO.w.o.E O.K.gX` ' :.a Y.BX}.}.>.%...s n &XZ V e x k.j..XJ.[.' [.`.{ gXx.l.E +.[ bXLXW.e 2 [ pXgX>Xb ; v p.x.c $.@.#X{.j R ..6.P.OX7.3 2 l O.J.iXp.S.MXUXIXY.v z '.%.` h _ >.] e E b.uXuXyXj.i.5.j.OXNX{.s i W [.:Xf 9 `.hXyX9Xn. .W } ! ).!.N.[.i O.K.x.9XfXsXv.x.k.].v * 8 b ZXVXZ.>.#X+.w.nX/.eXL.d.B.e.T j W OXj.+.kX' _ kXe _ `.+.3.oXu.; d wXm.XXc.K.E < p x i i 0 n = + n -.R o.X.gXkX_ M &.p ..BXm * > U.|.s.i.k.E :...W c.v.j.@.gX$.X 0 0XaXuX9X4.' <.'.*.' xX0Xd {.'.' {.;Xv >.lXyXx.n.0Xc m.tXjX$.@ 5 A.| _  XmXW.4 T } B.C.Q * A }.D @.x.uXsXO.' m.kX@ 3 D kXkXl i ~.!.,X6 5 T R ~ e @ H KXn :X[.p.sXS.}.s V &X4Xs v B.j.b.p.9.2.p.tXx.j.W h d O.hXN.LX&X3 F + d [.H.,.{ f.0X9Xm.K.3.j.n.O.s.F.O.|  .h.oXA.d &.u o W.[  XY.> &X% o 9 sXfXpXD eXnX*X4XLX&X; U.`.E x x } ].4 M <Xb 3 mXPXP o =Xv %.L.hXsXyXdX@.= a pXpX<.9 KX4Xc |.s C E.!.=.| #X|.W x ZX<X@.kX# 5XUX=X>.f.v.zXg - ] r.E  X_ x  .F.-.- ` L.gXzX0X_ @ s x e.[.a u.pX] 9 }.z * M %X*X&...2.o.} ' %.#.W x i [.lXi g.sXdXv.O.Z.A.{ D D W.9 zXP.e b T.c ~.S.jXi.h W k.h.5.3.8.9.z.j.j.oXK.| =.T T o.} 9.h.XXx.K.gX` *XmXU.|.} ` m.tXv.J.a 3 H =XP & - T.R 2.G.R 5.A.= : + 5 [.8.A.NX",
"C 3 n n R.4 r (.@X4.2 -.6.i.K.E 5.0.2.9.C.e c..X .5.a.l ~ 1 E N.w.| p.eX  X 0 ~.= > l I.m.j.D aXvXfXuX@.X G '.' G.W E ] R.x 3.+XzXx + + ,.vXxX$.+ : b p X.[.:.2 O.P.+.K.4.F.C.W p.K.pXW E ;.&.[ [.A.|.ZX{ &.M %XB A b r W G.z.z.J.b.@.K.I.{ m.iXd.E V.[.ZX4XU.e u A.m.gX}.< < Q s.u.a V.I.F.R.e g ] E p g p i ; x ' s.oXx.S.LXUXIX*X9 z 9 { [.` 3 &.-.x _ g.dXdXyXXXp.i.c.zX|.; * *.;.<.LXLX/.VX0XyXdXXX .! ! :.,X!.Z.u.9 '.l.x.9XfXfX9Xp.J.].~ 8 8 6 ^.kX,.$.|.E `.;XY.rX,.@.H.D.! W X.D.5.x @X[ i  X2 p B.+.i.gXO.u 5 a.n.tXc.K.h < p E &.*., 3 , $ 0 Q W e.X.B.;.U.6 &.E W F. Xs 6 %X^.`.[._ ; :...W j.c.i.O.F.> o 0 S.9XuX9Xu.h D <.[ 9 hXhXa ].[.'.v M {.kXhXv.tXtXx.m.tXtXdXgX> [ N.' P.[.w mXM T W e.].h * = 9 0 L.u.dXuXK.f.d.N.+ H z lX[.@.D `.*XW.n e T -.t.] = =XY U BX,.x.jXBXBXC + &X8Xe #.b.x.M.K.9.3.x.aXx.b.a _ D wXwXi 4X=X9 *.&.'.K.x.u.g.hX,.f.H.a._ z.n.+.d.L.+.O.3.c.pXD , d i , C 4 |.M n A X 3 wXsXuXD 9 VXBX,XmXHX7 3 T.r._ x x ` ..; n %X@ b KXPXB 8 ;XW Z.,.hXxXx.tXiX5 ' hXm.*.= V 4X>Xu b =XC {.w.4.k. .E ~ ,X*XO.kX%XPXJXq '.p.v.gXu - s Q #.].4 a ' `.v * _ ].[.zXH.D = C a ;.>.i p.K.:.v * u {.F C ,Xv o.2.o.} } R `...x $.'.VX' O.hXdXyXj.lXg.,.~.R.M l jXoX4 4 (._ ~.NXhXp.E } k.z.5.k.k.9.h.c.j.iXn.| ] ~ r -.W 9.5.XXaXpXO...=X3Xs _.[.i.iX9Xp.D.p s 4XA P & : y Q  .9.T +.`.> # + @ x =.}.:X",
"c { *.v !.< :.` s.G.1 Q  .gXzX5.0.0.2.k.@Xe O.P.5.h.D.| k < ] A.C.E 4.BX+ . 0 nX3 > { L.K.x._ sXvXfXdXO.  L `.| OX` E &.&.v | J.gXl @ # 0 xXvXgX@ $ : 6 ] ].C.2 < C.i.3.i.s.D.@.u.O.$.O.` ;.;.#.a.gX XNXbXF !.m > V V k W k.z.XXXXx.x.tXpX@.g.pXD._  XZX1XC &.e p B.tXlX!.* e x s.n.O.P.OX;.E.6 1 t g ] ;.x v 2 x E O.pX9X0XIXUXIXK 3 <., { VXx + &.t.x c f.yXdXj.i.n.p.x.[.9 + l A.x Y.PXUXnX[.pXc.yX.X3.o.X.R.,XC %.O.O.gXb.x.x.fXsXx.i.gX[.M A % 8 :XzXg.~.Y.c >X^.`.jXx.4.j.+X5.| | k.5.E F.*.+ b o > a.K.b.@Xg h W c b.XXXXOXx 4 l c I.wX' 3 # # l } ! J.5.} h e 5 5 =.| s.L.Z.*.W.mXmX}.i + *.=.R 5.D.l [ `.2 X w '.g.hXx.b.@.,.{ <.a S.gXa kXlXN._ ] M ~.gXv.yXXXO.x.yXc.yXdX_ Z.a.@.lXz   q ~ ! } 6.R.4 - 6 # i kXu.dXyXgX@.$.A.a v z lXH.p.V.`.1X!.U.T.g B.@X;.E.5XP =X`.p.tXsXrX:XM o V A j 6.m.tXp.p.k.} m.0Xf.0Xh ;.I.gX%.z mX4Xz `.&.c m.dXpX0XS.i ,.S.z i J.c.3.i.J.4.+.h.oXP.3 + f M C > 4 `.&.M @ 9 S.xXsX,.@ M AX}.:XmXKX&Xq ~ ` ..Q h ~ s @ &XV 6 *XZXZXK H !.x L.{ gXjXg.m.H.l Z.jX0X{ &.] R.l i =XV e r.P.J.5.W |.Y.E.*X_ NXZXPXU 3 zXf.tXOXe * 8 > :.;.2 u T.2XM * a `.O.b.v.I.9 3 c _ { D m.b.F n o 3 ^.M E.*Xr o.o.o.} } r {.r.] %. XAX~.$.zXdXc.p.jXiXg.'.NX2 h sXpX< 2 &.x F nXH.u.` } n.z.3.5.k.5.0.z.c.iXoX_ -.~ g j j t. .n.lX@.u R.4X&X8 M [.j.iXx.@.F.5 %X,X$ I & : 6 Q } y.! 4.A., + + + e Y.4XA ",
"@.S.z l !.4 w.@.O.].4 R [.F.O.n.0.2.5.j.OX3.l [.+.n.s.r.T.* T.{.{.x u VX# . , NXF 3 @.b.K.b.' aXvXfXdX@.  n >.O.pX .E ] M M x F.zX_ o # d gXsXjXi o 8 7 ^ q.[.e 2 `.OXu.p.@.d.l.d.H.[.O.$.' _ B.@.gXkX>.ZX:XY.a @ : V m W 8.h.XXXXXXyXuX9Xx.g.pXs...>XLXU.m (.p a '.hXzXs @ 5 x a.pXn.n.5.=.Z : b g j _.=.c &.2 ' +.| iXyXhXbXIXPX, z '.S.wXzXp + &.(.j c a..XsXp.| iXj.c.V.; l '.>.d =XIXIXD wXb.5.XXXX7.X.:.R.,XC ;.i.oXj.5.O.g.vXhXx.j.iXw.< A N &X:XI.pX>.i M ;X!.[.sXv.4..Xc..X .} 8.8.3.| d = + 9 [.hXK.b.F.g W G.| x.tXtXgXx 4 l D hXaXgX3 + > *. .2.oXb.R -.< < 4 -.w.i.z.J.7.d J KXmXi ; R.;.j X.#.p `.|.9   w VXwXhX,.j.m.u.D `.2 c Z.' zXlX' | `.s 5 :.zXjXc.' u.pXv.XXsXj.K.O.d.kX@ X , x 6. .#.&.1 s n o Y.zXu.yXdXI.' _ '.1Xl O.xXp.V.'.:XH E.).=.a Z.@XW C S A V `.p.XXaXD }.s o E.E.Q 4.tXdXu.5.J.5.pXg.f.[.c B.gXpX3 0 mX4X>X$.+ c iXXX0XwX3 , %.%., 0 I.m.p.j.J.@.5.n.gX$.$ o a R.n 2 g (.&.> ; >.iXdXK.5 = W.bXF <X=X&XHXE.&.a ;.-.T M 6 7 4X; C <XmX<X*X%XM p ;._ wXhXx.H.c ' I.gX,._ ].].E e W.&X= ;.OXJ.h.k.[.].v E.E.*.BXKXKX= F xXf.yXoXp 6 & 8 u :.s 3 !.n ; 5 2X|.@.c.v.lXF s `.l %.<.M.H.*.%X= + 0 s A b r ! R o.} ..e {.`...` {.AX:Xd '.jXtXi.aXtX9X[.NX@ g j.jXa - h Q F {.L.L.| } OXh.3. .k.5.h.z.XX.XOXx ~ 4 k 1 < (.3.OXgXd @.`.mXU 8 b F.oXoX@.3.Z.M KXS : P N & 7 T o.C.2.V. X= + + @ s %X&X% ",
"M.H.c R.&.4 d.J.E (.e r NXd c D.6.3.j.j.j.@Xu a.j.j.J.` b @ 6 C ,XM + bXL . # nX`.d f.9Xv.m.' m.vXfXyX@.+ 3 [ a.jX5.W Q U.k - g NXD o 0 `.O.v.xXR.o N N M X.k.+.a >.b.v.u.@.f.l.oXn.u.O.#.' ' V.1.,.zXc R.NXR.R.* @ b m R 6.h.c.c.yXuXuX9XtXv.m.c *.ZXZXi ]  Xh a `.gX6.- * e ] a.b.j.z.7.:.b * ~ Q R &.u M R.2 3.J.' b.yXhXL 3XmXq Y.S.cXxX[.< @ &.`.W _ O.m.dXs.| iXXXx.b.@.V.[.d W.PXIXLXS.hXi.3.h.+Xs.e u U.=XC N.p.c.XX5.@.@.hXkX$.j.pXs.3 s 3XmXW.F.gX>.# V =X!.'.jXuXu.v.yXdX} X.} 6.8. .' i 9 wXxXaXM.@.r.g R @X5.p.iXiX@Xh h l ' aXfXxX> + 9 ;. .2..XiXW :.~ ; ; T.$.5.l.J.5.[.[ Y.KX%X_ L.X.R -.Q ] [.[.a   n kXgXwXD p.pXi.O.:.* x *.S.hX'.z 4.7.k s r _.].7.O.@.@.iXp.jXtXp.O.lXF X $ n =.e.3.+...r Q a o Y.K.p.dXpXI.O.c ] {.&._ xXf.L.>X*X@ < &.h 2 >.@XW m 1 * = kXu.iXp., }.i v ,XQ.] s.yXsXj.` i.K.H.,.S.[.` @XOXO.@ + 5X&X|.7.4 @.pXb._ i X # { D + 9 I.v.u.x.c.3.5.OXgXl o o a `.e k W =.~ @ l gXjXJ.a i 9 Y.Y.0 *XU % &XmXW.3 =.o.^ y @ &X%X4 U.1XmX!.*X1Xs 4 &.l [.jXf.>.5 @.gX<.i Z.P.X.W R.%X= &.gX.Xz.G.e.6.'.d C Z ,XAXmX<X@ `.xXg.yXiXx M : 8 ; {.U.6 W.6 * %XAX`.3.j.9XxX}.f BX_ %.[.g.I.d K + X q q Z ; p j R o.} ] e u >X:.C.{.<XmXW.5 >.gX@.sXtXb.kX:.@ v +.V.&.; e &.&.&.N.P.3.} +X3.3. .8.3.0.j.XXm.D.h 3 @ 5 2 * ] +.gXf.{ l.C.4XB S Q.].n.K.O.4.r.<X4X@ S 5XN & : v ! (...'.BX, o % + s ,X8 & ",
"tXm.` `.|.x 4.P.] U.e k {.> 7.8.6.5.x.sXiXgX_ ' K.c.l...* $ @ 7 ( J o K K   # '.wXO.M.uXyXm.@.f.vXfX9X@.@ 3 c d.jX4.| ] -.^ < @ v 9 o /.].p O.jXkX@ & N 4 ] +.[.i D hXv.u.P.N.4.oXn.O.$.c ' a.gXeX1.zX_ A.`.>X;X@ @ 7 m g ! z.c.XXXXfXuX9XyXyXb.u R.ZX,Xa E #Xc l :.@XR - < v _ 7.H.h.D.q.&.6 4 |.! T j 4 &.R.2 s.l.x d.aXzXq B U W.}.S.sXaXl @ @ &.].X.l a x.sXs.x .XtXx.v.iXH.'.Y.PXLXHXAXrXxXk. .5.oX@Xh v %X&Xn w.z.oXn.i.u.O.D.|.c j.pX$.[ *.1X4XJ r.[.*.F J &XM $.9XyXx.v.sXdX| ` W W q.| S.f.M.xXsXtXu.O.t.t  .@X} i.m.pXB.W ] c { sXfXsX= ; *.w.} k.jXoX` ] |.4 * v A.I.J.z.5.J.gX[ W.mXeX[.X.T m M :.w.w.&.K mX%.gXA.9 9XsXp.` =.e M u f.xX{ z gX+.p U.r t x ;.$.E _ gXp.iXpX@.f.BX# X $ 5 `.8.7.+.W W ..c # '.9XdXpXb.P.[.l -.T.u { jXf.wXbXC + * .._ l =.#XX.k 4 * i lXu.gX' > '.u :.Q.~ X.z.yXfXc.x @.0Xu.@.'. X$.gXH.i + =X5Xn [.i.x 3.K.4.>., X , ^.AX@ = 0Xv.M.9Xx.5.c.OX[., X o c F.g Q ..W v ; a.gXgXh * M f ^.0 n &X7 @ * 3X<X5 ;.-.^ b 7 %XM x R.bXmXE.W.1Xy ; / 3 >.zXz [ c d.gX0 9 H.J.} :.NXv i kXXXc.5.R R N.N.[ U.Z KXmX%Xn = kXhXf.yXdX` T.7 * u T.U.C %XV * C !...s..XyXcXnX+ eXS.,.0XqXS., w # o =XA 3X; u j Q -...E [ &.[ :.A.>.<XJ Z C i a O.lXhXO.'.l @ v ]._ v 4 e &.&.*.s.OXs. .OX} W  .8.3.5.z..XoXV.3 + + = > o 5 O.lX,.z K.Z.4X8 7 2X[. .J.| O.`.KXA @ A P & 8 : v W t.E  X:X@ o $ o m !.o N ",
"c.m.u.L.`.>X[. X:.p ; U.Y.c k.9.2.5.x.xXdXj.s.x b.n.J.` 4 - + y b %X% X # . $ '.hXf.g.fXuXc.s.| fXfX9Xu.3 9 c H.hX' 4.6.} -./ 6 ; # # }.kX` i hXCXu : N * a ..B.{ D xXaXn.8.u ] 8.F.&.3 5 ..g.fXxXg.V.' C.' R.1X+ + y ~ j T 5.z.c.v.fXfX9XyXyXK.z {.<X%Xv x gXa.*.:.@Xj - p :._ @.P.7.` v M - m (.! Q g e ..`.u s.3.u V.aXhXq & U bXA.0XjX,.2 @ @ &.].} h c p.gX[.u p.XXv.v.m.L.nXPXPX&XmXMX~.wXP.9.5.J.OXO.&.W.Z s #.OXH.O.i.D.+.` Q g n.iX%.NX[.`.-XE.k [ A.nXJ A u F.v.x.p.tXfXdX+.E &.a E a M.uXfXdXtXu.O.#.C.j q...' 4.j.oX;.] c z { sXfXf.= [ `.6. .OXgXd.+.W C.h # n BX[.J.5.h.oXJ.[.Y.W.BX>Xr.j < M :.q.` >.ZX/.3 [.&.9 9XsXb.c ] a k x 0XxXz <.lXR x |.^ t h q.7.| 4.@Xj.x.v.p.d.d X X # D e.5.3.+.j ;.q.c # wXtXtXK.@.b.p.e ] &.e ,.pXp.kX^.6 @ c zXu.a &.=.] Q h @ [ cX4.4.E ; A.@.].~ Q ..b.uXfXXXO.g.pXx.a.{.}.V.H.d d H =X, f @Xj.5.4.n.J.gX9   w W.n + d 0XyXM.yXj.i.XXiX[., X o [ C.j ! | ` 4 p P.iXa.#.p v !.mX%XZ 7 : * ; A =Xs ] ;.! m C &...O.F.nXbXE.C %X4 - C < ] '.i &.>.H.iXl a.J.5.| C.R.i [.oXc.5.h E _ '._ `.E.4XKX5XC @ 5 VX0X,.yXsX3.`.u ; M ~ a 1X=X8 : 7 (.O.5.j.yXxXF X D [.f.aXM.S.G n q , 3XU U + v v m U.-.W _ VXE ;.kX$._ bX&XM :.h 5 ;.wX'.R.> * [ [.#.u < r -.&.=.J.oXk.} G.} g } e.9.9.z..Xc.B.5 + @ @ @ @ + E lXD { @Xr.&X% n {.].x J.| $.BX4X* ; Z B 8 : y T W e.c }.n X o @ @ n 5 * b ",
"p.oXu.pX` >.kXNX|.v b E.F '.3.9.3.j.tXuXx.j.gXx u.n.OX .e U.k M y &XU % U   $ '.hXg.g.cXvXx.G._ vXfXx.J.&.2 _ pXjX' a.F. .! / E.J + d [.zX3.; Z.lXZ.8 & V 2 x #.Z.,.xXtXx.s.< r 6.O.:.= * >.M.fXsX9X_ E ;...&.;X7 + t ^ j T } z.c.9XvXfX9XyXyXpX..{.H E.v l zXzX>.:.kXj < -.C.| @.B.` - 5 E.* ~ E W ^ j e ;.'.a O.#.> %.aXwX8 P KX}.O.aXaX{ v * @ &.].W ' I.p.OX[.u d.0Xx.v.tXL.:XKXmX*XMXnXG %.D.5. .k.OX .a E.b b -.].' %.u.s.O.=.Q p l.J.*.BXOX@X1XC 4 i kXeXH C h OXsXfXv.yXfXsX .W ~ i c l uXfXfXdXb.l O.| @Xj < c =.$.j.oX;.a x _ { 0XxXf i |.=.-.e.5.x a.B.` %.d = ZXnXO.oXh.h.h.h.D.`.Y.>XBXr.Q 4 M Q W x  XZXi 3  Xf 3 0XaXd.' `.&.&._ jXaX,.V.[.E O.[.T.k g t.7.5.W 7.J.p.x.hXrX#   # 9 ;.G.5.k. .j -.[.` d xX0Xg.SX[.M.p.u a x x N.gXH.'.!.b g ].pXc.` x h _ ] l = <.cXu.c ;.x ].7.7.] E ..l.uXfXtX3.O.0XiXa.:X>X[.H.z }.<X, + >.pXc.s.' l.K.zXi w U *X0 9 A.hXyX9XuXj.j.tXiXI.3 o o >.7.j 2.7.' * *.gXb.].u R.&.ZXHXJ A @ > m * 6 =X!.&.;.! k m ] 8.5.P.NXbXJ Z Q.< - y 4 Q >.d R.(.b.pXK.H.s.| O.F.'.NXzXc.j.W u.zX@.A.O.=.<XHX&XA J @ d CXg.,.uXsXd.=.u * R.v h ZX&X: 7 ( ]. .5.j.tXxXi o 3 { g.aXf.[.G # n &XU &X7 @ U.v y Q.] W _ cX$.l $.| ` >.mX;X`.e.p 2 '  XU.o c [.@.[.~ 4 p &.p l J.XX+X .8.} e [ e.3.0.z.XXp.$.D # + $ % + + p lXG D ' {.A B bX}.`.e F.' `.SXW.* 6 &XB : 1 k R W F._ H = w + @ # M < p ~ ",
"+.l.u.iXE | 7.[.NX).C J U.{.#.2.9.XXuXfXx.i.pXO.u.oXn.| p (.-.Q k m &XB *Xo $ ~.hXf.g.xXxXD.[.h 9XvXx.pX..4 O.pXxXz E ].6.o.t M :X2 D gXdXj.; [ jXOX8 & E.E 4 =.>.lXxXyX.XJ.X.g 6.3.k.#.v R.,.vXfXpX[ v ~ R./ E.J @ < k ^ j } l.m.x.fXfX9XyXuXpX X&.3 {.v a lXK.9 R.kXp 4 r.B.O.@.4.c 2 b b 2 =.R Q ^ ^ e `.NXa | ].c z hX@.b 4XZX' u.dX0X@.r.p = &.F.W u.hXx.K.L.l H.f.v.v.XXi.a ^.nX'.nX:X1.{ N.' } 8.+X3.u / y m ~ e u ^.N.3...;.q.W D.Z.G NXgXzX1XA < l kX'.*XU.3.XXuXfXv.sXfXsX .R U.F $.0XfXfXyXgX#.e ;.} OX' + ~.i #.z.c.| p c c { pXgXi V.`.* * 1 r u Z.8.} ] i <XmX{ @.oXc.i.| 5.7.Z.>.>.>.w.o.4 M -.j h !.A = i {.> 3 0XaX'.BXZX&.*._ hXb.g.gX_ a V.[.(.~ E e.0.3.} | OXf.O.lX*.o X , u x G.5.i.3.j X.G.i.9XxXwXBXIX}.0Xm.@.W p &.].[.[.`.U.u q.l.dXv.OX| a E ] l 3 S.cXp.a E ].].| w.=.E | b.uXfXdXp.{ f.x.d.BXbX>.c nXLXK X > A.iX.X..h @.iXlX9 0 mXE.9 ' hXaXyXyXdXv.c.dXc.d.i X $ '.i.W w.7.%.i >XK.gXY.  &.bXLX3XA 7 @ / s + = <XY.:.6.o.m m #.k.j.L.nX1Xb A Q.1 < ~ Q Q c _ `.w.K.b.BXkXS._ O.gXVX[.P.J.W u.sXaX{ O.F.] mX3X8 E.E.+ > gXO.O.aXaXD...s @ M l a 1XB @ E.2X]. .5.h.yXaX= G i ' x.aX,. X, X K 4XV P @ 4 T.a 4 E.-.R x lXL.z 5 l { D W.bX$.zX4.` L.$.a @ @.gXO.7.(.g h &.4 ..n.XX+X3.} ..5 E B. .9.z.v.g.O.>.0 o % O O o l kXf X U.,XA HXZXBXR.9 ] [ bXAXU.@ b V : : 1 y j } #.=.> n W.+ + 2 R.x W o.",
"| 5.u.iXW  .5.G.[. X;X2 M 6X#X6.8.h.9XxXi.i.iXc.x.m.n. .< ~ r.W j s q &X;Xo # ~.gXg.qXcXzXO.$Xe ,.vXM.pX] e u.pXxXO.* ;.6.2.t e |._ _ K.uXv.a ; gXP.8 & W.[ * m _ [.hXqXiXJ.G.8.7.J.j.J.|.l { xXxX@.a k M U.( C *XU.r j R W _ s.K.x.fXfXyX9XyXpX Xe ; {.v d zXO.i `. Xe E F.V.@.s.#.] U.6 < E r.j Q k ^ v {.>Xa +.L.$.d 0X<.,X4XF N.tXsXd._ F.g ; &.[.` _ hXM.J.V._ _ ' tXv.c.OX`.>X{ D BX}.wXwX_ 4 ` e.D.6.h C t m y - > ^.~.C.[ R 6.8.B.' ~.BXgX@X-XV < &.NX X1X~ 0.XXdXfXf.yXfXyX+.] &.{.I.sXfXuXu.[.h 4 `.} oX3.u '.2 $.z.j.| h [ E _ wXwXz pXO.+ + e #Xl w.G.X.c ;XLX!._ @.iXiXO.c @.a.O.' {.].q...4 U.|.R x m = # 2 F @ 9 0XaXeXZX{.&.=.%.1.i O.lX..9 I.I.A.h | k.8. .! } H.@.D VX>.o X q k R B.0.h.5.x W n.XXuXhXVXZXY.&.gX9XI.w.x R. X`.{.).k x k.z.iXg.tXK.$._ ] l a gXvXx.a ; ` ].E ....} O.b.9XfXdXx.,.,.x.u. XbXd z SX<Xw X > '.pXpX:.x @.hXzXd , mXs 2 I.tXuXyXyXdXv.v.yXx.d.*.o # kXl.` O.a.kX}.>X[.<.# = Y.mXPXY B 8 k U.6 @ # %XR.] q.o.~ ~ 7.n.j.[.{.U.7 A Q.1 r _.~ E ' A.].w.oXK.VXSX'._ a.lXH.J.H.c 5 N.dXuXp.p.[.{.<X7 ; Q.U.* ,.cXz ' aXsXb.=.s = 5 u M E.8 * T.#XG. .9.z.XXtX%.~.3 wXu.pX{ eX#   J J 7 q @ T.R.z s U.-.R c lXVXi v &.` %.W.F c jXpXm.H._ [ D O.K.p.h a Q R =.p r.z.c.XXh.E ..a x F. .9.h.v.pXa.%.F o # + o + x #XF , &XA 3XPX/.VX>.9 v M ZX4XY.- m - < 1 1 k R X.;.`.> ;XU.o @ i `.W }  .",
" .+.O.P.| 6.5.5..XV.{.,X^ o.{.>XNXx ,.hX@. ..XdXx.c.n.} * 4 Q X.R -.3 C BX+ @ '.aX9XqXcXSX}.|.4 i xXM.aXO.x V.iXvXp.+ [ 6.6.~ e R.r.' b.fXaX&.@ ].|.% O W.i @ 6 v ..0Xf.j.pXOX3.@.d.@.P.#X5 d VXNX3 e p s %X&X&XQ.R.R.j W ` E 7.J.v.uXvXuX9XyXpX`.- < R.i d hX,.i {.(.p 7.h.4.u.N.x a R.2 4 #.6.j R j ~ / / s 3 V.z.x.O.S.nXKXB 0 <.oXjXO._ ].h 2 &.[.h 3  XI.u.$._ , f 0Xc.v.n.[.' > >.eX'.0XxX1.* R B.q.x U.E.y y ( < 3 M {.ZXR.R 5.h.+.' nXBX[.| k C 1 s ~.>.T.] k.c.sXsXD 0XvXv.` C.A.,.aXsXsXp.O.[.2 p ]. .z.z.u.D.3 Z.n.j.H.c _ _ ' %.c _ pXu...` F.P.a ` F.o.:.`.`.*.<.d.tXdXu.l ' V.Z.[.'.`.w.R 4 :.kX| x Q s = > 3 @ 9 0XjXS.BXAXc { ,.<.9 ' gX:.i iXaX[.u ' @Xk.} j -.].c z VXwX= X n e E G.h.5.8.Q g .XsXsXxXSXY.z _ f.pXpX3.:.6XR.R.).~ r X.z..XjX,.tXsXiX@.| E x hXvXx.'.&.u `.W #.W } +.n.9XfXfX9Xa.c d.H.`.] f ZXBXY.H X 5 [..XpX] a '.zXwX9 W.=X> [ hX9XaX9XyXuX9XyXx.iXa.D F v [.l.` %.Z.BXY.W.f o , R.W.ZXLXU q b ).~ 2 q 8 A *.#...:.^ -.D.j.c.[.Y.6 - b -X4 p Q R } X.].`.;.pXK.BXAXA.{ AXBX@Xl.O.' 3 &.pXuXyXm.].|.n @ e (.-.* pXlX3 D aXuXc.#.b : 6 5 C b q * ' OX+X9.2.h.c.pXkX> c hXu.pX{ '.,   % o 7 ; u ].R.}.M M :.x _ xXNX/.F 3 O.kXY.= l OXdXdXb._ l ` @.K.oXl ; &.E E g [.j.c..Xc.` 8.` l L.` 2.P.m.pXd.>.{.+ 0 @ + + h ].{.= n 3XPXHX<.CX{ 3 n E.KX&X^.; s < &.j r T ^ j ;.' g  XF o + l [.|  .o.",
"k.} _ Z.X.2.0.5.yXK.g ~ _.X.Q &.(.E 1.gXN.E pXtXc.c.+X` @ + e X.W q.R.2 NX= = rXaXuXqXcXIXNX`.4 3 hX9XpX$.' K.iXsXu.= ] r. .&.p T.|.` p.dXaX&.+ E U.% % q @ # q u h Z.,.l OXoXn.p.@.O.Z.@X3.z VX>.@ m y e -X8X3X;XT.~ ~ ] | ` | l.c.uXvXuX9XyXpX` 4 W `.5 i hXg.9 }.:.W l.j.u.s.;.e e {.4 h #.7.X.W T ~ / b > 9 O.K.m.p.'.ZX&X$ = `.pXoXz _ ].g ; *. X4 + z a.O.w.9 o n gXyXj.n.5.u 9 }.`.S.9XsXS.i B.w.E 5 M ( b y / k |.&.U.1X`.' 5.5.8.[.NXNXL.| j C 7 < M &.E q.G.c.sXuXd S.sX@.' ].N.u.sXdXm.` +.N.* a [.+.j..X.X4._ @Xn.j.b._ ` E D [ z d.iX.X5.3.gX8.l h e.6.6.h E ;.' oXyXyXb.' Z.wX[.[.[.%.|.`.v :.@Xs.} X.:.e @ = @ 9 K.sXg.,.~.[ ' V.,._ O.| ] l aXvXgX9 E gXD.2.! `.`.a a zXlXi o C < =.D.i.5.8.` R XXuXvXjX'.[ i ' S.O.p.D.].{.R.2X,Xm j G.z..XzX' 9XsXuXv.| E E gXfXdXVX~.> *.x -.R `  .n.v.fXfX9X' 9 ,.kX[.c *XZXz /.W.X l @XiXoX] v .. X Xv mXK 3 kXiX9XaX9XyXuXyXtXp.hXrXVXZXR.P.5.c ' zXkX9 s w o z {.H LXHXB = s R.k @ 8 B o c C.E ..! e.oXc.XXI.&.; * A ,X1 Q x j ;.X.w.=.w.n.pXbXLX}.eXSXNX@X3.@.A.+ , hXyXdXiXNXY.= v :.w.`.4 iXd.# D sXuXc.7.u * b b s n V ; } +X+X2.2.k.h.gX$.= pXv.O.gX' ~.0   X % 6 < #.D.Z.NXi a (.j { wX/.IX:X* u VX}.3 h I.yXsXS.D a E F.u.P.O.+ F &.h R OXj.XXyXXX+.K.a._ d.x g C.J.pX1.{ '.9 R.= o # g X. X2 A UXPXK ,.cX%.3 %X,XmXW.{.; e Q |.T j ^ ~ j | ' 3.[.v + + v @X .} X.",
"G.W _ N.2.2.0.3.pXiXx j 9.2.3.F.r.l '.eXC.h @.pXm.c.z.' @ + v X.} | C._ U., # rXaX9XqXcXwXl  Xe = <.0XaXs.O.m.aXsXu.@ ] Z. .p 3 %X1X..l.sXhXv   &.v + % : # , LXC e _ $._ iX.Xm.V.O.>.>.n.yXO.kX9 * e 4 6 &XA &XKX!.Q R ] ;.W } 5.x.uXvXuX9XyXiXc p C.[.4 d xXiXi %.W 8.K.p.p.D.-.4 5 !.e E 6.e.6.;.j g M / &.x c H.I.<.bXmXN $ 3 `.pXpXl c ].j ; *.|.< o i 7.| ;.= q mXBXm.m.n.s.l f '.Z.[.aX9X0XV.].` x 2 T.M 1 y v (.kX] 4 &XR.$.| 7.G.@X[.[.O.B.&.b 7 * , b =.8.s..XfXuXi '.gX_ :.BXa.g.sXtX| E 4.#.@ s kX4.j.yXtX4.d.P.i.i.K.' _ v i F %.b.pXc.3.k.@Xa = l ].3.6.W 6.6.O.iXyXyXpXI.VXlX$.4.hX4.R.1XR.>XBXF.6.} X.&.* = + 0 wXcXg.@.%.[ c <.O.N.`.x l ' sXfXjXz | gXn.9.(.{.;.E 3 [.zX{ + b * R.i.i.5.3.} 4.dXsXtXp.p.$.u [ <.2 a F.NX{.;X<X<Xm } z.n.+XK.' x.uXuXdX4.` x p.vXM.,.z a ] e &.Q R | i.v.uXvX9Xc u >.eX[.C.^.f D eXF X l @XtXpXR &.[ [ U.<XHXw d jXp.tXyXyX9XuXyXx.,.eXIXAXY...P.4.c '.hXhXa , q w v &.=XPX3XV ; ~ R.m 6 = V + ; `.} W 5.J..Xj.XXOX&.* * 8X,X< ~ E g =...w...].iXwX<XmXZXAX XD.i.p.[.D n 0 V.aXyXgX X3 a @XF.X.B.W L.D # D xXuXc.s.e ; s m p U.b ; O.oX+X2.2.k.5.D.u A.jXj.4.pXc >.K U % @ s p B.n.pXzX> M (.l m.0Xw UXmX&.a ..kX' g V.gXwX{.3 h #.L.'  X!.o n T.j  .J.j.XXyXXX3.pXg.p.p.' * R oXpX{ _ [.c ].a , + e Q ].&.mXUXJXq ,.jX<.d >X2X!.Y.}.2 e ..].R 1 k r h ` 7.s.7.a # + [ zX+.} 2.",
"0.W | B.8.3.9.} 4.K.}  .2.o.9.zXNXv v D {.p z 0Xj.c.h.6.2 + r.7.} | s.F.&.M , '.hXuXqXcXhX_ |.< * D pXsXK.u.x.uXsX,.@ &.C.3.p 3 mX<X{.S.CX[.= , ).u o & % + &XIXb 2 a #.H.iXtX.XH.{ {.*.b.yXm.O.@ 2 5 * 8 U S : &X4X-...W =.] R  .p.uXvXuXM.yXv.l x G.F.5 c jXsXc _ W D.K.u.j.P.-.1 * k p W 6.8.e.|.~ r g ~ |.` c V.[.bXmX4XY $ i N.i.b.z a C.j 2 &.;X- @ *.P.} ].i 5XmX'.iXn.l.D._ ' hX,.I.qXqXM.O.`.h 4 u !.m < 4 ~ |.[.w.m m ] ]._ #.8.D.F.V.E [._.y 7 N &XC ..k.s.x.sXtX3 ~.Z.l  XSXV.p.tX4.x ` C._ o M gXi.c.yXtXx.K.i.O.i.m.,.%.&.# , | oXtXp.5.z.[.; + v Z.5.k.} 7.7.| tXtXyX9Xf.%.N.O.i.pXd.-.2XU.R.VX[.8. . .;.~ ; @ %XBXhXf.D N.D l $.V.gX].g x a.uXuXfXp.@.pXXX9.&.!.Q ] 2 A.gXO.+ , + `.j.j.5. .} h.dXyXv.p.J.+.p [ ].' d.gX`.{.W.<X,Xk 6.l.h.j.J.4.u.9XuXfX0X' c p.fXM.g.L.].E < k ~ e W s.9XuXvX0Xc a !.{.L.[.&.3 wXwXf X l gX.XgXg h `.[ C 4XHX, ' hX4.XXdXx.x.dXyX,.rXIXIX}.[ ;.J.4.&.>XM.xXc = X q !.u 4XPX5X6 4 ).&.e b > q < * |.6.3.c.tX.Xj.XXOXM : : A 8X< Q h 5 &.] #.6.P.iXS.=XmXAX:Xa.j.p.K...@ H !.[.lXjXL.u < B.gX3.+.8.O.%.d = D cXuXc.i.p M 4 s &.1X4 4 6.z.+X3.0.0. .` a gXtXc.c.K.i Y., w ,XH 5 E p.tXvX0X= !.(.x M.0Xw PXmX^.}.l V.L.| @XgX'.^.+ ' kX[.%.1XE., * *.E 7.n.c.c.XXXXp.iXv.x.iXa.< g k.gXD z @X .k.;.0 X * ~ (.}.PXPXU w S.pXN.d {.&.a {.}.; p B.].W 1 r r h a.s.k.+.i = + &.zX5.} 2.",
"9.! O.l.k.9.9. .` |  .e.9. .k.F.p * z a C m { d.x.XXh.e.k @ N.i.O.| +.[.r.R.IXrXqXfXqXcXcX' `.e 2 i qXuXv.j.v.dXvX@.@ *.F.O.a C KXA W.Y.Y.9 + F ;XZ % % $ o mX=X, 2 e l a.m..Xc.K.%.%XM I.pXpXD @ 2 U.* : A 7 6 3 !.2X-.-.-.T.j R @.fXvXfXv.yXp.h O.G.8.e _ uXuXO.| X.B.l.j.OXG.^ t ; k g W 9.k.X.|.T.r r R r.' d '.nXAX&XU P + z hXj.p.d a ].R 5 T.).- 2 A.P. .[.T.B q { pXb.l.V._ g.xX{ rXaXqX0XN.R.5 + 6 ;XH ; 4 ~ &.|.>X/ k l '.x | B.B. X>.x zX(.e 6 5XJXE.#.OXn.x.jXf.@ &.%.l NXkXd.b.j.O.` ..w.a o z pXx.v.yX9Xm.K.| W s.x.f.{ v + 3 4..Xv.j.9.@XR.+ o F NXa.k.+.6.6.` pXyXyXyXg.z '  .3.OX4...{.*XW.:X`.e.} } W (.5 A mX1.xX'.i ' O.$.5.tXpXF.p W H.yXuXuXuX@.iXXX5.k E.2 l a O.pXd.W.%X9 S.m.c.h. .| p.jXx.u.l.B.q.E W P.| OXgX'  XH <XQ.v k.+X5.5.XX5.O.u.uXfXuXO.,.pXfXuXg.b.B.[ 1 m m * j 7.M.yXvXg.l f %XU.L.I.%.c lX'., X E @X[.| < k `.*.J KX4X# D Z.@.tXaXO.x.sXuXg.SXIXnX{ N. .J.7.Y.D f.xX[ ; # n U.u HXPX&X= x |.g 2 b q m r a kX3.h.c.yX.Xc.XXP.m : % 7 C e -.a ; *.`  .k.P.[.*.=XLXbX:.s.c.c.I.> o b M D '.NXz < | oXn.s.7.k.@.D M # D cXuXc.5.} `.s 4 U.1X; a 7.h.z.2.3.e.R p E pXv.c.j.s.9 n w $ ^.~.u ` x.sXxXD @ !.(.R m.S.L PXLX:X[.@._ Z.7.@X@.eXi @ #.OXI.`.,XJ A = ] } +.n.c.c.v.tXc.tX9Xx.sXp.R R R ].[ d @X3.5.`.0 X @ y &.ZXUXHX$ b Z.OX;.5 *X2 e  X'.; O.@XF.R r T g x l.j.k.' i > + =.zXi.2. .",
"9.!  .p.5.2.0.G.:.3 | 8.} 6.F.;.&.2 p T.C C ~.<.I.n.h.3.v 4 D.5.| @.O.s.$XA.NXS.qXfXqXcXCX_ `.5 5 3 f.tXv.c.yXuXfXx.> &.D.7.a *X4X7 A <Xo # G Y.E.- : : @ @ K n @ 6 y p c gXm.n.OX X&X, ~.hX0X[.9 > R.4 6 7 b s C n {.{.=.=.R.^ j O.fXDXfXv.yXi.E 7.J.8.4 ' xXsXS.` ` 7.b.b.[.].:.r g R.g } 9.8.R -.`.W O.G.4.O._ eXAXAXq B & + z lXb.p.d l ].` u &.M - x B.F.e...u @ w { pXc.k.s.O.9XfXD '.jX9XwX`.&.; * 6 s n 2 4 U.k M )./ g g >.u E G.B.>X*.E zX(.e V HX4Xn C.n.p.M.lX_ @ v >.O.S.L.b.u.p.H.' ;.=.l 3 d hXp.v.yXv.x.H.E j 8.m.,.' v + i V.j.m.p.5.@Xi o # mXBXN.u.u.| e | gXtX9XyX0X_ _ `  .B.O.;.*.=XmX!.`.C.! 2.} o.~ <Xn { xX[.= _ f._ [.tXXXP.x ` K.yXuXuXdXg.tXXX5.Q C 2 M =.W pXgX:X^.eXgXx.m.l. .5.OXI.,.u.g p E r.w.gXi.gXI.@.<.n H h ..D.n.h.5.XX3.| ' 9XaXvX9X0XM.uXfXx.iX` c e m b * x | u.yXvX,.l &.E.n N.J.d.O.OXZ.# X x #X' 2 < y |.(.E.KX&X# i z ,.aXiX_ v.vXuXqXrXrXS.' @.+.k.kX;Xz f.jX>.= 9 ^.R.W.KXJXA 2 ..].< 2 m s k j ;.F.s.z.yXyXb.b.tXL.y : % S Q.t -.x * ] W } D.gX>.H KXKXY.r.J.j..XN.# + @ s D >.D 9 ` P.pXi.5.8.k.7.&.Y.+ z jXyXj.s.a.|./ t / U.; v +.5.+X9.2.e.j 2 4.pXx.j.l.' 3 9 , F >.' p %.yXvXpX0 9 Y.] | jX0XH LXmX^.[.L.>._ F.+.l `.# f $.@.I.eX,XA : ; W +.| J.x.c.x..Xj.tX9X9XsXp.} ] e x [ _ @XW } ].F @ + * C PXPXY + M F.I._ u J * 3  X'.a K.K.3.} R T R W n.c.k.W s > + R.zXj.3.W ",
"6.} 3.5.3.h.+XP.a 2 X.2.! ].l _ q.o.p v s K =X:X XN.s.7.r } J.5.O.| | 5.+Xk.l $.9XfXqXxXCXO.t.e 5 , u..X9XyXyXfXfXtXi c ].#.v <X&X7 + 4XK , '.`.8 * y t @ + , n 9 5 j &.u r.a.O.P.>XV 8 H  X[.gX'.3 `.5 4 b m s = n ,X!.=.X.X...j O.uXDXfXyX9X@.` 5.OX+.u D kXD a p x B.z.k. X`.;.` ..:.x ! 2.e.g R e.p.iXaXn.@.O.SXAXbXV B & $ 9 wXV.a.d [ F.N.l f s x +.+.gX'.M ; @ &.H.yXXXp.7.O.uXsXi <.aX9X[.&.f > , 7 n E.; v U.k 2 b m k j Q 2 &.].r.U.3 ` gXB.p &XKXA ~ q.O.l.H.zXi = {.a.@.i.oXj.x.hXd.' ;.=.=.F F 0Xf.9XyXM.g.H.+.| +.D.@.O.c @ f '.u.m.i.h.D.2 + U KX>Xw.V.4.$.l [.zXm.tXyXpX`.l c _ ' ` G...E.4XmX{.#.F.G.} W Q ~ = { hXS., aX9X<.NXJ.h.k.W O.K.9XtXuXsX9XXXyXj.W M 7 b r.` j.zX$.{ [.b.c..Xh.3.z.P._ u N.` x E ..B.pX0XzXeXZ.R.M > h 7.K.j.n.oXj. . .E { aXvXuXb.{ v.fXtXhX9 >.s 6 b - T.;.x I.jX' ` -.U.i O.OXoXj.5.A.#   v R.; ; : 6 T.{.<XKXZ # l _ M.aXb.| tXsX9XM.,.S.,.' 4.|  XVX>X[ f.cX`.@ a R.R.R.LXLXn r C.+.- D M p v T j 6.J.v.XX.X{ L.pXC.< : @ V E.< p -.p ] W } L.N.U.mXKX*Xv r.n.tXn.{ 6 o X # R. Xe | n.iXpX` 3.k.k.4.~.~.2 c sXyXi.J.L. X&.s y k g Q O.u.z.9.2.y.R h @.n.c.j.L.z 9 3 o F >.| a d.dXvX_ c F v [ { xX0Xn KXHX&X~.].a z [._ i f + <.S.O.[.NX;XE.6 - _ e.' n.c.x.x.oXc.v.M.uXdXx.' ;.a 2 h ..@Xx R #XF o o + 5XPXHXB + T.s.hX%.U.q @ 3 `.OXn..X5.3.8.W R R } oXn.a.l b ; + R.jXj.B.p ",
"`.R 3.z.5.OXOX' = D X.! X...* v q.} ;.:.u 3 E.*XBX>.$.` h w.D.P.#.X.| 3.0.OX| O.g.sXaX0XlXO.q.< > z O.j.tX9XyXfXuXdXl l C.X.F 4XV 7 + U =Xi NXD * * g k 6 @ , n i p :.`.x l O._ ].{.: N H Y.kX[.gX,.].e - s v u o , ;XT.:.;.| X.W _ uXDXfXyXM.O.| z.oXO._ Z.' 9 5 < h D.z.k.|.`.Z.O.;.|.] o.0.9.g x 5.c.M.sXsXO.'.SXBXnXn : 8 + d S.d.@.3 >.L.$.^.<X*X&.;.].NX&.6 3 ; ~.g.aXtXj.7.+.fXuX3 { aXm._ v M 0 = 7 W.;X; T.T.r 4 2 < / T v C -X(.-.> = $.gX[.g ,X3X@ ~ Q x | gXeX, d Z.f.u.oXpXj.m.wXD ' ..:.(.M &.S.,.9Xv.9Xu.d.L.7. .B.O.| c @ F `.a.n.p.h.s.5 6 HX3XR.Z.d.a.>.BXBXP.m.x.yXiX].Y.l c l c D.w.C 4X<XF c #Xe.} ! Q M u { xX,.f.cXhXeX~.+.z.5.` @.tX0XiXuX9Xx.v.XXXXX.~ &Xb -.W u.pXu.a.4.p.x.XXn.5.j.D.4 4 ;.>.z v [ %.gXVXeXNX XT.3 2 ` D.n.j..XiXn. .6.| i S.dXsXp._ p.sXhX_ = `.i 9 b ; |.].E F.wXD | q.R.3 c OXiXx.3.[.# $ n u 5 C 8 : k ).mXHXq 3 *.' 0XhXd.O.0XxXsX0XD I.@.| 7.#.SXNX{.| p.xX`.> [ R.&.Y.KXmXu R F.x a ~.a k k Q g } K.v..Xb.3 G zXA.- : - m / r p (.w.| E W E l ZXmX>X~.s Y.pXpXb.A.s o X + {.' W k.tXdXI.l 5.0.l.u.[.'.a ..xXaXp.3.[.{.!.Q.t y j W O.u.n.3.2.y.W E 7.O.s.L.Z.0 9 > X n c W _ zXvXyX` ].&.i D O.cX,.s KXJX3XM 5 @ &.V.N.F # # VXwX,.'.NX;XE.k < ` 7.' j.c.c.j..X.Xc.M.uXaX0XO.| C.a p (.[.l h kXF + X 8 JXJXFX% ; -.b.hXS.Y.# = * _ zXj.i.3.h.s.} R R } oXn.O.3 3 * * :.pXiX#.2 ",
"t.r  .oXi.@X|.* d  X .! G.'   b v -.X.C.:.* &.] '.@.' x E =.kXV.} o. . .3.oX3.| p.aXaX0X<.l -.2 3 &.' 5.iXyXyXfXuXtXa h F...U.,Xb ; o K ^.~.A.3 2 < Q -.M @ @ n 3 v l E ].a _ `.>X/ @ b U.*.}.[.b.gX`.- * s Q v @ # l `.`...X.#.;.l qXDXvXuXx.' @.m.v.p.m.aXg.S.i < | J.5.k.|.:.[.D.w.].=.o.9.9.g c b.tXg.pXhX<.ZXLX:X}.H = : * %.m.m.u.; >.Z.`.KXmXE.C T.M A + 6 3 @ d { pXtXj.3.@.vXqX> >.jX9Xa *.n B # : A U.5 `.t.j =.x - m m m %XE.m s + * #.zXF.v &X7 @ M ] R 3.gX~.= O.f.i.j.J.p.i.K.*.= [ ] -.(.u Y.N.@.iXp.iXg.p.l.3.| $.O.#.c @ U.Y.d P.5.h.k.x W.3XV %.H.u.Z.AXZX;.H.x.v.XXpXN.*.M 9 9 c [.w.Q.&XC M ] ..E W o.Q Q.v ,.sX9XjXcXlX'.<.| 7.} O.u.tXiXp.{ 0XtXyXXXXX| &.,X%X=.| O.pXb.@.u.c.c.c.n.5.5.5.| ..' c + 3 ] D AXSX~.~.R.M - 2 O.J.c.c.tX.Xn.+.9.#.3 ' v.dXpXO.@.jXwX, + }.l 5 s ; ].@X .F.<.i X.e.`.3 5 [.pXc.c.L.# , 6 p a M : 8 t !.KX3X; k `._ O.zXL.' nXSXVXwXD eX,.7.%.}.SX XC.| u.cX'.d &.Y.M 4XPX%Xe #.].u %.A.= M Q R j j b.m.K.$.o = ].{.: : : / ).Q j ..@Xs.R ] 5 <XZX^.nX{.V J NXf.p.F.0 + $ @ &.E k.iXtXhXS.a 5.z.j.b.wX%.u ..eXlXp.4.<.n 4X=Xb t j !  .3.J.3.2.0.! W [.a E  X[ , 9 0 o w a _ eXlXvXyXO.[.&.9 [ O.cXD s LXHX3Xb - 4 Q l.OXM # D CXb.@.}.BXU.!.!.a | L.@.p.v.c.j..XXXc.yXuXaXiX .` @XZ.l *. Xp 5 NXF # X Y UXFX5Xo p B.p.aXgXD + > _ oXiXj.3.5.h.G.} E R } .XoX' @ = ; @ A.pXiXD i ",
"(.< c J.5.[.h o >.B.o.W s.`.+ q s k ` | ;.e ..w.OX+...a l `.BX,.} o.X. .| b.J.| u.tXyXhX>.F &.2 &.>.| O.9XuXyXfXsXb.l _ C.] E.-XE.* o q ~.A.wX%.a p T ~ M @ = H = 3 * $.lXO.u R.,X; @ m R.*.i >.d.I.&.; < p x R.0 o l [.;.` q.;.(.W ,.DXDXfXf.' p.9XtXv.dXtXqXxX[ v ].7.+.B.:.`.[.@.` -.g W 9.0.p c 0XtXx.m.I.nXPXIX<X:X^.M > i I.x.v.j.3 >.NXAXmXq C C M - @ @ ; v M d i S.0Xp.3.u.xXM.# >.aXyX' >.;XJ q 7 A M h ].q.R B...@ 6 m ~ &X7 b * @ ; ' zX`.e V 8 @ m T.p O.gX&.= V.u.p.n.5.| p.P.i + x W Q T.3 !.' @.J.n.pXv.m.i.W | ' O.#.x * M F 5 | s.h.3.R.*X7 3 kXH.N.VXSX{.E V.m.x.v.pX[.u s 0 @ F ].C.ZX4XJ C &.E Q -.q.o.~ M N.aXtXaXVXkX{ Z.' #.} | s.iXoX_ { xXaXx.XX.X+.] ~ R.E +.O.9Xd.u.p.c.j.j.z.5.3.+.5.7.' ] o = M Y.PXAX`...U.s * e 4.oXc.yXdX.Xj.5.3.6.z D u.c.OXO.| hXrX0 =  Xl 3 n s [.@X5.8.z 5 6.k.[.l < w.K.v.XX@.= 3 - M l 2 : N y %XJX&X; ~ N.' h Z.`.[ AXLXBXS.*.BX$.{ ^.ZXnX`.L.' O.VX>.D f H K KXPXW.x w.`.3 L.D o b &.W W R p.m.I.d o X v !.8 : - / ).t g ] OXD.W M ,XKX/.`.VXeXZ A ^.<.7.O.2 + A H x @.oXtXdXgX X[ 7.h.z.b.wXd l A.D kXgXB.z 0 4X7 e r r Q 6.3.z.5.2.0.!  .[._ ] |.G = 0 , X o v  XgXhXvXyX@.H.*.5 ' a.CXi 9 KXHX3XA < r ] D.@X{.Y.>.lXp.O. X1Xn M {.l O.gXd.O.x.j.h.n.XXv.uXuX9Xu.`  .i.P.l a {.> h NX*.@ $ JXJXY U o x 7.u.aXhX' > =.gXsXP.c | B.k.8.W R W } XXpX[ + @ 6 * w.jXpXY.E.",
"=.< d.hXOXC.+ @ >.N.o.4 _  X# + q ; &...2.} x W jX5. .|.:.|.eX'. .!  .6.O.4.OX@.O.K.dXiXz D &.Y.F [ %.O.9XuXyXfXjX` 9 &.w.-.E.V b @ o # <.O.M.H.4 e Q -.~ @ > n # @ , S.CXkXc !.3X8 * ~ =.a = v V.,.3 > 1 r h `.F + D @Xq.x R.&.-..._ hXDXfXu.@.b.v.v.tXpXf.aXCX'.`.:.c ..w.W `.`.u 3 4 4 Q  .C.a D H.u.n.V.'.AXPXHXmXKX<X{._ ' oXx.tXu.d bXSXZXK o v ~ v u -.&.< m M f , 1.0Xp.4.d.cX1., *.dXuXp.`.R.M C 6 C m W F.t.W s.#.+ < v m m S Z @ * < x $X'.2 + @ ; b n @ c kXi + { L.k.J.O.' p.F.5 o h ] Q T.e Y.l A.F.l.pXv.m.d.c v c >.>.l 2 d c `.u A.8.6.;XV > i '.'.AXLX`.F.' B.I.@.v.pX@Xl 3 A + M `.NXZX4X&X( ~ ] -.X.6.o.k g ' hX0XlXVX$.O.L.x ..X.` a.d.4.' yXvXyXx.c.oXF.l x Q ] $.g.I.{ %.p.p.j.XXn.5.7.7.l.l.7.&.+ $ A bXPXbX[.$.&.2 4 | l.c.j.yXdXdXi.5.3.k.Z.%.' 5.l.j.O.iXkX, 2 NXc i U.v Z.OX5.4.i 5 8.k.I.$.4 #.OXv.v.i.a 5 * ~ Z._ * 8 S 4XJXB 4 ..b.u.g :.Y./.AXVXI.S.9 {.;.:.mXLX~.L.P.| E  XY.f , w &XPXKXV x `.*.> #Xl o = Q ` W +.c.iX'.= o o + 7 8 : * / ~ - 2 =.kX[.x Q.LX:X,.hXhXrXH U &XM ] c u o f :.| n.XXyXsXf.H <XC.h.c.n.L.5 E gXS.{ [.NX*.E.&X* 4 j 1 g 2.2.z.0. .0.} 5.OXd.[ {.v # 0 3 o , nXkXb.sXfXM.u.gX=.5 { d.VX0 9 GXFX5XZ p M -.|.SXBX*.= [.gX| >X=XV q >.z O.hXg.' p.c.h.z.XXyXyXyXx.@.' 6.i.H.l 3 !.+ ' VXF X Z UXY I B o W 3.` hXaXf.O.zXpXK.>.; ` B.e.W W R R ` j.pX*.+ = M * Z.iXpXIX&X",
"[ A.CXpXJ.F.i = d A.W j c nX$ . o + a =.o.X.j O.lX5.} `.NX[ nXBX} ! } } O._ p.l.O.p.dXdX_ &.{.Q.= d ;.4.yXuXuXsXzX2 = *.A.-.( S * 7 8 o D K.u.gXh g R -.M o , n # o f hXCXi &.4XP % * ~ =._ f # %.<.= + e r g >.`.i c zXF.x T.Y.x ..x S.DXfXf.p.n.n..Xm.O.z qXCXkXr.l c ..#.` r.c * * @ e -.R R a [ N._ k.F.bXPXKX&XU mXLXnX$.P..XXXiXO.~.AXBX^.0 # d E (.E E T.h M 3 + , %.iXx.4.s.rXD 3 [ dXfXp.a u &.&.3 C e @.OXe.W s.6.@ 4 T.k / &Xb @ @ - 4 |. Xl * ; H 3 @ @ ..` = 9 a Z.F.[.' | s.w.2 o u &.~ ~ < m u r.B.p.tXv.d.{ i 9 3 &.*.5 2 a 4  Xd ;.e.|.C ; !.9 ~.SXLX:Xw.s.+.8.P.x x.pXJ.' i E.q n >XZXmX4X&X&X/ ] x x G. .j g [ eXNXVXeX$.O.V.p ] t.W W O.| x.dXfXyXx.j.oXD.5 a x ..[.{ { D { d.u.p.oXn.i.3.+.j.z.s._ + $ &XLXAXBXI.@.v ; W P.j.XXj.XXyXyX5.+.5.a.N.c E 3.i.j.4.b.eX@ l NX$.D F a S.hXj.4.d 3 B.n.J.L.e ..pXc.v.m.$.a - j D.@.4 : A HXFX% r 8.m.iX| R.*XbXeXzXM.S.i e :.:XLXmX*.I.H.O.l {.<XA # , HXUX3Xq i `.d i kX` # @ x } W +.n.gX=.@ o O + 8 8 8 * m v - - [ eX~.H LXZX}.qXsXxXI.W.4XJ X ; U.Q.9 l @.p..XyXyXjXD # <XA.z..XiX%.4 3.J.hXS.D NX>X*Xq * `.=.t t ! 9.k.0. .9.2.k.pXP.h v 0 # 0 n # :XAX'.M.dXfX9Xp.hXD i ' V.VX3 3 4X5XI Z Q.v !.ZXAX(.;.= ].lXW 1X&X7 3 >.' O.jXpX,.f.p.5.XX.XyXv.9Xv.b.w.X.l.J.l 9 C + ,.lXD , HXJXN N % + ..7.i wXaXx.v.hXhX$.3 * E C.#.R W R R W j.gX*.+ < (.2 Z.iXhX/.w ",
"[.zXiXtXi.G.;.a >._ e =.z nX0 . # + 2 j R ;.p ` zX5. .q. X{.nXAX] R R j O.@.J.pXf.g.tXdXd. X1X2 + f r.u.yXuXuXsXzX* = *.;.] V N * b E.+ D L.b.K.X.R R -.M o i U.@ @ { xXCX[ H 5X& $ p ;.! ;.}.z @.wXc + t r g ..[.@.@.pXh.X.v !.] ..W O.DXvXu.h.z.k.@X| a ' V.zX[.c x #.| +.3.e.k @ = @ 4 t.-.r e ..`.h k.].1XZX;XU.H ,XKXZXeXK.iXm.l.' }.bX'.Z.9 ~.z l ]...p M s Y.R.+ , >.pXx.+.#.G o = D aXvX[.D u T.R.2 s u 7.J.8.} k.G.x :.|.^ ( E.- ; @ * * R. Xc / Q.U.5 @ @ =.a d v 2 ].>X`._ $.B.>.2 + 9 T.U.m < M ..F. .J.v.x.Z.i 3 0 , U.&.; 2 s @ &.>.l  X;.2 Y.*XY.LXPXnX<.7.D.3.5.[.< | gXgX_ i M s M ZX:X;X%XA &XQ.Q E 4.s.7.] h F bXLXbX'.d.+.D.p w.].g e w.3.j.yXuXXXp.h..Xl.x ..] E [.,.{ ' ' H.@.O.D.z.j.6. .i.x.k...# o =XLXVXlX0Xd.a 5 w.5.i.c.c.yXyXXX5.+.@. XnXi [ ` +.z.x.p.1., D L.S.<.M f BXxXoX3.a 3 V.m.x.J.p R oXv.XXm.H.x 1 R J.H.v 2 &XKX5X$ Q k.v.aXgX`.KX<XwXaXg.b.O.[ p ZXKXW.O.oXb.@.v E.mXU # B JXJX&XU.D d 3 D ].x = # c ' ` W s.L.a @ + O O N 8 : * b T.a 5 [ &.M mXPX<X`.qXuXvX0X:X&X8 X = U.M 3 c i.c.yXyXuXlX3 @ H [ @.iXc.7.e s.iXyXaX,.l !.m = &.gX8.p 1 k q.0.z.3.3.0.+XOXkXa @ # = 3 , Y.AXBX$.m.uXdX9Xi.gX[ d c I.BX= > 3X5XN q M H bXPX<XD ].a >.:.k ,XV : b ] _ u.sXaXM.@.+.3.+XyXv.u.x.j.n.].W 5.k.l i 2 2 I.pX{ !.JXU % % o = q.3.3 <.pXyXx.K.}.= + @ x C.q.R W R j } h.gX:.@ l Z.; <.iXhX, w ",
"0Xp.tXtXx.l.[.g c 3 5 ] l ~.F f $ o = p p Q p x @X' +.6.;.R.F LXZXQ R r.[.F.a.| @.x.yXyXH.>.U.; + 3 ;.u.9XfXuXfXK.u [ '.;.Q 1 : @ 3 {.i i <.I.l.` R ! -.s + c *.@ , g.cXrX^.4XN % * j e.! X. X' V.kX'.e 1 r h %.H.9Xu.oX+X8.v U.-.W o.E vXvX@.h.0.6.E - h `.V.L.' g 7.a.7.5.h.G.&.* * * e ;.C.} e ;.].p e.|.W.%X] ` F *XZXAXBX'.g.0X'.*.&.R.Z.$.3 `.p x G.C.5 s f &.nX3 @ *.[.b.| (.s o , G aXvXlX`.e h 5 p e h D.n.5.W h.h.| #.X.Q ~ y p M < 5 * M |.h h T.v v # , }...:.u l }.bXM c [.a.:.u + > T.T.m < U. X[. .l.x.M.<., F f 9 U.M ; 2 2 @ 9 ~.l &.l v {.*XLXIXmXA.d.5.k.5.3.#Xu a @XP.$.= f ^.^.}.~.;XQ.8 Z ;XE @.p.p.a.X.Q E.KXLX*XwXp.5.s.E C.F.e h e.| i.yXyXm.h.h..Xn.l.| ..g x hXaXf.@.K.@.` #.h.z.3.} O.n.s.[ , , mXbXgX9XtXH.h p Z.` O.p.c.dXdXj.5.O.N.VXnX2 ;.X.O.u.m.g.'.}.'.I.g.Z.s s VXhXpX@.u 5 d..Xx.J.g g l..Xc..XoX@.p } gXOX;.u &XHXP : -.h.9XhX XAXLX^.0XuX,.g.L.`.M ZX=X0 s..Xb.$.T.m &XU + U PXFXs T.~.d d [.q.R i , %.#.` E +.X.5 + + O $ 8 8 : : b T.[ _ :.M ,XIXHXF A.qXfXuXhX>X7 8 o M &.2 @ _ m.dXyXyXxXI., , Y.c O..XK._ p J..Xv.yXK._ c a c [.m.oXj t y -.0.+Xh. .h.oXzX<., + + % , 0 bXAX X@.g.9XdX9Xp.pXO.c c I.eX= 5 4X&XN 7 6 E.LXLXH [ '.' h 1 s &X= V W.i D M.uXuX0XO.O.3.h..Xc.u.tXj.l.`.h  .F.a 9 3 D 0XK.>.bX5X& % @ o u B.G.2 $.sXuXx.d.9 + # + x q.-.e R x j } h.OXR.- B.D.u %.pXhX3 n ",
"v.tXtXdXm.k.OXj - a d v v @ 9 mXq o # , i =.Q g [.x | 7.` [ F Y.ZXT.~ (.w.` a c u.i.XXaX@.l v 2 + = $.i.x.uXuXfXx.u.hX[.r.x - 8 : * [.O.2 `.I.H. .W ! o.u @ ..;.@ d 0XCX*.o A % $ 5 X.G.2.} @X' D Z.P.7.g r R ..b.M.@.s.gX} p M ).-.! R 0XxXf.h.0.! < - g C.H.4.W ' s.D.8.5.j.J.;.- * * Q X.e. .e ..kXa v Q.y C -.W { '.VXBXAXbXA.[.AX;Xc C.R.a 3 `.< _ J.V.@ f F F eX[ + M gXs.Q -XH + 3 D uXvXxXO.5 p ~ h e ' J.K.3.` i.k.O.} W ! ~ e W X.g k @ 7 !.g 4 v ] i + 0 *._ '.a %.>X1X> Z.K.4.%.&.@ = &.T.k * 2X6X.._ H.x.aX@.9 kXd i !.U.5 e 2 3 @ F *.:XR.~.1XKXIXZXeXg.p.u.k.3.|  Xa = Z.pXd.= # bX'.N.'.{.Y.: 6 T.w.b.x.x.i.r.!.4XPXHXY.gXj.5.5.+.@XZ.< R F.` a.tXv.n.h.5.+X.XiXP.%.h p K.sXtXj.oXu.h l l.n.9.! +.n.4.;.= =XZX}.0Xx.iXH.h x `.x E a.x.sXiX4.O._ eXVX`.5 #.w.} +.g.m.%.D , '.I.a.3 9 S.pXiXO.h l J.v.j.J.g t 5..Xc.c.tXm.x } n.hXI.[ ,X4XN 8 C.j.0XwXnXPXmXF gXdXu.z d i *X4X3 z b.tXl.A.|.m &XA O 3XPXZ 3 ;.,.f.iXpX6.x > [ L.k.O.x R x < ; @ + + 8 N : : b -.` #.{.,XPXLX=Xa N.yXfXfXgXU.: $ * {.*.a 3 b.tXyXyXuXvXS.d 3 `.' u.iXa.p E J.c.M.yX9Xp.O.| d.m.yX.X` k t ^ e.J.i.@.l.P.lXG @ o o , # C PXZX`.7.a.,.aXv.j..Xs.O.c I.kX> a <X&XN 8 : 3XPX4Xn { [.#.j < s Z 7 U.T.f 9 pXuXyXM.O.|  .h.XX.Xm.m.c.s.:.2  .F.e i &.{ iXb.=.C 8 O $ @ - =.G.V.5 _ yXyXv.f.i o @ + h -.e e :.R j } h.oX%.l F.s.x O.iXhX= F ",
"9Xx.v.pXiXj.z.3.] v i &.U.2 + 3 , o $ o d ].x g C.p +.4.| ..`.x ~ / v g l _ z $.I.c.tXj.O.` x a + , [.4.u.uXfXfXv.x.b.@.`.g * A b = @XO.; '.wXn.2.W ! ^ 2 = Z.7.2 >.hXSXn : N : 6 Q 6.0.9.2.J.d.i Z.s.s.W g =.| g.g.u.u.z.3.g h )._.-.R f.hXp.+X0.R - ; l B.p.u.O. .5.D.3.+.3.OXF.- * 5 =.o.9. .e ` zX' s 7 < R.C.| _ g.cXaXnXZX:XZXAX^.E Z.:.g | C.5 E P.D.> }.~.D wXA.f a [.7.r C C ; s z qXfXxX{ h `.).p p +.n.oX4.| k.h.+.3.9.C.j h 6.2.} Q * : C k e u ] l @ i _ L.N.c `.bX;X^.kXb.a.' !.@ @ &.R.r - ;X2Xl ` d.v.xX{ { VXz i R.U.M 4 M M = ^.AXbX:X:XLXPXPX:XZ.b.p.5.k.3.| ..2 + *.pXpX# + >.V.m.H.|.U.6 6 [ Z.aXv.m.H.|.,XKXJX&XY.gXj.h.h.n.OX..2 | G.W @.iXv.c.h.9.+X.X.Xl.6.x x i.XXdXv.tX5.p h G.+X5.} i.j.a.>.H <X>XA.pX9X.Xs.p Q (.h u $..XjXd.c >.`.VXeX'.p ` ].` O.d.g.,.d X rXgXO.; 9 S.aXiX4._ ' K.v.x.P.x 1 ' K.n.v.yXtX` ' n.pXaXZ.<X&X8 ; F.v.S./.HXLXJ F pXyXK.N.Y.*XmXJ @ ...XyXd.[.|.~ Z B o 4X3X+ a kXhXiXsXj.9.t u wXK.K.d.` h m 1 s 6 + @ 7 7 : * t -...>.1XLXPX4XC x V.uXfXsXS.0 % 8 ; m v _ c iXyXtXyXfXsXS.d 3 '.l.b.[.' 2 ..pXXXg.tX9Xx.u.4.b.dXyXm.X.Q y ^ y.J.l.@.V.S.lX*.# o o # , 4XPX;X..s.s.@.pXv.p.m.n.3.' H.gX3 x 1X&XN & P PXKX*XF %.a.8.] < b C C ).z f *.pXyXyXg._ .. .5.oXiXiXc.z.s.h * W e.e *..._ pXf.l * o 8 V @ W F.k.D.z _ XXyXXXH.0 o # + v h * &.].g j | ` J.Z.c 6.8.x | iXpXz <.",
"tXu.x.dXtXc.z.G.-.e 9 *.U.4 3 f # $ O   z lXh W ].p +.i.| W @XX.g / Q.5 @ v l _ P.j.j.O.3.7.W &.+ 9 zXu.@.iXfXuXyXx.D { :.e - C 6 * B.i.l [.pXx.3.! ! Q = > [.5.E [.hXVX> 8 7 t v ;.9.0.0.2.h..Xz I.k. .` p ` O.f.0Xx.i.3.7.x j &.T.! } ' gXgX+X6.j = , [ i.,.iX` ` 7.3.| | 3.P.[.< ; ] w.2.8.! p [ zX'.&X8 e `.L.u._ ,.vXfX1.bXAXLXBX;.` D.7.} l.P.< u  XV.i kX%.@.K.L.[ >.L.| r 7 b y M D qXvXvXf.E (.v e R 5.m..X+. .n.h.+.a.G.X.p E 6.9.G.r.- @ V m a 2 c =.z D a.I.a.>.^.mX*X^.[.b.N.a i # + F ).e < M U.s #.l.pXaX{ f.cX' 3 R.M M 4 &.{.}.SXeX<.nXLXPXPXmX~.b.x.b.@.s.3.| :.9 + v oXgX0 0 $..XoXi.|.U.b M _ f.xX9X0XwX>XmXLX4Xq !.zXc.h.j.XXJ.D 3 7.k.W O.tXv.c.h.2.z..Xc.p.4.R x | i.dXv.tXi.h x s.n.5.2.j.h.s.:.*X1X~.O.tXtXtX5.p ] `.h ; { tXsX_ 9 R.>XBX'.F.g x [.E o.D.' @.' d lX[.W ; 5 H.yXtXl.O.O.m.g.v.P.~ < a L.n.v.yXdX4.| c.yXpXI.*XA : 4 P.m.wXnXPXFX= &.hXyXx.%.mXLXFX, e OXXXtXL.[.(./ E.N 8 FXI + R.P.x.sXdX5.e.r | pXm..XoXs.x k 4 m U.* @ 7 V < * t T.R.<XLXPX3X/ U.E a.fXuXtX%.8 & 8 % o > [ a.aX9Xg.uXuX9XS.d i [.oXK. Xv 4 w.pXi.u.dXv.p.O.s.pXp.O.K.4.R 1 b t.OXl.a.{ '.zX1.0 X $ $ U PXZXY.` O.p.x.XXv.x.x.oX3.O.d.[.d [ 1X5XN N HXPX=X&.%.O.+.3.q.- 5 / R.`.d 9 nXpXyXtX@.E q.X.3.OXk.j.c.z.7.u < o.q.e ] ' V.hX' > + @ E.m 4 G.k.5.V.s.i.j.XXyXI.f o + + 5 ~ ).{.].j j g 4 L.F.x B.3.W | tXtXg.H.",
"I.0XyXdX9XXX5.k.R p i D T.* 9 W.o O % X $.pXW 7.[._ D.s.+.` OXOXg m E.1XH i a N.k.l.i.+.n.l.O.r.@ f zX,.@.b.sXsXK.a ,.I.:.< u :X!.3 ;.[.%.V.p.pX3. .o.Q @ 0 D.i.O.[.SXBX+ 7 t r !  .9.0.9.9.5..X' S.J.3.` j } +.O.hXtXj.3.3.` E -.-.X.6.E O.G.@Xr.e # , %.x.9XcXO.` B.| } O.5.H.gXp u `.8.2.e.R r [ lXBX4X8 x P.J.b.{ ,.fXvXS.nXLX4X`. .} k.5.| h.[.u @ D a ' lXO.d.b.pX@.F.s.w.k 1 1 t ~ _ qXvXvXM.` ..x g j 5.tXtX@.+.n.h.+.D.G.#.-.(.9.9.z.].e @ 7 7 M a a -.{ a.p.d.N.R.=XmXE.f $.s.<.9 + # o 9 T.r p m C M 7.oXgX0Xf.pXcXD = ~.M u g (. XNXkX'.bXZXHXPXHXK wXf.@.f.@.k.5.} `., o 0 d.pX*.G K.yXn.7.{.U.6 R.[.,.aXaXzXBX1XZXmXW.b T.OXh.i.z..XV.d 9 D.5.` O.v.XXXXh.2.z.XXh.p.z.` h E u.tXx.XXi.c E 8.z.5.5.z.z.B.A.:X^.>.' 4.n.pX+.p ] (.h @ %.sXaXd > Y.NX].7.G.h p [.x x F.p c `.{ ,.L.W < 5 H.x.m.K.O.@.m.f.tXP.Q < 2 A.J.c.v.aXx.+.c.yXpXL.E.8 @ s pX0XBXLXPXY > (.hXx.u.NXHXJXY + W oXyXtX[...4 4 Z N P JXP + d @.yXsXyX+.X.j +XXXm.v.iXOXQ y y r {.p @ 7 C < * y ).{.KXPX3X8 p -.W u.yXuXtX$.Z N 8 8 X # ..iXaXuXg.dXtXu.hX_ c gXK.V.>Xf x D.iXu.i.pXm.O.4.gXN.u O.I.3.=.s < ..@XH.L.*.'.xXS.i X o 8 LXLXW.R.].4.p.v.x.tXiXp.l.3.+.$.L.l >.1X5X& 5XPXKXJ [ 4.i.oX8.].M m ).-.<.{ d }.0XyXiXO.h E } 6.P.} 3.n.l.w.x p -.W r W x D.@Xz @ $ e R.t -.+X5.| $.J.z.i.XXXXgXf X # + E.7XT.|.F.E E p * A.L.4.8.6.` ` iXXXx.c.",
"0 z 9XsXv.XXh.5.W x d D R.; i 9   % $ 0 [.z.+.D.kX$.@X8.3. .j.zX^ m C C mX^.$.s.5.h.i.i.XXh.3.r.; d hXO.@.i.pXiXc 3 hXxXv - l >. X}. X XZ.O.' gX7.} o.l = F [.p.,.N.nX;X* y r g o. .9.z.9.9.3.J.<.A.D.7...R  .+._ S.pXXX5.w...W t. .e.6.W } ` q.(.; @ 9 $.v.9XxXH.#.;.| E 7.i.J.hXE a ].3. .G.T g &.BXLXP * =.OXXXc.O._ qXxXeXZX<X{.F.| W k.k. .| |.M * @ 3 g.jX@.0Xx.iXc.n.j.a.Q 1 1 k =.' g.vXvXuX| ..] x R l.XXyXu.7.z.3.3.oXP.[.=.:.s.5.+XG.~ * * 7 C M 2 l #.4.O.$.}.^.4X4XV , ' 4.@.z # # + i -.h v !.Q.&.l.m.,.wXxXzX'., @ Y.[ 4 j D.[.S.S.nXmX3XJXJXB n wXf.,.,.a.s.i.O.>.# o = $.pX[.O.pXtXn.B.{.C ; {.hX@.f.VXAX1XE.E.&.U.C M F.z.5.D.P.%.3 d @X5.W | n.tXXXh.2.+X.Xj.p.iX+.j j #.pXv.c.5.x W 5.+Xh.h.+Xn.D.].|.R..._ _ s.@X| g ..C.h ; A.yXtXD , ^.BX#.7.B.` p [.] r -.1 u Y.}.NXB.R < e F.4..XiXO.,.0X,.tXOXx 4 - *.P.j.v.dXiXp.x.tXb.'.E.: - Q gX0XBXLX3XA h F.gXu.u.VXKX5X% 3 P.tXyXpX'.l e 4 A N FX3X& + z H.sXdX.X+.! T XXXXM.9XtXn...r y 4 [.B.* y E.> * C 1XbXKX4XB 6 Q ' ` | x.uXtXV.Q.8 N N + 3 O.tXyXyX9Xx.i.O.jX@.c kX'.>.1X9 ` J.dXv.v.m.4.' A.'.i = a.D.4.:.~ 4 ] Z.O.[. X}.xXS., X X 3XPX4XF `.BX].u.m.j.tXK.O.8.3.a.O.[.i ..2XB I JXPX4XF V.i.u.k.0.t.~ T.(.h O.,.G ~.pX9Xb.` u 4 ` #.7.E p.j.u.w.x r t.j g C.` u.[.u $ + M ] j G.z.5.e c @Xs.| i.XXsX>.$ o o &X%XD [.F.E =.h @ <.gXj.O. .w.` m.XXj.i.",
", + 0XsXv.c.XXh.} ..d _ R.u z n . % o v P.XXi.D.Z.' gX5.3.3.j.lX|.g M M Y. X@X5.5.i.i.i.j.h.3.q.p a hX,.u.@.$.a ] D aXxXh - x N. X[  XnXV.,._ pX3.R W h # *.wXi.u.[.*.Y.1Xk 1 ^ o.6.5.z.0.3.3.L.nX>.V.8.W W +.i._ ,.dXtX5.e...W 6.| 3.k. .y.t.h U.b 0 &.K.v.u.tXD.| ] E W D.j.c.jX' u ].3. .C.j Q ;XZX=X8 : r.oXXXv.3.u f.wX}.:XU.R.@X} W k.oXl.' :.Y.U.; 3 hXpXD H.O.tXpXc.c.l.X.g r ^ :._ ,.xXfXfXO.#...x ` j.yXyXp.4.k.5.j.pX@XC.u p 8.n.XXk.-.- * 8 b s @ 2 ..| | N.bX%X4X=X6 3 ;.| ' D + # 9 {.`.R ~ ;XT.;.OXp.@.S.VXNX, X o F *.h R k.d.$.eXbXK HXJXA $ 0 { b.@.,.a.@.s.O.&.@ + o ' P.iXv.dXyXn.6.{.M = '.cXM.' nXZX&X7 6 a {./ e q.G.s.P.` x > [ gXi.` ` b.tXv.p.2.z.oXXXx.iX .R g ' pXtXm.5.E E 5.+Xh.h.z.z.J.7.r.r.' l l O.Z.E j X.].h ; '.9XhX<.# Y.&.O.8.P.L.l `.:.2 e < * ^.IXkX7.o.< 4 A.O.tXtX{ f.0X,.tXpXE 4 * k L.j.x.tXiXx.x.iX' {.&X* t =.gXwX:X=XZ s ] k.OXu.H.BX4Xq > *.l.yXv.aX{ d [.(.Z S P N & + _ sXdXdXb.7.` 3..Xc.p.tXyXn.].k y t d.zXp p Y.> - / BXbX:Xq * 6 `.+.E W M.sXyXP.U.: 8 N # v J.yXyXyXsXj.5.s.jXg._ [.[ :X<X3 | oXdXuXXXj.| w.`.&.* 3 | 3.4.| ] ] (.=.u `.BXeXhX{ o X B PXmX=XD {.BX%.,.iXj.pXL.c  .6.B.' '.d ' R.N 5XPXLXJ v I.j.p.| } r < U.!.x N.$.9 F gXiX3.x v < E q.| } J.p.@.O.e g t.r e Z.u.V.].2 $ o ~ ! 2.k.h.5.3 ..'.' }  .XXpXS., o o A 0 A.P.P.` =.u > '.gXu.O.P.].a b.pXu.u.",
", o qXvXuXXXc.z. .| { Z.r.x l H . O o f OXXX5.#.l _ jX5.+.5.c.dX@XW E (.].D.s.5.s.i.p.x.j.z.2.2.R h 0Xf.b.| p * h z xX0Xx g | '.~.i [ $.f.iX9XiX+.R W _ 0 D b.p.O.hX:X2 ~ y g T } 3.5.z.k.9.8.].R.c L.D.r R O.O.O.,.tXc.h.5.} W 7.O.| F.2.} ].x u M s =.K.v.4.J.3.} E x  .oXj.x.jX@.u ].8. .q.r ~ 4X4XN $ 2 q.+X.X.XG.p ' wXR.M d ] [.3.} h.XXc.O.O.w.=.v v NXd > [.@.c.XXc.tXm.e.W g Q ] _ `.zXvXfXO.X.%.h ' J.dXyXj.5.k.5.K.pXD.` g 5 O.+Xj.h.q.e * 8 y 6 * + x 7.| A.:XW.HXJ 5 ] @Xx _ F X # N.zXk.R Q.,X&.r.L.i.g.hXnXmX%   o q &.x W G.[. X4Xq 5XKXA $ % o z p.' ,.@.$.D.' i X o X c a.tXuXuXyXj.6.{.b @ <.xXyXD ;XHXP N 8 n 2X&.r &._.' ` 2 e 4 ;.gXp.| ' l.iX9Xp. .0.XXXXv.iX .R T R I.iXJ.7.W R 3.k.h.h.z.XXJ.O.4.B.` c _ ` [ j R 6.G.h ; [.I.zX*.0 bX&.O.k.[.kXz ~.~.2 1 - = *.VXH.B.R - < ..@.iXtXO.g.0X@.tXdX#.4 * 4 B.j.p.m.yXv.x.0Xc W.V : k X.zXwXW.q S b -.4.oXu.<.BXR.h ..7.b.yXyXiXi d kX`.A N N & % + ,.fXdXv.u.4.W s.pXc.M.tXpXd.|.~ y r 5.jXa.a &.< 5 !.nX XY.= = i '.4.R  .iXvXtX[.~ @ 8 N # [ pXyXyXyXpXp.3.k.K.p.O.~.v 1XR.p i.dXdXaXm.3. .].R.v e c } +.O.+.5.k.].&.i ^.BXkXgXD $ X U HX&X=XY.{. Xz { 0Xf.gX{ d } 3.F.c Z.' s.>.U JXPXHXH G S.i.n.@.E - p Q.Q.&. X>.o d L.K.+.R M - h #.W 7.k.l.u.' e Q (.j g q.V.L.%.a + @ ~ } 5.z.z.5.' [.a 5 r.+.5.pXgX9 X + @ 2 gXx.n.O.:.i z I.pXf.O.@X].p 4.d.O.] ",
"w $ g.cXuXc.XXc.5.+.O.@.7._ 5 n X X O F [.@X .W h ' sXj.2.3.x.pXjX8.x :.G.G.} +.i.u.@.m.K.n.2.2.} ` g.9XpX} p h ~ z 0Xg.l x 6.].d 9 %.a.g.iXtX9XpXO._ $.<.<.M.x.f.lX^.@ k k g ! 2.9.5.z.h.9.k.O.i `.pXJ.R j ` O.@.d.p.p.+XG.W x $.$.O.s.9.2.X.Q e s k -.m.tXl.+.| W p x 3.oXu.v.sXu.5 `.e. .;.e W.4XP & : 4 ;.D.c.n.@XW l [.] l _ ` B.3.} z.XXc.4.' 4.F.[ D z = d wX@.x.tXx.v.tXl.| h R ] :.nXeXvXvX@.` #.` } .XyXyXj.O.O.' l.l.+.#.Q < ` J.j.z.e.Q - : b 7 6 + [ [.| %.*.<X4Xq z `.@Xa [ d X f gXtXs.Q Q.W.-.C.O.O.u.lX*.=X3X.   3 R.X.} `.|.;X8 P JX&X+ H A o Z.S.hXS.$.@.F.{ f o X @ D @.yXuXuXyXh.q.).5 + *.cXsX>.<XHXP I A C {.t.h ~ U.W x ; 3 3 Z.hXp.#.;.V.gXiXj. .3.z.XXv.iX+.R R h @.gXP.7.W R 9.k.h.h.z.XXl.@.J.5._ #.$.| _ E W 9.G.h u  X'.'.0 W.PXU.$.@XkX[.d >.`.h e - = *.hXn.7.R < < c s.iXXXO.d.0X{ v.sXV.e * ; #.j.i.v.yX9X9X0Xv C * b &.q.kX XM : m m w.@.oX@.z }.&.E  .i.v.yXyXg.3 &.[.x 1 8 8 8 + 9 hXfXdXu.u.a.+.+..Xj.M.tXK.' -.T.^ r 4.lXkXa ~ r &.BXVXkX>.> @ F kXB.W W H.aXv.[.T.* 8 N 3 [ pXyXtXdXp.3. . .p.i.A.nXbXZXf a x.dXdXiXd.E }  Xi 2 (.(.R X.O.5.c..Xq.v n <XBX XL.<., % B &Xb ^.nX>X[.l c I.O.[.i 9 | s.[.a V.' gX`.3XJXPX3X<XBXlXM.9XK.] k Q.Q.p x r...+ R.gXl.+.W u @ h R R G.i.P.L.' j ! C.R h ;.$.>.] v + @ Q  .k.z.8.E $.>.o 0 R.E 7.J.jXD o + + [ K.j..X5.w.3 ' wXK.D _ [.C.l N.' d c ",
"w + f.cXdXx.XXv.j.5. .| w...@ 3 w O X =XPX{.a Z.' ' sXc. .2.p.tXdXOXk r } 6.X.w.e.+.g.0XqXK.0.2.2.+.g.pXpX .W `.a z L.O.E W } w.u i %.p.b.m.0X0Xp.p.0XpX,.{ x.x.f.eX9 + M k T ! 2.3.5.n.h.5.k.3.` L.pXoX' x }  .+.i.i.4.l.7.&.&.`.$.0XhX5. .! j y y y ] 9XyXk. ...p e ` z..Xu.9XjXu.2 ~.e.6.| l =X&X& 8 : t ! e.h.h.J.u.l V.O.@.7.| D.5. .5.h..Xz.| @.V.N.c c D f.K.u.c.tXXXv.yX.X7.j j U.;XnXeXvXfXu.` +.| | iXyXyXu.` R.c L.l.+.X.-.j x K.j.XXk.X.y * 7 y q @ O.gXa.' ;.{.U.4 } F.[.a &.5 @ ].hXx.l &.E./ T.;.E $.4.gXz q mXB # Y.R.=.W g 5 @ B JX3X% @ {.Y.0 '.{ VXVX,.+.k._ f o X q *.' dXuXyXyXs.:.T.* @ Y.CXhX<.mXHX5XP Z / :.#.W b n r.` > 3 i [.pXx.$.E _ P.pXj. .2.j.pXc.5.8.W R x _ B.G.k.! W 9.0.z.j.z.XXh.i.J.O.| +.+.D.' ' 2.9.F.R c NX*.Y.w KXLXF A.kXkX'.c _ F.| k ; > '.pXn.3.g < < c K.yXXX| H.pX,.9XaXL.e - < ..k.i.h.tXtXtXV.z u - / -.t. XR.b t y ] e.| H._ ' ;.W } 3.j.yXdXiXO.< &.=.4 1 1 y p 5 <.sXsXm.O.7.7.2. .9.p.9XaXL.u Q ~ m r 7.VX'.< p ~ >XZXlXhX>.2 > ^.nX*.=.c d ,.m.gX/ * 8 S < ] hXtXyXsXc ' 5.W p.gXZ. XLXmX= z gXdXdXj.| g g f = i ].E r ;.4.j.c.J.=.e A 4X;X>X>.&.7 N V C 4 {.BX`.>.i i [.X.] 2 u #.D.S.i A.$.wXrX=XHXJXP 6 |.CXaXuXiX..U.).~ g r.] c Y.AXgXp.+.[ 3 + ;.} ` F.O.s.[.;.R ! e.! E ] i a h k + = ] 9.z.z.6.E R.9 o 3 M a | k.aXf.# o ; [.J.p..Xk.7.u @.pXg.i c @XN.g `.g d 0 ",
"n # f.cXtXv.dXv.c.i.3. .F.;.0 # *Xw U UX*X9 ' [.' | sXXX2.2.5.n.iXG.j t R +.6.e.6.W s.0XqXm.h.9.3.O.@.iXz. .3.C.3 [ _ c ' `  .t.a F ' u.aXx.D S.d.@.9XsXaXg.v.x.f.wXz 3 v j R X.2.9.h.j.h.h.z.z. .k.iXtXa.| } } 7.D.H.+.3.X.T.!.=.O.M.iXj.2.o.j y m r W 9XuXn. ...< p 6.+XXX@.tXjX@.> R.B.| #.&.=XN % : - r Q 2.k.h.p.K._ @.b.K.b.O.J.5.} 0.j..XJ.' 4.H.D.O.' $.0Xm.i.XXv.yXyXyX.Xi.h g / ;X{.rXvXfX,.E 4.5.5..XyXpXO. XAX*.V.l. .6.y.2.E b.x..X5.e.m * b q 7 @ O.gX#Xw.W W &.g ' 7...9 F > z zXiX@.&.U.C ( ] ;._ A.a.` i i q mX<XW.u Q :.4 @ 7 4X5X% @ 3 Z.~.~.>.0 VXSX%.O.G.c f ,   A *.{ sXuXuXXX%.a / 6 + H VXrX/.ZXHX&XZ e Q (.6.C.M s t.x ; 3 z gXpXp.I.O.x | p.k. .3.n.x.4.O.F.! R j x | k.h.! ! 9.0.z.j.h.XXj.x.b.O.3.} +.D.O.O.3.8.F. .' `.Y.w =XIX4XF `.NXeX'.D _ D.C.ZXn i zXpXk.X.p < < | pXtXc. .D.wX,.yXaXS.4 - 1 x $.h.i..XtXtXH.>.a t ^ t.;.=.T.m y g q.F.W A.l Z.6.}  .5.j.yXsX0Xl 5 &.3 v m 1 Q W W J.sXsXu.| #.w.} }  .i.tXaX%.; E ] v e [  X&.* h `.:X`.pXpX<.2 > ^.^.^.^.u 3 d.m.[.k * : S 4 E gXtXaXm.l ` OX} 4.gXL.}.<X4Xd <.hXtX.X5.E g - @ = '.zXE 4 ..i.x.tXb.:.s &X4XQ.!.v M Z N b T.p |.'.A...4 a kX! k < l 7.z.gX_ l D '.nXmX3XFXB * >.g.9X9XiXX.T.!.p E #Xr.a U.>XF.l. .] 2 + $.s.| P.+.@.$...R ! 9. .E v @ + u M + > } 0.+XD.=.2 = + @ @ b 4 ] 3.yXpX0 o 5 [.J.p.c.n.4._ V.$.%.i W @Xw.p (.u a D ",
"n # f.DX9Xx.yXx.XXj.5.+.5.#.*XmX<X=XLX=X+ F $.gX`  .aXtX2.o.| 3.h.9.R j ..7.3. .6.R x N.pXc.h.9.| ` O.pXO.| +.3.x ..i l 7. .3.`.a v _ d.sX,.X F A.@.0X9XaXiXyXx.f.gX'.] R j W 2.y. .5.z.h.h.h.h.| j.yXtXP.w.} q.#.{ A.#.O.;.;XQ.! 3.x.x.h.2.q.^ r ~ k E 9XsXM.d.'.2 c D..XXX@.0XjX_ @ Y.].} :.U.B % * t M j j X.8.5.3.pX3.| b.iXH.' J.5.! 9.z.oX8.' O.V.k.i.b.p.f.S.j.XXyXyXM.9XtXk.x p ~ T.&.S.uXvXg.c @.4.i..XaX0X[ 1X1XM F.5.3.9.0.z.| u.b.b.5.6.-.4 y b > + a [.NX`.#.` _ ` +.s.[ 3 i 5 b.gXa.[ 1X&XV C :.%.a A.C.p $.G w mXHX6 = l q.R e ,X&X% $ o %.S.D *.# , AXBX' 7.B.c d 3 + &X5 %.uXfXyXK.d @ A S @ 7 1X:X4XLX4X&X-Xj E [.O.A.R.g ! g ; 2 @.pXm.p.p.i.W W @.O. .3.n.u.' W C.o.R R j W h.0.o.! 9.9.h.z.h.c.p.m.p.u.d.W | D.f.@.3.G.OX7.l *.i , K MXW.F }.BX`.`.` x B. XPX=X_ pXoXs.[ p < < @.pXtXj. .#.{ @.jX0X%.Q e 4 l ` 8.3.c.tXtXx.@.x R -.-.g e R.j g ! C.].c ..d #.#.}  .i.XXyXaXZ.9 p R < R.^ r R ` | m.sXaXc c ..` X. .} i.tXpXD 5 l `.v v s !.v 4 X.].[ $.sXdX| 5 l Y.*X=X%X2 ,.tXx.@XT.t - V 4 ..pXyXtXp.c %.P.| O.Z.E *.!.!.`.gXtXaXK.E k b : @ z lXOX .u %.b.9XiXd.;.v =X4XZ e l ;X4XN g (.h *.a.pX%.l | lX&.e < E s.n.pX_ ' A.nXZXHX5X5XB 9 `.a.O.{ N.|.).Q.M a >.[ &.M x F.D.+.W * * Z.s. .@X3.7.>...W ! 9.9.x v # o 0 C o ; ..+X+Xk.l + o $ % + 6 2 E +.v.jXf X 3 |.L.i.z.z.3.F.$.d G i | OXO.| x 2 ' [.",
"w # g.DXg.u.tXv.c.oXh.3.5.Z.*X=X<XKXmX, i >.H.oXW  .pXiX .} } } 9.9.R h c @.3.5.e.W r E P.n.h.k.+.O.u.g._ @.| 7.a.w.c c k.2.5.G.c 5 d f.vXM.X w `.O.g.M.M.9XtXv.g.pX'.E ! T } 6.6.}  .n.n.h.z.h.` n.yXtXs.6.' x x e l h ..:.,XM } 5.n.x.+X2.2.-.k t ~ [ M.sXtXK.'.5 { b.yXXXf.iXzXa + &.[.} &.C * 6 s &.T.g g ! 2.3. .J.J.+.' f.m.@.j.5.} 2.z.+X| W | Z.s.p.tXp.D V.n.tXfXuXf.9XtXl.R r k ~ x @.uXvX0Xz | @.p.oXdXK.l M s g B.3.5.9.h.XX5.@.b.5.3.6.t.g 6 8 ; + , :X:X*.>.$._ | B.].c 2 i ' pXiX_ i H q B Z (.O.2 ..r.x `.z <XHX3Xn @ l 6. .:.U.= + + D gXxXS.3   # mX}._ O.B.c 3 M b n i [.sXuXdXV.9 @ V 8 $ 8 ,X,XmXHX3X&X{.x +.P.7.`.`.Q Q 4 < u p.pXoXp.5.i.5.| $.| } 3.z.4.x l e.2.R R j W h.0.2.! 9.9.0.z.c.j.i.K.g.x.V.W 3.k.@.a.3.k.OX+.h *.# # L n W.W.<XbX..w.;.g `.ZXKX=Xa..Xc.s.E s 4 4 d.tXtXz.X.E c { xX0X_ &.r e ] ] 7. .p.tXyXp.@.` W o.-.4 e R.R T 6.e.;.x >.a l X.} 3.l.v.v.pX*.5 v j g ].;.T }  .+.tXxXM.3 l 5 l 6. . .z.pXb.D i i ~.i f b %X&.E ].O.i L.sXyXO.%.R.!.=X3XJ &.jXuXp.@X`.p - m < ' .XyXx.@.` r.k.5.B.{ - v !.i :.kXiXiX[.p M 7 % @ L.sXj.D.E O.iXtXm.d.+.=.<X=XV < !.ZX4X8 W [.] z g.sX,.' p.gXR.e g X.5.n.pXu.O. XnXZX3XP P A &.].L.D.{ i T.).Q.r p ~.}.ZXY.g } 6.6.W @ a kX|  .@X4.@.%.` ! ! 2.0.c n @ o 6 M + * q.OX+X7., o o @ $ + q * h ' x.hX~.+ @ R.F.} +.D.7.[.`.> 3 [ D.z.H.N.4 < N.0X",
"q # qXDX{ O.x.tXv.tXj.+.3.r.0 o mXLXR.(.r.' p.oXW } iX0XX.! } o.2.e.W E c #.+.8.(.e p r j C.z.+X5.d.H.O.,.iX+. .s.D.$.| 0.9.5.h.s._ z S.vX0Xo # T.| u.M.g.9XtXv.u.u.#.j ! !  .6.q.} | l.n.j.c.c.| z.tXiX' ..q.< @ c A.g =.2X-Xm X.k.m.j.z.0.2.-.^ t y &.0XdXyXm.z i f.m.tXv.x.aXwX> + F ].W p s 2 v ..6.=.e e W  .2.} s.OXs.l O.dXv.j.h. .2.0.+Xs.` :.].d.j.tXx._ f.m.yXuXfXqXyXpXl.R r g T Q @.fXDX0Xz ` +.h.iXaXd.e e < Q G.3.h.h.XXXXc.3.@.4.D. .q.x > 6 C @ , mXLX=X<.S.{ c B.C.u 2 c d.tX.X_ U.6 7 P C :.%.3 D ' _ {.1XKXJ b ;X> 9 ;.X.(.2 + > { wXhXpXhX_   O =X{.' | B._ ; ;X3 ; | yXuXuXyX3.x 4 8 : $ S ( %X3X3X5XU R.` l.P.`.R.Q.m ^ t < l oXyXv.i.p.i.5.4.d.B.} 3.J.4.h c [.6.R R T W k.0.2.! 9.9.0.z.XXc.p.K.p.K.$.c OXj._ N.7.6.G.| h M + A HXK J =XmX=X-.`.-.e <XKX3XH L..Xj.5.E a 2 a oXyXXXz.] p D { jX,.z p r g ;.#.+.+.3.m.pXx.4.} W o.-.4 x w.W  .8.G.#.h ~.a l ;. .8.D.3.j.pXz 5 ] R W [.q.j ` +.5.pXjX' @ v = @.5. .5.XXpXu.D Y.!.Y., , n m =.r.].p l hXdXyXO.C.`.;X4X3XJ  XcXuXp.P.A.v 1 m 4 x n.yXp.@.c $.i.l.F._ 2 R.-X5 e R.$.7.`.5 y V : @ zXsXi.H.4.u.yXyXg.g.5.w.<XU 6 m ZXmXP : ;.[.`.{ iXdX,._ i.pXA.g ~ ].k..XiXO.l  XZXmXU B B A *.[.7.G.`.i E.%X( t W Z.BXbXQ Q g ` X.W + T. Xc 5..XJ.a.' ] 6.! 2.G.;.F $ X , n + ; k.OXOX' o   , q O O % @ u E 4.gXeX, o R.|.h ` w.w.[ Y.+ 3 >.oXc.P._ 5 #.{ { ",
"w , aXcXD ,.p.tXtXXXj.3. .h = , HX<X(.e.' c n.m.R W iXiX| W ! 2.G.G.X.;.] w.5.k.r.< Q ~ < j G.n.i.p.p.@.fXsXu.` 5.J.+.4.0.9.3.h.J.L.D g.dXaXG H {...a.gXM.tX9Xm.O.x c [ ! }  .6.;.r ' J.j.j.c.XXO.p.pXpX` g C.R - c [.#.{.1XC e W s..Xj.5.0.9.y.-.r t v V.aXyXi.d $.pXdXXXv.v.hX`.@ o f Z.W t e x -. .+.] u E W  . .T  .k.5.c ,.sXdXXX+X5.3.9.z.@XB.(.(.d.x.yXx.{ f.tXyXuXfXuX9XiXD.o.g r j ] @.fXDXhXD _ O.5.j.pXa.4 t 2 ~ B.5.h.j.XXyXiX4.' s.P. . .] n =XE., =XPXJX=X1.hXS._ _ R.l 2 O.gXtXv.S.&.= A =XE.{.c 9 { { [ 1XLX4Xo 3 ).3 ; =.r.-.< u '.zXm.f.0XdX@.X O =X^.[ #.B._ @ U.4 ..oXyXyXdXoX` v m 7 : : S %X=XU 4X5XA Q | c.pX>.v m y m r 2 D pXdXtXK.gXa.' F.l.OX .3.J.u.x | @X .R R R R 0.0.2.! 2.3.0.XXXXj.i.p.f.I.D i pXx.i >.B. .6.x u 0 o 4XPX&X, U 5XZ (.|.:.M HX3XB F OXXXXX .x g 4 E pXXXXXz.x 4 ' H.iXO.z a x x ..O.|  .| b.pXm.3.W } X.] 4 ' B.W  .G.G.#.u U.a c X.3.k.D.' p.H.u p X.R } @Xo.j ` 5.j.jXwX9 @ &.%.P.5.+.j.iXoXa.{ F ^.%X# W.mXl #.[.} 2 @.jXsXyX_ l &.1X4XJ s &.lXpXi.J.@.=.y m 4 h OXj.@.a.c ' l.n.a.l ..|.R.&.u u h ..`.c 4 y 7 @ ,.hXl B.n.v.dXv.f.x.i.C.,XB b ,XmXJ : 2 C.P.`.,.aXuX@.a u.hX@XE g -.l..X0Xz 2 1XKX5XN N 7 b ..B.R w.nXa %X&X( ^ 6.].>Xi e (.R j o.Q < :Xa a l.n.n.E i ..q.! 2.8.kX>XB 8 0 s o u OXoX[.i O . M ;X  X @ = ; x O.P.hXi X H `.x | | ;.a # = U.E .XtXB.u V.[.' _ ",
"# # xXfXD ,.@.pXtXyXiXi. .h , q 4XH r.8.e l pXm.W W oXpX' _ ! 9.+X3.} B.+.3.5.k.D.' `.(.k - ! P.j.p.p.yXDXfXf.` s.OX+.8.0.3.} s.J.J.' f.fXfXf i (.q. X[.x.yXtXM.{ 2 e Q ! o.2.6.X.t W J.c.j.XXtXx.j.v.tXl.` 8.B.x | P.F.).E.v Q g +.pXc.5.0.9.2.y.g y H { hXjX,.c [.dXuXtXv.v.hX*.+ o f C. .g j X. . .s.| | ].R o.o.g R 8.3.O.f.uXyXXX.Xz.9.2.9.+X@X-.] d.x.aXx.' p.yXyXfXvXuX9XtX@X:.k r g W ' 9XDXhXD c @.O.| J.w.4 4 4 p ` k.j.j.XXtXpX' c L.l.5.| >.<XMXH Y.KXmXU H 0XcXwX[ a Y.R.g a.hXv.tXlXa 9 &X&Xm !.u z S.*.:XKX4XA X 2 R.l h ] W =.o.OXpXiXM.@.K.dXb.0 3 =XR.` O.C.[ @ ; u ].oXXXdXdXP.j h / C * 1 C 4X&XZ 3XU A ] 3..X.XZ.*.e y ~ p 9 <.aXaXx.@.kX`.h C.b.x. . .l.l.c $.OX .W R R W 9.0.2.! o.2.0.+X+Xj.u.p.u.V.d 9 K.g.3 Y.r.X.=.e u 6 % HXJXB % A A 7 / T.R.,X4XB # >.pXXXXX .j h e ..pXXXyXh.e 2 Z.pX9XM.' c ] E ' O.+. .' s.pXm. .W } X.Q 4 X.e.` | B.| E 2 5 u E +.5.z.G.` @.$.e x q.R 3.@X} x ` +.k.gX' @ = =.kX5.4.O.g.pXb.7.z 9 b &XU LXBX..B.8.x _ dXfXdXpXz 9 H 4XA b 9 d {.`.O.l.O.;.k m < [ @X2.` V.D c b.K.' h ].w.2.].W 4 g =.e.F.W p 6 + 9 <.* R.K.tXtXx.p.x.p.`.=X8 b 4X&X= ; a J.oX@.,.dXyXu.l ' hXpX` t ^ k..X0Xd 2 4X4XB 8 S : s X.B.c l  XF %XE./ k R |.Q.@ h ].X.r Q ~ ~ !.@ d s.m.K._ i `.B.} 3.G.N.&.&X&X7 ; + ` oXiXr.= O . Y.}.  # q @ * e ..D.hX{ o 3 ] `  .+.w.d o &XU.e OXgX_ ' hXp._ $.",
"# 3 DXqXD ' l iX9XdXtXp.2.Q b 8 A W.`.#.- z 0Xm.W R D.OXz E } e.G.R E e.3.2.h.j.j.H.{ a ).< 1 _.H.x.M.vXvXfXf.c d.J.5.k.0.3.` @.H.' _ { sXxXz 5 ] =.#XV.M.yX9X0X=.2 p =.o.!  .2.q.X.+.z..Xj.x.tXx.x.XXyXm.5.3.C.;.C.s.C.!.t ~ :.g ` oXh.3.0.9.9.9.! ; Y.'.wXsXx.2 #.iXyXyXx.v.gXi o o 0 ;.} j o. .2.9.5.| gXF.x ! -.j h 6.5.,.g.yXtXc.XXc.5.2.2.h.OX-.x l.v.yX9X@.p.XXyXuXfXuX9XtXgXT.m k k R l g.vXxX_ a O.3.+.P.' e k ; < x D.x.x.yXiXgXa h @XJ.| ' }.ZX*X^.1XmXK w /.cXxXwX>.v M ).E 7.p.{ aXK.d Y.&XA V U.; { hX}.LXmXA @ @ a r.=.] ` r R r.pXXXyXM._ u.yXiX*.*X%Xu ..O.$.=.2 ; 4 [.iXtXyXsX7.j ] Q k - y -X,Xq J 5XV b ..k..X.XS.*.5 m U.R.NXVXcXuXM.f.N.r.u ` oXi.}  .J.k.c d.pXl.} R R 6.0.k.8.! o.2.9.z.h.i.u.l.O.{ 9 i K.,., R.>.X.-.e 5 6 B KX4XA b A 7 6 M &.T.;XZ o 3 Z..X.Xh.} R g p 7.pXtX.X5.< u Z.p.yXpX| E ..E ` 3.F.3.` 5.iXm. .} } X.Q < 6.7.| +.B.| T.3 * * ` 9.5.J.w.x d _ t Q 6.W 9.G.X.l W | l.gXa @ u  X[.O.V.@.qX9Xb.O.> f M q mXLX{.F.G.3.` x.uXuXfXiXd n 4X3X6 E.Y.R.E.U.` B.V.A.j r e t.+X2.| [.' d d.J.l l [.| h.+XX.r r T o.6.7.r.M * , f @ >.K.tXx.p.p.v.s.|.=X8 V -X6 2 R.| n.tXu.v.sXx.s.` a gXhX| r Q k.oXI.d M 4XU & 8 S * M e.B.l F LXZX!.Q.U.k 1 M m @ ` [.e.W g / T.2 @ &.%.b.iXu.9 >.[. .0.P.w.2 8 U A o ; w.c.pX&.@ O . }...  K n @ 3 e x 7.pX,.o = ] w.O.| w.l , 4Xb < P.b._ [.wX_ _ A.",
"F i DXg.D ' D iXtXyXtXx.3.W E.% Z W.`._ + G pX0X] k `.a > >.C.F.w.x g ]  .5.i.j.j.I.[ > :.Q - m H.9XqXvXvXfXx.c u.n.0.0.h.3.E ..B.l [ 3 ,.CX,.c M T.].i.x.yX9XH.;.4 h =.o.o. . .e.6.| b.j.c.v.dXx.p.v.yXc.3. ...u u g v V 1 g r.%.' oX.X} 5.0.2.9.6.a &. XL.aXpX2 e $.b.tXc.XX[.> + X 0 %.' ! -. .9.9.8.O.>.;.W R ;.j p 8.n.x.9XyXv.c.XXc.j.9.} 5.G.-.Q s.9XyXyX4.l..Xv.uXvXuX9XdXgXT.y g T R E f.vXvX' l ' u.J.OX` p R.u 2 ' H.j.v.dXyX0Xu ` @XG.O.*.bX<XW.;X:X<Xn d eXCXlXZ.>.:.v E.M >.O.g.jX{ >.^.&X1 V C = 0XxXZXmXA ; @ u #.B.o.X.7. .W W .Xc.tXp.O.O.tXb./.mX%X< E B.%.' c g 4 F.OXv.yXtXO._ r.R j 1 M ;Xb 5 %XE.8 y X.+XpXiXwXf * U.R.].wXhXfXyXx.x.@X| l c iXc.| | OXp.E H.hX@.h Q W X.h.h.G. .!  .0.z.+.@.k.n.O.x 3 [ K.,.D ~.N.7.} r p 0 &XKXW.*X{.v t M v Q Y.W.A + a [..XoXh.` x h h l.tXyX.X} < v [ ' v.pX' l ] x ' gXs.+.} | K.b. .! } X.x 4 7.4.| 7.C.>XKX7 @ ; ` 8.5.+X#.l 5 a r o.y.} 9.+XX.h c O.l.k.x 3 [  XA.<.,.,.pX9Xn.| d Y.^.> J <X].l.k.5.u.v.uXfXfX0X9 H LX=X* 1X*Xs 7 V U.:.A.[.R r r ].y.2.| `.>.d I.B.2 l [.5.j.k.6.g 1 y k v ] r.].] 9 3 9 Z.m.v.u.O.i.K.].;XZ : b T.5 R.R.} XXyXx.tXtXiX$.x _ kXhX4.j g G.gX'.9 *X3XB 8 1 m * m ].} {.IXLXZX!.~ &.j 1 1 y 1 X.+X+Xq.k C m ; * i i I.gX{ 3 '.@X3.z.z.C.u : 8 P q p F.v.K.i o O   '.Z.f Y.+ 5 T.p r 6.tXM.= a :.] 4 c ;.c W.mX; ; ;.@.a.zX*.@ _ $.",
"*.D DX{ D V.d.OXtXyXyXtX3.X.s @ &Xs {.9 X F hXx.:.{.c 2 R.] E #.` x j -.} 3.j.j.c.gX}.c #.:.< 1 a.9XfXfXfXfXM.O.u.z.0.0.z.k.` W ' c F , , '.N.[ E.-Xw.p.v.yX9Xm.$.g W X.o.}  .3.e.r x n.c.c.v.yXv.j.v.tXXX3. ...; ; R.U.- - p w.'.d.oXj.| 8.9.9.0.9.[ `. XV.tXhXb V *.a.K.j.v.gXi o X w >.` -.X.2.9.k.+.2 i `.` R q.Q e 3..X9XyXyXv.c.XXv..Xs. .7.+.^ -.s.tXdX9Xu.l.oXu.x.fXuX9XyXOXv k Q j E $.M.vXcX' l ` i.oXJ.x a `.M * E [.M.v.uXdXf.3 +.@X8.[ *XZX%XW.F :X;X3 <.NXBX XD Z.].Q C U.`.' H.hXz R.*XZ - V 6 3 0XVXmXn 0 a 2 [ P.l.E X.P.k.E e s.aXm.i.[._ p.I.:X<X!.r E a.O.O.G.| e F.J.c.yXc.O._ t.R T t T.U.u R.|.M - b ].K.I.wX}./.bXbX;.| _ qXuXyXv.m.P.` l _ pXpX5.O.B.$.c H.aXO.p v E X.h.j.z.6.!  .9.k.` #.z.oXB.x e r.K.f.N.NX[.+.} g u M <X3X, v `.x g ^ (.x &.W.J > W J..XpXO.E Q h j l.tXtXn.| e ~ z l x.iX_ u _ W L.OX5.3.+.` H.p. . .} ..g e F.a.| w. XAX4X8 : * ` 9.+Xk.W &.2 2 j 2.G.o.9.G.#.x W } 5.k.W ` >.>.R.~.[.gXpXg.j.} ..nX{.*XK W.].J.8.3.n.yXuXuXfXM.3 <XHXA @ M n @ @ 7 A p r.[.-.r j t.2.2.x `.'.{ [.' @ a [.l.i.k.e.T t t m M x R 6.(.; @ l a.iXtXd.O.@.P.|.Q.7 * m v x |.Q j .XXXv.x.pXp._ x $.kXpXd.Q g 8.OX<.i 4X&X8 8 y k * U.@X| 0 3 *X1XM Q -.] k 1 t ~ e.z.+X .Q s E.; 6 H {.eXhX' 3 '.H.p.j.l.C.e - : N V Q.`.iXV.> o X @ A.I.kXd o U.T.j e | x.pXl [ `.a ; a a R.KX%Xb 5 a O.I.eXf X 9 N.",
"D ,.DX_ { V.d.b.XXyXtXXX5.} 2 &X<X; R.@ o /.hXx._ R.R.R.).; ; v [ c j ^ E  .tXtXx.L.[.c ` `.v 1 u.9XqXvXvXfXx.| p.n.0.0.h.5. .R W =.v 0 0 , D &.1X!.' 5.v.yX9Xm.4.` |  .o.W  .3.W R i.j.j.c.yXaXm.p.x.dXoX3. .;.i 2 !.M - t g ' O.K.iXn.O.s.9.9.0.0.q.|.].i.XXhX~ C v #.P.h.c.hXD o X , .. .6. .9.9.G.} u N.=.p R t.=.4 ` J.tXyXyXv.v.XXv.pX| ` #.` x :.J.tXdXyXi.oXJ.' f.dX9Xx.iXd.l -.o.j | J.g.xXxX_ c _ p.oXJ.E l A.U.* l L.M.tXuXdX{ i w.B.` *.mXmX!.M C <XH f `.'.bX!._ 4.k...s E.|.' ' D @ M &XA * = > D NXBXJ = M ` _ D.iXi.W X.G.C.l = @.hXJ.s.>.9 d.kXbX*X:.R | d.O.$.gXs.4 >.l.c.yXj.z l q.T g g &.l O.[.[.Q ; 0 '.wXrXAXIXIXPXZXr. .c p.aXtX,.L.[.l i { m.aXi.W >. X' V.jX,.l k E +.z.c.+X5.W } 9.5.x O.n.oXB.h p N.K.x.H.[.$.W X.R e 5 =XU # s (.R j ~ ] ] a U.U.M 6.+X.XoXE E Q h h B..Xv.n.O.g ] c _ c..XE 5 ] ` 7.k.5.k.B.W d.d.X.! X...a u [.d.| `.>XZX&X: @ - ..0.k.k.] {.6 3 W 0.k.} 3.0.#.x E | } k.5.7.$.3 ^.ZXVXzXpXx.5.8.A.Y.<XPX3Xq &.].;.E p.tXuXfXfXg.F mX&X= = 3 , # + 8 A b Q ].X.t p r.e.e.h $.gX@.'.a o M bX{._ r.e.e.^ 1 y m e < g v @ s ;.k.p.K.n.3.| [.|.b @ 6 -.} ` :.e h pXyXtXx.f.' 7.| $.gXiXb.Q r  .F.<.Y.3XB % : ^ T < :.pXb.i o %XmXv x =.] q.j 1 j y.+Xh.} w.~ C &X4XW.G <.zXz 3 S.m.v.j.h.c 4 : 8 N : b (.gXN.= o X 3 [.OX'.@ @ T.:.x R } p.pXi.4.`.; 5 d ; M ,XJ m a 5 '.}./.# o $.u.",
", S.cX' ,.O.O.d.c.XXXXXXh.} M ,XE.; M + X /.hXx._ p a BX-.< 2 d >.x ^ T.E E aXaXb.V.7.x x #.-.R d.pXf.fXvXuXj.| x.c.0.0.0.3. .W x Q 2 v }., z {.mXb ' 5.9XyXtXc.5. . . .} W  .3. .6.k.i.n.XXtXyXiX@.u..XoXh.} | &.i v e p ~ E _ _ d.u.p.O.5.k.9.0.0.6.q.8.h.XXgX{./ v :.Z.5.x.jX`.o o 9 | 7.3.3.5.k.k.W @.kXl e x (.:.< h B.m.yXv.v.c.c.tXiX9 a ;.x j `.oXtXuX9Xi.z.i.' f.aX9Xx.iX| c `. .R 5.n.,.hXzXl c O.m.iXn.5.@.N.Y.* a I.M.uXuXyX_ u x x c :XAX<XU.p W.,Xf ~.%.`.mXb ..P.k.` s M  X$.d u u U.&XN + + l }.BX!.# 0 (.| d.pXdXn.' W 8.6.a @ c d.4.%.> * N.kXmXW.X.} 3.b._ D gXP.2 _ s.c.iXl.> 3 R T T T ` ' n.pXP.c = w nXAXUXUXUXIX<X}.w.6.E @.hXn.c B.[.c a A.x.pXk._ |.BX>.,.xXM.a u ` 4.h.z.z.0.W ! 9.3.h O.oXn.O.h p | m.tXn.| a u X.o.e M HXJ # U.|.x W ! g :.a a U.~ 7.OX.Xi.c ] E j a w.n.c.z.3.x .._ V.c.n._ ; v a 2 | 3.P.C.E O.5. . .} -.5 a '.[.w.(.2XW.q : + * | k.G.$.NX1X6 e X.k.z.2.2.0.6.E W | W G.0. .$.0 bXAXeXS.b.5.3.8.$.&.<XKX&Xq s R.(.E | p.uXfXfXf.*X3XB @ = H w # # @ B V e ].y.g 4 w.G.G.E O.zXO.&.> o %X<XM ; :.5.8.! 4 t m r e u = o M |.a.O.i.oXh.' '.(.- - m q.G.s.| p -.oXyXyXx.,.4.B.| N.gXtXb.] r W ].'.^.Z & : e ^ j * `.iXb.D b mX4X&.l :.} G.8.j R 9.+Xh.5.P.(.C =X=Xq , G lXd 5 N.pXtXXX5.5 2 1 : N 8 @ m  X[ + o   H kX_ '.9 @ &.:.` :.h i.tXXXj.$.i R.5 5 b W.s l h 5 ].F v + R.kXi.",
"w hXlXO.O.c | 4.h.c.XX.Xn.} &.E.6 J E.@ o '.aXp.#.a = {.r.;.x l ;.x -.).v a I.jXV.|  .5.| 7.3.8.L.H.D ,.uXsX5.| j.j.0.0.5.+.6.` E x 2 E gX@.] ,X&X6 w.p.tXyXtXc.5. .+.#.] W 3.5.6.} +.l.j.i.v.dXpXu.i.p.h.k.} } #.` v j ! ..W ' B.k.5.k. .2.0.9.9.0.8.} 5.j.v.gX>XU.u &.v ' x.sX[.+ 9 >.7.7.+.5.i.l.k.| K.V.' e g (.R.< e w.n.tXx.c.c.v.tX0X= 0 >.h E ]..XXXdX9Xp.j.a.' ,.m.tXc.K.c ' F.3. .OXJ._ gXhXi c i.pXyXz.i.K.V.>.* p [.v.uXdXdX_ e 2 a Y.ZXLXW.3 l R.R.@.wX<.BX1Xi | @XB.p a k `.|._ _ :.{.U % + u 7.kX^., + M ;.| M.hX0X_ D l s.P.i + 3 $.Z.D o # .. X=XV o. .+.I.%.i ..=.3 _ l.+XoX' * 3 Q ! Q o. .k.XXdXP.D n mXUXUXUXUXPXK <.L.6.2.R O.gXp.h k.OX| a '.j.i.s...R.{.*.{ aX0Xa c N.d.i.h.h.h.! ! 9. .p $.OXl.| x p ` m.yXXX| e 3 ;.] a %XmXB @ n -.R X.` u T...a l E | J.pX+.c ] E h a $.n.c.c.u.E O._ wXv.b.] @ > = o l 6.F.;.a _ +. . . .] 2 f BX[.#.Q U.0 > , @ ; #.P.w.`.ZXY.; k 7.n.j.h.3.8.#.` ' | W } G.6.*.}.LXbXS.g.s.3.9.3.L.BXmXmXA b s j t.6.W 3.uXuXdXI.,XA : * @ W.q o $ o 6 C p (.e.j p B.k.G.` ' gXi 0 + 7 4X%X> + `.b.z.6.g 1 1 t g `.l @ J {.C.O.@.+Xj.| ;.~ < g } 8.J.OX3.R ;.c.yXyXx.x.d.5. .H.pXdXm.] g R ].>XE.8 $ 4 &.^ R e F.b.I.*.<XmX*X>X>X=.#.8.3.#.o.5.+Xj.p.n.F.T.Z Z 7 w f NXa l s.iX9Xm.@.2 * p t * N : 3 M 5 o @ X H >.a kXd + >.#.| E ; 4.n.c.j._ $.NX; 6 b !.u ..' 2 `.G d a lXP.i.",
"G rX0X$.c 5 7.| 3.h.v..X+X} h b V =XZ 6 + S.hXg.$.E 5 R.`.r.Q Q ;._ ~ T.v u ' A.;.x 8.5.` | 3.8.O.' D S.M.x.5.} p.j.h.0.5.+.6.W c x p ;.pXgX{.4X= n ].p.aX9XXXc.3.| 4.7.` W 5.h.0.!  .D.p.u.v.yXyXg.m.b.5.3.} | a.#.] ~ ! R h ' } } 3.9. .2.5.0.9.0.0. .p.n.x.gX`.v * ; 3 &.0XsXpXz ,.L.s.5.3.5.j.b.@.` b.f.'.5 e (.T.- < ..l..Xc.j.v.XXtXgX, w &.l E e.XXyXuX9Xp.gX'._ d.b.XXXXJ.` 4.H.s.7.F.D.a L.wXi ' n.yXyXl.O.K.H...* e V.9XuXsXaXE a 2 n 4XPXbXi * ~ :.w.gXhX'.BXU.F #.3.#.4 ~ h v `.#.+.r.R.A + 5 [ k.L.0 + 3 -.#.5.v.hX@.~.BX'.pXI.3 + # &.`.0 o 3 [ |.A 6 -.2.W H.wXD = 3 9 %.l.+XOXp @ u -.X.! ! s.v.yXsXV.*.mXUXUXUXUXHXB f [.l.} 6.W ` OX3.x OXOX| a L.pXp.k.#.Q T.T.' g.hX' C.L.s.5.5.h.z. .! 2.! 3 `.[.$...l u O..XXX+X| 5 a :.E v 4X5X% = C &.R 6.#.a M ;.C.h W | s.gX+.x ] _ h g $.n.XXXXi.` @.' hXiXp.c = @ # o , q.[.] 2 c +.+. .2.Q 3 :XBXZ.} ] M s q = + 3 w.[. XSX>XM ; v B.n.c.oX3. .` W | q.E g q.:.:XLXLX/.S.f.@.5.3.+.].ZX4X&XA M M p ] t.W | yXdXsXwXE.8 @ * + H , o # # # C M T.F.W E s.k.J.' $. X= # o &X4XZ @ @ `.p.c.l.} t 1 t j NX..n 4X!.T.' 4.n.z.s.' g g } 3.h.l.k.' E 6.c.yXyXv.m.u.j.5.u.pXdXv.] p T |.2Xs * 6 -.(.-.x O.L.u.V.~.1X4X&XbXv c ..3. .O.| h.XX.Xm.c.k.Q m P B 7 , eXl | b.9X9XI._ @ * &.T.- : : b m 5 @ o X W.Z.a.}.= , `.7.#.v + ' K.n.p.z eX X= ; b ).] '.%.2 `.>.D F.J.V.O.",
"G S.{ [ l 2 A.| } 3.K.iX+X3.h - B 3X7 @ + ~.gXx.a.` > Y.&.a Q Q -.T.k T.~ e 3 5 ; e +Xk.h x q.6.} #.c Z.jXc. .2.h.j.h.0.3. .3.| E g p r.I.V.;X&X+ R.Z.{ 9X9Xv.n. .} 5.7.W W 5.z.k. .5.D.i.u.v.yXuXx.p.oXh. .W E $.w.~ ~ -.j W a.3.6.] x }  .8.9.9.0.0.9.z.J.@.7.O.=.u @ ; U.wXjXjX0XS.@.5.5.5.h.j.m.O.l @.K.[.e e r.T.- < x 5.XXXXj.v.v.yXgX, 0 9 c c W 5..XM.M.f.[.&.l V.n.j.n.k.O.i.l.+.E E ..i '.'.z u.pXyXtXs.c x.b.w.< 4 V.yXuXsXiXj p ; Z KXPX}.u * M q.D.hXS.~.}.9 _ $.7.] 2 &.s 5 ~ 6.8.F.] 6 ; ] 3.G.C.# @ l r.k.h.v.pX~.AX}.<.hXwXF @ + 3 G # o n *.&.4 y _.2.g d.zX%.@ # i <.s.+X].2 @ 3 ]  .X.4.m.9XuXsXwX>XmX4X4X=XW.M 0 <.J.z. .X.` l $.O.| oXOX| a d.iXp.k.6.R -.-...f.aXb.J.u.O.3.5.h.+Xq.R o.R 2 `.>.c ' l c L.pXj.5.x u &.] x C &XB o , U.] } +.C.] u [ #X#.` 7.+.].-.x Q _ d h 4.XXXXtXi._ $.{ aXsXu.l = @ $ o + X.].v 2 x ;.O.+.X.x !.bX[.p. .t.=.M Z V + 5 w.w.bX:X[ =.< x D.c.x.pX3.R x ' +.6.=.e p ;XLXPXbXnXg.f.4.O.4.w.bXmX5XU k (.=.p h T.Q ` iXsXsXf.2 : : @ @ n = 9 }.D o q C R.@X| ` O.k.OX7.r.R.# O q 4X,Xb * @ ~.V.x..Xs.T 1 1 m `.i =X4XJ s z u..X.XoX+.j E } 3.h.n.N.x Q w.x.tXdXg.v.x.5.5.4.pXdXm.` h j _.C * 1 -.].]. Xp %.V.x `.>XAX4X3X=X+ z }  .8.7.O.j.c.c.v.4.4.} Q A A 7 @ `.x 3.XXtXpX'.9 + M C.q.m - 6 V C 6 q = X }.zXd.F o 0 <.#...&.  l L.iX,.d kX~.= 7 7 -.].NX~.> R.<.{ J.s.$.i ",
"1.rXD i v 9 $.' j X.d.n.iX3.j m &XU * m + G hXg.@.r.u s = i j g T.Q.e T.Q p 2 > 3 _ k.G.e x ] } B.X.v [ jXtX2.9.z.h.h.0.2.} 6.e.:.p p `.V.`.4XA > `.N.c 9XyXv.j. .| 5.3.} | h.c.k.6.[.D.3.i.tXyXuXv.p.pXh.} } j E A.Q ~ T.r | gXk.F.l e o.! k.8.9.0.0.0.h.J.E u ' gXR.@ = V }.kXgXf.c O.5.5.5.h.c.m.%._ g.pX[.5 2 :.>.5 u g | j..Xc.c.c.yXaX# # 3 v [ x | n.m.g.S._ + d a.n.z.h.k.@.p.d.E 4 4 v 9 >.>.d p.dXtXpX$.3 ' a.zXa 2 V.yXuXdXK.h p 6 3XIXZX'.' * v 3.p.M.,.`.&.a r.a.B.[ * 5 i s g 3.J.B.x * p q.8.+X#.= > _ +.5.i.p.S.bX*XF '.cXzXY.6 + > F i @ M *.p 4 ~ _.2.l m.jXN.# o 9 $.k.@Xr.* = 9 ..+.@.b.v.uXaXjXVXZX=Xb i &.*.` _ V.oXh.} X.` x [ | s.l.7.' d u.u.@.k.7.W j a >.g.9XpXk.a.7.3.5.h.+Xq.R Q h < !.&.u c l @.zXb. .` g x (.W q.U.q % o 3 T.W  .6.w...h a ;.N.O.k.X.:.&.x _ c l x s.tXyXpXi._ $.@.sXsXl.[ = # # X + ..].[ a c w.7.X.] (.bX{.L.u.| X.;.&.E.&Xq 5 r.`.n 0 ;.;.< v D.j.x.pX3.j R #. .#.&.> C PXPXmX:XnX,.,.a.O.5.r.ZX3XP Z v q.[.W e M M E iXsXsX,.; @ * @ # n = }.SXD X + 0 R.gXO.@.` i.OX$X&.w X O &XZX;Xb ; + Y.V.m.tXi.W r 1 r M s mX3XJ b c a.z..XXXl.W ` } 5.h.j.B.x h ` l.tXdXx.p.j.O.3.@.pXjXm.W j j / u 4 o.t.e.kX>X*.[._ i nXZXKX3XY 8 o &.#.} 3.7.+.p..Xv.v.u.7.8.! E.&XV + F c h..XtXpX[ = ; `.V.8.^ - ; Z E.< b V , ~.lXS., o d %.7.>.Y.= `.A.pXm.{ '.*.@ 7 ; x #XBXR.@ Y.[.u.l.W =., ",
",.eX# $ 0 9 N.` l { D..XiXp.W Q.5XV e |.3 9 [.p.3.r.9 # $ 0 m t M u < T.&.g | H.M.p.s.` r W R } k.6.U.*.pXXX3.9.z.h.h.5.o.W  .6.-.2 x [.`.1X=X6 e `.%.l 9X9XXXp.| } 5.5.O.@.g.x.N.x ` C.5.c.v.uXfXyXp.K.n. .E +.6.#.[ x ] c s.OXk.Z.2 5 .. .8.5.9.9.h.h.+Xz.a ; O.zX`.- @ N U *X1.@.a w.8.5.5.j.c.x.@.d.yXdXOXp < ] %.' ] e E 7.m.v.j.XXyXpXO   3 &...' c p.iXg.$.9 = 0 @.J.k.k.k.i.x.g.' e 4 C 9 F &.i p.yXyXpXD 3 D ' hXg.2 a.uXuXdXb.a u J LXPXnXwXa.9 _ m.p.@.a.Z.#.w.7.a.F.] 5 3 i &.x @.oXD.g < ~ #.k.+X3.e l %.,.@.@.'.eX;X;XBXBXjXwXf + @ a |.`.= F &.4 4 &.(.O.,.aXjX,.o o i ;.D.gX>.@ [ l O.7.4.b.uXtXhXSXZX%X( s x ..| | | l.XXh.! X.] x E E B.` a _ D 0Xu.` D.7.E g 4 M L.9Xb.a.'.A.7.5.h.+XX.h j e < M s 2 a ' m.sX7.h x x #.F. .F._.4 @ @ 2 -...#.q. XO.' i 5 ..7. .].Q &._ _ { l x z.dXyXaXu.c $.u.jXyXb.;.5 @ % % X c [.=.x ` +.7.[ !.ZXR.>.a.+.` ..l z ~ W.4XC ;.`.> * -.;.< Q e. .u.hX@.l O.2.T ^ s V LXIXLX*X:X}.{ wX[.+.4. X4XU %X&.X.G.n.B.g e y v H.sXsX{ * 6 C @ = n @ >XVXi X $ o C [.5.7.O.3.@X#XF w   B mXbX).k < o &.D.x.m.s.x e t t r E.mX&XH &.] X.5.XX.Xp.| }  .9.h.j.l.O.p | n.tXdXtX@.C.E %.$.S.pXl.W j M m t Q 6.7.`.VX>X!. Xd bXLXKXHXP & o + >.+. .7. .3.x..Xn.n.l.p.z.B.U.=X=X, > c J..XiXd.d 2 5 #XH.@.#.v * b Q.5 < b M &. Xl o # D @.B.%.Y.:XBX{ pXoXg.S.v @ 7 < u BXZXn * v gXK._ l &.= ",
"V.~.X O i f A.` 3 [ s.z.yXm.E M &X6 g  X3 3 S.5. .`.= + # 0 M < b 4 < (.] x K.dXuXsXa.e -.-.R 6.0.8.-.{.gXj.2.0.k.z.h.5.o.W } 6.Q - ' [.|.1XZ ; h ].[ z iXyXc.z.} | 5.3.O.@.x.x.$.e < E 7.p.x.uXuX9X@.K.oX+.E 3.G. .` ` ..$.pXn.P.` + 3 ` } B.a.9.9.h.j.+Xz.p > f.hXC.< @ % A &XeXH.' B.k.5.i.c.m.p.' 0XuXyXpXg - &.<.,.<.e j | b.v.j.XXdX0XO . 0 ] ..D.@.g.iXp.` a f 3 _ k.5.0.z.5.x.m.d.#.v m s 9 d c v.yXyXgXa > F [ M.jXc O.dXuXdXu.h s 3XPXAX'.0Xb.D ,.jXdXu.7.s.B.+.O.p.l.%.>.>.d %.a.u.oXk.R r Q  .k.oX .g ] BX[.O.L.NXnX:X:X}.wXpXK.z + ; ] [.O.= Y.U.t h =.r.O.M.sXhXd o @ u ;.b.gXD i kX_ | 4.u.m.tXhXVXAX,Xb m ~ ] ..` |  .z..Xh.! X.X._ R j X.e < { ,.xXgX5.l.3.R k 4 u V.iXu.a.`.>.+.h.j.z.' p j p 1 s 6 * u @.yXpX| h ` W k.s.3.@X(.p = o e ] #.#.=.=.l [ M 5 ` e.} t.(.*.*.R.*.c ` i.dXdXpX` x 7.u.pXv.l...i # , , X z ].w.| ' 7.%.~.ZX;X=.F.D.+.x W l e &.T.%X&X] a * e r x -.(.6. .u.hXd.a W } T v / KXUXPX*X^.bX{.<.V.c %.Z.>X&XP Q.;.B.n.c.OX-.t 7 m d.dXhX_ e T.Y.= = 0 * f f $ X O + M C.8.4.@.+.G.`.^.=XB 3XmX}.:.Q k @ a V.x.oXd.l 4 r t t E.4XU &.`._ x  ..Xm.u.| | 2.0.z.z.n.+._ Z.b..XyXx.` Q 4 :._ D x.i.R Q M s Q -.e.C.`.ZX;X&.Y.bXLXHXHX5XN 8 3 a w.7.` #.| 4.x.m.s.3.n.n.j.N.:X<X&X6 2 ;.n.XX0X_ F u c gXp.@.a.:.5 2 R.Q 4 - e M h = # v <.$.N.%.}.AX~._ K.m.f.I.*.@ 6 7 3 ;Xm b @ i gXi.; &.R.= ",
"}.v . X F z `.c + f #.j.XXtX| ~ &X* h |.9 i L.| | `.@ 3 *.i k y 5X7 e (.] W pXdXyXsXV.a |.^ R q.9.k.` A.pXh.3.5.z.h.h.3.} R ` X.g r O.gXNX*Xb < ` [.z f hX9Xc.5.}  .8.3.O.4.v.aXgXp o u ..| p.uXuX9XO.K.oX3.` 3.8.} +.+.' O.oXn.[.9   6 ] } B.s.3.9.h.c.XXk.p 3 K.sXD.e @ @ N &XnX[.7.k.5.5.p.n.oX@.,.sXuXuXaXc < M `.,.C.E h W i.iXc.x.dX0XO   9 ..+.n.u.x.aXf.a.3 9 0 c #.2.9.3.u.v.v.n.P.] k s i z O.tXyXdXL.2 @ d [ { jXu.O.dXdXtXH.a H 3XKXnXS.9Xv.,.9XcXyX4.8.3.8.' ' h.n.4.$.'.$.K.iXtXm.l.} R R ` n.OX .h {.SX X$.kXkX X'.V.{ M.dXK.*.+ * -.[.+.d '.;.r W | 3.O.v.xXA.@ + 3 a w.m.dXu.@.gX| | i.p.tXpXVXAX<XJ 2 Q X.] Q W | } k.OX5.W o.;.] E h ` e e ' { hXgXh.k.3.j g m 4 #.pXp.b.N.' 7.l.z.h.[ g x x e 4 6 * u d.sXpX_ l ] | k.h.l.[.~ b = + x } w.r.h 5 5 u v a R C.} r.A.`.bX^.C 1XBX[.tXdXI.h x 6.| O.c 7.;.i + , 8   D '.Z.s. .+.>.ZXZXf O.oXn.l.' ..D 2 C.;.a M M 2 u :.r e -.r.7.3.u.pXH.l | +.R ~ Q.LXLX4Xn U.ZXW.`.a 2 A.`.;XB Z T.Z.J.z..XpXr.p 6 s d.sXpXl p {.T.@ o = = # O X $ o = &.=.6.k.5. .`.R.*XMX3XHX<X`.7.o.Q < 4 s.x.n.V.a ; b y 1 &X3XB M (.=.x } OXoXu.| X.3.0.n.c.z.| O.I.p.XXyXp.a e 4 ] a { 9XOX} ^ m r =.X.`.C.=. X).&.%XKXHXHXFXP : b -.O.4.| ..r._ 7.d.b.3.W z.J.b.A.ZX4XJ q u F.XXtXA.d U.u @.gXx.4.V...&.4 :.] p t ; s T.v = R.<.D R.R.eXBXN.l p.sXx.b.V.u 2 b > = 2 s @ > wXx.h [.*.# ",
"!.n   O G D `.; X 0 ..h.c.XXe.&.A * v ].c _ [.l W `.@ v NX>.M Z 5X: 5 :.]  .pXdXyXv.' [ {.j E X.2.k.| u.oXh.5.5.z.h.5. .} W ] E e x i.OX}.U.b 4 } G.i D hX9XK.D.W | 7.3.5.5.x.aXgXx @ k =.' x.yXdXtXO.I.oXi.+.6.3.+.5.i.4.4.j.pXA.= + 0 ] ` 7.B.9.9.h.z.XXz.p i pXaXl.j u 6 : A {.Z.8.0.5.5.j.m.x.O.9XfXuXuXxXO.5 a ..$.F.7.x h 4.iX.Xx.yX0XO O 9 ' 4.oXu.p.iXi.@X_ z z d =.X.2.| p.tXv.c.z.} j a [ @.g.yXyXdX$.= @ i $.c H.gX4.yXpXhX$.f mXKX=X~.H.tX9Xx.sXvXf.' V.5.5.O.O.5.XXi._ A.[.m.yXdXXXz. .W j W n.OX3.W |.NX`.Z.[.L.H.H.O.' 9XdXp.>.@ * &.:.W O.[.$.x 6.+.+.| tXpXD + , f p w.c.yXsXx.u.O.` 3.j.oXwXNX:XW.M e ` o.! Q W } | k.OX .W R ..' ` R R E #.' _ 0Xn.5.h. .T Q / 4 E D.x.m.@._ s.z.j.5.W g x Q h 4 t - h I.hXb.l E ` 3.n.h.3.E < A 0 i .. . ...> ; M e :.;.x `.:.c `.NXbXW.*XLXBXwXaXpX$.4 x 6.L.u.c ` [ 9 + # % X *.[.D.l.+.O.1XLX!.a i.c.j.j.| ;.[ a D.O.5 &.T.M ] ].&.2 l B.k.j.p.iX0X' x.z.} &.Q.1X4XU.a k *XW.{.a 3 `.{.U.8 Z R.F.s.j.oX5.X.M 6 u d.sX0Xi p `.Y.+ o + = 8 o X $ o 5 *.E ..k.5.#.|.!.W.mXHXmX*XN.8.} R e e s.K.@.A.5 * 1 - 1 3X5X8 p =.].W W $X@Xu.| | 3.h.j.c..X@.i.pXi.c.yXv.h e U.] _ pXtXiX#.Q v ~ :.q.|.`.[ ] -.R.&X3XJXHX5XN : M r.| i.7.(.E W ].gXl.7.R 5.l.P.].ZX<XC 5 l H.XXpX[ M F i H.pXj.u.Z.u &.v X.W 4 b ; * m u ; }.{ d =.R.BXBXA.E _ hXu.u.K.@.3 6 b + q = = # Z.f._ N.D = ",
"6 Z 8 o f F Y.o X 3 Q 3.c..XF.k 8 + a ].@.O.[.D +.C.= *.kXF.M &XP $ 5 -.` +.yXuXdXp.l `.`.h x E  .8.p.m..X5. .6.h.h.+.}  .#.=.4 < Q B.L.~.Y.M l 6.F., G 0XM.u.8...;.7.+.3.i.x.9Xn.W 4 ] o.} l.tXtXx.D V.iXj.5.+.3.5.5.h.n.x.p.gXD o 0 s &.| 4.s.9.9.h.z.XXD.u d aXyXj.+.Z.R.e s R.`.G.0.5.5.x.tXx.x.uXuXuXfXcX,._ l l $.J.5.| h | K.pXv.yXhX# O i ` u.m.@.u.H.u.l.gX%._ l ] ] } ' d.tXv.j.5.X.R x ;.p.9XuXyXpX_ @ @ p Z.' @.K.u.iXiXa.i <XPXJX&X&.D.dXyXyXsXpX' l N.l.h.j.p.5.n.J._ A.%.@.dXuXyXXX3.Q e W OXOX+.| 4.d.J.P.4.j.c.l.O.@.tXpX' [ 3 @ b 5 3 O.J.5.} 5. .} ` iX{ d = D l e 7.v.dXjXO.$.| W 5.c.OXR.H v ~.*.u ` X.! W R } 3.6.} x W R } | } W h ..].| _ iXn.5.5.W W X.~ e h 7.x.tXp.@.l.h.j.k.E g x Q Q g m - h gXgXO.a O.` 5.J.W ; @ @ C m ] 6.3.+.E > > (.| [.A.x ].`.*.ZXAX!.Y.KXLX'.wXaXM.i < R X.k.l.O.c [ i @ + + , '.b.z.l.@.`.AXmXD $.H.j.x.i.` [ ' l [.' u *.R.{.:.`.(.e _ 0Xn.j.x.yX0X@.tXb.| ] &.U.R...` x M M ] R.i *.}.i = H `.O.+.J.H.x ..&.s l x.sX[.5 e ].&.+ o o # # # w o o v =.h E 7.8.(.|.U.*X4XKX3XW.$.3.} R g p s.oX_ &.6 @ - < A 4XU : 5 ..[.E h (.[.$.' } 9.h.j.v.iXc.v.pXj.j.yXtX..4 m -.a.m.iXK.e.E W -.q.r.|.(.] x q.|.6 5XKX5XY N * M w.5.5.@.] @ c VXzXJ.k.W  .s.F.kXNX`.U.p W D.iXK.d Y.M l gXiX4.4.].* a v R X.p s b * 6 * 2  XD d A.{ bXZX`._ p zX@.{ iXx.c > M > + U 3X+ f D ' Z.Y.# ",
"; 8 B 7 , 9 W.= o i c ` h.OX].g % + 3 Z.P.f.gXZ.F.w.d ..G.8./ P & $ 2 Q } 5.sXuXjX@._ eXC.x E h W k..XyXXXh.W j 7.G.` W $.].R.* 2 &.r.C.~.bX>X&...].# D wX9Xi.O...(.C. .3.i.M.9XJ.3.T ! ! } 5.K.v.O.a a.pXXXh. . .5.i.j..XXXx.K.d   w 0 5 a O.d.9.9.h.n.+Xk.u z aXyXx.i.J.#.p u *.`.G.0.5.p.XXtX9XyXfXuXfXvXaX@.>.c c O.l.i.B.W c b.sX9XyXcXf $ D ' f.x.u.p.d.3.i.K.@.{ D a E W E p.tXv.@.s.[.R } B.M.yXuXaXgXi + + a L.s.| O.d.pX` d /.LXPXFX&X&.P.pXv.9XpXH.z 5 ' b.j.j.z.h.G.[.' &.D { pXuXyXXX5.Q < ` gXoX .| i.oXoXJ.i.j.j.5.+.u.9XgXx a s + = @ p B.J.3.+.l. . .#.<.%.{.i R.e e B.0XpXf.c $.c | s.D.r.b ; a  X>.3 ' X.R R R } 7.' p p ! j W O.} } j W q.} ` I.z.5.0.}  .q.&.r g #.p.tXiXn.i.p.j.n.E g Q Q R Q &.< l kX'.i a | | i.D.' l a @ M Q W 7.8.7.l = > w.k.6.` l `.}.ZXKX<XR.&.<X:XwXjXaXO.= 2 Q o.h.n.a.l [ i + + @ &.wXg.j.P.~.ZXAX!.>.H.M.M.x.i._ i D ' '.[.BX|.(.(.(.`.=.` V.pX9Xp.x.yX0Xu.dXm.O...-.t g w.X.` l a v Y.l {. X; > Y.`.l @.gX$.l ..] M &.p.jX'.> a #X&.+ O O # o F ^.+ , *._ p e #.C.{.T.v *XmXHXJ Y.%.| } R h p 7.[.a 5 ; @ e m &X=XV : 1 q.C.` k T.`.r...` 3.z.c.v.XXv.v.yXj.p.yXtXr.4 4 &.8.j.v.iX4.` r.t.-. X`.(.] g ;.(.= B &XU P 8 @ ~ F.l.O.` T.u E [.D.H.D.| } 3.6.kXgXN.;.x | [.pXd.[ ^.d ;.gX.XO.D. X= i 2 h q.] M b 7 : ; a  X>._ wX{ ZXbX X>.* `.Z.D v.oXN.u &.3 = LX=Xo # i A.[.F # ",
"s - 8 A 8 @ U.M ; ~ ] R 3.G.r.g * @ 2 $.H.5.I.V.+.4.] E 3.6.Q.S % % 4 Q } 5.dXyXzX` O.I.i.7.r.p R 8.pXv.j.k.R < E r.j E C.].*.@ > F (.&.D BXSXY.< M @ D 0Xv.m.@.c -.`.6.3.5.x.m.H.6.} ! o.} 3.n.c.' a a.pXXXz.+.+.5.i.j.tXyXv.d.F o w 0 + + a Z.8.3.5.z.+XD.5 l pXyXc.j.h.O.=.&.[ B.z.5.5.j.tXx.g.yXfXuXfXvX1.z l l ] @.n.n.k.| c V.sXyX9XcX{ , $.O.f.iXm.i.O.| @.d.H.N...a c x | c.v.x.@.[.[.x  .l.v.yXyXpXA.> # o d [.J.u.c ,.H.d <.MXPXHX5X5X&.[.pXp.O.V.>.l = D K.c.j.c.h.B.|.v a c @.pXdXyXXX5.x - | pXn.+.3.j.b.5.i.h.j.h.3.3.p.iX@Xh ; 6 @ @ 2 #.J.m.3.4.l.3.2.q.l }. X[ {.2 r ].wX,.z { [ _ N.w.:.m 8 6 ..].l 3 ' +.W W R } e.' e a ] x x $.| X.R j o.W | B.5.5.k.8.D.].t.g r ' x.yXdXx.4.j.c.c.E x ] R ] ] Q e E  XD > c | %.@.+.7.[.*.+ M ] } s.8. .u @ 3 a.s.} l l :XLXPX4XU.Z.N.{.}.0XjXI.a @ 7 ~ o. .i.D.c z M + + 6 &.wXg.u.'.bXLXbX=.'.H.b.x.p.u.#.l , *.nXSXBX`.C.| {.{.] %.x.sXtXu.p.tXm.u.yXtX@.X.^ t e :.R Q x x v @ >  X}.3 l '.>.3 $.F.%._ O.E U.R.p.jX~.= x (.v =   O o # <X^.# n :.E u @ c {.;Xe u *XmX3Xn R.{ ' W R j r $. X9 @ * * Q R.E.Z 8 6 t r.w.;.U.!.!.R.;.`  .z.XXXXXXv.v.yXp.5.yXtX7.x p h | j.XXdX5. .].=.&.|.(.x a E :.v A N A &XA : * / F.s.' l !.>X].V.OXi.5.3.} | O.gXpX4.7.` +.@XH.O.~.!.c B.pXj.i.gX[.5 9 + x :.&.U.* S 7 7 !. X[.O.`.{.AX:XR.>Xi v  Xl O.gXL.E %._ *.1X= @ # 3 `.'.0 # ",
"~ t * N 8 o &.&.e *.] j 6.C.] s @ 6 l O.l.h.L.| | 7._ ` 2.q./ : $ @ 4 Q } h.yXdXP.W p.m.h.OXw.e x 6.pXc.c.B.R * e -.e `  X`.v # # F !.p D rXnXbX0 @ , G 0Xx.m.i.c &.r.e.9.5.x.iXD.W  .! ! !  .k.K.O.c a.iXXXXX3.} 3.h.j.tXyXv.d.R.@ = n q 2 u r.e.3.5.j..XG.5 a pXXXc.j.j.i.]..._ d.l.5.5.n.iXu.@.aXfXfXvXqXD # = u c w.J.b.V.@.| a.aXuX9XtX%.d L.j.M.9Xx.u.' x ` 4.H.H.[.[ E g +..Xx.b.O.:.` x | l.x.9XyXb._ = # X i gXK.iXD D ,.{ }.KXHXP 5X&X~ B.gXu.i z ] ] 3 >.gXc.h.z.s.$.`.h i i { aXuXuX.X5.a * +.oXj.u.l.4.` | 5.5.5.3. .8.b.hXP.p @ * @ @ E G..X.Xp.u.b.k.8.W f :X<.Z.).4 p [.L.i d `.a >.[.=./ : * C `.' 3 9 O.8.| E x ` B.#.a l o.' a N.7.q.x g ] } ` | | l.G.[.[.[.].j g W 9XdXtXp.4.m.v.n.' ] ;.R W ] ] g l ] 3 9 ] ' %.$.+.D.[.l o M ] } 8.3.| x 3 l F.O.] l F ZXPXHXC 3 ,.[. X[.aXpX>.; * 7 ~ X.k.i.J.' d F + V M i I.M.@.~.LXLXR...'.V.g.p.l.5.| ..d ^.IXAX<.N.8.R (.6X{._ @.sXyXf.u.b.b.i.iX0X@.X.W r e ~ e g E Q s * a kX'.a ' gX[ = =._ { ' O._ ^.R.d.lX*.2 E E c i X X X B 4X0 + Y.>.] s @ ; %X,X; m :XmX&X9 R...` W R j r _  X3 @ * e :.(.U.7 : 8 m (.#.$.{.).!.T.q.W } D..XXXXXx.x.iX5.5.dXtXi.w.=.l | p..Xx.7.w.q.] ).;X;.E E &.v H 4XU B P I 8 @ / F.J._ i mX1X7.OXD.@.| B.| ` +.OXoXO.p.| i.gX$._ :XR.%.J.iX@.c.pXI.a , o h r.&.Q.2 ; - * W.>XkXO.A.>XZX}.F M Y.a `.z i L.P.3.' _ #.;.> = # , d i , 8 ",
"] ~ 6 @ N * v :.x &.E E W r.k 4 * M :.' n.n.s.| | @.h X. .:.m : % + v R  .h.yXuXK.| x.v.p.gXE < E | l.n.b.F.Q * - p p ;.].=.F + @ F U.r @.wX[.~.,X6 # G 0XM.K.a.c ....| 9.3.j.m.O.} X.! ! ! 2.G.@Xa.' H.XXXXXX5.' 6.j.c.v.tXx.' N.a + n &.E h r.e.3.5.k.XXn.5 u n.XXj.s.j.b.L.' ' H.l.5.5.XXOXO.,.fXfXfX0XD i 3 * 5 9 l %.,.nXnXC.O.0XaX9Xg.O.O.K.x.9XiXu.f.#.g g O.p.gX[.' E h 3.n.p.a.v 3 i _  .l.p.x.m.4.5 3 K *X/.wXaXdXg.d @.}.MXKX5XI P E.] 6.gX_ 2 u ] =.i V.hXx.3.5.D.[.;.p 2 > @.dXuXdX.X8.3 = 7.oXn.H.>.u a #.s.5. .} +.5.p.pXC.2 @ * + 9 w.z.XXXXp.b.m.n.G.E U.bXL.[.:.- h F.S.9 N.O.d [.].:.V * 6 U.Y.v 3 i 6.k.B.` W w.s.@.l l } #.a ..;.q.h < Q ..c p 3.L.].|.7.P.@XE e %.tXdXM.,.p.m.c.n.%.*.=.R W o.W j 5 > 9 &.*...$.| ` OXzXz o n :.W 6.6.| e..._ '.c 2 u mXPXJXU b Y.NXwXb.iXtXD.s * * s v ..L.n.oX| d Y.M Y.9 d L.S.*.nXAXbX*.] <.A.p.x.n.3.' A.^.LXIX{.O.H.B.j W {.1X*.,.fXyXp._ V.J.5.L.Z.O.+.W g < i F a Q Q M > ' zXS._ i.OXz @ 0 > _ { { ..{.Y.$.zX' p ] E l '.w   X 3X3Xo > `.' ;.v + + Z &X- M {.<Xn i  XO._ } R j g a R.2 ; 5 x r.`.C : % 8 m T.w.B.R.R.T.&.#. .R 8.XXXX.Xj.4.pX3.| tXiXp.4.| ;.O.l.H.` R r.X.q.2XW.E ` E g M *XHXU N I N 8 * ~ P.OX#.{.ZXU.O.oXa.c O.w.w.x O.gXb.` p.O.p.P.#.D <XR.d.XXJ.' tXdXH.l = X l Z.] x v U.s * 7 %XzXp.`.nXbX:Xn @ F &.[ d 3 ' L.4.%.' ' ].F = # = 3 i o q ",
"W -.U.2 $ : u ;.Q p p E W ;.4 2 4 -.-.} OXc.} a._ W ` } } -.y : + > &.R } h.yXyXn.5.x.v.j.pXO.5 ] x O.l.l.D.] < * v ' $.r.] v = > 9 M E f.pXgX_ M E.> D I.m.K.@.E #.#.+.3.3.j.p.' 6.t.! ! o.6.B.V.O.O.i.XXXX.Xh.` #.k.c.XXtX@._ a._ * 3 E ..x ;.k.3.3.k.h.z.e 3 p.c.k.p.c.m.H.` u.n.s.5.h.XXJ.` f.xXdXaXc d &.u 5 b 5 3 %.,.eXBX$.' M.aXyXM.,.K..Xx.9XaXp.O.W p e E i.n.d.O.] ..k.p.@.$.2 + 3 =.+.i.u.x.b.+.u f mXIXAXrXaXaX0Xz { bXLXHXP B A M ;.B.L.a D =.] ] 5 S.gXg.' @.4.s.F.] 2 2 @.dXdXdX.X7.2 > V.gXI.$.9 + l C.s.3.` j  .5.j.pX:.; @ # + d N.h.j.v.g.M.v.j.G.W ;XZXK.pX&.* x @X,.' [.d ' BXNX&.6 @ y F f U.W.a B.h.P.| ;.#.4.@.l l | ].z [ #.;.u * x :.a a N.[.>X(.@.@XkX} W H.uXuXS.[.pXm.x.P.*.v x W W X.} R u ; a *...' a.O.W OXzXi o s -.! 6.#.4.F.`.c %.>.2 H KXKX5Xo b 1XnX'.m.tX.XX.< @ 4 v z _ ' f.m.O.i &.^.s @ D wXL.}.AXAX^.*.*.>.A.p.j.z.3.' >.LXIXZX*.4.n.C.g x ] !.R.0XvXsXg.c C.P.3.;.>.O. .W g ; v ~.i k ~ U.a ,.hXS.O.m.H.i @ = @ D ,.' =.^.Y.$.gX| c ..` @.lXn . % HXU   v $.` N.v + + @ : * C W.%X3 a [.$._ | E x g u [ 5 l j x ] {.C + : 8 S / F.D.(.&.&...| 6.}  ..XXXc.c.| J.3.W c.pXs.' c +.3.s.d.` :.{.X.|.%XM c _ E Q Y.4X4XA N N N : * Q J.n.[.NX*X5 5.n._ u #.w.A._ @.pXk.` p.@.p.s.` M %XW.l.j.| | tXtXJ.D , X c F...E h {.).M @ A {.'.>XbX/.^.9 > T.c z d 9 d #.e.>.`...;.l @ # , 3 ^.9 H ",
"R ..;.&.; * a `.Q 5 e W R ! ; 2 l ;.;.X.oXXX .OX' E } o.} ~ y * * m R.j ! 5.v.yXoXp.c.XXj.oXpX` E < x D.H.V.6.g p ] ..#.;.E f 0 n 2 h w.b.tXjX{ 3 b s [ K.v.m.+.W #.#.+.3.5.D.| E C.q.W ! ! e.e.X.` @.@.j..XdXz.' | 5.c.c..X@.O.3.7.3 * x &.f &.8.9.2.0.0.k.u ; 7.n.j.p.v.tXp._ p.v.h.5.j.n.D._ { jXjXO.5 ] R.5 6 C M 5 d.K.,.V.$.c f.sXdX9Xp.iX.Xx.9XaXb.' h p e u $.d.3.6.` ..D.3.O.>.= + 3 _ $.3.O.d.l.3.l Y.AXIXAXrXaXuXpX_ Y.KXHXY N N 6 &.F.s.>.5 $.].;.c 9 0XhX,.d _ 4.s.+XB.2 < @.uXdXyXoX#.@ n NXkXZ.i + o c D.l.s.} W 5.h.x.@X&.@ @ @ , l W ` u.v.x.x.v.c.7.=.BXNXpXpXl @ x [.V.<.*.> :XAXNXv * * M U.= 0 s h P.z.P.A.>.E i.b.%.' ` w.z z $.] 2 + i &.3 l  X X{.*.4.gXkX[ 4.pXuX9XeXVXgXp.f.N.F 9 l ..W X.} E u 2 ] w.' | s.| ' zXkX0 X s -.! } X.B.;.M l c  XY.<XKX4XA @ W.ZXR.$.pXpXD.j @ @ k ] d a a O.gXO.i Y.H + # <.pX0XZXLX>XR.!.!.&.N.i.h.l.O.[ bXIXPX}.%.j.n.B.l ] r.*.' 0XvXsXm.x ..].q.v ~ #.| Q p 2 F }.9 2 m &._ p.aXM.p.pXN.> @ = + D Z...R.%XU.%.[.@.` ..` n.zXf . Z HX8 o >.4.' ;.a > 5 5 * @ C %XE.= c [.V._ | } Q h p ] u =.W Q *.;XB $ : 7 S m 3.OX|.&.=.#.} 6.o.W z..X.Xb._ B.3.` j.tXd.@.s.@.3.k.n.s.(.).-.|.E.q &...X.=.W.mX5XN N N 8 * t X.J.m.K.$.d u a.k.' u #.O.' c d.gXl.| p.u.l.O.l M W.!.J.z.l O.dXyXm._ s + _ [.' ] u &.] T.q = W.W.mXmXW.F 9 =.;.c &.d 9 i h ] ;.] l &.:.3 + , > }.{.{.",
"x ]  .e.M * l ].] e x =.j h * 3 v ..;.2.j.dXc.pXa.` } o.R Q t - e &.`.j ! 3.x.tXoXj.v..Xj.h.pXL.] * e N.D.d.6.W ....E $.q.E 9 > 6 2 E H.9XtXsX@.h 6 s R.0Xx.iX| E 6.| | 3.5.s._ ! C.R R ! ! 6.e.| R | O.5..XyXn.| W 3.n.c.K.a._ O.D...; x &.m ~ k.9. .6.3.`.s * $.n.j.p.v.tX@._ x.v.i.5.j.oXL.c z kX[.3 u T.:.u s W.!.5 O.0Xp.L.A.E O.aXyXyX9Xv.XXx.9XaX0X{ p k s ; _ a.4.6.E E C.4.$.*.> 0 3 c 7.+.| s.s.i.' `.ZXAXAXVXaXuXhX<.;XHXP N N 8 < `.OXd.D 2 a.[.A.l i wXgXD 9 z 4.5.j.F.4 2 @.yXuXyXoX' s 1XVX@X=.# o # _ J.z.s.+.5.n.c.c.I.v + # @ i [ |  .c.tXv.v.c.c.| ..NXkXaXK.3 + E F.%.{ v H ZXmX{.s * : U.n # = > ] D.h.@.A.[ c J.K.$.' E .._ z N._ > + > s 3 *.1X>XY...d.gX`...v.uXuX0XBXAXS.O.O.=.n 3 _ w.E ] X.E p a w.3.` O.5.} O.zX[.9 X 9 q.! R ` ..i > ; h  X*X4X4X&X; M 1X}.a _ tXiXe.t @ * &.` a 9 i { I.@.d s = o i '.0X0XMXmXU.U.4X*X[ V.5.z.D.| ;.AXLXbX<.u.c.n.N.[ _ [ [ { I.pXiXJ.E W _.Q e Q X.X.Q e 9 z `.i * 6 v ' x.dXv.K.gXD @ 0 H + D [.=.T.W.C R.#XA._ ` O.iX[.$   5X5X# d B.+.| V.l l *.&.e 2 J &XV = | OXI.{ $.#.W h E >.a ..W =.;X,XB % : 7 S y  .zX|.v ;.e. .2.8.} h.XXc.n.c c q.} u.aXa._ OX4.5.i.h.B.R.Q.R.!.V 7 M -.:.*.*XHXP N N 8 : 1 Q 8.l..Xm.@.3 i C.7.....` ' c _ K.pXs.3.s.@.i.' p M C Y.[.s.e a.dXyXb._ H = l Z.| ;.M M T.M = # A &X4X=X^.{.D `.[ E l > 9 n 2 u :.c R.{.|.a + = i [.[.Z.",
"u =. .3.`.h c [.-.r _ :.R 1 + 3 v ;.X. .j.dXyXpXp.W o.W x ] 1 1 x ;.`.g ! 2.j..Xn.c..Xc..X5.u.[.:.* ; O.l.j.3.} s.+.h >...x 5 + - p 7.m.9XyXsX4.[ s 9 [ H..Xn.} R q...| 3.5.i.| 2.q.4 g ..! X.C.X.W 3.3.@.x.tXXXO.` +.h.c.n.A.c ' B.].l l &.m a 8.9. .R E (.s * O.b.b.j.tXtX4.@.v.c.5.5.c.m.[.=.; !.F = u R. X..M W.!.e d H.b.[.`.>.%.b.tXyXyXv.v.x.9XuXpXa.p k M 2 h 7.5.w.U.M r.%.*.s ; b 3 [ w. .| a.i.d.@.~.mXmXAXVXaXiXa.=.4X5XN & N : 5 ].gXV.i > s.gXA.a z zX[.i D ,.m.j.3.;.e u 4.yXuXyXK.>.mXAXzXOXz + o = :.J.s.5.5.h.XXc.c.L.u + % # a w.5.5..XtXM.v.c.oXw.l I.hXaXd.# # d D ' { Y.4X3XU &X=XZ 7 n = + # 6 ] n.j.$.>.[ c l.n.| _ x =.%.D 7.%.i + # = , !.1X!.] $.P.L._ ,.yXuXaXhXBXnXN._ { R.i 5 $.D.` W ;.` h E w. .` | 6.W @.jXS.i o 3 t.o.R h u = = @ l |.=X3X&XV k =.`.;.5 ` pXoX-.- + , :._ a 5 l O.K.4.x *., o { gX0XV.^.%X0 W.mX%X[ D.5.z.F.| r.|.R.A.f..XtXj.N.R.3 = a [ { O._ g p j ~ 1 e ..o.X.Q 5 9 i >.c * ; 5 ' m.dXv.0X'.i @ F {.> D [.[ / Z A U.{.2X2X-.' Z.D   % 3XC [ [.J.3.4.V.d _ #.] h m U.E.8 ; 7.iXgXO.u.8.W h ....h o.! ~ ;X=XB + * 6 7 y -.NX{.c w.B.3.2.8.3.5.n.i.J.c a |.6.@.hX@.l V.O.k.5.3.:.1X%X;XE.6 : b E.&.M 4X4XB B N : 1 j 6.5.h..XtXK.i 5 `...| B. .' ' @.gXn.5.@.| x ` X.v m A E.>Xx 4 [.dXtXH.z n 0 z $.3.O.z s C 2 o Z H J 3XJ >.wXl `.;.c s = , n ; ; ..E `.;.[.c o i A.I.K.u.",
"= &.|  .F.6.4.I.q.g E ;.Q < + = z ;.X.} j.yXdXdXn.E W ] ..] e r W 6.C.g } 3.5.n.m.v.tXc.n.u.@.Z.-.* ; [ b.j. .! D.3.p `.=.l p @ e x i..Xv.tXdXu.c 5 4 a O.b.I.R W q.' | 7.5.5.+.e.W @ a ] ! ] (.X.8.gXs.O.u.iXXX3.3.3.3.c.b.<.d ' ` ....h &.b 4 7.5.} e 4 M > @ ' b.n.m.tXtXu.k.c.j.5.h.n.l.gX X3 3 , # > F `.D M C T.e 5 V.K.V.[ `.$.4..XyXyXyXc.x.9XfXsXb.p v ~ p c 7.8.].Q.C :.c n ; > 0 > [ w. .+.s.i.k.a.~.4X3XbXBXzX{ i !.5XN & & N * p P.gX$.i 9 $.@X`.9 D hXS.d rXzXpXj.` h u l u.tXyXyXgXBXAX:XK.K.3 o o 0 `. .u.l.i.h.XXXX.XB.2 @ % @ D D.5.3.XXyX9XM.m.K.[ u 9XaXpX%.o , 3 l V.A.;X=XZ A ,XKX4XA b @ = = u =.n.c.| D &.l ' i.| ;.x Q .._ 4.w.v # + X q mX4Xm ' D.[.%.D K.uXuXwXVXBX>X$._ ..&.> d F.D.#.x X...x R | | ' W 6.W @.jXV.i + 9 t.2.T r ; = # s R.!.&XU 7 s T.} ` #.' D.pXl.~ * + w `._ a 2 c $.J.O.E }.w X S.jXL._ s n b 4XHXH ..H.5.j.V.O.w.E x 4.u.pX.Xk.'.Y.@ o > 9 i ' ` e g v g t R +.X...v < , 3 ~.=.- * 2 { m.yX9XI.[ > 2 {.`.3 z '.Q m V 7 6 &.;X1X>X:.>.>   B =XF wXpXz.5.l.V.d [ #.| E M U.C * 2 a..XpX,.u.s.W g _ l W o.o.&.%X&X* ; < < S 1 ~ 2X).E N.s.0.3.6. .5.l.4.H.[ u j g O.gX@.O.a.O.h.5.6.(.ZX<X=XA b 1 y E.C A HX5X: V 8 * y o.9.3.h.m.tXm.D 3 Q.E | k.s.| 3.a.4.' 4.7.x g E ;.&.C A A E.* a gXtXpXL., + @ c O.i.s.c 5 b 7 + E.nXF &X= ~.[.D `.;._ f @ # n 6 > >.` E E F.O.3 `.[.p.pXx.",
"# d ` | 4.i.m.n.8.R x -.~ - + # D %.+. .i.tXsXdXiX} c &.r.W r g W 8.].g } 6. .j.XXv.v.XXp.a.'.~.~ - 2 *.D.j. .` D.3.e (.=.l ~ 2 x } i..X.XXXsXu.z 9 C e x 7.Z.x ! 2.} +.5.5.5.7.t.p + D ' ` U.U...G.OXi.O.@.oX.X5.h.h.h.XXn.[ 3 =.c p &.c &.7 ; ..B.Q < * > + + c d.c.XXyXv.3.h..Xh.3.s.J.d.wX[.`.2 @ + o # 3 , @ q T.x x H.pXp.3 &.w.+.n.tXyXuXv.x.9XfXfXp.e m Q x | B.e.|.E.C U.u 2 * 6 m 9 &.w.} 3.l.i.d.A.{.&X&X;XNX~.> 5 %XA & & & & @ h gXpX' a a ' G.;.> { xXg.z ,.wXtXj.W 4 a =.i.XXyXyXkXZXW.*.gXa.# o o M R.` D.J.h.h.XXXXoX#.* = , # _ G.0.3.c.v.v.x.J.@.2 z tXyXpX' + # 9 >.[.A.*XA # V ,X,XZ Z q = > * u ;.c.z.| ] v u x O.7.w.j Q [ _ a.w.v = X O =XKX,Xp 6.L.w.E u.pXuX0XnXAXBX[.%._ [ d * [ J.n.B.h ` -.R x E ` ..` ;.R O.hXN.d # z t.o.Q m > , = H *XJ b 4 < ~ R.R x 4.u.K.n.G.k * # G '.' p 2 ` D.6.| x &., # aXjX`.u e s &XKX4Xn `.k.O.b.p.O.6.` O.i.' s.j.H.nXn o X @ M ' s.6.j j T T ! e.s.+.X.v ; = = -.&.< < a $.v.yXtXd.i ; x zX'.# 9 rXM y S S 5 ~ =.R.7XBX}.f   U E.:.pXyXc.5.j.d.d d C.#.Q ~ M 3 * p 4..XsXf.p.n.} j E u [ o.o.-.W.n ; &.s < b S V ,XU._ s.p.h.0.X.` +.i.u.P.&.* + - _ [.u.u.O.O.i.5. .`.mX3XJ 2 ~ k 1 Z b U FXB * S 1 1 Q y.9.9.i.c.yXiX{ 2 m l | l.s. .6.| x u %.C.p x } X.&.( V 8 8 + O.aXyXpXL.# + + c @.b.J._ u b A o 9 kXA.E.q U.NX>.O.` ;.z = @ 6 ; ; `.A.a h 7.$.%.'._ O.m.v.",
"# 0 [ E | s.tXtXz.| E :.^ - + # D >.#. .i.tXuXsX.XO.] v ..W r R } B.F.h } } x s.c.v.j..X4.$.}.*.T.< 3 &.D.l. .' J.s.e v f h (.R | k.c.XX.Xv.sX,.*.bX%Xe h W %.E }  . .s.5.5.h.8.;.< @ R.[ ] / / ..3.` +.4.@.j.oXi.5.z.h.j.K.[ > %.=.2 u &.M 8 @ c C.&.2 @ $ O + z g.M.tXyXv.5.z.z.h.5.k.D.$.[.[.].-.= o o o # + + 0 R.#.7.K.iXu.> z C.5.p.v.yXuXtXx.yXuXsX,.4 k Q R 6.e.r.2XC A b 3 @ @ > v F =.w.! 5.n.i.a.`.;X&X&X*X}.i , %XZ 8 & % & 8 @ c gXgXE a u ` B.l @ { sXtX,.D g.tXm...e c Z.s.j.yXdX[.*.9 *.kXD o o @ H Y.|.kXJ.j.h.c.n.J.' @ 6 q > @.J.8.3.x.v.x.c.J.' a L.yXdX0X' i i 3 &.L.<.n * * b W.C 6 A 2 s 3 * a #.XXXX+.l 2 ; ' 4.B.| r v [ u N.#.z 3 X P JX4Xb p P.J.` c b.yXaXwXAXLXNXL.{ c _ a ; $.x..XF.h E X.R T R W ] ..-.g O.hX<.z , [ e.} ^ M 6 6 b H A 3 s k M T.&.4 p B.x.iXp.#.u @ @ Y.[.' p 4 B.G.w.W h &.# # 0XjX{.6 k M 4XHX&Xi ].3.' K.j.+.7. .3.5.W 7.D.[.bX, X o @ ;XgXiX5. .R W 6.k.G.J.+.#.x * = # M v < u ] s.x.tXiX{ = i s.zX'.# 9  Xv t b b e &.-.X.T.;X|.&.# A F ' iXyXd.H.K.d.i d w. .&.&.5 ; u x 4.tXsXp.p.oX6.E _ u E X.X.-.U.3 p `.M - 7 S A &X~ ' b.j.5.8.o.h  .l.j.iX[ 5 !.&.x L.j.i.O.$.+.3. .`.4X=XA ; Q &.b A 8 Z U % 7 b 1 r ! 2.h.0.3.x.tXtX$.2 ; v +.i.+X5.} W [ l ..;.4 v q.;.Q.E.A 8 $ @ V.yXyXXXI.0 # 9 ] O.oXhXO.d q A q i I.gXC Z W.BX;.| ` [ D > + > 5 5 |. Xz 3 @.gX'.D 3 _ m.tX",
", n M x E 4.tXyXc.i.O.w.:.1 o # F `...#.5.tXdXuXyX' a l x x p Q X.7.F.r } X.p +.J.5.c.K.%.~.~.&.&.> 9 =.D.l.| ` J.V.5 3 6 s `.3. .i.x.yXXXXXaX@.;X=X, 9 h h ` | 6. .+.i.i.i.5.8.e.h l {.] &./ C ! 7.E | 6. .i.XXj.p..Xj.j.K.>.2 | r.v = a C : @ h `.&.* + $ O + D I.M.yX9Xc.h.z.D.s.3.D.a.c :.=.e.e.v * X , w + + 0 >.J.K.iXiX@.= i N.i.d.b.v.uXtXx.x.tXhX' ; k Q W 8.X.`.,XA A q w + , F *.>.>.#.} i.n.3.#.`.;XU 5X%XM 3 D %XS % % % % @ > [ ' ' l a p 3.D.9 + @.sXuX9XM.M.9XM.B.g | J.i.j.yXiXF.u 9 '. X9 o o > H ,XbXZ.K.c.u.4.b.J.w.U.M Y.u 4.n.z.i.p.c.c.m.K.' ' gXyXuX0X,.%.~.9 z '...C = q W.Y.s ; > 5 U.5 5 D $.XXXXk.h @ d a.s.s.} p 9 9 9 A.' d 3 8 FXHXP = ] P.s.c ' oXdX0XNXLXLXeXO.c E [ c u a.c.tX[.l a ..W j j Q W ;.:.< @.jX{ a i %.7.X.^ ^ 6 6 A C < p -.W ] [ v < ; w.iXtX@.' 3 + @ n ].' h a B.k.6.E h ~.0 @ [.zXv 5 M U.HX4XF <.[.' ` P.p.+.5.3.8. .x r.`.6X:Xo X X H BX0XtXl.| } | 5.l.P.P.@.| l * 3 = 3 2 2 e ] a.j.iXI.d = [ K.jX<.# 3 eX~ r m m e k 2.2.} o...&.s H &.l b.pXBXSXhXd.9 d a.3.] v - e Q ` +.oXsXx.g.iXd.E ' p R B.=.&.u 2 ..].a @ 6 S A ( x 6.p.p.i.B.E 4 E G..XK.{ i U.2 u V.iXu.{ $.@.+.} `.bX=X6 5 (.R.b 7 8 7 7 @ 6 s e g  .h.h.h.3.p.tXtXH.u ; &.O.s.OX5.W Q `.E c D > l w.q.Q.V 6 7 * 5 d.yXyXyX0Xi i x ..+.m.aXV.d n V V n I.L.= P ;X X..` E _ v > @ = s &.NX`.{ D [.NXf # 2 ] u.XX",
", , 3 l h %.tXyXyXj.4.r.t.1 + # M R.E #.i.tXuXuXdX@.9 p W j k g ..B.@Xh R q.x ` 6.+.j.K.<./.Y.U.v 3 a ] D.l.O.| .XD.9 , = e e.5. .i.x.9Xv..XpXO.Y.q o n *.l h ` w.@.3.s.h.h.5.5.D.w.].'.c ~ C y Q e.O.7.e.} 3.c.n.j.j.j.x.K.'.5 | F.*.2 * b : * l (.M @ $ % O + d V.m.tXH.l.p.n.D.5.i.D.$.;.!.M X.G.t.x # L H + o i N.m.tXtXpX{ @ 9 ,.p.d.p.XXyXtXx.x.b.a.a 2 x R 6.8.X.}.,XB B K =XA = D A.`.`.#.' p.z.2.X.!.%XU 5X&X; z }.C : @ * : < 2 M A.O.2 a v h G.k.d D 9XsXuXuXuXyX9XM.d.O.p.c.i.j..XiXB.u z eX{.# X o > %X4X^.A.oXc.j.O.a.[.NXZX;X=.p p..Xn.i.5.j.c..XoX| +.pXdXsX9X,.a.Z.0 D V.{ M E.mX4X!.5 * = 2 M s F [ O.XXXXz.| d z a.l.5.` l > o , `.O.3 0 U FXY : ; r.@XO.c d.iXiXeXAXLXZX{.x a c ] _ x V.XXiX[.i 4 E Q j g R } ;.&.* O.gX` h c @.4.8.6.Q y C Z m k _...x _ d 5 ; 5 V.pXx.@.[ = + @ > *.` c ' s.3.#.E p `.&.3 }.~.2 s M W.HX&XD '.@XE _ I.l.O.5.3.3.W p >.:.>XY.o   # *XeXiXtXP.} W } 3.z.@.a.4.| l * q > @ , u a ..8.x.pX'.0 = [ m.hX*.$ 0 '.E g v v 4 g 6.2. .} } r.U.;Xs 9 gXlXnX}.[.' a l a.s.] 4 1 Q =._ ' K.aXx.x.tXz.| ` | D.Z.>.l 2 g B.].i + - S Z C h 7.j.j.i.7.Q 4 g B.OXI.c i > o u B.iX@.O.V.O.+.6.`.bXW.> k :.Q 5 7 6 6 n * s M r j +.5.s.s.5.5.x.pXgXc < -.O.z.K.| W -.].g x d , ] #.-.C : - b * h H.yXv.tXhX0 l ] #.| v.aXI.d s C A s L.N.@ 7 2X=.r R E ] M ; @ @ M {.>Xc D }.BX{., @ 2 R.3.j.",
"w 9 u a p _ tXyXtXJ.C.|._.e @ @ m &.a ..s.v.uXuXdX@.9 E t.j k p ` B.@Xj R :.x p E $.K.I.~.:X&.M u z ] _ D.n.O.O..XH.9 @ @ u B.5.2.s.x.p.i.K..X4.v + o ^.|.` g h ` | O.5.h.h. . .k.s.V.7.W Q m t h w.i.k.e.} | k.L.' ' j.x.n.P.g W C.:.u ; E.8 * v T.6 + + $ O o 9 A.K.K.eXeXd.b.j.5.5.s.A.&.C C &.r.`.-.9 Y.F + o 9 V.n.oXm.M.N.F s ' V.b.i.c.yXtXx.x.S.z > 2 v _ X. .q.<X&XN B 3XUX3X@ ' L.`.(.#.} k.k.} ..U.E.U 3X&X@ R. X> @ 4 v R.~ p ;.L.B.5 a v p W ' $.K.aXuXuXuXsXtX9Xx.5.j.XX.Xj.h.XX.XB.e _ wXY.+ o o B =X&Xf a..Xc.j.O.a.`.BXBX}.{ c j..Xm.i.@.p.v.tXoXO.5.oXtX9Xg.f.b.d.i { d.a.&.<XPXZXE.6 @ @ 2 n M R.` 3.oXXXXXn.,.' i.k.#.Q *.> o # A.a.> Z 3X5XN @ p F.P.O.' l.pXiXbXLXKX<X^.i 5 s i l ' J.XXiXA.3 ; k Q j g T | >.v + O.OXc c ' | i.D.k.} k / m k -.(.=.] R.a i 3 { gXK.O.s.=.@ @ q ; i c | a.s.| ..x 4 `.`.[ ;Xi = &.&.*X4XA z [.'.a ` I.s.+.5.3.7.W e a l  X&.# # q Y.'.pXc.6.c ` | 3.4.l $.$...a * s 0 o 0 v g ' 3.p.0X>.# , %.p.hXF 0 i {...j W :.a p ;.+. .} 6.r.U.<X*X*XNXZ.f { S.' l c a.B.v - r X...c l f.pXx.yXyXn.5.| D.gXC.*.3 4 =.P.Z.9 + * V ( s g 7.j.j.5.3.#.h p -.[.A.3 7 + o 3 A.gXO.,.a.| 7.e.`.,Xs u w...l 2 s s u b C ,X/ g W 6.+.' | a.@.V.Z.`.c 2 &.@.n.l.` W t.].e v i > `.e.q.V @ - b e =.i.tXXXv.wX3 l :...| .XyXaXD a C Z e N.O.@ 7 E.a 4 ] [ ] M = @ = f ~.R.3 F ZX}.R., @ > >.s.i.",
"J H &.x a c x.v.j.L.`. X`.j + @ 6 M a ;.l.c.uXfXjX{ l r.e.R k k h r.kXp g ] h e l A.pXI./.*Xs v u v ] _ V.l.O.' .XH.i @ 5 x G.5.3.z.n.i.O.J.m.i.h > 0 }.kXw.[ x x `  .+.5.3.E W 5.5.5.k.k.W b < p w.l.j.8.} } 7.B.g ` z.j.n.P.| R B.;.x M %X> 6 M ~ ; + + $ O o = [ L.7.R.bXBXwXV.@.p.H.%.> * m M Y.-.2 = W.Y.> = f V.n.K.@.O.eXAXH c s.n.j.j.XXXXyXM.wXi @ ; v E W  .|.4XA N A HXUX3XX { 0X>.R.#.' s.i.} ..&.C &XFX5X: *.] ; s =.X.:.x p N.l.O.5 p v 1 < e a.pXv.uXuXuXaXx.tX9X3.h.iXpXz.h.XX.XC.p ' [.M o o o U 5Xq i s.XXXXXX3.#.^.mX}.[.V.' x.XXXXp.@.p.XXtXm.@.3.z.p.@.g.b.l.@.a $.b.L.>.^.mX4XE.> @ < < M Q.&.W 5.J.l.u.u.d.u.h.7.] &.R.9 o # $.[.3 J 5XB $ @ E J.J.| O.m.iXwXmXKXmX%X;XF q M a c u..XtXK.&.> ; s ~ j g R | #.f + O.J.l [ | | h.J.s.#.Q g g Q -.(.R.v [ c D i d.pXd.| C.E @ @ b > > c a.k.F.W E x 4 *.`.}.W., z `.R.%X&X8 i  X~.5 ' I.s.3.4.7.+.x h E E `.D 3 H F 9 wXpXu.a u [ X.6.' u N.$.=.u * u i @ F v x | 5.i.0X~.0 9 <.H.gXG n i Y.=.x ` C.E p #.6. .} 6.] 3 H mXZX~.9 0 { V.` E ' s.a.E 4 W 3.| ` a ' pXv.yXyXXXp.+.s.a.;._ 2 c B.oX7.> @ @ C ( e ` D.c.j.5.3.B.W e h ] v @ + + o > <.I.@.a.' E 7.r.|.!.3 7.J.#.c 5 M v 3 b 4XZXM v W 8.3.x c 7.@.l i a i > u 4..X4.` W ].q.4 *.i 3  X].{.V % * 4 Q C.i.tXXXi.[.3 5 :.W O.pXyXsX{ g ( Z y =.E - y b k p ] ] _ f = @ @ = F :.[ mXmXf &.0 + , { F.| ",
"3X,XR.r.l c i.z.| 7.Z.C.t.&.@ @ 7 M x #.j.x.uXfXjX' _ @X8.! Q g h (.#Xe p :.] 5 l N.iXI.:XW.u Q a u a [ V.k.@.` v.K.l 5 ..| z.0.3.n.oXh.' n.m.s.] c >.eXkXF.>.] c ' +.3.5.3.W | l.k.s.k.G.} r - u ;.J.j.3.} W X.6.} s.k.i.x.K.i.` k.7.] -X&X* s M s @ + + O O o @ l C.+._ ~.bXZX>X<.L.V.| c | ] U.q ; + o w v i 3 v V.n.iX_ z ZXKXA c u.n.c.j.c.XXtX9XkXf @ 5 ] _ _ #.{.=XN B U LXUX5X# S.gX*.&.=.` s.5. .;.&.C 5XFXY $ i p g &.+.7.w.x 2 ;.H.s.l h ~ e < 5 >.%.{ aXtXM.M.x.dXx.p.D.@XP.h.h.j.oXw.x O.'.0 o + 8 U B o d V.XXXXXXk.` *XmX XwXS.@.m.yX.Xj.@.b.tXyXm.O.+.i.i.4.d.u.@.| x d.x.0X`.Y.%X=X&X* * e 4 &.!.e E e.r._ 9 z g.x.h.6.~ U.`.d o o { gXv Z B % @ e 7.oXD.| 4.oXiX[.mXHX=XA <XH w Y.&.O.x.tXtXL.d = > s M x r R  .O._ 2 4.H.i [ @.O.5.B.].{.^ g Q -.!.<XY.9 _ a.z ' pXb.' ..:.a * = > = = [ d.l.%.l v a ; M W.W.0 i Z.'.!.E.A * ; ^.Y., ' pXk.+.s.6.` g } r.`.R.z [ ~.9 9 wXpX,.u < x ..X.W c C.O...u * u i # n D _ 4.5.4.pXnX<X<XbXNXnXn # # f E R } r.] e | 6. .o.] u @ q <XbXY.a ' %.a.` |  .k.s.` g  .7.B.;.' c 0Xx.v.yXyXj.3.| ` %.c u O.k.oX@.= + @ M / p 7.n.n.j.s.3.B.W 4 5 5 > + + + o = *.I.p.b.' x #.C.|.M a gXj.O.[ h ] l 3 *XPX%Xk Q W k.k.| _ O.{ i = ; > = 5 D.n.4.O.W ].&.5 R.9 u `.R.W.N % $ ; -.B.p.v.m.u. X= 2 `.c u.pX9XfX,.p / A b M p - m M v h ] O.' v = > 3 + f Y.:XLX*X9 F q + , l `.%.",
"3XKX>X`.=.x 3.D.E W V.a.8.=.* @ 6 m Q | j.c.yXsXaXD c @Xq.} ! g h U.}.E x ].-.2 h N.iXM.nXY.h ..h v u E D.l.@._ m.m._ c ].a.z.5.5.oXoX5.} j.m.j.6.x $.V.L.A.l [ '  .8.3.5.3.' B.b.j.5.3.9.} g < 4 ;.J.z. .W W ` e.F.8.3.u.u.x.j.5.k.8...!.m 2 m M 5 + + $ o O + = l #.7.N.>.~.bXAXbX~._ #.k.pX[.H V o o X $ 3 a ; i V.m.pXO.i mXKXq c a.J.n.n.c.v.x.v.[.i @ c C...c _ ] Z 8 B &XPXUX=X0 wXgX~ k &...B.i.7.Z.:.U.5XFXP + 3 x W X.3.5.8.x ; ] J.J.N.E j e < 2 i = i 0XqXf.f.m.aX@. .B.w.' 3.z.j.+X7.W $.>.= + @ B N o @ d d.XXXXXXJ.` ,X4X'.M.d.gXdXyXyXj.4.b.tXyXv.' @.4.l.oX4._ O.| x u.x.pX'.Y.W.W.W.5 b 5 l R.M < Q q.] 5 , D M.j.i.;.~ !.`.c + + $. XW.V : @ u #.oXiXl.O.p.oXH.}.4XFXZ J mXn i R.>.O.j.tXiXa.3 # # 3 h v r T  .+.$.c D.B.i =.O.O.` >.BXbXU.j R ).mXmXW.*.[.K.{ f.gXO.x (.T.4 5 u > = 3 %.j.J.E a v u * m H 0 , [ K.P.T.V 7 ; * C q # { OXs.3.8.+.W g | :.;XY._ wX>.= i [.pXa.Q 4 j ..} ` B.@XO.[ e * 5 i # 0 i c 7.i.i.b.G w J mXBXZX=Xw # , Q W  .F.-.5 W +.#.;.p * 3 H Y.&.R.}.'.%.a.| +.5.l.p.| } 5.s.B.$.$.l d.p.9XyXyXc.5.| _ [ l a +..XoXO.@ + @ m v x d.c.x.j.s.3.| x 4 e ; @ @ $ + + @ D 0Xv.x.u.E w.'.r.5 =.gXu.O...W ` c 3 ZXLXU.Q ] } 0.k.C.#.| ' 2 2 i 5 , [ @Xn.i.i.` (.~ l ^.3 a `.C V % % % ; x 6.p.c.oXO.<.3 U.{.c d.dX9XfXf.e V b V b < 2 ~ M a h #.D.$.D @ , W.@ 3 :XAXbXY.v F n @ 3 z *.' ",
"J <XZXR.=.R 3.J.W g a.l.s.X.< @ 8 b -.' j.c.yXsXjX' l B.X.W } W 5 m Q.R.W q.-.4 a Z.iXg.}.F E o.' r.e c D.n.O._ x.m.4.' Z.L.G.3.h..X+X3.3.i.m.m.k.R @._ >.<.l N.a.4.k.5.5.| _ V.iXx.i.5.0.2.g < 4 ..G.J. .R W W r.F.W +.@.O.j.x.j.l.s.| Q k ~ !.M 2 + + $ o $ @ 3 x O.+.+.V.Z.`.bXLX4Xn E D.pX[.F J % X O o 9 F , 5 V.XXdXa.f MXKXn d %.V.d.%.@.u.p.j.a.3 @ W ].#.l ' [ B 8 8 U PXIXK d wXwXk 4 k =.V.3.5.D.B.R.3XFXP * h [ } 2.5.k.B.] < a l.XXD.q.Q e 4 ; = + 9 wX0X,.p.pXpXc h E a h 6.h.h.XXk.' %.F o $ o % + ; F [ p..Xv.tXn.#.,X:XS.M.I.xXdXyXyXx.u.x.v.tXx.O.N.w.k.G.` _ ;.' ` u.M.lXBX;X&.Y.-.U.E.k :.=.; 2 &.&.p 9 D S.9Xi.5.#.U.{.'.' = , `.(.C 2 ; u ;.s.XXiXp.| l.OX<.:X4X5XA =XLXG %.s.7.@.x.tXm._ > 9 9 > 3 M r j ..+.N.%.'.' 5 :.| #.[ :XKXmXT.Q / 4XLXZX{.gXpXx.u.S.[.l p R.T.4 l M b 2 d a.c.oX| a c v 5 s b s [ a.n.D.~ 6 e u @ , # $ { m.s.5.5.6.' x | `.<Xn O.pXO.i D Z.pXu.;.h j o.` W s.@X3.' u * 2 s # 0 9 d N.d.J.N., o q 1X}.:XmXHX3XJ ~ R  .].=.2 E #.r.] 2 2 &.`._ u $.kX`.$.@.' | h.+Xj.3.s.j.l.a.O.N._ $.@.m.yXyXXXi.@._ c a c i.iXK._ @ + @ a l ' oXv.n.l.8.X.x p 4 p p 5 * + + + = D 9X9Xi.p.| B.'.c e ].gX4.| r.| W z 3 ,X<X&.] }  .5.8.r.;.%._ 5 ;.[.s.{ H.iXj.c.J.E &.v U.:X, p 2XA % % % % @ - ] l.c.iX_ G Y.;X*.c K.pXM.sXS.2 7 7 V 7 * u &.k u h ' H.a.*.= , *X= q ZXAXR.v &.F n o d >.D z ",
"H n mX!.E ` 2.z.X.p O.J.s.6.e * < b (.` p.x.yXsXjX,._  .} W } ] u m m v E X.>.9 a F.m.j.`.z E } B.;.; ] k.n.$.c p.tXK.O.O.OXJ.5.j.tXn.+.j.i.XX.Xl.} $.i i &.c [.s.4.k.0.0.| ` I.sXXXh.h.h.e.j e e ..D.P.X.E ] Q -...h #.E ` p.j.j.z.5.+.=.-.{.).M ; + + $ o + @ a [ 6.3.@.k.L.Z.nXmXKXKX~.V.pXpX[ C B o X o 0 F f D p.tXtX' K HXmXY.i [ %.>.9 i ' H.l.N.2 * g C.w._ [.}.* % 8 &XPXPXH i L.Z.e - e =.w.| | l.l.C.,X4XZ ; v }  .3.i.k.k.;.3 3 5.XXoX3.R r - > , + 9 wX0X,.f.gXL.l ] x e E 8.5.h.+Xk.E [ f X % o + 2 &.Y.z u.tXc.c.n.a.R.~.f.g.b.g.yXyXyXc.p.v.x.v.v.p.L.C.7.} c A...x 4.g.0XVXIXmXM ~ :.:.U.!.`.5 * i &.h 2 z 0XiXtXp.a.` &.{.Z.%.3 > &.p 4 < u =.a.m.yXdXu.| J.V.^.4X3XU A 4XZX*.J.j.u.p.tXiXl.l i Y.Y.5 ; M r g ..#.$.N.Z.l 4 ;...`.:XZXHX=XT.&.,XLXKX<X'.zXv.x.g.H.%.5 x R.~ 4 l M A 5 c D.oXn.O.E W E k m m &.[.j.j.7.k < k M @ @ o o ' K.l.5.k.+.| ..;.).=Xw L.m.u.c z { b.i.@.W j W } x ` s.4.' u = > w + q 9 l ].D.V.D + # *X:X`.*.J 5X4X%X~ W 6.F.c ; ' A.;.u u *.B.D.V.V.H.V.$.;.#.` +.h.XXj.p.p.j.n.@.' a.7.$.' x.yXyXXXi.$.c a l ' m..XI.z + + @ u l $.tXv.c.k.7.X.h a e g ] -.5 @ 5 5 d { M.yXu.j.5.D.$.u x gXhXO.c w.w...l , b H E ..|  .0.8.&.&.>.z 3 C.oXc.x.pXpXi.v.pXx u h !.<X# 2 -XB % 8 $ $ @ * x s.n.gX%.F <XH 9 D pXiXM.sXS.> 6 6 V 7 @ p Q 2 s l c H.a.*.= @ q B 4XLX:X]...v U.n + *.Z.D { ",
"<.D U.;X[ | 9.0.2.h ' I.h.6.k - < ~ t.W 5.v.9XdXsX,.u.z.W R } X.h h ] W  .#.>.i z J..Xc.a._ E 6.].h * ] D.H.$.d u.tXiX@.p.oXc.p.v.iXl.O..Xp.x.iXl.#.9 = , n %.F.O.s.z.h.0. .#.kXdXXXj.h.k.G.#.g g ` B.B...` Q Q M ~ ` C.l z d.p.j.j.h.3.+.X.Q x a 2 + + o + + = l w.7.4.@.D.L. X|.U.3XLXZX XtXdX%.i b + o X , F F ~.g.pXpXD W.HXbX}.f 3 f v # # d `.].Q * * 4 =.w.O.'.*.@ 8 8 =XPXLXL 9 <.>.< - 1 T.r.W O.V.j.V.{.W.E.M ] } 3.5.h.z.s.w.l 4 5..XXXh.W j p ; , @ 3 S.0X,.u.OX@.' r.W E O.8.5.0.+Xs.x [ = X % o > v :.*.9 4.XXv.XX.Xi.' <.m.v._ f.dXyXtXx.x.XXj.p.M.u.m.H...h l `.z _ b.g.eXSXIXHXZ / -.X.-.T.T.v a u ] u 5 V.aXuXtXm.a._ R.{.V.$.9 * < 4 t p =.+.l.v.yXuXu.O.I.>.*X4X5XP V M >.d..Xj.p..XdXpXs.a R.{.R.[ 2 k m t W #.@.a.H.c g | x {.ZXKXmXW.&.>XKXLXZX!.%.H.x.v.x.H.c 4 E r.l p k s A 0 [ G.D.O.` ` X.W p p M :.K..Xs.` t k ;.=.= @ o o ' K.d.i.k.+.O.#.-.;XJ q kXm.s.' D O.0Xx.3. .W W ! g x #.7.' 9 > @ , # , , z Z.7...3 o J ;X~.L.>.C B U J v ] 6.>.9 = V.gX' d %.D.n.iXkXS.g.i.a.w.O.' 3.j.XXc.p.j.c.tX' l 4.d.@.a u.v.yXXXj.a.c a c @.c.tXL.d + + @ 9 c d.tXv.j.s.s.} a v l h #.X.Q 2 ..%.Z.O.M.tXO.H.d.D._ u p.jXhX,.' x ` ] z 3 i v #.+.+.3.k.X.m b R.c 4 w..XXXp.d.O.O.pXK.a 5 &.1X<X$ 8 &XB $ V @ o $ ; g D.b.f.D <X&X3 5 { hXiXx.uX0X3 b M M 6 @ p x * 6 z l 4.Z.>.= # B =XLXmXR.].6.h C J # <.I.{ O.",
"L.,.&.*.%.3.2.G.e.j _ d.k.3.Q t 1 Q e.W +.v.x.uXsXv.c.OX6.x } `.l c '  .X.| ..D ,.pXoXz.| ` | F.7.p 2 l k.l.>.i O.m.pX@.j.pXj.p.v.dXd.u..Xu.g.iXp.N.i + # J ~.O.' u.j.h.5.E l `.gXXXp.5.0.D.F.' p E 6.7.w...W &.m M ].[.E h a.j.j.j.l.5. .} x x x d = + o + @ > z $.B.+.4.L.[. X&.* 8 =XKXBXgXpX7.p 5 = o o , F Y.'.g.aXgXD &XHX<X:XM # , # # , = f &.u * * - k r.#.[ 9 @ 7 q =XLXMXn , v M - - 1 T.(.j E d.n.z.;.a M &.=. .3.h.j.j.i.s._ a s.oXXXh.! j g 2 = o = <.I.u.u.D.' O.6.` O.k.k.9.5.n.7._ F o # 7 + s =.w.l , u.v.XXv.v.x.O.g.tXx.z f.uXyX9Xp.x.tXx.u.g.g..XH.T.M l c z <.0X0XBXIXIX3XP ,X~ Q -.^ E.E.m u _ u ' 0XfXuXyX0XV.' R.`.V.7.u 5 k e s T.q.5.c.yXuXyXu.a.$.*.=X5XP S y R 4.m.n.p.i.pXsXpX@.a {.^.*.z = k ~ r Q X.$.u.g.O.| W e <XLXHX<XH Y.ZXLXKX2X-.` O.m.tXp.' x h } ;.i 2 M C A s A.s.$...[ R  .X.k m ~ ..b.pXP.h r -.C.>.> @ o + ' J.p.p.p.5.3.#.(.;X7 q wXx.OXO.' ' m.tXi.5.| } } h p #.$.' u > @ 8 # # 0 &.'.#.F = , =X&.[ H.A.C A Z n Q ] r.`.H , f.0X{ ,.K.iXiXp.d _ iXp.@.[.$.' 3.n..XXXp.p.XXtX_ a O.s.#.l u.v.yXyX.XH._ l _ u.tXiXV.d + + = v %.H.dXu.4.s.6.` u F v x | 6.` c ].V.I.O.p.g.z N.D.s._ O.yXsX0XL.$.g W @.D 3 l ] 7.+.+.3.0.} b 6 &.] p | XXXXf.9 = O.aXb.2 2 !.ZX3XX A &X7 , n ; + @ s ] s.5.$.~.mXq 3 a u.sXm.g.uX0Xd M M M q * u &.; @ M i ' '.*.3 5X3XHXKXH *.F. .e b Z 9 S.0X@.u.",
"b.H.$.%.V.i. .y.C.R x O.s.3.X.r e Q C.| O.K.g.tXdXtXj.J.;.e g &.u ] `  .` l { f.tXdXOX3.x | 4.P.| c ` E i.l.$.u ' V.gXO.j.dXj.x.tXdX@.f.m.u.f.pXx.B.v n &X%XF c ' s.z.h.6.j 6 n N.K.s.3.5.h.G.| p R X.7.s.7.` =.M e :.].:.a @.g.j.j.z.i.3.2.W x E =.> o + # > 3 f l ' O.a.[.kX{.2 = % 8 =XZXBXzXB.g u , X o = F ^.}.0XaXgX*.3XHX*X*XY.# # # 9 n @ > b 6 @ : * 5 ;.w.d @ * q q *XAXbXn = 5 6 - 1 1 M &.e h d.n.n.D.p p ~ ] #.3.j.c.j.i.k.+.` s.c.n.5.! j x m , X # *.L.u.3.O.l [  .} 5.l.h.9.0.h.3.#.n X = q = [ 6.7.i D d.iXv.x.x.tXp.p.XXv.' f.yXyXtXp.g.dXx.@.x.tXtXs.T.U.M l D H.tX0XAXIXPXY U &Xm ~ ^ ^ ( Z V b F D qXsXfXuXyXiXa...R.`.D.a.l a ~ k ~ Q.6.h.9XyXuXyXd.$.l &.,X&XS 7 R 6.c.tXJ.+.@.pXsXiX' &.>X`.>.9 + M T.r r Q $.@.u.d.e.p s HXLXmXZ V 4XKXHX4XT.! Q O.dXaX@.x Q &.] ] 9 > b E.n f C.4.x v &.] } X.!.;X:.O.s.P.A.r R e.%.R.3 @ o = | H.p.p.p.5.5.O.R.E.o 3 [.p.V.8.s.' x.pXj.+.E } ..x 4 *.7.$.c 2 + 8 # $ = i %._ M = J *X5 =.D.N.b Z E.k Q ..:.ZXmXW.S.pXg.b.pXp.c _ i ' hXp.' L.s.4.i.z..XXXp.p.yXv.z l O.s.4.E 5.v.yXyXyXn.' E ` l.tXtXb.c = + = v a.iXsXO.c q.r.#.5 d v c | 8. . .C.%.[.' O.@.i $.H.4.' b.sXsXm.I.F.` k.J.[ 5 _ O.u.i.5.5.8.R s 6 l ;.E | c.tXb.c _ m.jXf.= 0 ;XZXU X Z Z : 6 M 2 + # v | 3.V.`.>XU o 3 z x.sXx.f.yXtX' c l a 6 * = C # + v c a :.&.K HXHXKX%X@ v ].#.; q V n >.wXH.f.",
"p.m.u.4.b.3. .6.G.` h ' 4.3.X.h p ..G. ._ H.g.m.dXyXc.OXQ * ; 5 > _ | +.{ z ,.0XdXdXG.R g 7.s.D.w.;.F.3.i.J.#.u _ V.I.@.x.yXj.v.dXtX' d.iXu.,.pXx.d.`.;X4XZ b M _ V.k.5.X.j : : h `...W 8.s.8.o.g j } 3.k.z.| W v e W 6.`.a ' wXK.n.n.h.0.0. .E ' r.3 o @ > b 0 3 3 D ,.V.kX#Xv * q 8 $ w :XBXlXF.h s q # X + F bXBXhXhXgX`.HXFX&XH Y.= 9 n i s @ % 7 8 @ : - - ] `.D > u s 3 *XAX:Xn , 6 2 - 1 < y k 1 h V.b.n.J.R h &...#.+.i.n.h.h.h.s.+.h.p.h.3.W j x R.q o o D L.4.+.| l E 3.3.l.k.k.5.5.h.5.;.0 X , s 9 ..s.+._ <.H.m.v.v.9XtXx.g.v.m.u.b.yXyXtXg.p.pXm.u.v.tXn.+.=.T.T.[ @.b.0XhXPXUXJXI &X=X<X-X~ ^ / / V C &.f.aXfXfX9XyXtX$.[ R.A.l.i._ z Q ~ &.-.8.n.yXuXuX0X<.c u R.%XV : s #.+X.X.XB.x c I.dXn.[ {.{.`.~.3 + M T.r - p %.O.@.s.;.u %XKXHX&X@ A HXHX4XJ Q -.~ | m.aX' h j Q ] E 9 + b Z s M ;.' 2 a U.-...:.2X;Xw.D.B.#.W h 6.6.d F 0 + = D 7.J.x.g.i.4.4.#.!.q o # '.@.| 6.P.l.x.iXb.W g ..;.x ; &.7.V.>.3 o + o # = 3 ..D , q 3XZ = =.F.;.n &XE.m W q.-.!.mXZXeXgX9X9Xb.a 5 >._ @.hXx.c B.D.i.3.j.XXXXj.g.dXx.z D B.G.7.W 3.XXXXyXyXc.| _ | J.iXv.j._ 9 # = z p.dXaX,.3 x q.:.a i i l  .k.9. .x l L.D ' %.l A.L.@.@.iXsXuXf.K.P.5.j.iX[ 5 | 3.u.i.5.5.q.g 6 6 u :.] | j.dXx.@.m.pXaXO.= q =XmXP % &XC 2 n &.> o = ] ` ` N.}.Y.# # 9 c 9XsXp.u.yXaX@.c l a 6 * o 7 , * F [ a u s *XmXmX<X0 o 5 ].w.* ; n i Y.}.N.g.",
"O.K.i.i.x.4.} 2.G.X.h W +.3.X.j E a.z. .l @.a.f.tXv.n.+.2 @ a T.9 [ O.7.[.g.aXfXuXtXt.t h s.z.H.' _ #.5.5.J.;.2 c ,.d.p.yXyXc.XXdXm.D S.pXp.,.0X0Xb.eX{.*X6 8 C =.V.k.s.X.x 6 8 < M 5 5 #.8.8.o.g j ` +.5.XX5.R h x ..| [.' z S.0Xb.n.h.h.z.6.W O.].a + + , C s @ = [ V.[.kX].u @ 8 q w , *.kXzXgXx f b > + f bXAXVXhXaXpX'.HXFXU 6 n 3 D <.d 3 + % N 8 * b m 5 x `...a &.f 3 *XZXE.6 6 6 < < 6 1 y y < l H.b.J.D.| x ..X.+.O.3.h.i.i.i.z.5.j.h.5.3.W h x R.0 o o f A.5.+.| E | 3.k.B.7.k.5.5.z.l.#.# X 3 &.z w.k.5.a.,.f.9X9X9X9XyXM.,.m.tXm.iXv.tXtXp.,.0X9Xv.yXv.5.W c *.=.$.V.d.0XVXPXPXFXB 3XHXAX).k k ^ / Z Z >.aXfXfXuX9Xv.m.#.] R.C.l.p._ E =.Q R ..k.c.9XuXyXK.>.u l ).C ; 2 ] l.XXXXn...4 5 V.sXp.&.;XR.].`.9 = M -.g * 2 ] O.@.$.&.U.HXKXMXK 8 3XHX3XJ C ~ ^ Q R i.pX>.a x ..X.] 3 + V A n !.*.a * s -.x ..`.2XR.l.OXF.W h ` B.#.0 0 q + 9 '.s.j.j.x.,.O.+.:.*X6 X # <.,.;.W 8.@Xx.pXK.' W q.=.x < v a.H.<.9 o o X , n 3 [ c # 5X3X, # *.Z.%.*X5Xb Q ! 6.;.i U.<XbXeX0Xm.V.l l #.a $.hXg.5 ' P.j.+.j.XXXXx.c.sXp.l ] w.G.7.W  .n.v.yXyXx.| ' +.oXiXc.p.O.F u 3 D x.dXyXf.u e x R l &.i i O.z.0. .j _ L._ D >.{ Z.H.@.g.uXfXM.@.0XoX+.@.gX>.5 @.p.i.i.5.8.:.e 7 7 4 T.=.W h..Xm.p.x.dXpX' = A mXmX8 8 E.s e &.&.M W.^.r.6.} r.>Xv @ , a _ iXdX4.@.v.yXu.' [ v 6 : o , b 5 &.D a 5 9 <XmX<Xb = # @ ;.`.= + M 9 J <X~.rX",
"d I..Xj.m.i.} 2.G.e.j x | 3. .W +.OXn.5.O.Z.A.,.M.x.D.g * @ l `.c [ ' O.0XaXfXfXuXpXT.- _ P.K.4.> i O.5.5.D.;.; l $.a.v.sXyXXXyXdXj.i { OXp.,.M.aXiXwX*.E.- % A =.V.s.5.3.X.k - : 8 * 3 ] 3.8.W g j ! } ' b.s.h h Q ;.E B.O.3 <.L.b.K.j.h.z.8.| 3.[.&.+ + , H n + @ D `.NX`.z = o # w f f [ [.zXkXD d v a F /.ZXbXrXg.iXgX X4X3XA @ 6 z N.V.c 9 + % N 8 6 Q.-Xa h r.$.c [ i 0 :X4X6 ; b 2 < s m 1 y b < a V.b.oXJ.i.` | +. .O.@.4.i.p.h.J.+.i.z.5.+.` j x ] = X o i A.s.3. .' w.8.k.` ` 8.5.5.z.J.' + X i :.c B.l.l.a.D @.aXtX9XM.dXK.@.0XaXtXv.c.XXK.@.{ H.tXyXtXj.X.j a c ' a.s.,.wXSXPXPXY B 3X,X;X&.r y k k C n <.aXvXvX9Xv.v.n...Q :.C.d.p.| ' -.x x 3.l.j.x.dXpXV.] p -.R.7 * a Z.iXtXXXn.W 4 2 $.pXa.E.%X=.[.`.5 2 ~ -.R - * l ..O...Y.4XHXHX<XW.=XHXFXP 7 ( ~ T -.R s.zX<.i ' q.6.-.9 + q J =X,XH > @ s :.p ] |.>X`.oXoXe.R j $.s.O.d , 7 @ _ gXi.p.p.M.,.d ` -.H % X O G Z.`.x E } x.dXpXi.+.X.W Q k &.s.OXA.i @ o X n W., _ a V HXY @ = `.`.=.4XZ 4 j o.6.+.[ Y.:XZXeXwX@._ %.w.#.a d.jXg.= u Z.J.i.h.XXc.c..XaX,.a l ` +.X.W } l.c.tXdXu.` | 5.oXtXx.4.O.R.&.l ' x.yXyXf.%.x r e d <.D 9 O.z.0.2.} w.L.' d <.a.D.d.u.9XuXvX,.@.pX0X` 4.zX>.3 a.n.i.i.5.e.:.5 6 7 1 U.:._ i..XK.@.x.aX0X>., B mX3X% A W.p j (.{.}.!.U.w.3.X.|.>XR., , &.| aXtX| O.x.v.i.#.*.u ; : + = M M f v v a C 1X<XK @ 6 q + c `.> o u v = &XmXbX",
"9 N.pXx.v.x. .2.z.k.R h } 6.4.+.c.iXh.+.$.{ c %.gXV...; @ @ a `.c l { f.uXfXfXuXiX XE.* %.pXK.O.> c Z.i.5.D.] @ i >.u.v.dXyXyXyXpX3.* i V.x.f.g.aXM.[.c < @ 8 q =.k.s.5.9.0.2.t : 8 8 b ]  .2.j r T Q j a a.B.h x c _ l O.` > *.V.p.K.n.h.h.8. .i.@X>.@ + = M s o + C :X:Xi + o o o w n f i { kXNX:.d D { '.}././.~.,.0XkX>X3XY N @ 2 &.L.D.O.a + $ : 7 E.2X!.2 p A.Z._ D 9 D  X!.@ 6 A < < Q &.4 t y 1 5 <.J.XXXXj.3.5.5.5.@.O.3.i.p.G.].x E F.4. .` R l f # X o d A.s.5.3.| 7.G.q.e x 8.5.5.k.P.D o X d V.| l.z.k.{ i p.yXuXyXyX9XI.S.wXpXtXv.x..XH.` _ K.yXyXv.4.W g p c +.l.u.a.nXLXPXHXB Z 3XC >.C.k s y g v [ 1.wXxXhXx.p.c.k.Q s ] A.s.k.s.7.#.W | h.x.p.g.aXgX$.x ] `.&.- * ' 0XaXtX.Xh.| W 3 _ I.$.&XZ ..gX<.3 3 M -.Q ; @ e =...] ;XmXmXmX{.>XLXHX5XB S / ^ ^ C.! 4.gX%.d _ X.2.;.l @ B 3XHX,Xn @ + u R._ R.>X X].K.b.o.T ` l.7._ G , 6 < d.dXi.p.x.K.>.3 ] v # O O X i ~.`...Q g p.sXdXv.4.` E Q U.*.p.pX$.3 + o o Y./.3 %...=X4XB + > R.>.*.&X7 u Q  .5.p.[.bXZXnX'.wXI.p.H.H.` a S.aXg.> 2 ` k.j.j.XXc.j..XK.O.p g W | | x W V.n.iXiX' l | j.tXtXp.' l ..r.` 4.yXuXyXu.s.;.j e l Z.<.d ` e.0.9.5.7.<.z 9 N.l.j.i.x.uXfXvX,.,.pX0XO.' [.*.2 g.tXi.8.8.6.;.5 < 7 t &.R.x O.oX7.a p.hXzXnXb 8 3X3XW.,XU.e ! C.C.[ > i r.#.:.|.>.}.f a :.' pXtX`  .b.b.a.%.v ; - < * 3 ~ U.n 3 M v ,X4X%X6 @ q V + u T.0 X ; U.@ B KX4X",
", D gXc.9X.X2.! h.G.o.g ' #.d.b.tXtX5.' %.d d BXVXN.a * @ @ 5 ..c a { qXfXfXfXuXwX{.A 8 *.a.V.@.a [ 7.+.i.F.v @ 9 >.x.tXuXyXyXyXpX| + > @.j.u.f.iXf.%.u * @ 8 b =.s.k.5.2.+X+Xo.1 8 8 7 ~ ..-.g r Q Q h i N.L.` x x h ` P.7.i d { { V.J.h.z.k.5.j.pXr.@ @ = s > o # &X<XC o X B K o , s i D l l R.R.D ,.S.V.G F H ~.S.wX X>X5XB 8 @ = v [.gXF.x @ 7 7 V / U.M 2 e w.B._ z i O.[.M @ 7 Z ; < ] -.g t g t 4 >.J.c.XXj.p.u.h.D.s.O.+.5.i.F.`.2 i `.7. .W x l s +   @ [ F.s.s.3.W W ] h @ l 8.5.5.k.[.z X o D I.l.l.8.$.D { iXuXuXyXtX0XzXzXS.0XyXc.h.oXB.x D wXyXv.b.#.h p x | l.p.i.Z.ZXKXHXU % U =Xn S.wXv m 4 r -.kX0X0XwX0Xg.j.n.7.g 2 v r.s.l.D.L.6. .i.j.v.p.g.hXkX=.a :.|.~ - 4 N.pX9XtXiXp.3.C.9 z S.:.&XV 7.gX%.3 3 v X.Q 2 @ 5 :.X.:.4XmX4X*X>XZXZX4XA S A / / ^ o. .X.#._ ' ` #.8. .] i J HXHX=Xq + + i R.[ R.NX X'.H.s.W T 5.J.O.c F # 2 5 oXyXu.u.x.I.D 9 &.3 X   % $ # i &.E g g ' iXdXXXi.} ] l M &.d.pX%., o o # }.~.9 {  XmX5X% o , i [ R.7 ; p W 6.5.b.gXAXZXwXhX0X0X0XpXd.a c [.pX{ # 3 l s.n.XXXXz.j.oXd.` g x | X.| j E C.H.K.I.c u | n.tXv.i.' 2 a :.$.j.yXfXyXu.+.;.^ r c gXV.D x X.k.0.h.4._ 9 > Z.m.x.p.v.uXfXxX{ ,.0XiXf.l  X~.2 ,.9Xi.s.8.+.] 4 ; y t ^ -.a ` H.O._ p.zXBX}.> = &X=X*X{.M 4 q.8.X.] = 5 ;.6.=.E 9 d i 9 _ a b.K.E ' d.b.7.[ 5 * < < - M M U.q + 3 Y.mX4XA o # , 7 + < &.3 o @ / V 5XJX5X",
", 0 L.tX9XXX2.! 5.G.;.r E @.b.iXyX.X3.7.:._ ,.VX[...k y - @ 5 ' ' ' f.qXfXfXuX9XR.&XN 8 M u _ V.c u { O.O.[.s + 3 { b.yXuXuXyXdX@Xj + 3 @.z.5.+.@Xa.l v = + 8 V =.D.0.3.} B.z.P.~ - : 8 s M &.e p Q Q h a a.pXp.E g ` F.J.D.d = > z N.a.F.V.l.p.c.iXC.- # # q # + A 4X&X# o X q U % o 6 9 c N.i @ d <.S.I.@.f M &.R.O.S. X;XB N q , o v Z.gX[.l 2 b b 6 p p h 5 3 ;.F.W u d d.[.u @ V Z = 2 ..#.g g k g e ] z.XXXXh.i.i.j.J.D.O.| 4.4.V.*.@ = ~.V. .W j j f O . = $.H.j.l.s.W e < @ = c 8.5.5.k.[.0 X + _ P.D.#.` %.~.VXjXsXuX9X9XpX0Xf.qX9XyXc.h.G.:.a l I.aXx.a.] m u ` d.J.p.f.'.ZXHXY 8 + &X&X9 0XpX[ 5 t t ..zXsXuXM.x.M.m.K.w.5 5 &.:.' 4.u.i.5.3.i.XXtXx.m.zXnXD d ].{.a - v H..XtXtXtXj.5.L.i i >.R.Z 6 D.pXD i 9 u -.Q 4 * R G.7.`.4X3X&X!.1XmX4XP 8 A m ^ ^ ^ W } R R @.@.W X.9.2.6.-.3XJXmX=XA o + f ..#.'.NX|.`.G.3.W W k.J._ d F + @ u n.yX4.a.b.H.l [ H # X X 0 U., # , ; Q =.x 3.iX.Xb.| ] x ~ E G.gXD , X X 9 {.*.3 ..nXKXP $ @ # 3 *.~.3 2 h } 3.4.[.VXAXrX0XvXtXg.uXpXd.d ` pXgX9 + , D k.h.z.z.h.z.l.@.W j R } 6.X.h x ..a.@XV.a 3 =.gXpXn.f._ > = F 7.x.uXfX9X|  .q.~ g ' gXH._ h X.k.j.j.4.d 3 i A.pXx.x.yXuXvX0XD ,.v.yXx.9 `.R.> u.iXi.p.s.| a ; ; s r ~ -.e c ' @.u.b.lX[.*.> 2 C n T.{.k < o.6.! ] 2 i #.s.| [ 3 # = 3 x l O.' `  .s.l.O.' 5 e r r m y t C q o # ,XKX&X= = = # % o @ n w o o 7 ,XKXFXI ",
", # ,.aXyXXX2.! 3.P.o.< c O.g.iXyXXXh.k.;._ L.gX' l 4 A 7 @ e ' @.,.g.uXfXfXuXd.U.P : 8 C ; ' [.$.l a [ $.].s o > ..K.yXuXyXyXaXP.p , 9 +.h.0. .e.| x *., # : b >.s.0.2.g #.D.l.r.e : S V C M - 4 Q Q x _ b.pXiX` g | P.j.k.l @ = d A.B.C.Z.a.g.yXtXG.u + , 7 = q =X4XB o o O w B + + q 0 i $.[.d i S.0Xf._ v M a h c '.>XE.8 N K i o 3 $.I.V._ l u m y k :.`.` 3 =.G.` a _ V.N.2 * A A @ 3 #.8.R g j j r Q 0.z.5.5.s.i.j.oXd.` | | O.$.[ , = &.Z.| W R x v #   9 V.H.x.j.l. .p + = D Z.k.5.5.D.'., o i a.J.N.a a [ F '.0XfXfXyX9XyXM.,.9XuXyXXX5.e.T.5 i H.aXx._ &.%Xv ' m.K.l.,.>XKXHXU % % U J &.I.qX{ 5 t 1 x pXxXuXx.x.9X9XH...p m ] ..' $.4.i.i.5.j.n.m.I.S.kX:Xd '  XT.< 2 w.oXtX.Xn.K.O.i.@Xi 0 =.&.6 3 L.b.l d i p o.Q e 2  .J.F.}.3XU E.1X4X4XU 8 2 U.&.Q / ^ Q q.! X.[._ g X.9.3.} R.mXHX4X4XV X 3 { ,.V. XNX{.:.8. .E X.z.k.l d F + 3 l z.c.O.a.pXu.c ~.n o O   z NXf + + u R...j j i.gXb.| ' Q Q W B.[.D = X 3 =.>.*., v ZXmXN o @ = f ~.`.3 p ] X.7.w.BXBXnXrXqXvXaXx.uXhXS.z ' gXwX0 $ 0 D | 8.0.h.0.z.z.4.W T W o.2. .R E x W F.w.5 > &.kXgXb.a.[ ; + f $.i.yXsXtX_ E r.&.u O.pXH.D g ..h.z.x.d.c f Y.}.0Xp.v.uXfXvX0X9 @.tXdXM.3 F Y.3 ,.hXj.p.s.` a 2 ; s p Q -.h l l f.M.4.@.' *.i f M M {.(.4 r q.2.! ! 5 l A.s.O.{ f o o 0 z O.Z.` | s.s.s.+.W 5 x j k ^ t t C , o A 4X=Xq : 7 # # X   + b q o o 7 KXKXU B ",
"# @ @.aXyXyX9.! 7.G.q.e 5 c @.iXdXc.5.s.O.O.gX@.z 3 * A S * u [ ,.qXqXfXfXfXb.>.=XZ : S V * _ S.[.[ M R.N.A.9 + = *.0XtXyXyXyXpXk.p d i O.k.z.9.[ h _ `.# # , b %.s.0.! r ' s.l.J.X.1 8 B Z b * 5 &.Q R  .j.XXpX..e | @Xh.8.Q @ + d N.s.C.].a.d.tXv.J.E + n b , J 4XU o O o O n q X $ w w 0 { I.0X,.S.S.{ ' =.&.e p c &.W.q & N K 0 X @ [ 7.O.%.R.&.m e R `.[.a.e ] G.| h =.].] * * V V @ i w.k. .j R Q p g 9.0.+.O.p.j.c.n.+.W 8. .' ' [ c d *.B.O.} R x M # . i L.0Xx.v.j.+.h * i '.H.p.i.i.F.~.@ = *.b.oXZ.3 a [ 0 d M.vXfX9XyXyX9X,.uXuXyXXX3.6.&.3 i Z.iXx.c v ;X&.u.tXm.l.$.bXKXFXI % : C &.$.wXI.>.u v k u <.hXaXx.x.9Xm.N._ &.R.O.O.O.a.u.j.j.p.l.V.}.nX X X^.i $.`.s - _ K.m..Xl.{ z 9 3.L.0 , &.k * s [.@.i D c g } } p x z.oX[.{.U B &X4X4X5XN : k `.].o.^ ^ ~ ..R 2.`.a l C.k.6.x W.ZXmX=X%X3 = { V.b.J.#X>XQ.v X. .} 5.z.3.5 F n + D %.a.4.O.u.b.O.O.'.0 X     G nXw o > *.(.g ` _ E P.J.| ` ` ] ] #.A.[ i 3 *.'.' *., J KX=X8 = = 3 [ N.N.l ] ..X.6.].BX}.S.0X,.g.b.,.tXjXeXF l [.pXV.0 = F a h q.5.5.c.c.i.} R o. .+.o.W ..p l `.[ 3 = i  XgXI.N.c ; o f V.u.M.aX9Xc x (.v 9 @.sX0X_ p ] G.+Xc.s.[ M %X<X'.p.9XuXfXfX1.9 i.yXdX0X, 0 H , _ 0Xp.j.4.c 0 , ; m g Q ..c a c 0X0X_ 9 %.>.i &.U.k {.-.4 Q t.} R Q p z { [.F.N.Y.# + 0 l w.gX@.3.h.i.h.+.E 4 ~ ~ g g 4 x *.i = E.&Xn 2 > , o O     X 7 q + o U KX3XN N ",
"@ = ,.aXtXyX0.! 3.F.`.v 5 z ' oXdXj.5.s.O.L.'.i z > @ 8 S : 5 [ ,.uXfXfXfX9X%.!.,XS - b 6 * ' %.>.f %X!.:.`.3 + = *.gXtXyXyXyX.X .g D d $.k.k.0...3 _ {.0 n b s $.l.8.R e ] 3.j..X@XT.- N P S * 2 M k j } i.j.OX-.1 _ L.z.k.-.- + F N.d.B.w.;.V.v.v.oX$.# n H b =X3XB X O o # n ,   o # # 3 { d.M.K.{ D { %.A.;.u ~ *.a 6 % & N n , X @ z O.' $.`.{.s e W 7.z.l.a W D. .x =.].x @ ; 7 8 @ a 7.l.5.W E ! j r }  .` O.z.j.c.n.O.' k.5.' _ [ [ =.R.Z.| } R R &.,   z I.0X9XXXj.5.x ; d I.j.i.p.D.[.Y.@ 3 =.p.pXL.5 a [ d D 9XfXuX9XyXyX9XqXuXuXuXc.3.X.~ 2 3 >.K.m.%.l ] >.K.tXv.d.R.<X3XP N % # M >.V.[.<.*.l -.q.a [ L.0Xx.c.tXiX,.D *.].l.p.f.d.g.m.c.p.V. XbXmX>X{.Y.i _ x 4 u a..X.X.Xu.c = 9 H.L.0 , &.a 2 &.'.' i =.] x } } x 7..XiX].!.V I 4X4X5XI & : -.P.G. .Q / Q R !  .&.> x F.k.6.&.<XmX,X^.F 9 ' I.x.v.P.6X2X/ e W  .5.l.h.` > v f 9 >.%.' @._ ,.b.' i.%.# $ o   0 v # # v {.&.- a.H.c ' [.| x W q.X.W _ c ' { V.B...F , 3XHX&Xb 0 3 i $.O.a.O.X.E } X.|.!.~.wX0X@.D _ { K.hX>X^.c $.K.[.9 # i > ; :.5.5.c.XXl. .W }  .6.X.` #.x W R.l 2 = > *. X X;.x 2 @ *.gXg.f.iXK.a g &.i 9 @.aXpX_ u ` G.n.h.5.=.m J ,X~.g.9XuXfXfXD 3 p.tXdX0X, # w = _ pXx.j.6.l = # 7 M g ` ;.x p _ iXpX{ 3 *.[ 9 `.!.k &.h e -.q.} ! =.c l [ =.` %.R.# @ n d $.gXj.i.5.5.k.#.h 4 T.~ e p x %.>.v u E.( ~ &.0 # X X X O X 8 b + N 3XFXP % B ",
"@ , ,.aXyXyXh. .+.B.=.k b u W D.iXj.i.h.5.[.d @ 0 = * * b 6 5 [ M.uXfXfXuXf.$.).8X: - y 6 - R.*.0 n =Xn =.`.= o # G pXyXyXXXXXn.R h F z | 3.0.8.+.a c *.d F C M $.s.e.j 4 ] 7.i.z.OX$Xg : N A + * k p g W 6.5.@Xq.1 l a.z.0.-.e + i %.d.s.O.;.F.v.yXyXH., , H &X3XU O O o o # n ,     O $ , { 0XK.,.= @ D Z.[.| e =.`.l = & & & w # o # c O.' ;.`.R.e e E +.c.n.E E D.+.E =.`.u * y V ; @ l B.n.h. .W ] ~ r R R g $.n.j.c.oX5.3.h.s.$...E c &.-.r.| ' W E &.6 o _ 0X0X9Xv.c.i.| a &.V.u.u.p.D.'.Y.> 3 l @.pX0Xi u %.,.p.uXfXuXyXyXyXuXuXuXfXdXv.3...M ; ; [ d.b.D.O.' V.iXtXXXB.;X,XP N & $ = *.F.Z.G F =.%.a.[...l O.d.v.v.XX.XV._ D >.K.tXp.g.M.v.v.d.'.BXZXbX:X^.M 3 0 3 u -.H.XXXXXXj.d.9 d gXV., , &.x x :.Z.' a =.O.R o.} | J.tXoX`./ 8 P 3X5XI N % 5 B.n.h.6.-.T.Q ` 8. .a + a B.k.3.{.ZXHX&XY.<.,.K.tXc.v.P.>X,XC < E 3.z.n.V.l = v D %.N._ i >.}.<.H.@.V.D + 6 0 0 0 3 + > R.>Xb @ I.hX,.c w.` p R e.6.] h l 7.D.s.@.>.n V HX3X!.*.d i c $.| s.+.| x } o.] M }.eXS.%.i z D %.<.[ R.=._ $.z # , w # @ v 7.5.j.XXn.5.' |  .3.#.` +.} ..E 9 = = = M ^.}.:.Q p ; <.hX9Xu.M.'.5 4 M i i ,.aXpX' l | s.h.2.2.;.v J =X>.H.yXuXfX0X0 3 d.aXdXf.= o % = %.hXx.u.>.9 @ @ 6 m g } ..x u _ 9XpX>.> Y.Y.D [.{.a s 3 x w.0.9.2.X._ i 9 , ; v F o # M a A.pXj.8.3.5.s.;.e 5 U.p r ` B.V.,._ x U.&.q.`.f + O X   X   # q * 5X3XU N % N ",
"* 9 ,.tXyXiXz.}  .C.(.1X%X4 h #.D.i.h.5.5...@ + = ; - - 1 t p ..qXuXfXfXf.O.`.Q.N : < m b s v v , &X=X= &.*.# o + f 0XuXyXc.c.D.j g D c `  .0.0.3.| d d d d M v $.4.;.e e :.#.3.h.h.z.:.> 8 P : 2 &.k g ! #.+.F.:.1 p +.k.0.2.j = @ D H.l.3.-.w.x.yXyXpXd # E.=XJ @ X o + # + q q   . O O , { 0XV._ 9 0 _ [.Z.l 5 =.N.c : & & % # # # > ] ' E w.r.c < e R  .j.oX` x s. .` ;.:.< < U.C * * D D.n.i.3.} W ] g j p p 6..Xj.l.d.p.h.i.s.Z.[ _ Q j Q ` ` | ` W &.6 + %.K.9XyXtXXXj.+.R.}.L.O.O.s.F.A.Y.M s a _ 0XhXd a %.f.M.uXfXuX9XyXyXuXfXuXfXdXXX@.[ n 7 = a | s.K.p.d.K.tXyXn.N.;X5XN & 8 @ 9 Z.I.%.9 W.>.7.h.oXL._ _ f.v.v.j.j.D.%.c _ d.iXb.M.tXtXv.H.}.ZXZX:X{.Q.u ; 6 s v C.n.XXXXXXXXI.d d gX@.# 0 [ ' ' 7.H.' l %.#.E } | f.K.iXV.R.y 8 P &XI N 8 * k s.x.i.e._.T.x w.J.#.3 o l e.k.B.1X4X3XA d V.pXyXtXv.v.[.1X-Xb r -.8.l.K.r.3 * D %.V.N.c 9 nXIX}.a.@.$.9 o 3 *.~.G , + s 2X2Xq @ I.jXpX{ c h 4 Q C.B.| h W k.l.s.| v H 3XHXJ <.L.z z >.' ' k.| } ` } o.r M >X<.O.{ , d D d *.&.&.R.[ a # o , q # = ] 7.5.j.XXXXj.3.O.3.3.#.} 3.6.| x 3 = = @ 6 Y.*X!.-.l 2 S.hXuXp.f.>.> ; U.H 9 ,.aXaX,.O.7.s.5.2.2.8.] E.%X*.L.aXuXuX,.= 5 N.pXdX,.# + # = { gXj.4.] > # # * t g } | E p _ qXaX<.9 <X>Xa.gX`.k 2 5 ] G.z.0.2.} c 9 # + + i 0 # 0 M i Z.K.u.7. .5.B.;.v u a r ..6.B.p.O._ ] R.:.8.Z.v # O O .   # + 6 E.HXY N % : 7 ",
"> i ,.0XtXtXoX|  .].1XZX!.< 4 Q #.7.5.5.6.z o $ = > < < - e l %.qXuXfX9X' O.`.m : : e &.M E.u > V 4XU + Q v + o o D qXuXyXx.5.7.g g D _ 5.5.0.0.h.+.d z D f n v $.a.;.4 5 R.-.} 7.5.z.F.~ 8 B A ] e.W j } 6. .6.-.1 4 ' 9.0.y.Q i @ i V.b.5.R E f.yXyXhX*.0 *X&X6 + o X = 0 # 6 n X   X   w 1.0XV.c z *.N.Z.] 2 5 ..w.x @ % : : # , , i ] R E 6.Z.E < u E | 5.P.| l +.O.` ;.] < j (./ * = [ K.m.5.7. .W ` E E p g 6.J.D.' x 3.j.5.5.>.9 d Q k g g R ..` W =.a 3 a.M.9XyXyX.Xk.6.>. X[.%.%.`.Z.>.Y.Y.Y.&.{ 9XhXD d %.V.pXaXfXuXv.yXyXyXuXfXuXuXtX@.E A 7 2 s ] B.K.x.v.tXyXtXb.=.Z I & & : > ' I.[.z M 2X;.+.i.v.pX@.| d.m.v.h.5.7.#.v v &.`.H.m.yXyXyX0X}.:XrX[.(.l 2 2 u k } k.c.XXyXtXc.@.= d zX{ # f =.| | @.K.O.l #.;.E W 3.n.iXgX'.E.8 8 I I N 8 % - a ' f.4.7._.^ R F.P.w.9 @ x N.F.[.1X3XP N d H.dXyXtXXXK.[.<X&Xs &.C. .$.'.Y.@ * =.H.L.[ F ~.SXAX*.a.d.{ @ + l w.<.i # * ~ 1X=X% + S.fXaXb.' e - M B.k.O.W 3.z.z.8.E > J HX3Xq { pX' z >.c | J.' | #.o.} g U.^._ $.%.i _ >.9 3 s f :.r._ 3 = n w + 2 :.8.3.h.+XXX.Xk.3.@.3.6.| 5.5. .] i = # + 9 M &X&XT.x 9 wXvXfX9X,.z * @ C q 3 O.aXsXx.p.i.i.5.2.9.k.#.!.W.m R.0XuXdX' > a 5.tXpX%.@ + # @ _ hXb.a._ 3 9 > @ < g W | ` l _ b.hX'.G :X}.H.pX`.a ; s #.k.h.9.} o.Q 9 3 = ; v f , M d u N.d.4.|  .3.a.@.w.a a } G.W W O.' [ :.(.w.p.L.z , , # X $ A # 6 4X4XZ % @ ; 7 ",
"b i ,.pX.Xc.oX@.| |.ZX,XU.r < t Q w.3.8.r.k + o , ; u 4 * 2 x ,.9XsXsX{ l ].(.y * 6 M T.!.;XR.5 &X4XB @ M M @ o $ D aXuXuXx.| W x x D c D.z.0.k.n.' l { D f a &.7.4.;.2 @ M Q x E ` 0.G.(.5 7 E.].k.W j } 8.7. .q.4 < E  .0.y.] M 3 0 <.D. .j Q $.0X9XxX~.n %XC m > o $ n M = 7 n + . . O F 1.0X0X' c `.Z._ 2 ; u ;.Z.] : : 7 7 0 , , f ] x ` 7.C.] ; s E E $.N.;.l | $.` ;.] 4 X.].M @ > %.0XtXu.i.+.` ` #.;.j g 7.J.s.3 ; O.h.5.8.v + > f ~ m r g Q [ [ ..c ' H.M.9XyXtX.Xk.7.#.$.@.O.R.;X(.R.&.f !.>XS.0XaX{ { a.V.gXaXsXyXv.9XyXyXuXfXuXuXdX4.v V B 6 k -.[.K.v.yXyXyXtXV.v 7 8 & 8 @ a d.K.N.i W.;Xw.i.x.aXtXi.+.l.m.m.h.9. .R p M n F $.K.yXyXpXwX{.Y.a.gX;.2 ; 2 e E 7.i.v.XXXXXX.XO.+ G zXD , f >.| O.d.pX@.x 6.A.E W s.0XhXBXNXE.8 8 N 8 : : ; v ` _ O.a.B.-.Q Q C.s.$.f * l `. XnX<X&XB 8 Y.zXdXyXv.v.J.].,XE.a (.C.a i Y.U.* 2 N.P.d.>.R./.*., F '.$.{ 0 a (.8._ # X 3 Q.4XU o # S.uXuXaXS.u * v 7.h.u.3.z.h.h.7.x = Z FXY = ' gX$.c { l @.@X} } #.X.! R &.M z `.'.'.kX`.f = = 2 c >.*.Y.M n 0 , l [.7.+.h.z.c..Xb.u.O.+.+.} 9.5. .w.z = @ # F v Z U !.x d aXvXfXyXu.l * @ 7 # , O.hXsXv.j.5.i.h.9.9.z.F.;X&X: ~ S.sX9Xc l _ s.oX[.z + % 3 = z gXb.d...c D 2 * 4 g W } ` E ' g.hX<.0 [ `.gXgX;.u 2 v 7.k.0. .! -.v > 3 a =.{.&.2 v u a #.V.O.W X.6.} ' ' u ` G.8.p g O.' *.`.`.s.j.H.d 3 n # X $ %X> n 4X&X8 % * * m ",
"U M ,.iX.Xc.iXd.*.1X<XU._.m 1 : p Q e.6.-.M = + = > s u * i z f.yXdXK.d c R.C - - t ] (.!.M {.M =X3X: < M m = o # <.sXyXyXpXD i ~ v D _ OXh.3.+X+X3.{ { 0 z *.>.B.+.w.] o > x ` 3 ; E e.].&.; n Z.8.} R  .D.k.a.;.t < Q t.8.G.] 3 , , *.N.` g v { M.uXaX~.W.H s Y.3 X # F i # 7 n , .   K /.G ,.pXi.O.Z.O.2 > = a ;.].Q - : y m n f i v Q x  .7.] c ; s v ` ' ' [ l _ @.' O.x g k.F.v * 3 $.tXdXj.l.4.| | 7.C.x h e.+XD.2 2 a.l.5.w.f   @ 0 s M M e s v [ | @.@.x.x.tXyX.Xn.k.8.B.s.s.N.:X,XT.&.w 6 Z ;X XwXhX,.u.L.f.g.9XsXtXx.tX9XuXfXfXuXuXdXd.E C 7 s v R.].K.tXyXyXyX.XN.s 8 & & % > =.b.0X' 2 v v 7.n.9XaXK.' O.K.tXx.h.0.2.W e k M i F A.pXpXBXBX:XD S.gXv ; ; l [ | 7.p.c.yXyXyXXX,.3 G kXd , F %.O.w.[.hX@._ 6.C._ E P.zXVXBX2XZ : 8 8 : < e Q w.V.a.@.$...Q ^ ~ &.` O._ 5 W `.NXnX;XC 8 8 v [.sXyXx.b.H. X=XA x [.F.5 @ n M ; E D.oXH.`.*.f # # v <.O.}.AX`.6.3.x # O q J 5XN X # g.fXuXdXaXO.; l 4.c.j.j.h.z.h.+.l = B &XB + c zXH.' *.a _ $.'  .6.X.! T.U.f z >.eXVX[.[.M * e v u u 0 w n n 0 i @.gXs. .0.+XXXj.c.j.5.3.3. .9.0.2.7._ = + 0 `.&.A P &Xd D aXvXfXuXM._ < + @ = > O.OXiXc.5.} j.c.5.0.z.[.:XU 8 C Z.jX,.{ &.Q B.Z.D = o % , @ i L.K.x.s.' ] 5 @ < k Q o.-._ _ b.[.D = _ P.i.@.` p e Q 6.k.2.o.} X.k @ 5 =.C.F.' 2 a x W w.%._ E X.} x x 2 ; _ 7.} < p C.N.R.:X'.l.m.b.i , U., X 8 J 6 %X=XB % + ; s M ",
"&XE.V.tX.Xc.tXD.!.=Xq M |.Q : 8 6 g o.;.Q m V @ # 3 M a 9 z _ p.yXyXa.a p s 7 : 1 ^ ..r.f @ a Q.4X&X= s M 5 # + + 1.aXuXuXpX>.*X{.&.v i | } 9.0.z.z.d.' d >.;.6.B.@.a.;.= ; ' ] 2 o ; h `.(.5 u ..| W E O.P.zXL.;.r < v t.e.w.x @ + , &.:.R r x ` p.uXhX/.W.9 F {.3 X # F , o % F w . P HXW.# 1.aXXXp.B.` 5 , = u ;.r.Q - : t k 9 i l Q Q [ 7.O.u i = 5 v ` ' ] [ l c ' ' O.x W D.D.a @ i a.uXfXc.b.i.| O.k.G.E h 8.l.@X:.a $.D.5.;.f X X # s U.M 4 2 u c #.a.i.p.v.tXtXXXz.z.5.k.F.D.C.1X,XM M 3 @ 6 Y.}.BXhX,.@.@Xd.u.9XuXtXx.9X9XuXfXfXuXfXiXa._ M s k Q -.=.p.tXyXyXyXc...2 : & & @ u A.pXx.z ; a E ' j.pXiX@.' 4..XtXv.h.0.2.o.R ~ T.&.f &.Z.zXAXZX*XG L.[.u < p %.N.3.5.k.c.yXyXyXyXx.D <.[.9 0 *X>.O.].eXhXu.O.s.B.` ' @XlXkX XU.6 8 7 6 4 Q ..+.p.iXK.a.E p j ~ M p _ D.@.%.`. XNXNX!.s 8 * - ` .Xj.x.b.L.|.&Xb _ @X@Xl @ n a h 4.J.K.I.`.d 0 # 3 0 _ %.'.VX].' 6..., # q A U & O 3 qXfXuXuXdXp.a c i.XXtXc.j.j.h.| a 6 : 8 = 9 a [.I.$.D i c _ '  .2.} -.R.U.> v &.BXNXa.[.&.; h R.&.@ # = > > = 9 O.p.4.| 5.z.+Xh.j.n.j.i.5. .5.0.2.6.&.> o M gX{ A I P s { fXfXfXuXM.| 4 + @ = u $.n.n.i. .} z.XX5.i.c.[.^.A N A `.[.{ z l ] w.l = o o + = @ 9 '.p.n.l.| ` g ; < g R -.-.d D V.V.3 z Z.u.' | w.Q g W 3.0.2.o.} ..u + u ;.6. .x 4 x ..O.$.c a W 6.} R x p c w.w.g - e C.F.>X1XV.m.tXH.i 3 &.u + : 7 A =XA @ @ 9 F !.~ ",
"5XE.V.tXtXh.c.gX=XB = &.].-.7 : y t j -.k b J V @ 9 >.c z z { b.tXiXO._ u - 8 : y o. .N.i + ; C 3XB * s m 2 @ o + 1.aXyXuXaXnXBX&.v 0 = 5 W 6.0.n.n.g.@.u.D.3.3.7.3.3.O.3 3 #.q.> o o + v `.&.3 a a v x | [.kXw.;.g - k =...E 5 X o 3 &.:.h e x | u.dXhX^.n = *. Xi # , w #   X F *XU HXJX%   1.aXyXd.' c a , = i ;.;.h 1 : t k > 9 E ] E ..B.E > q # i E ` | | _ a _ O.O.O.x O.J.B.5 @ a g.uXfXv.c.p.+.5.J.P.W h 6.h.OX[.l O.H.7._ 9 #   # f &.&.3 : 7 k ;.V.u.i.tXtXtXXXXXz.0.6.B.k.B.{.R.f &.v * 9 &.{ eXlXS. X>XN.@.M.uXyXx.9X9XuXuXfXuXsXg._ W Q v x Q ] W @.pXyXtXyXj.c < * * : < [ L.pX,.d 3 l >.' l.aXg.c ' p.tXyXtXj.5.9.2.o.-.:.&.n n Y.>XmX<XW.v N.@.4 u ' D.H.5.5.n.c.XXyXyXyXv.,.I.'.3 H <X>.%.}.~.wXd.i.k.s.+.a.zXhXK.e.g < m m g T  .5.p.v.yXtXu.l 4 e m C e O.pX4.O.{.BXBX X:.~ - - e | .Xj.p.H.F.{.E.b | OX[.z # i c 4.n..Xb.H.<.3 , , 0 i O.H.0X'.&.*.r.C.9 f , B N X   , g.fXuXuXyXp.c c d..XXXc.c.j.5.' u n : @ s &.a *.gXZ.d U.:X`.#. . .6.`.R.b @ s *XZX{._ F.&.; a R. Xl 3 3 3 > @ 5 @.u.O.` 3.k.h.5.j.n..Xj.5. .5.h.3.#.>.3 @ Y.lX7.b B N q S.vXfXfXuX9X3.p + o 3 #.k.z.h.+.R X.z.XXj.p.m.[.<.9 S C -.;.d 3 4 ] E c D d + o # @ 0 '.@.l.l.3.} x 2 2 p T ^ h 3 v :.c f :X'.3.+.3.B.} R o.8.5.2.o.} ] 5 + a :.;.} E g } 6.+.Z.i 5 ] X.X.} !  .J.gX;.2 ; h V.kXbX:XV.c.c.b.d 3 =.&.> # 6 =X&X8 @ 9 <.'.R.M ",
"Y Z { tXtX5.i.`.b @ , [ C.t.y : 7 y 1 k 4 * Z J 2 z `.O._ c u.pXm.d.| l 4 - 7 t ^ o.3.a.i @ s b B 8 * e s ; # @ 0 ,.uX9XyXsXBX}.{ [ @ , i ] o.0.z.c.x.0XpXk. .3.5.k.l.O.a [ ].:.6 o $ o > &.R.v b s m x ;.NX]...q.j * u Q g 2 @ o = l :.:.p e x  .3.aXgXF # , D ~.f w w # % .   f bXKXJXY . O G pXtXd.c a f = = a #...e < - 1 e @ 5 ] } W X.B.a , q > &.[ _ | | c u _ N.a.| x 7.J.B.2 @ z g.uXfXyXv.j.i.j..XoX| g ` 5.n.L.c O.V.| h 9 n o o d :.>.s 7 7 y &.w.O.i..XtXyXXXXXh.0. .' 8.D.r.-.] :.`.l a *.D '.BXBXZX`.N.5.x.yX9Xc.v.9X9XuXfXfXaX{ p ` X...W W o.} u.dXyXyXyXi.x 4 ; y b v N.0XpX@.9 3 d >.O.b.pX' i { x.yXuXuXc.5.0.9.2.X.x p n V n W.%X&XW.F >.x 4 v 4.x.x.i.h.n.v.v.dXuXyXtXx.pXA.9 W.1XR.`.^.d '.d.s.i.k.b.K.zXpXj.o.r r ~ Q W  .9.5.c.tXyXXXi.E e 3 b C k D.hXi.O.>XZXNX`.(.~ - ; ] s.XXc.p.B.C.{.Z y | oX[.z = i #.k.XXm.d.D l 3 9 , 0 D d.K.I.{ H H D %.d ~.i n q w f D 9XuXuXuX9Xp.D l V..XXXc.XXj.4.` e b ; 2 T.&.m f ].'.&.:XZX X6.2.o.e.(.M > + s ZX<XD D A.l ; x =.`.[ 0 s M Q u l P.P.$.x ` G.k.5.h.n..Xj.5. .5.k.3.+.:.3 = ~.jXd.9 B N N A.vXfXfXuXv.s.j + + ] G.z.z.3.W r X.z.XXc.j.b.H.$.c ( C M a 0 , 2 ] c Z.lX'.= + = # 3 *.z O.k.8.W j u 3 r j Q 2 # 9 v u ;X>X>.x R 5.P. .} 6.k.s.9.o.} ] 5 + u v ] X.] x } 6.3.F.i u ..6.e.2.} 0..XJ.c ; e ] A.NXmX:XV.n.K.a.d 3 W t.5 + K =XB @ 5 $.0X0Xl e ",
"P J D K.tXh.+.l @ 3 3 _ P.e.m < t C - * * + q J f >.L.a._ _ m.pX4.| ;.p 5 7 < v -. .3.N.9 + A 8 8 7 ; s 6 * 9 d @.f.9X9XuXaXwX,.gX$.+ # n Q X.0.h.c.yXaXb.7. .6.8.7.i.H._ c C.`., o + o o > &.~ A A m k R.NX>.;.q.j * 0 v 5 @ o + i ] #.-.e e E X.7.V.<.= 3 D D f f F w O O     n mXLXJX&   O f M.9Xb.' a i > d [ ..M < 1 4 < < * i .. .! 7.r.3 B B i A.#.` | | E 3 l A.V.O.W s.OXB.; = _ b.aXsXdXXXj.j.XXXX.X5.x x +.k.H.$.Z.'...l 3 H 0 o i :.>.] n b 7 m :.@.@.j.v.yXXXj.0.9. .E 4.L.B.#.#.w.[.' l >.d }.AXZX:X>.s.i.p.m.x.v.v.yX9XuXfXfXI.d e W 6.9.} } }  .x.yXyXyXXX3.x 5 < M =.O.p.tXaXO.3 5 u [ @.I.S.i u @.v.yXuXdXc.5.0.0.} x 5 3 b A V A Z E.Y.R.`.h 1 x a.m.v.j.j.j.c.v.uXuXuXyXyXm.' i ^.<X!.2XW.f { d.j.j.j..XyXtXoX5.R g R o.} } +.h.j.v.yXXXXXh.[ p 6 s k j d.hXV.`.ZXZX[.F.`.m * * x D.n.x.l.| (.-XZ < } OX@X_ > c s.z..XK.<.# o = F d { a.x.m.1.i K B n F &. XNXeXkXkXhXpXuXuXuXuX9XM.{ a 4.n.XXc.c.s.$.] s ; * s &.v 6 s ] `.{.>X>Xr. .2.2.y.=.2 = @ U.ZX}.d c =.e < E ;.[ 9 q b &.q.} | oXpXV.a e ;.F.5.3.j..Xj.5. .9.z.5.+.>.i = <.jXb.9 : 8 8 &.jXfXfXyXx.l.E = 5 C.z.h.h.4.j 1 ] z.c.c.n.d.s.s.#.Q.C b 5 3 = = h c H.sXI.= o @ # = , = z C.k. .X.r.c g v k 2 @ , 6 U.:X[ l p R OXOX . .9.k.h.9. .} =.f > 0 2 x q.| x ` #.O.$._ l } k.D.3.9.oXn.@.i 3 E r.`.bXmXW.$.c d z D i W C.d q =XU % = _ 0XuXm.5 6 ",
"A J D [.oX5.] 3 u s 9 ' k.8.-.1 4 C 6 @ * + # C &.].P.u._ @.iXd.] R.:.x C s e ]  . .3.F.9 + N : 7 n u k 2 > ..a.K.v.x.v.uXsXqXf.jX,.o o = v X.3.z.c.dXv.O. .| 6.k.5.E V.@.u p v @ o # , % o > 5 V &XM g =. X;.#.e.R = 3 v u : o @ v X.2.Q e u ] 6.3.' i = &.'.{ # G /., O   . . K LXKXHXB . O i g.tXiXa.a 5 d A.Z.] k < r r < - 2 v ;. .} e.*.@ B A _ L.7.| +.| ] e l A.Z.@. .k.OXw.; * | K.m.9XtXXXj.c.yX.XXXk.x h } 6.B.,.N.'.*.&.9 f U.2 u ..$.{ &.m 6 b :.Z.| @.x.yXXXh.0.9.X.} 5.b.D.+.| B.#X' l <.G bXKX=X!.`.s.5.u.b.M.x.v.yX9XuXfXsX%.9 e R 2.0. .} } +.v.yXyXyXXX .x 5 < E #.i.x.aXaX' 3 a d _ d.I...; l d.9XuXuXdXv.5.0.2.j 2 l [ b A A V A Z U.R.(.p < g @.tXtXx.j.h.j.XXuXuXuXuXyXi.z d ^.:X,X1XW.F { b..Xc.j.v.yXyXXX3.x R o.2.}  .5.p.p.c.XXXXc.5.W a 3 3 h x u.0XA.>XZXZX].k.(.m = @ c Z.H.H.a.` R.%XS - } OXP._ e w.h.XXtXV.F o X , <.O.f.M.H.@.f 3 U =XAXBX XNXlXhXgXK.p.f.9XuXuX9X9XpX,.d +.n.c.c.j.i.#.=.b * - ~ -.Q e s v {.>X1X|.q.2.2.2.e.v = = > ;XnX'.{ d a 5 e j X.=.i b 6 j 2.3.2.h.oXV.l ; e #.s.3.j.m.p.i.| 0.+X0.+.$.z = { hXm.d @ : : u [.vXfX9Xx.J.| u =.G.z.j.D.F.h - ~ k.h.c.J.B.7.k.B.-.m b b 0 @ * u l K.sXM.> , , @ = = @ f w.k.9.8.[.;.x v k > # , A <X`.[ :.h h @Xn.3.3.5.z.s.3.} } w.*.i n * h q.#.R ` ` E [.A._ +.+Xk.3.h.oXiX@.i u | B.{.bX=Xn C.' i <.*.z _ C.~.<X4XB + s S.yXuXf.; 6 ",
"B Z &.'.F.W g p l c c ` k.G.-.r < C m * 5 3 + 0 =.[.OXO._ A.I.O.&.{.&.Q M 3 x #.2.2.5.].q o 8 : k Q l l 9 c H..Xv.v.v.9XuXsX0XS.xXD o + @ v ! 9.XXc.9Xf.| | } 8.3.3.u %.H.u.R 4 + o = A A = + @ 7 &XU.g ! ].X. .8.W = = l h 6 @ = ] 2.2.W r u ;.9.2.` u _ [.wXf # *./.# X   . % 3XHX5X3X3X  w *.I.uXpXJ.l u | oXI.` g 4 p j p 4 a ;.;.}  .r.v o n Y.d.n.7.#.+.o.] h d ..N.@.5.z.+X6.; < +.K.@.{ p.c.c.c.yXyXXXz.j p W ..#.' { _ F E.M f &.h l { @.O.O.] t 1 ~ `._ _ x.tXc.h.0.0. .+.j.XXJ.O.W r.>X^.G /.bXKX3XA H `.O.+.5.p.x.v.v.9X9XuXfX0XD 3 e j 2.k.3. .} +.x.tXyXyXz. .Q e 5 _ B.m.yXsXpXD 3 l [ $.g.V.i = E d.qXuX9XtXv.p.5.` 2 ; %.C.m V V B A Z E.Y.M < < p O.tX9Xx.n.5.p.tXyXuXuXuXtX3.l c R.;X,X,XY.{ f.v.m.c.x.v.yXyXj.| W ..9.3. .+.d.p.u.p.XX.Xk.+.R u > = h ` ,.S.}.ZXZX>Xk.k.-.u * = &.A. XNX>.] T.( N : W G.l.| W k.j.iXm.1.f # o f kXp.x.I.*.9 q <XPXIXSXlXN.A. X<.%.[ d 9 ,.aXyX9XyXaXf._ 5.z.z.c.d.4.| c 4 * < &.(.` p x &.;XmX1X).q.2.2.2.-.u = = n ^.`.L.,.d > 5 k x X.B.c q ; r q.9.9.3.s.a.{ 9 ; p #.a.l.p.i.k. .0.+Xk.3.$.[ , z hXpXD ; 7 : - *.fXfX9Xx.K.5.' 8.h.h.5.C.R.a - k #.5.b.H.O.#.G.B.-.m y b 6 + @ 5 l K.jXg.l *.n @ 9 z , i s.z.h.5.D.6.] &.v = # , 3X4X:.r.U.; e $XJ.3.2.5.l.s.3.} } D.L.' z ; W e.6.E _ x l }.*.' D.OXh.5.v.tXpXS.c c 7.B.{.,XE.s 7.oXH.A.*.i _ '.bXZXY % ; >.pXyXaX{ @ 7 ",
"A E.>.`.`.g e k c ' A.| z.z.t.g - C C * c -.= > ' V.L.` c A.A.' &.&.Q ] h u ' +.9.3.h.Z.n 8 8 * Q ` x c c a.tXyXXXx.9XdXyXuX0X0XwX0 o X > =.} 2.h.XXn.@.+.} } 8.0.} a { d.gX@X] o o # w n b , @ @ C U.j ! e.}  .0.W = = l l s 2 ; &.2.2.Q p u ;.0.9.} ..D.gXwX0 f rX/.$     . U HX5XO N 3XU K }.g.yXpXpX_ l p.yXn.| v r j ] =.x W r.X.} 6.;.0 o v A.K.n.4.X. .o.W x 3 i ' @.s.l.n.3.4 e s.P.D 0 u..Xm.j.XXyXXXz.h 5 v ] ..@.S.%.f n n M ] ] c { ,.@.3.;.b - m !.D z b.m.j.i.z.z.k.i.c.c.n.O.` A.}.:X}.bXKX3X8 % n F ` 7.5.i.p.v.x.9X9XuXsXg.9 9 a h 3.z.0.3.} } p.tXyXyXz.6.] a u ..[.K.9XsX0Xd 9 c @.K.b.{ = 2 O.M.uXaXg.g.p.5.7.c * 2 N.B.M A V 7 N A &XQ.b - < p @.yXqXM.K.3.u.x.9XuXuXyXc.3.O.%.>.~.Y.U.>.@.M.x.j.x.m.tXyXv.5.W | w.3.3.3.5.p.p.u.@.5.z.7.] h 3 = @ x | { '.bXZXBX`.k.8...2 + 3 &.`.AXSX|.] U.A N : Q G.n.j.i.5.c.oXb.1.0 , 3 *.0Xx.m.a.i H AXPXLXZXeXwX<.D z 3 3 9 , X D hXqXM.uXdXx.u.j.z.n.l.3.O...h - @ 1 t.`.W g ..R.2X4X,X-.t.2.2.2.W 2 > s Y.F >.H.d.z ; u k h } F.#.s * g t.2.9.9.7.$.$.[ 5 * l $.a.O.u.J.3.0.z.h.5.@.' 9 9 gXzX[ u m 1 - v aXuXx.p.b.k.5.0.z.9.W v m s - t R 6.L.L.` ..P.e.&.s t b 6 # + = z I.jXg.` Z.s + D '.i a 4.h.h.l.8.' l v u = + K KX4X*.[ > o e ].k.5.9.5.k.l.3. .} J.gX$.d 5 B.G.#.R ' E 5 3 , _ b..Xi.j.9Xf.u.V.x ..B.w.{.%X6 p 7..X[.*.z , {  XZX4XB # l L.0XaX0Xz ; b ",
"J F <.'.R.4 e x c $.I.u.j.z.8.R 1 m ~ e | w.%.c +.7.=.a ] >.#.[ h l ..| a h  .3.5.i.b.Z.H B 8 * Q X.c ' u.tXdXyXx.f.hXaXyXyXV.'.}.# o X a w.! X.j.j..X3.X.}  .8.5.3.| @.x.iXjX..o $ o + = 6 b b ; b Q.&.W 6.R X.y.! = = d z v p e ] y.2.&.p 5 ` k.9. .7..XhXA.3 1.rX*.X   . U HXHXB   . B 4X4X!.,.qXaXK.z D m.pXK.+.x e j ..w.| | 8.;.} O.#.# 0 <.l.z..X7.+.| } o.R 3 9 { ' 3.k.h.k.:.:.P.[.d i x..Xz.i.h.XXyXp.9 3 v ] } 4.pXf.i f a a v v D { @.4.u.r.Q.S 7 Z s z d.n.i.5.h.n.c.c.x.m.n.3.' w.[.'.}.bX<XB o + 6 M [ +.5.5.i.x.v.v.9XyXhX{ 9 z c h  .j.z.3. .} 5.XXyXXXh.6.] x h ;.[.m.yXsX0Xd d { m.iXV.i + 9 @.tXuXuXf._ ' | | a + u C.w.x m s m C b E.%XC 2 2 l ,.aXpXM.x.u.p.g.x.uXyXi.5.+.' %.$.@.c _ %.,.M.0X0X0XtXyXyXx.| W } 6.3.+.3.5.j.5.4.+. .k.X.x 5 2 = * h ;.*.}.ZXZX2X_.G.9.E - * l >.kXBX Xr.] ( S 8 : x s.K.oXz.5.c.c.p.%.9 , i '.pXx.H.,.<.BXBXNX X~.*.D 9 > 9 * 3 n #   f hXqXM.uXuXv.p.j.n.H.@.| ` Q r - @ g q.].E 5 &.:.`.!.T.:.y.2.2. .x > D `.*.5 F Z.V.c = u k 4 E L.s.p 4 ! F.8.9.5.9.8.O.' [ a e _ ' ` 4.l.3.5.z.z.5.7.] 9 5 N.Z.c l &.s : 6 V.tXv._ W 4.k.5.8.o.p < 7 6 : - g e.@XC.x #.F.6.M b y y 6 # + @ l [.hXp.' C.f + { [.D d 4.n.c.h.+.p r s 2 + 8 4XZX{.F = + @ = :.P.5.3.0.h.h.5.} 3.pXL...5 l B.G.6.R W 7._ 9 { @.j.c.j..Xb.{ ' ' ' B.A.>X4XJ = a #.B.l i M ; &.bXbXJ $ , >.I.9XtXd.l ; M ",
"Y.l ' '.&.* p E c S.pXp.j.j.5.W 1 m -.E B.s.5.J.n.4.M s =.[ ..=.x _ 6.+.x E 3.5.h.j.K.V.n B 8 $ j q.` @.9XuXyXiXa.@.wX0XdX9XO.>.Y.o o @ ` 8.W X.j.c.j.5.} E 6.5.5.s.s.c ' pXgXc o $ # # + > s m M U.,XU.x 6.x X.e.! * @ d c x x j o.y.q.&.e 3 ' 0.0.2.5.XXjX{ f 0XhXG X . B FXHX5XB   . N 4X4Xv @.iXdXp.z @.iXdXK.| j 4 p ' B.O.+.8.o.o.3._ i S.iXp.3.G.B.3.+. .o.R 9 d 1.a.D.J.z.5._ c F.d.d @.tXtXh. .3..XtXp.9 > a E ..7.iXg., 0 M h a d D ' O.u.4.w.2X=X&XZ H *.H.c.l.i.h.XXXXc.j.c.c.5.| 6.H.H.Z.~.0 o # o # M ;.3.3.3.u.p.v.9X9XqXS.D c $.] E +.j.z.h.6.W 3.n.tXc.i.3.} x E C.gX0XiXaXS.z z { iXiX{ = + f ,.tXuXuX,.i l W E 3 @ m ].q.h k Q (.!.M U.!.U.s u D p.dXpXb.x.p.m.b.v.pXb.'  .6.c _ 4.3.' O.@.b.gXlXxXaXyXyXtXi.` W | +. . .5.5.5.s.w.6.+.s.X.h d 3 = * v >.Y.bXZXmXQ.=.9.2.x ; 4 ] N.[.[.<.#.=.m N 8 : x 7.z.pXk.5.+Xh.3.Z.&.> d <.I.zXBX`.'.eXS.$.=.s = = o # b 5 0 w X . i wX0XM.uXyXx.p.j.oXs.' ' ` Q r - * R e.F._ 3 &.>.;.] ] X.2.2.2.} p l Z. Xc * z A.Z.c = 9 s 2 x D.k.x u X.k.G.5.5.9.5.8.| =.R.&.a a E 7.D.3.5.n.+Xi.5.#.a * h #.l c A.x : 6 ' K.iX@.' +.k.k.X.j 4 ; : 8 8 * r q.[.C.a ;.].=.M 6 t y 6 * o + l gXjXg.` `.i + O.gXD d 7.J.c.j.#.p r r 6 7 &XKXZXR.0 X + # + v 7.5.5.5.z.h.5.' p.pX$.a ; z D.D.6.R ! 8.7.L.hXv.j.c..Xn.@.{ { _ 7.'.nXZX4XB ; h ..;.3 5 Y.l R.1X*Xn = M  XS.0Xp.O.| 5 F ",
"~.c D {.&.2 h E l S.sXv.j.j.5.` 1 y ~ Q [.P.n.oXn.%.s U.>.$.{ ` E ..B.3.W } 7.8.k.c.oXA.s N 8 + s r.O.b.aXdXtXb.z 9 ,.0XaXg._ l , o X @ ..8.R } h.c.c.n.W W @.5.5.l.n.` x D.kX9 o % 0 n = @ ; M M U.=XE.c ` p 6.e.! = @ d [ [ ` } 6.8. .Q g l O.k.z.9.9..XpXf { aX0XG   % 3XJX5Xq K O . B <X!.l ,.aXpX@.z g.uXdXl.h e e h ' a.+.5.9. . .O._ ,.hXaX4.c ] 8.3.+. .o.W a ' M.x.l.h.5.+.x u $.O.D 0XdX.Xs.W W J.pXV.3 > i x } 3.K.S., # M s i i d D ' 4.u.a.(.).,X4X<X{.H..Xp.i.j.c.XXc.x.v.v.p.O.;.H.b.H.<.3 3 F = o f #.5.3.+.a.p.c.XXv.9X,.z O.].;.' 5.j.z.h.8.} 3.l.n.p.5.3.} x [ `.kX[.g.g.a._ z %.pXK.z + = F f.tXuXpX1.0 p M s ; * ~ (.Q p h ;.].{.Q Q &.~ k h ` p.yXtXf.u.p.b.u.p.H.,.l } 8.x ` a.3.O.a.x.aXVXCXxXuXyXyXc.3.} } X.X. .3.5.5.#.`.|.C.+.s.' ` `.9 = ; l >.*XmXmX<XU.X.6.6.l < r ] w.V.V.a.7.-.m 7 : : Q 5.i..X5.h.J.3.O.P.<.i d ~.NXSXZXF G D c [ C b + + o $ M M n ,   . 3 S.0Xx.uXuXv.j.z.z.5.' } } j r < ; ] e.F._ 9 >.C.#.x ] 6.2.2.2.R g d.hX[.5 * l $.V.z = 3 6 ; g s.h.` h 6.k.+Xj.5.5.5.N.D [ |.|.c a _ #.B.| 3.J.n.h.s.6.l = 9 ~.[ _ 7.E 4 < g a.iXm.p.i.k.6.g ; * = : 8 8 - T e.].[ 5 :.`.] s < 1 y y - o o c pXsXM.{ `., @ a.pX{ i ' G.j.n.B.W Q g A &XHXKX:XY., o o + o 9 +.5.5.5.h.0.5.| n.K.O.a @ v V.l.6.R R 6.k.x.tXtXi.O.J.l.` a.%.c [.NXZXmX&X: 4 x ..:.i 3 R.*.{.R.D [ l >.eXA.[.D O.D.E _ ",
"$.[ G }.{.] x W l V.aXyXx.j.k...e < e 4 l O.m.iXgX[ s %X`.;._ E W #.8.+.` X.B.s.k.j.oXr.6 8 & + 5 _ @.iXaXdX0X%.= o z 0X9X@.@.9 o o o = ;.9.R  .z.c.XXh.g c ' u.p.n.c.J.O._ `.# X w f v s @ @ 5 M U.&XE.m h l +.k.} ; + d ;.X. . .6.3.} ] ] ] #.z.h.0.9.n.u.D qXaXM.f   K HX3XN q H   O K &XF _ f.aXpX' D m.uXdX4.e e h E | 7.O.3.9.2. .` O.aXsXdXu.a h 6.7. .2. .! ` p.tXv.5.O.i.i.` x O.O.g.pXtXm.G.W x B.pXH.9 9 M x `  .b.<., X 3 9 3 i l l c ' @.H.V.%.^.mXMXZXwXn.s.5.i.XXXXXXv.XXv.j.;.%.D.b.K.N.F U.^.i = d | 5.7.$.a.g.c.v.v.9X,.D $.w.-.` 5.j.z.z.s. .+.s.p.i.5.9. .R Q |.nXA.@.,.$.' z $.iXV.i + q U.d.yXaX0XS.d u M q @ ; &.T.g e Q 6.B.>.z _ ..~ k E | i..Xm.O.@.s.i.@.p.V.>.l  .8.` } B.3.$.V.iXjXCXCXsXyXyXXXh.3.2.2.2.X.+.5.i.5.;.{.nX Xw.$.` L.lXD > 2 z R.mXmXmX,XT.X.6.X.a 4 h ] 7.4.a.s.7.../ 7 : 6 Q 8.i.5. .k.G.} +.J.L.$.>.}.NXBXY.= # , a &.Z 7 $ % O o M *.f @     , ~.H.p.9XyXc.j.+Xz.i.+.| ..j t < 5 q.G.G._ a <.B.| E | 6.6.9. .R | 0XhX`.= > l O.N.z # > 6 2 g 7.5.` E  .k.+Xc.h.5.V.{ 9 v |. X] h c ] #.` +.OXn.j.h.a.D > > &.[ c c ' ~ 2 e O.b.b.n.h.5.} 9 + @ = 8 : 6 e X.].(.a 5 r.{.~ t < 1 y y ; o o c iXaX9Xz F , # S.gXD @ l 7.j.n.P.C.] k W.3XHXmX^.F + X X X o i 7.5.9.0.h.5. .O.K.u.@.[ @ z a.5.6.W T X.s.j..XpXp.' d.d.E '.$.d {.ZXmX3XN * 4 h ] =.v 5 _ (.{.x l N.a.Z.}.~.<.i @.P.@.' ",
"4.%.F ^.NXr._ ..a N.pXtXx.c.l.6.j r Q x ' @.v.iX'.Y.&X%X{.`.*.c ` 6.5. .} 3.a.i.j.z.P.=.: 8 % + * c u.yXyXiXV.9 X o d H.x.@.`.5 + o + i C.9.W  .k.j..Xu.h l D d.x.n.c.J.>.9 9 + , F f f i = > n T.T.Z Z E.{.}.A.k...> + i >.6.}  .3.3.3.#.' W  .h.h.0.5.5._ ,.aXtX,.w w 3XFXI % n F X B 5Xn l O.f.pXiXc ' iXdXdX@.x x R R X.7.| 3.5. .} O.m.jXfXdXp.l a O.8. . .} } 4.tXyXv.O.O.c.c.@.$.4.4.tXyXv.n.G.W g ;.I.V.9 3 n a E | 7.{ #   O # # f &.x x _ { d.V.,.~.:XmXLXBXwXa.3.u.c.XXyXyXyXXXc.;.] N.H.K.$.[ *.*.i d _ 3.5.i.4.u.j.c.c.yXyXu.' +.X.=.W 3.z.XXXXj.3. .+.@.4.5.3.} x &.2X>X>.O.f.7.` c <.L.<.f = q &.b.yXtXM.I._ ; q , + 4 U.~ t r ] 7.4._ 9 l =.&.M Q ] O.D.V.E ' N.3.u.j.V.&.c 3.0.| ` 7.7.$.H.zXhXhXxXuXyXyXXXh.9.2.9.9.3.3.h.j.k.>.{.bXZX}.%.' gXlX,.3 9 Y.<XmXHX<X^.=.W } E p e j o.6.+.| +.8.-./ 7 : 7 Q 8.G.} } k.7.x | D.gXkXkX[.`.*.0 + + 0 Q ~ Z 8 + o X o v :.a o     = !.A.p.x.v.j.h.z.k.k.s. .] p t 2 k q.G.l._ c w.7. .}  .6.2.6.} ` H.yXaX<.# 9 l { $.d @ > q 2 a 6.3.` `  .k.l.i.i.i.`.v = v `.].c e u v =.l | oX.Xj.j.d.D = + 3 F D i <. Xa e ].K.p.k.5. .] v @ + # 8 : s h 2.].:.9 c `.{.M < < 1 7 m 6 + + E oXaXqX9 # # , '.[.n n {.[.l.j.OXG.W ~ ,X=X3X3XH 0 $ O X X o f N.5.5.0.z.5.} @.H.{ d.<.3 z $.O. .} j } 5.n.tXiXm.O.D c a A.Z.D ;XZX4XP : ; 2 p E [ ] h ` `.T.u E k.l.[.{.^.[ z { $.` ' ",
"4.V.*.^.NX`.>.E = *.H.M.v.XXz.7.] h E c d.m.9XK.{ v W.*X;X{.&.E | 7.3.|  .4.i.i.h.J.[.~ : & $ + @ [ c.yXpXS.D + X o 9 I.i.u.|.> @ X # &.B.G. .} 5.h.n.d.D d _ K.b.n.p.' l > = 3 d ~.d z 3 5 M !.U.E.E.Z C H &.A.G.#.> + 9 >.8.}  .3.s.i.O.W R +.h.h.0.0.3.O.M.aXaX,.G W.3XP & $ n Y., &X=X= l a.f.K.H.a O.aXsXyXu.` W R W  .| } 3.3.} W | iXvXfXaX@.l a W 4.+. .} ! 3.m.tXc.O.i..Xc.u.s.i.j.XXyXx.n.G.W e ] V.V.0 # # , v } #.D X .   X o f R.W u _ <.I.m.f.'.:X<XmXAXVX'.O.O.i.tXyXyXXXyX.X..c O.I.K.u.' _ d i { $.d.h.5.5.i.x.x.c.uXdXv.4.3.X.Q R 3.z.XXXXj.i.| | | 3.s.3.} R ~ !.!.&.a.J.B.E c >.A.<.F 3 i =.b.XXv.p.H.[ @ : $ @ s ~ m t g ] 7.@.D i c ..U.U.Q E ` ;.>.l _ ;.O.5.s.a.&.*.8.5. .} +. .| [.VXwXg.uXuXyXyXc.5.9.9.9.9.9.5.j.z.H.>.Y.>XZXbX~.' gXhXO.9 H <XZXHX4X*XR...l E x p r j o.9.3.| 4.k.-.m 8 : b W 6.t.x  .D.#.p E B.gX@XP.F.$.=.n # = s &.^ ( S $ o , 0 D `.c + .   q W.[ a.p.j.h.h.0.5.s.B.X.R t < 4 ~ e.k.l.' ' #.+.3.3.3.2.2.6.} } K.uXaXA., i z { A.d # > b 3 u #.3.} }  .7.$.D a.V.~.F , i R.`.k ; 5 z z u ' oX.Xc.n.d.D > + = *.z 9 '.lX' 2 `.I.b.k.| j x F = o @ : 6 Q W 2.`.Q u <.'.(.m < 1 1 7 C 7 + o c iXdX0Xf = X O *.nXMXPXLX Xk.j.J.8.R !.4X3XY K w + $ O X X o n Z.h.5.9.8.7.} $.O._ H.a.i c %.+.3. .j ! 7.p.j..XdXj.z > 3 _ '.~.<X4X&X8 @ 4 s g E ..] W | ].E 5 | J.D. X^.U.' ' _ c c ..",
"O.Z.>.}.>X`.Z.h + i ,.x.v.XXn.4.` h h u u..XtXK.a.>.Y.!.*X1XT.c X.9.3.} +.i.p.i.h.G.`.b : : = @ 5 $.XXyXK.{ , X O X 9 Z.@.V.~.= 3 # 3 $.s.B.W W 8.k.l.a.c i { 0Xb.b.u.c c a 9 n D <.i d i [ >.&.M C W.U.C b 3 >.D.#.> + 3 >.D.3.3.k.h.+.| W } s.n.h.0.h.5.s.9XaXaXf.<.Y.J % & % f &.K 3XA * _ 4.u.d.$.i ,.sXsXyXu.` E W  . .W ` 3. .} } ` x.fXsXS.z c c ` 6.3. .! ! | V.H.u.O.k.oXx.u.i.p.XX.Xx.i.k.8.W e h $.V.0 X o # f ] ..F O . .   X f `...x | d.0XtXf.~.<X*X<XBXBXBX{...$.m.yXXXc.XXoXO.c @.K.m.x.u.{ z _ %.O.$.a.i.5.i.c.x.9XuXfXdXp.5.#.W R 3.n.XXXXc.j.+.| | 3.s.3.} v M U.&...l.K.N.l ] R.<.A.*.d d =.l..Xj.@.%.c @ $ + : V m k g x ' a.@.{ D $.>.R.2XT.&.] ] Y.C ~ ] | 3.i.4.:.R.B.s.+.O.3.| `  XbX~.f.yXuXyXXXj.5.3.5.5.5.5.h.j.x.H.{ z }.nX1X}.' L.gX{ G :XmXmX4X3XE.-.=.c E E r r T 2.5.h.5.s.G.Q S 8 : m W o.E p 7.B.E e l 8.J.h.p.d.a.=.f = 3 v ~ U.Z S : , W.v c '.>.3   O A J a O.,.u.h.z.9.} | ;...x 1 - e -.k.5.l.| ` ` } 3.8.9.2.9.6.W } m.uXaXI.9 0 z [ '.z # 2 M p u | +.} } 6.| d , { '.~.H C n &.T.y * a c i 2 ' J.XXc.x.V.[ , + # Y.i , '.jXu.3 &.N.i.7.W g g v , + % - t =...r.(.a c [.Z.&.k p e 1 7 A V 8 + l OXdX9X%.0 $ U KXPXLXmX4X&.+.k.+X9.R U.3XFX5XA B % O X   X o F Z.k.i.3. .| ` #.c D K.,.a l ' 7.5.9.! ! +.3.p.v.yXv.' > a _ '.nX=X&XB @ * k Q x x =.} } w.`.c x  .G.|.|.&.D @.O.O._ ` #.",
"O.Z.>.~.R.>.F.' @ = { x.v.tX.Xs.W p l l u.v.m.x.x.d.R.R.!.!.&.] 6.9.2. .3.p.j.p.j.G.T.6 : : , 9 [ d..X.XZ.i   X X # F >.' [.*.= F f d N.s.| e Q 6.k.D.u.z d ,.0Xm.b.l.O.OX'.9 f { <.z ' O.V.a._ M C ;XQ.C C M *.D.6.> + 3 <.OXp.j.n.s.O.| | +.n.+Xh.h.0.0.l.v.aX0XO.O.R.b + $ + d ~.%XU = s ] s.O.' c 5 u.sXsXdX@.| W W 6.6.W } 8.3.} 3..XdXsXaXD 9 _ ` ;.r.X.W W ! ' N.N._ | J.oXi.O.s.h.h.oX3.O.s.k.W 4 e O.A.3 X X o u Q ] v # .   . O f `.7.#.7.p.9XtXf.Y.*X<X^.eXeXBXBX{.{ l.tXXXc.c.n.O._ g.9Xm.tXiX@.O.'.>._ _ #.s.i.5.c.v.uXuXfXuXp.u.7.} R 3.z.XXyXXXj.+.O.| +.5.9.| E v &.=.N.oXK.$.a Y.^.A.Z.*.D d [ k.oXi.O.c a > $ + 8 A b p v ..O.4.a.%.{ ,.N.`.2X;X&.] v E.&XC v `  .s.6.:.=.a.i.+.| 4.7.;.>X^.D g.yXyXyXc.p.5.5.9.0.5.5.h.j.c.K.D c '.'.:X^.=.A.A.A.nXbX1XmX3X&X/ -.;.` E Q t r T 2.9.5.5.D.G.Q 8 : y ~ ] W p a `.;.u 2 x B.oXXXh.i.$.l i > a ] T.-X&XV B J ^.z l C.Z.a   O U b D A.a.u.k.z. .j x _ ] k < - g t.7.| 4.| _ x ` 6.8.9.2.9.6.x ' .XuXaX0X, , U.{ ~.G @ 3 &.x p O.3.o.X.6...= X d ~./.H %XJ M m * @ z =.d 2 _ K.XXc.c.V.D = + , ^.i # S.xXM.D &.N.a...W =.x s = o $ ; p ..#.(.=.3 %.I.s.x j ~ p < 7 S V 7 @ l I.dXM.D K HXPXPXmXY Y J a } 0.0.6.Q e Z 3X3X5XU B % X X X o &.V.p.h.h.3.} W #.l ' 0Xa._ [ ` 7.0.9.o.W  .+.3.j.tX.X@.z >. XBXAX=XA 8 @ p -.=.E h ] ..X.`.;.` w.} ..{.T.D %.s.5.i.4.' | ",
"| N.=.[ c [ B.N.i = ' b.v.yX.Xs.E 4 E $.l.m..Xx.p.p.$.|.`.E x ] 6.3.3.+.5.j.p.p.j.G.m : : : 0 &.N.z.XXOX=.+ X X X # n =.' [.v , *.{ { V.D.E 2 Q 6.k.h.s._ D f.9XM.9Xx.j.pXu.d f D ,.O.u.j.b.K.'.H J {.R.C E.%X!.G.X.3 + > %.pXXXXXj.u.a.@.| z..Xc.h.0.0.0.h.v.aXS.c @.C.v @ @ + v ^.&X8 = &.C.a.' 9 5 9 u.sXsX9XO.O.W W 6.6.W 2.k.h.3.5.dXsXjX,., 9 ] [ =.] x Q W ! ` ;.l e +.G.J.| c N.s.h.5.W ` s.2.R 4 5 | <., X   o > h Q v # . . . O f Z.G.7.O.@.x.9Xp.M n *X XI.K.[.NX1X~.7.n.c.j.c.n.| _ x.9XtXdXv.u.@.A.D v R.;.a.s.5.j.9XuXfXfXuXg.p.5. .} 3.n.XXXXtXc.5.} } 6.5.s.O.E c >.V.b.tXn.[ v !.R.<.V.%.D v &.D.j.4._ l f b : : V n s v ..3.5.4.a.@.' 4.D.$.>.{.R.X.=.C E.E.b x X.e.r.&...s.5.| O.3.B.R.*.D %.b.tXtXc.j.h.5.5.5.h.i.j.j.x.x.pXO.' M.H.~.Y.*.R.}.}.[.eX1X4X5XZ s ] w.| E h r g ! o.5.5.5.s.G.Q : : m ] =.g 4 l R.v = 2 x 6.XXXXp.D.%.u u a x :.{.;XZ V b %XY._ a $.D.' o A =X0 [ [.S.O.4.s.} h l h E Q 4 - j q.7.x ' _ _ l W 8.8.9.9.3. .E | .XuXaXI., 0 Y.d *.D 3 l [ ..R O.8.X.o.#.E # X # G G 0 J =X&Xb * ; x C.[ 2 c m.yXXXv.S.[ = o , H i , 0XvXqX~.}.A.| g x =.v > + o @ ; h #.w.R.a u Z.gX+.g Q &.e < 1 1 b A 3 l wXhXwXbXPXUXHX<XK , 5X&X3 W 2.2. .j 4 8 B 5X3X5XP N X     + [ S.j.h.l.5. .| ..u z H.d.[ =.| 8.0.9.o.W ! | +.s.j.p.V.%.[ {.ZXmX%Xq @ 5 ] r.] 5 u Q ! q.(...a.D.} Q !.&.l Z.l.p.j.H.4.| ",
"| w.R.*.c #.V.G.=.u D g.tXpXm.4.E e ' 5.z.m.m.x.j.i.| w.C.` h `  .3. .3.s.j.p.p.z.e.t * 7 6 = [ V.+X+XD.M o o # # # , i O.[.0 , S.f.O.V.H.c u M o.5.l.H._ z f.9X9XyXv.tXdXO.F 9 z S.p.x.j..XgX>.C J !.-.M C !.;XC.q.5 @ > { iXXXj.j.u.$.O.@.n..Xc.h.0.0.0.h.v.aXS.9 | B.] 5 n 0 F *XV , s [ 7.B.c 9 3 3 @.aXdXM.' | ' } X.} E 8.k.k.9.3.XXsXI.0 @ i ] ] c 4 e j W W W ] u 4 X.G.L.c u $.s.h.3.R E 6.X.R 4 u O.>.,     X = v v f , . . . O f 7.h.4.' ' f.v.j.Q p R.[.iXc.s.C.{.R.| k.j.h.z.l.' ' v.yXyXdXx.,.@._ v H *.>.B.k.5.5.x.uXfXfXuXg.f.p.3.| 5.c.XXtXyXc.h.| W X.5.s.3.' $.H.m.tXdXb.D F *XU.a.0X<.G v D s.p.4._ l h n b b m m v ] 7.z.p.4.u.i.4.j.n.@.' ] ..X.q.&.C J C k =.(.R.v ..b.p. . .7.B.&.i z L.m.tXtXc.j.h.5.5.j.c.j.j.p.x.x.aXH.,.tXn.<.R.^.>X}.~.V. X4X=XP A e h | O.W h r g ! 2.9.3.4.@.` g - 6 Q o.] p 2 k M 5 @ 2 x 6.z.XX.XJ.%.d u a &.). X{.Z 8 q R.>.` 3 >.OX$.f =X3X3 { gXS._ _ #.` x x a x v e < g 2.#.' w.] c x | G.k.9.2.6.#.O.+.x.9XaXS., v F 9 F D i _ #.6.} +.7.6. .w.c # X # , w n K &X=X( t p ' ].A.x ' J.tXc.x.I.*.= + # 3 3 f hXvX0XrX:X>.l 4 Q =.l ; + o @ 2 R X.e.=.5 _ K.P.| x ;.-.5 - 1 t y m s z '.BXSXIXPX3X&X}.G q 3X4Xn j o.2.o.g - o % N P Y P B % O   # *.H.x.h.h.k.2.} | 5 z K.d.c a ` G.9.2.2.! R }  .+.3.+.@._ 2 F 1X<XU.2 2 v q.C.&.* 2 v Q -.-.#.H.D.-.R.;XR.c O.z.j.i.V.$.} ",
"| ;.{.!._ w.s.k.k.E _ p.9XtXc.+.E p | u.j.j.j.n.J.7.a l w.6.E ..| 3.3.5.l.j.p.p.l.} - - m e @ [ s.z.h...s o # w , # # 3 A.N.# 0 0XiXd.[.gX` v s o.9.z.P._ d g.9XyXuXyXyXdXO.H 5 _ J.H.g.x.iXN.i q &XU.&.m e H 2X].t.u @ = [ m.XXh.i.4.O.{ p.tXyXXXh.0.0.0.h.c.oX{ 9 W e.;.c _ &.H J q n *.' s.s.l f s = _ pXsXM._ ' ` X.X.W E 7.i.h.8.` 3.I.G X 3 [ _ ] c ; ; g Q W o...r t 2.J.G.p 3 =.k.z.5.} W } o.j 5 u _ &., X X o 3 v v M 3   . X , D 4.s.O.c c ,.tX.X .E O.H.m.x.i.i.B.| ` 3.5.5.k.s.` O.v.uX9X9X0Xg.@._ ^.;X&.N.L.h.9.5.f.yXfXfXuXM.p.p.5.+.5.j.c.XXXXXXz. .W o.5.h.p.i.m.tXyXuXyX,.i W.=Xv V.wX*.F n D 4.j.n.@.' W k k m k x ] +.d.n.p.@.4.j.j.XXXX@._ | |  .w.=.&.J E.M &.).T.x w..Xc.3. .5.B.[ > D K.XXyXtXc.j.h.0.0.h.j.x.j.j.v.yXsXg.g.tXb.`.{.|.{.:._ V.eX4X&XA C p e c $...j r j ! 9.8.+.@.>.M 5 1 g ] 6...h 2 0 5 * @ 2 E 7.h.XXiXn.u.' u a {.2X|.R.A 8 Y.{.#.' 3 [ OXF.^.<XA # { hXS.d 9 [ ] E E a a v p 1 g X...[ =.E _ _ 7.G.k.3. .` [ ;.a.i.M.0X[ 3 F d , F z l ' | 8.+.+.8.3. .3.E # X $ O w H A K %XQ.Q W | P.L.O.O.b.tXv.c.b.>., o + # , f hXjXhXnX<XU.4 4 ;.6.W 6 : o + 2 E +.B._ u u.pXJ.' ` C.=.< - t 4 k v i M bXLXIXLX3X, H lX1.H 3XmXn e Q ! ! p ; @ $ O N N B B B %   @ >.H.b.p.s.5. .} X.p _ K.D.z 5 ` k.8.9. .! R W } }  .6.%.z = = M Y.v 2 g =.B.r.E.= 2 k ^ :.;.B.H.4.:.2X;XM z ' n.j.| ' #.| ",
"} :.;XW.] 7.i.i.h.5.3.p.v.tXv.p.' x O.i.p.i.4.D.Z...; 2 | V.#.| | 5.5.s.z.j.s.i.s.j < s M 5 ; =.l.n.6.x 6 + , 0 , , # 9 '.{ # i 0XtXu.[.zXA.U.3 W 9.h.l.d z H.9XyXuXyXsXjX'.M u #.a.Z.I.iXjX[ 3 B &Xb M m ; q Y.`.(.s @ = z M.tXp.5.O.' { M.yXyXXXh.0.0.h.z.h.p.l a x ;.;.c _ *.H V F ~.`.,.l.5.d F M = d I.jXx.| | } X.` l ` B.s.h.5.x h _ # o i ;.;.` E 3 @ s Q R } -.j t 2.G.Z.3 ; [ s.+Xz.9. .o.Q h e l c z #   X # n i i F q X . B F { s.i.O._ D N.iXiX0.2.5.n.XXc.j.h.s.| } } }  .s.s.' u.tXyX9Xf.f.H.a.' Y.^.[ Z.pXi.5.h.p.x.fXfXuX9XM.g.i.5.5.i.j.c.XX.Xn.3.W } 5.j.v.tXyXyXyXuXtX' 9 =XW.0 A.'.F H b v $.p.iXd.4.%.Q v v x ] 7.s.p.c.j.O.@.j.c.XXXX@.| i.3. .8.7.=.U.E.E.!.).T.x V.tXXX5. .5.w.[ 9 { x.yXyXXXc.j.h.0.h.j.j.j.j.x.v.yX9X{ g.iXwX X>X{.:.x x Z.>X=XA b ~ Q e l +.q.R g T ! 9.8.| >.bX,XC e R }  .#.h > > ; @ @ 2 Q 6.h.XX.XXXj.@.l v 2X>X].R.V V bX X..W > z P.P.:XW.# + { 0XV.i = f ] ] ] a p v k e g -.=._ x h ..@.s.l.5.3.W e 5 _ #.4.9XI.9 i *.~.f n d z ' W 6.6.O.8.3.3.7.%.f $ O $ q H 0 s U.T.:.6.+.l.n.i.+.j.tXXXv.b.<.9 o o # 3 i '.hXzXbX<XH 2 g F.k.#.m 8 $ + 4 x 6.e._ ' m.dXl.W | C.&.= < p r g l 5 C ZXLXZX=XH o Y.lX1.Y.=XmXK 2 k Q Q g s 6 + + P I & N B B $ # >.H.l.i.5.3.W W X.W | b.V.v 2 W s.D.9. .! R W W W o.r.#.c 9 @ > h g r E O.s.>.A 8 s k ~ _.w.P.V.#.{.;XM 5 c #.oX.X3._ #.' ",
"&.Q.&XC &.@.u.h.h.h.c.x.x.iX.Xn.@.` +.i.j.p.O.=.U.M 2 h #.D.s.O.| 8.k.p.l.z.s.5.3.j p M &.3 u r.D.z.6.p ; + 6 0 , , # n }.d # 0 f.x.O.#.[. XU.= x 6.5.4.9 D 0XyXuXyXuXfXwX'.&.&.=.*.Y.~.0XhXF 6 Z &X0 C n * = M :.(.~ @ = d b.tXk.3.| ' @.tXuXyXyXh.0.0.z.XXh.5.c x l v >.c $.:.M H ~.wX0Xf.j.+.l >.F * 9 <.hXM.O.O.| 6.E a W 4.4.u.s.6.a , X # i a.7.' [ u @ s ^ R } q.Q g  .e.:.> = z s.n.h.5.2.} Q h p _ [ d # X X w n 9 n n q o + W.*.#.s.5.O.` ' d.tXyXz.5.j..XXXc.p.s.B.+.} ` R ` 5.i.O.p.yXyX9Xu._ ,.L.O.&.R.V.gXhXi.5.h.a.u.yXfXuXuXM.p.s.s.i.i.i.h.c.oX.X5.W } i.XXyXyXyXyXuXyXm.z w =XK , F *.C Z 0 v _ { g.g.,.' E Q v E +.s.4.3.p.j.O.O.p.m.XXj.+.| p.i.+.a.k.7.&.U.Q.;XQ.~ R a.yXyX0.9.5.7.D d ,.v.yXyXXXj.p.i.h.z.z.p.i.j.x.v.aXO.D L.zXkX}.~.[ [ _ E `.;X&X7 p ] ..h c $.e.W g T 2.9.8...:XLXKXU.g W } 6.#.a > , @ * @ 2 R +.h.c.yXXXv.f.%.`.|.`.`.T.b J BX X=.c # d B.[.;X0 @ 5 O.V.V.l @ 9 _ ..] h e m v p j ] ..[ h R 7.i.j.z.5.X.h - = a O.d.pX,.3 M =.`.f f z D ` l | e.+.3.3.7.7.%.D 0 o , F v > i v ] r.a.5.h.c.j.3.p.tXv.x.m.N.i + o @ 0 f &.rXBXbX*Xn e _ D.b.7.M b 8 + 2 E 6.3.' p.yXaX@.x  .C.&.= 5 k k v s q &X4XbX/.H F 9 `.zX1.K 3XJX=X3 s ~ x h ~ M ; # 3X5XN 8 7 Z V 9 <.H.j.p.3.| E R ` ] | s.N.l 2 ' J.l.9. .! R W W R W -.%...[ i a l u j } 3.D.#.6 : 6 b ( !.B.P.F.'.ZXW.; h ] | n.XXj.+.a._ ",
"!.%XZ 8 v %.i.j.h.h.j.x.x.9Xv.c.@.' O.p.c.n.@.a b 6 u >.7.D.b.4.| 3.s.p.l.l.i.5.3.E l M &.5 c B.G.G.:.u @ $ q 9 , w # M ^.3 # 9 O.d.' _ {.:XC @ a #.5.@.i @.aXuXdXuXuXfXS.S.`.:.!.;XM G 0XhXF 8 J J 6 / m * @ f ..t.~ @ > c b.m.s.+.` | g.yXuXuXyXj.0.0.z.+Xh.5.` _ 9 0 &.l =.*.H ^.wXaX0Xg.j.| _ N.[ ; 3 %.0Xu.'  .+.#.h u W @.u.i.l.#Xn o O # _ H.4.| ' d 0 E.R.! } X...j 2.C.&.= # d V.n.j.0.9. .o.j l ..[ f @ o $ w q H <XW.q = A *X;.8.s.8.| _ ' g.yXyXc.i.j.XXc.h.u.7.e.o.X.} R W 5.k.O.u.v.yXm.b.O._ F.$...{ p.pXaX4.5.s.X.+.j.uXsXaXf.f.s.s.h.h.h.h.h.z..Xk.} } j.yXyXyX9XyXuXyXj.h n &XV @ 9 i A Z 3 v ' { g.g.{ z x Q c W +.8.O.O.i.i.{ O.b.tXXXj. . .j.j.u.s.J.D.;.&.E.%X/ k x O.tXdXj.0.h.5.E c i.XXyXXXXXj.i.i.j.c.j.i.u.x.v.9XpX{ D NXVXkX`.[ h ] [ &.^.!.V 2 E B.7.' O.V.F.} j T ) 9.6.=.ZXPXZXv x }  .7.#.l > > @ * @ ; R  .5.j.yXyXyXx.V. XZ.;.-.~ b &X X'.>.d o 0 #.C.H @ 4 ] O.a.N.l @ 2 c ....h 2 s ~ j j W ` ] x W k.j.c.z.7.E 3 @ = i | D.H.c 9 Y...g 2 i z [ c e x r.a.+.7.3.7.| { G 0 n ~.D = s x ] 7.5.h.h.c.j.i.p.tXXXx.m.S.z o o @ 6 0 9 /.BX<XJ n l %.l.n.a.l b B @ 2 ] X.3.@.m.sXtX' R 5.F.G # u p t m 6 &X4X,X*XY.0 0 d }.kX{ L JXPX3X, 6 M h g ^ &.k , 5X4X&XS 8 A E.D A.b.x.l.4.` W R R o.` #.| 5 z d.m.z.5. .} } ..W R R W | $.V.%...E p E  .s.J.w.2 * ; b &X;X[.I.].BXmXn a &.z a p.XXj.i.7.c ",
"&X&XP 8 d %.4.i.k.i.p.x.M.9XyXx.| ` O.c.XXXXs.a 3 ; u ..' d.K.p.O.' u.p.p.l.5.5.6.W h f a u ' 8.k.B.:.e @ : q , , 0 = F Y.# , n =.;...&.,X=X7 @ p ..4.@.' g.fXuXuXuXuXfX0XwXZ.Q Q.%X3 D hXhXn 8 Z V 3 &.m ; # v $.7.x ; a $.m.n.5. .` O.9XuXuXuXyXj.0.0.h.XXh.0.} v # # w 3 n U.!.}.0XuXM.x.b.' O.H.#.a d { S.u.| +.w.;.a a @.b.iXK.H.>.= X $ 3 >.[.s.+.' &.*X<X(. .} +.q.R } q.s @ # d V.l.z.z.0.9.o.x _ N.=.i + X O , n 4XLX4X7 b %X^.#.5.h.5.| ` ' H.tXyXv.i.c.XXx.i.4.6.#.R ] ] W W 3.D.@.O.x.yXv.H.$.l O.3.O.O.x.dXsXu.@.7.o.} 5..XaXpX,.d.s.i.h.z.h.5.5.i.n.z.|  .c.yXyXM.M.tXuXyXu.x J U 6 = 9 i A V 2 E L.b.qXg.f i _ ;.` _ O.7.} | l.i.{ ,.0XtXXXc.2. .j.x.i.l.J.J.;.] / E.~ k v _ 9XsXc.h.l.i.' ' j.XXXXXXj.h.s.k.c.c.j.i.i.j.x.v.0XS.}.AXVX[.<.' l v z &.W.J 7 4 #.J.d.@.u.J.J.3.R ! 2.0.6.E ;XZX{.E W } o.6.3.E 5 3 % $ @ - R  .3.j..XyXyXv.v.K.u.6.q.Q V E.'.S.%.l + 0 ;.} 3 2 Q e.4.4.7.x 2 a ] X...x < 5 v x R W ' } R } n.XXXXj.6.h ; + = f | 8.a.d a &.] a a d d v v 2 5 ] B.5.3.3.B.'.~.*.*.[ %.[ 3 u x 6.s.h.0.h.c.c.i.p..XtXv.x.H.D + $ $ 8 u 5 *XmX%Xn a c a.l.j.7.i q Z 7 3 ] X.9.j.tXuXM.'  .z.D.z + s p 1 1 V HXKXW.^./.q # 9 {.eXG K JXJX3X$ @ s a g ^ ! Q 0 K 3X3XP 7 7 C *.Z.x.c.n.5.` E Q Q W W =.x a Z.K.b.n.i.+.}  .X.x x R R ' u.oXp.' x l ` O.j.J.C.s - : A =X;X[.[.>XZX<X0 M M 3 u H.pXn.5.' _ ",
"&X&XY B i { O.4.s.i.i.m.v.x.yXp.' _ @.tXyXtXK.' 3 * a _ d V.iXm.O._ @.p.k.k.3.3.6.c u i 3 a | 7.O...~ 2 + 8 B @ 0 0 = Y.Y.+ , s [ :.!.*X4XZ @ 3 h ] +.4.,.uXfXuXuXuXfXxX0X'.(.).C 7 # 1.jX0Xs 8 Z q 5 &.m 2 = D 7.5.E h | L.oXiX4.O.| 4.yXuXuXfXtXh.5.0.0.z.z.k.;.5 @ O # @ C !.:XwXaXuXM.M.a.' p.b.a.%.%.{ g.K.u.$.6.C.=.>.L.l.m.b.A.i X o $ n >.7.@.@.>.:XmX<X].3. .5.B.! } -.> o # f <.@.s.J.h.0.o.j ' Z.>.9 + o + w &XLXPXmX0 M {.:.6.3.h. .' ` ' H.yXyX9Xj.j..Xb.4. .+.6.E j W W R  .L.$._ p.XXm.a.[ z 7.8.| @.9XuXaXu.5.s.! T  .J.I.S.%.Z.s.5.h.z.h.5.5.3.s.D. .3.c.tX9Xx.9XuXuXdXu.' *X&X, 0 &.M C s 4 ..S.0X0X1.0 i &...] E ..| j ' l.p.@.g.iXtXc.j.2.} u.x.j.n.m.J.6.] / / ~ M v x V.iXn.h.n.5.| O.z.XXz.z.h.h.p.j.c.c.h.5.5.i.p.b.wXnXAXAXBXV.,.{ h u u U.&XZ 2 a D.n.p.O.4.J.J.h. .! 2.0.q.h v Y.v h ] } +.6.3.' x v , @ + * x | | p..XyXyXtXv.c.4.B.].~ 7 C A.I.$.>.n i w.} 4 g 6.5.s.s.7.x h ] 7.7.X.E 2 4 x W W ! +. .` +.XXXXXXn...u @ + > &.F.L.N.l c -.x p [ z i l v 3 ; h #.5.3.3.a.kX~.f R...` $.l ; x 7.l.j.5.z.c.z.i.u.XXtXx.x.K.' 9 B # q M M =X4XJ 0 a x d.x.j.B.a 6 &XZ s E 6.3.c.dXuXp.| 3.z.B.i o s m 4 < &XKX=XM `.<.q $ # *.~.F U HXHX&X+ + i e r ^ o.o.M K 3X&X8XS 7 m R.[.n.c.j.5. .R R Q R Q &.h _ I.x.c.c.5.+. .| | g h x j W 4..Xn.| x E ' 4.j.oXB.k ; 7 Z =X;X~.~.ZXZX<X9 = > 5 l V.K.l.| [ R.",
"C E.U Z M >.%.O.5.i.u.x.XXc.v.p._ D f.9XyXyXyXu.3 2 [ l , <.pXtXp.x | k.h.5.3.3.O.c > = ; c $.$.*.M > : + 8 % @ q = , R.<Xq + > l ~.<X4X3X8 # W.v c 3.i.9XuXfXfXuXuXxXhXrX>XZX4XV ; , S.jXH.6 N B , u &.v 2 ; v 3.5.' O.D.oXx.0Xf.a.O.x.uXuXfXuXu.5.5.9.0.z.z.z.X.- o % + q =X:XwXaXuX9XM.g.O.' M.9Xx.@.{ _ M.pXf.a.u.l.D.a.O.u.c.s.D o o o , K &.h c A.:X4X<X!.>.| +.k.k.8.X.g @ o # f *.c +.G.+X0.o.R O.V.;.u = X + n =XLXPXmXw F >.;.3.5.3.O.O.' O.m.yXuXyXg.x.m.J.3.} 2.2. .} ! W R } 6.=.x 5..Xb.' z *.;.8. .3.yXfXpX4.i.s.! T } B.N.1.nXnXV.i.j.n.j.5.5.2.r.`.q.6.z.XXi.p.v.uXuXyXx.<.,X&X, F ~.v b 4 a '.0Xg.0X,.9 l ..#.#.E E R x | b.M.g.M.yXyXXXz.+.E ' i.x.v.tXb.7.&.~ / m M v c c @.h.n.j.h.| +.XXc.z.z.h.h.h.c.c.j.h.i.5.u.f.S.BXLXAXVXwX{ _ ..Q v ~ Q.&Xn l ..l.oXp.O.O.s.D.k. . .2.0.q.l i a p Q ..}  .3.s.` ` :.b + @ @ l ..' s.m.yXyX9Xv.x.i.s.t.^ 7 q `.[.C.%.9 i Z.O.h } 6.5.s.l.3.`  .e.s.5.O.x E h x ] | } 6. .E $.m.c.c.n.[ > # # 9 R.Z.H.s.` _ ] u a =.c i a [ l 5 d _ O.3.+.s.[.i 0 !.*.| #.v < l a.n.j.i.h.j..XO.O.XXyXx.b.pX,.H &X# *.'.Y.<X=XB 6 d d f.M.x.s.&.W.&XJ s Q 6.i.v.uXv.3.3.k.z.B.i X i &.e b 3X4Xb v V.,.*.3 + d *.i A 3X4XU o = v 3 e ^ 2.6.;.F &XU A S y g ..L.c.c.j.i.3.! T T T t k c @.b.x.c.v.p.2. . .| h g R R g R l.l.| E W o.s.n.pXs.[ 5 6 E.,X*XW.<XKXmXU.u = @ f [ u.oXb.' v <X",
"b V P Z n &.%.O.4.u.@.p.c.c.x.f.c _ g.yXuXuXuXj.a a *.z # 1.aXyXx.' O.k.h.5.2.6.#.u * + ; _ ]. X:XK : $ % 8 + # q @ , R.<XA @ = F ;X<X4XY O A ;Xi p +.z.uXfXfXfXuXaXhX[.nXAXKX5X7 < d wXjXa.* N 8 @ p ] v 2 4 Q 3.5.+.a.P.l.@.d.V.@.u.tXuXuXsXM.' +.9.9.0.z.c.z.] * o o N &X<XnX0XuXfX9Xf.f.' { iXtXx.u.@.@.x.v.,.d.b.J.i.' _ f.c.s.i X o o q K v u l {.1X=XH f l x | s.l.s...4 + o $ , 0 9 ` 0.0.9.o.j ' S.r.u > o # n *XLXPX=X0 &.A.7.+.4.i.s.P.| O.M.aXyXyXv.x.m.J.3.} 2.2.2.9.8...R T R j g +.oXl.` z Y.$.5.3.i.uXfXpX3.p.l.! g W ;.*.}.AXAXL.p.j.n.i.5.9.6.(.).(.q.3.5.@.f.9XuXuX9Xb.`.,XJ 0 F *.l u 5 E L.,.g.aX,.c [ #.7.7.} R j E 6.K.x.g.x.dXyXXXj. .R ` i.v.v.tXM.$.v m ( C m ~ v u E k.+Xj.j.3.i.c.j.h.h.h.h.j.n.c.j.h.5.5.a.A.bXLXLXVXzXS.D a ..} ] U.!.E.k [ 5.n..Xj.O.` +.s.5. . .9.0.#.E d u p ~ o. .+.u.V._ } r.M # @ @ a =.' 7.b.tXyXtXv.v.j.4.! ~ 7 7 ] ` x _ c z D.4.W +.8.h.j.z.5. .5.k.h.i.O.W | W E .. . .2.} E @.b.c.c.k.[ , # # 9 [ @.d.s.+.| l 9 v >.[ 9 a [ [ a [ ' | +.+.s.#.3 n W.F [ ..d ; c D..Xc.5.h.h.G.` _ v.tXg.x.aXS.W.K 0 '.rX}.<XU % q U.i @.b.p.L.{.W.n q s ] 7.i.v.yXn.3.3.k.n.B.0   i Y.k C %XC ; D I.0X*., = v &.f n J =XZ , f *.u t ^ o.8.e.] &XP N 7 y j ] D.c.c.j.5.5. .W T k t M &.O.b.j.n.tXj.3. . .+.x h R R r r ` O.| W } +.p.c.m.s...a f %X<X&X&X4XKX,Xm 5 = = D l O.oXI._ &.ZX",
"V 7 S A V F >.@.+.4.+.u.z.n.x.u.l _ m.yXuXuXdXtX' ` :.l X G aXuX9Xu.4.k.h.5. .q.=.5 @ + 3 =.`.Y.C V 8 $ % % o q q o 9 Y.*XA + = H <X4X4XB 8 ,X*X5 5 | c.uXfXfXuXyXM.wXNXAXKX4XA 4 p D '.zX_ * N % + a =.v e p =.6.5.+.w.C.%.{ ].A.' u.yXuXuXaX_ i O.8.3.0.z.XXD.=.* + O U 4XbXeXaXfXfX9Xg.f.D O.pX9Xg.p.M.9X9Xg.u.g.d.s.+.O.O.H.+XB.0 X o # B H 9 3 f *X=XJ s 3 > i ] 4.+Xz.X.< + o O # # = c 3.3.2.! r l `.`.a 9 > 9 F =XHXHXU 0 %.w.O.@.@.u.f.V.O.$.[.pXyXuXyX9Xv.n.3.! 2.3.2.0.z.w.W R r t e | J.k._ D >.O.5.3.j.uXfXtX@.x.tX .r x *.W.MXPXAXZ.p.k.k.u.+.2.6.t._._.:.} ' | i.9XdXyXv.H. X=XV 9 &.&.l 5 e ` ,.@.9XhXp.' #.3.h.k.3.R h v w.J.x.,.p.tXXXc.z.+.E ` s.m.v.9Xv.$.l y A A A J C 9 c h.XXc.j.i.k.j.h.h.h.h.h.z.n.b.p.h.i.$.<.bXLXPXAXhXaXS.9 a ;.| #.R.!.M x X.5.z.XXz.+.W ] 7.5.3.3.0.0.3.O.D a h .. . .5.s.N.c | ].*.; @ @ e ] _ %.d.K.aXdXtXtXn.@.h C S 8 e l p x _ _ b.p. .7.i.l.p.k.s.5.z.n.j.h.+.' 7. .` | 6. . .} W O.d.x.c.l.] > $ , Y.>.$.i.D.7.;.i > v >.[ i &.>.r.a [ a.s.3. .7.c 0 U J , i &.i ; c H.c.c.i.7.| ] u l b.v.x.x.uX0X/.n D kXeX:X=XB # J %X9 z a.f.Z.`.M = = u ..8.i.x.tXk.3.5.h.+XN.3   , F M m b ; i =.pXK.*., 9 F D *.H b J E.&.*.Y.u t T o.9.k.] C V 8 6 k T ` 3.h.c.k.3.0.9.o.R y m Q.T.%.b.u.n.m.p.9.2.2.7.[ h R R t 4 p _ ' `  .5.j.XX.X4.O.c =.;X,XU &XHXmXJ 3 3 ; 9 >.z ' OXgX_ &.1X",
"Z : 7 V A H R.;.O.3.+.5.j.c.x.u.l _ 9XuXuXuXuXyXi.$.;.c , 1.aXuXtXx.i.h.z.5. .q.&.; = C {.R.&.3 # : % $ % = = M , o i F n 7 + 8 J 3X4X&X% U 4XH > u ` x.uXfXfXuXx.f.BXAXKX4XU q e c ' '.kXa * 8 : + a ] x u h =.+.7.| x [ *.`. X>.' x.yXyXdX0X9 > ..6.2.9.h.z.J.:.* o B 3XmX:XwXsXfXuX9Xx.g.D ,.iXv.g.g.9XaXyXM.g.u.| c E 7.b.K.J.w.0 X X # q q 6 0 n J A b M 5 = f =.4.n.n.6.4 + o O X $ 9 _ +.2.o.Q 4 3 &.:.l a v D F *XmXmXH z <.$.O.p.p.p.u.O.{ `.rX0XuXuXyXyXXXc.3.!  .2.2.0.z.B.| W g t 4 | D.B.` _ %.O.3.u.m.fXfXiX,.9XaX7.p u F mXPXPXZXV.p.j.z.i. . .6.q.q.R.T.E W | s.v.uXyXx.,.}.%Xq f *._ h e p | O.f.pXsXg.+.7.3.h.l.8.E k h ..b.x.O.,..XXXXXl.+.E ` s.v.v.v.m.7.x y 7 A Z A V 2 h s.XXXXc.j.j.j.j.h.h.5.h.j.b.b.p.k.u.>.>XLXLXLXBX0XpX<., a >.+.6.(.-.Q ] 3. .5.n.j.3.E _ +.3.5.5.s.h.5.u.' l W X. . .5.s.#.a | [.>.2 @ @ 2 v l &.'.kXlXaXtXyXtX4.x C S 8 k r.w.7._ ' m.v.5.5.h.z.4.u.i.h.+XXXc.n.8.| 4.i.| O.7.3.| E W +.d.p.c.z.| > # &XZX X4.5.l.D.>.3 @ n *.[ Y.^.|.`.a _ J.z.5. .@.l C 5XZ + 3 H b ; _ H.c.XXi.O.x 5 @ 9 H.v.x.v.uX0X^.0 D zXkX:X&X8 8 =X&Xw 9 %.d.Z.&.3 + @ h 6.s.5.x.v.i.5.i.z.z.$.,   + 9 h e ; 5 F D pXK.D i D z i *.F = s Y.~.~.R.s e j ! 6.k.O.i : % : k R W | i.n.k.3.9.0.X.T b &X,XW.%.d.O.l.x.i.9.2.2.8...x E Q r t p _ } } +.i.c.tXtX@.` ' C.>X,XZ &X4X=Xn u a i [ [.O.' L.[.{ l R.",
"Z - y m V C U.:.+.3.O.5.j.XXc.i.c _ 0XuXuXuXuXuXv.5.$.O.{ I.aXuXyXv.p.i.h.5.3.;.~ * ; W.>XR.b = # @ $ % : = 5 F # o 0 n , @ + B U 4X3XB B 3X=X0 > l E b.uXfXfXuX@.>.AXKXmX3XJ 6 p ] D *.~.2 ; 7 b * d =.v p p c | B.-.e v {.2X(.[ O.iXyXyXiX'., = &.X.2.9.0.z.J.;.; % 3XmXmX<.0XfXfXuXM.x.,.D ,.tXv.x.g.M.uXuXyXv.u._ g p %.b.m.n.w.0 X o # 8 = 2 s b b s M &.3 = M >.@.c..XG.h + o O X , G w.8.2.o.Q < @ 0 v d l =.' D /.<X*XG ' a.@.3.n.v.v.m.a.%.'.rX0XuXuXyXyX.Xz.3.! 2.2.2.h.z.D.6.` T r t W B.e.W ' $.@.@.u.9XfXfXqX{ qXfXH.z 3 K HXPXLXnXH.j.j.n.k.+.2.2.2.X.T.&.R ` %.a.tXdXyXf.' R.H s F *.[ a e Q O.i.M.0XtXi. .8.k.z.l.#.v m h ..J.j.O.4.XXXX+Xh.O.x _ a.x.v.v.m.s.E y 7 A P A 7 * 3 #.n.XXc.j.z.j.j.j.h.i.i.j.c.x.p.l.N.:XZXLXKXMXeXpX0X<., z N.A.r.(.=.| 7.7.} 5.n.J.5.E ` 3.5.8.4.i.s.u.s.@._ | 6.3.2.5.8.[ u | [.A.i @ @ 2 a i W.1XZXVXhXtXyXtXd.E y 8 7 &.P.J.l._ O.iXtXp.5.h.j.| O.i.i.c.XXXX+XD.O.@.l.i.5.s.7.| x ` 7.d.u.j.H.#.> q KXAX X$.i.j.L.>.> + , *.{.<X*X`.`.l c J.j.5.X.%.z W.5XB o = C 0 ; ' J.oX.Xk.| h 2 o 3 L.x.p.v.uXqX/., z kXnX^.A $ 7 &XU , , *.Z.[.[ > @ 3 ..k.8.5.j.j.5.5.h.+Xz.O.,   # U.M a 2 ] v i I.I.l c *.u ; i 9 = a &.R.{.;XC < r R q.D.%.i @ + 8 k R W ' 3.l.s.5.5.G.2.Q C ,X,XM c ' | b.m.p.5.2.2.k.#.E W W g t h ] X.| 3.j.v.yXyX@.c #.C.|.%XB P 5XE.M &.x a { kXO.c V.H.@.x [ ",
"b < m m m m M T.7.3. .3.c.XXc.p.' { qXuXuXuXuXuX9Xp.p.d.D.b.9XyXyXyXj.i.i.5.3.#.v ; ; 6 &.R.6 + = @ $ % = 2 E &.o o , 0 @ + $ B 5X3XU 8 U =XH 3 f z a b.fXfXfXuX' z <XmX<X<X!.M v ] z d n ; 2 H !.5 z ..Q p e a | C.:.4 5 U.T.] c O.tXyXyXb.F = # M }  .2.0.z.J.N.9 J HXmXnXf.uXfXfXuXg.x.@.' x.yX9X9X0X9X9X9XuXyXp.[ h e ` b..Xz.w., X + # % @ ; u b b v =.=.u = F ..@.c.XXD.` @ o X o 0 <.D.k.2.! ^ < o # , i c ;.$.>.^.*XY...$.@.' O.x.tXyXiXd.$.}.rX0XuXuXyXv..Xl. .} 6.9.2.h.z.J.8.} R g t x w.w.R _ 4.a.O.@.m.fXfX0X{ qXvX0Xd # =XJXPXZX}.H.j.j.oXD. . .2.2.o.-.&.R ` | O.m.dXyXp.' &.v i z [ [ g g ! 3.z.g.x.x.O.E 2.k.G.B.c 3 s E 6.L.l.O.4.n.XX+Xk. .x c %.x.v.v.n.k.} 4 8 7 V A B * 2 ..l.n.c.z.j.p.p.h.j.l.s.j.c.x.p.[.nXmXHXHXmXbX[.0XgX{ 9 ,.'.`.{.`.X.3.k.7.W  .D.J.3.[ w.D.j.i.4.4.i.s.L.a.| | +.3. .5.8.c 3 O.I.Z.l @ @ 2 9 b *XmXLXBXhXpXtXyXK.$.u 7 b X.D.+Xj.' ,.tX9Xp.i.h.5._ ' a.5.j.c.XX+Xl.| | z.z.s.s.7.` x  .8.d.4.i.H.w.3 =XPXAX'.7.k.z.k.>.> X = Y.}.*XH c (.u l l.j.3.6...M %XU B o o 0 0 2 O.n..X.Xn.O.c s + > A.x.u.v.uX0X*.# f nXnXW.8 $ B &XU # , ^.[.L.[ 3 3 _ B.D.5.3.l.k.5.h.j.XXn.' #   q <X!.l c &.f , >.N.l ] &.5 ; 5 9 u ] :.T.{.,XC < 4 g q.B.%.&.0 + 7 k j E ` | s.8.8.h.k.X.~ E.3X=Xb 9 l ` J.0Xx.5.2.3.h.3.W } X.R r j ] X.+.u.x.tXuXaXO.l w.`.{.&XN B P b &.-.x a %.eXd a a.d.O.O.| ",
"y e s s m s C T.w.7.#.+.p.XXc.j.,.@.uXuXuXyXuXfXtXj.j.j.3.' ,.yXuXyXv.p.5.3.3.6.g ; - ; m U.= @ 7 # o + 6 M :.a o o , 0 @ + : A 5X&XV = V J D D { a u g.fXfXfXuX_ 3 F Y././.~.=.x E D f 7 * 3 *.!.u c | E h e g +.G.(.p - e x ..] | x.dXiX{ = X + s o.o.2.0.XXn.Z.*.3XHXbXrX9XuXfXfX9Xg.x.@.,.tXuX9X9XtXyX9X9XyXyXx...a 3 c $.i.h.4.3 X + # $ + 4 a l c ;.#...h 9 &.{ @.c..Xn.;., o X # D S.n.h.2.! Q 4 o o @ 3 [ a.N.`.~.Y.] ;...c c O.p.tXyXm.{ { }.rX0XuXyXx.p.J.D.|  .e.8. .5.z.l.+.} ! T r j ;.;.E ` O.d.O.O.x.uXvX0X{ qXvXI.d 0 mXPXKX<X`.l.h.j.n.4.W }  . . .;.-.E E ` O.c.yXyXx.$...c a l z c h j o.5.j.x.x.c.3.R W  .q.[ 3 @ 3 ] 7.7.+.| 7.n.z.+Xh.} c d _ p.m.n.n.z.#.p * * b Z A ; < | D.l.k.i.3.i.h.s.a.B.L.J.x.x.L.bXKXmX3X4XbX X'.0XgX[ D [. X{.}.`.+.5.k.8.W W k.J.4.`.|.P.n.h.u.s.Z.'.'.a.| | +.6. .5.7.z 2 O.K.I.[ = + , 0 H 4XJXKXBXwX0X9XyXtXV.x 5 s ..k.+Xj.u.f.uXyXj.h.h.5.c _ 4.+.i.h.j.c.z.' W l.n.p.u.7._ x 3.0.l.@.3.F.;.v KXPXZX`.B.i.j.l.>.= + n ~.R.H 3 9 :.a l l.j.3.6...Y.*XJ % o o 0 0 a u.c.XXtXn.O._ v * = $.i.u.9XuXaXG # F nX<Xn % $ A U A % A <X[.D.' x ' a.z.z.5.3.s.h.h.j.j.XXH.D o X V *XU.l =.D 3 X i D l ] l p a l _ ` #.q.-.^.*XJ y 4 r ] $.' >.v = 7 y r x W ` +.+.5.z.h.| ~ &X4X&Xq = 9 ` K.iXx.s.7.5.l.5.`  .6.] g j W X.+.p.c.tXdXpX_ x `.].!.A 8 N 7 e -.-.[ z ~.>.9 d $.u.O.d.+.",
"r p 5 e k y C E.:.6.6. .4.x.n.x.p.,.uXfXyXuXuXfXtXj.h.j.' a { qXyXyXtXj.5.5.3.#.r 2 ; * b b @ = b # o @ 9 Q ] 2 X $ , 0 @ + : P &XJ n i 9 &.N.V.[ 3 d b.fXfXfXyXE p F *.<.'.A.| x ] [ M 7 * 9 *.&.3 x @.' W g x 3.@X6X-.r g R ;.#.' u.pXI.d X X o 0 ] o.) 0.c.n.S.:XmXHX}.0XyXuXfXfXf.p.x.u.x.aXuXyX9XtX9X9X9X9XyXiX$.a 3 c ` ` k.a.z o @ 7 # = k h _ O.7. .} g D ~.{ @.x.XXm.V.i $ o # { K.c.0.2.o.Q 5 o o + 0 ..a.$.%.v v ] X.x u h | u.K.tXg.D D '.wXiXuXyXg.3.J.G.} | s.5. .5.z.5.' } ! T g j =.:...| | s.O.| @.M.aX0X{ qXfXg.*.*XHXJXmX^.>.l.i.j.n.O.l ` X. .2.e.8.W x E O.v.tXv.x.d.7.' x c l a a x o.k.z.p.p.n.z.3. .` ] i @ + 5 ;.3.` E | 3.z.h.z.0.` x i c u.m.n.z.z.8.] * = H E.J b 5 ` G.B.6.` W +.s.4.| $.[.[.V.V.eXZXmX3X&XW.:X}.a.H.I...{.}.{.1X:X(.8.z.k.B.W x B.D.B. X XD.c.n.l.P.[.].C.O.}  .6.6.+.5.6.h 2 @.K.pX{ = @ = 0 &XHXJXMXeX0X9Xv.yXyXJ.] e k X.k.z.c.g.M.uXyXj.i.s.O.d z $.O.3.5.h.c.z.} c s.n.p.u.;._ c 8.h.k.+.3.F.:.1XPXLX<X:.G.j.h.H.>.> n W.*.>.f = u >.v h l.j.5.6.=.!.%XB o # , i 9 l i.XXXX.Xz.| ` Q ; ; $.@.@.0XyXaXG , ^.bX*X7 % o U U B B =X;X>.B.| | k.j.c.c.5.3.5.i.j.j.c.n.H.z o # A C m v =.f o X 3 l l ] x E ..| 7.6.7...&.*X=X&Xb < 2 p ;.c _ v > 6 6 e g c E } } 3.z.j.| ~ &X5XU 8 @ > ' m.aXv.i.5.5.l.s.`  .7.X.R g R | 4.b..Xx.v.H.c | ].`.U.q % : : e ....] d *.i 0 c @.u.u.n.5.",
"s s = = y y V J !.:.6.O.' O.b.b.g.g.uXfXyX9XuXfXyXj.c.l...3 d 0XuXyXyXm.p.3.5.} 4 < < 6 7 > > 6 n = X @ v ] x @ o o 0 n @ + 7 Z J n &._ a A.0XS.[ D %.0XfXfXfXyX` h _ { '.<._ ` x _ ] a ; 2 D >.z u | #.O.#.] W B.@X Xr.o.} ! 6.k.+.@.I.`.> + O o , Q } o.0.j.K.eXbXmXbXwXaXyXyXfX9X,.b.d.@.g.uXuXuX9XtX9Xx.M.9XyXpXA.5 5 ~ h a 3.D.<.i , V # i &.` ' @.5.+.` p i D [ $.x.c..XH.G + X , @.b.n.h.2.o.` u + o + i %.a.%.c d h ] ..a a [ %.@.d.iXu.d D '.S.tXyXtXu.| J.h.| +.j.j.3.3.6.E E | o.T g g h ~ -.} } 3.3.' | f.b.d.D 9XsXS.*.*XmXHX3XU.;.s.i.h.l._ u E #.#. .0.8.W x E O.m.v.v.v.c.p.O._ ..c e h W o.0.z.5.O.z.z.5.9.7.;.n o + v w.| x a W 6.h.h.z.3.x l a d @.n.n.m.j.s...3 = U.!.U.M h ` 7.#._ u 4 E | | ' ' `. X>XbXbX4X=XH n Y.}.Z.f.j.d.`.R.v *X<X;X`.G.n.k.7.x p w.G.F.>X{.a.x.n.OXkX[.Z.#.' ` 3.3.+.6.8.q.p > O.K.iXd.9 + = q 3XHXHX<XL.tXv.v.yXtXOX] p v ;.3.5.j.p.x.dXuXx.p.4.| 9 z $.O.O.5.h.z..X3.x a.n.j.@.` l ` 8.h.h.5. .e.{.AXPXHXW.&.s.j.j.l.>.Y.&XJ D >.f > c C.E a l.z.5.e.T.*X&Xq n H n f 9 c s.XXXXtXl.} x ] u 3 ;.O.@.g.9XaXz i <X<XJ : $ + U K B 3XmXW.[ w. .5.c.XXXXj.5.3.9.h.z.j.c.n.V.i o # 3 5 v -.[ 9 X X 9 _ X.| ` #.8.5.s.8.#.E &.!.&X&XC 4 < 5 ] _ x E 2 8 6 1 k v x ] W +.j.z.| v &X&XA % o = ' tXuX9Xp.5.i.l.s.W } 7.6.W g h ..a.n..Xx.j.O.c s.P.C.v : % * < e [ X.E l z , d _ @.u.p.oXj.",
"m 6 @ * 6 2 b C Q.`.6.O.' ' d.H.d.O.M.dXdX9XqXfXyXx.m.[.[ = 9 0XuXyXyXtXj.5.7.` < < 7 b 7 > 3 s n @ o = v ;.] @ X # 9 F u * 7 A b v ;.' _ wXI.,.*.:XS.0XfXfXfX9XW W _ _ eXnX[ ` _ _ E a 3 s >.N.D c #.X.@.#.' ' 8.7.;.q.6.2.} 8.D.5.@.Z.&.@ + O X # x o.! 6.l.[.BXZXbX}.0XuX9XyXvXqX@.H.1.D f.aXuXuXyXiXK.p.x.9Xv.tXV.5 3 &.x 4 W B.L.<.F n 0 [ ;.%.@.a.s.7.[ u 2 z D O.b.v.XXm.>.= n *X[.b.b.k.2.o.` a @ o + v ;.$.' l v &.-.X.| %.B.7.O.a.b.O.i v '.H.yXyX0X@.' G.h.5.c.tXm.+.} j p E a.7.R j r k x Q ] } O.8.` ' @.@.O._ M.aX@.D &XmXHX=X~ ;.8.5.i.V.z 2 x #.6.3.5.3.W h x 7.K.x.x.v.tXc.4.` #._ p h W 6.h.h.+.4.l.h.0.0.s.>.n o 5 *..._ l p x  .0.k.k.2.h a i i O.b.v.XXc.k.O.a 2 F Y.T.-._ } #.Q a ; 2 W ' _ ' @.A.>XZXmX<X&Xb f v Y.{.'.i.i.k.A.c 5 W.<X;XC.k.n.k...e 5 ] 6.].1X^.$.b.oXgX@X[.a.+.' E  .8.6.6.8.| 5 2 O.b.tXb.d # , A 3XHX=X^.H.tXtXj.c.tXP...k v | +.h..Xx.M.uXyXx.i.6.` i D >.O.' | 5.n..Xi.E $.J.i.' c a ` s.h.i.3.! 6.NXLXPX3Xw c i.p.j.H.}.;X=Xn z >.l 3 ` [.[ u s.n.s.w.).,XU A K w , i i c i..XyX.Xl.` x ` k h ;.O.' O.yXaXz n bX,XV + # 8 U A U HXHXA d ;.3.h.c.c.v.j.5.3.5.h.c.c.c.J.A.9 + = 5 u v *.v , X X i %.6.X.} e.k.5.5.s.] a &.W.J W.R.U.s 5 &.' | w.s ; 6 1 l x l E W +.n.J.] M %X&XB % o > ' tXuX9Xg.i.i.s.B.E E r.8.} h g _ s.m..Xc.k.| | n.oXr.i @ * < t p E } E c f , f ' a.f.p.iXc.",
"s > @ @ * * 6 n Y.}.].B.%.c O.D.$.l _ d.K.x.9XuXyXx.0XL.i , 0 S.aXyXyXyXv.p.6.c - : b A 8 > 9 f n o o # c r.r.2 X # d >.*.u b b a ] `.] ` `.[ F bXAXwXpXfXfXfXx.W W W c bXLX>X] E E ] c p E A.V._ >.r...%.$. .O.6.W E ;.8.9. .9.z.h.O.O.5 + $ X o # a ] !  .L.nXmXmX'.S.aXuXv.9XxXg.,.V.D 0 f.aXuX9X9Xm.a.O.i.tXx.tXK.l e :.] < p $.L.I.>.z D $.$.@.%.{ $.w.] u ; v D { p.v.v.iXV.}.mXbXL.m.n.k. .! l u $ o = v N.7._ l U.R.q.7.7.k.k.3.| $.d.{ 9 F A.b.tXtXK.' h 7.l.c.dXaXb.O.h e e ..P.k.R j k v x R ] ] | 7.} ` O.O.O.{ f.f._ i &XHX4X&X~ r.6.O.$.A.a * a =.7.5.3. .Q p h N.J.p.u.tXyX.Xi.' ..] h x | 8.0.5.+.d.l.5.0.0.i.$.f # z ;.c a l l g } 8.0.0.} u u u 9 { M.v.v.c.j.7.] a M &.>.;.` | [ p 2 * p ;.#.c ' B.'.bXmX3XU 7 = s M *X:X`.a.i.k.N.| [ `.{.R.B.n.n.s.x ; 2 x :.|.>XR.$.L.gXzXP.J.p.i. .W ` q.6.3.s.' 2 > ' b.tXK.D = = K 4X3X&XY.d.tXpXp.j..XD...h E +.i.c.tXm.g.aXyXc.p.#.] d &.A.#.] X.5.z.+XD.` O.oXi.c l l | s.i.5.3.W #.BXKXHXU # D d.p.p.L.NX1X&Xq v >.l u ' [...u N.D.h.7.;X<XZ q B q + , 9 [ s.c.XXXXz.E j ] Q Q ;.O.E O.uXsXD H mX&X: $ 6 V U U 3XJX3X$ 5 ;.5.h.j..Xv.p.5.3.5.c.c.v.XXJ.>.> @ s h x ..>.f $   X z 7.6. .W 7.D.i.3.5.' a U.M v -.w.r.v 2 x | i.OXQ 2 < < x _ x x E +.l.@X=.M %XU N o + 9 O.yXfXyXx.i.i.a.r.v h :.B.+.` x E a.n.c.j.5.| s..X.X>.3 @ 6 k g e v ] W [ d , F >.D.d.p.oXc.",
"3 3 ; = @ @ ; s U.:X X XA.c E r.;.u i c ` @.v.uXyXx.0X,., f i 1.iXuXyXyXyXx.$.p * 1 b b = > 9 v n o o @ l C.[.c # @ z A.A.=.M k E r.r.c i 9 s =XLXbXS.aXfXfXfXM._ W ] l F bXBX..c E ..] x ] a.@.l >.`.| $.s.i.5.X.h l :.6.! W } z.+X+.c 2 = 6 o , = i Q } X.}.bXmX*XA.iXsXuXv.p.0X{ u.V.d 0 0XxXuX9XM.p.| ` @.x.x.v.OXO.x ;.;.p p #.H.H.D.O.@.a.3.7.' z O.N.=.a 4 d c ' p.c.v.tXI.eX/.F V.m.m.k.6.] u > + + 2 Q B.s.O.[ !.).q.a.5.s.h.3.' %.a.[ 3 H <.d.tXtXH.x 5 ..k..XiX9Xd.] h r a >.0Xn.} T k T Q Q ] :.w.w.6.` @.@.@.a.p.p.{ v =XHX3XZ M -.w.' _ *.5 + 9 ] 7.h.3.} v 4 h C.H.@.@.tXtX.Xl.| W ` x E X.8.5.5.i.l.h.5.5.3.@.@.i 9 ' ..u 5 Y.*.x ` 6.9.9.R 4 6 5 5 { K.9X9Xc.p.4...f i D A.N.| | E 4 - ; Q F.s.` O.L. X<X%XV = # = 0 n =X,X=.O.s.s.a.B.C.`.R.:.k.n.l.| u * 2 M ).|.{.*.`.eXzXzXJ.n.j.j.3.| W ..6.3.B._ ; > _ d.m.H.[ = # J 4X5XV f d.iXoXj.5.j.s.' h ` k.c.XXXXx.g.yXuXv.i.=.v d &.C.;...o. .5.z.D.O.O.oXj._ d x | f.p.s.3.R =.1XZX4XB , <.m.x.b.kXBX:XK = i [ a u ' F.:.i %.a.+.#.;X,XA & B U U J i _ a.n.XXXXh.E E ! W W ..` W g.fXaX*.W.=XC @ 8 b H &X3XJXJXY   5 r.0.h.c.tXv.p.3.3.0.XXXXv..XJ.[ * ; k Q ..6.>.f O   X [ a. .! R  .k.7. .7.' c H s E r.7.C.v ; p ..5.j._ e 2 * x ;.` x E | D.[.Y.E.&XZ 8 o > l @.yXuXuXx.p.i.w.=.m s ~ w.5.+.' _ @.z.z.3.+.i.oXyXm.*.> * s ~ j 5 l ..` [ i = &.`.L.a.u.m.v.",
"u a u 2 * @ * s Y.`.:X>X`.c u =.&.l D c g W j.dXyXv.0XD , F i { 0XuXyXyXyXm.#.5 * 6 b 6 * 2 9 M w X o = v B.J.| s , l N.B.w.~ k ` e.e.g * @ J KXKXY.{ 9XfXfXfXg._ _ ..x d { `.#.W _ ....` %.a.' l :.w.O.4.b.n.s.| p h :.o.g r R 5.J.7.E a u q # q , i ] ] R.bXmX,X/.S.dXuXuXm.@.{ D f.,.f G wXaXuX9XM.d.@.O.4.u.p.i.K.k.O.a.B.` g #.D.b.J.5.u.4.5.7.i 9 @.7...c a a l ' p.c.v.m.K.{ 0 D b.v.XXi.3.=.d , $ o 6 &.w.D.d.$.{.!.;.s.i.p.h.5.| O.>.z 7 E.R.a.oXoXZ.a 2 _ 7.L.wXwX`.[ ~ h a ,.tXtX7.T T T ] ..=.:.r.C.w.` u.M.b.V.d.L.>.U.3XFX3XA k =.w._ d i = @ s *.8.h.5.| a 2 c Z.V.{ O.9XyXtXb.| x E x ` 3.5.5.h.h.l.s.5.3.+.O.{ d z >.D ; d |.`.] W o.2.2.j ; 6 3 u O.K.9XyXv.p.5.| u 3 c V.d.O.| ` e - 4 ..k.z.5.7.'.}.H 6 @ ; b 3 > J =X&XM ] 6.5.s.s.B.#.] ;.z.j.7.h = @ < U.).!.U.R.>XBXzXiXm.c.j.x.p.@._ Q X.e.w.c @ 2 ..3.i.D.>.3 = &X3X&X7 > $.P.s.3.O.s.s.| R  .l.c.c.c.p.,.9XyXv.a.F i l ;.`.w.} } } 3.h.l.4.+..Xn.O.l x | p.x.l.3.W :.;X4X&Xq G wXpXx.[.BXBX{.q # 9 l a a | F.>.5 z O.| ;.*X&XN X O 8 A J U.;.#.k.XXXXi.! o.o.W W W x ` 0XsXaX~.W.&Xq + 6 n W.5XHXJXHXB   5 ;.k.z.m.m.v.p.3.3.h.XXXXv.c.G.x 2 e x ..X.8.w.f $   O { D. .! W ` ;.E R :.` E n s =.B.O.e._ ; 3 _ i.n.7.] s @ l A.O.x E ` | c m E.E.A 7 + e W @.tXfXuXv.p.s.-.k s b m X.s.5.| _ | s.s.E | n.pXyXK.F = < k -.` u d #.O.[ i # &.|.F.4.@.n.m.",
"a v v u = @ @ M R.R.;X<X{.x * 5 a D L.V.` E 5..XyX9XwXi , ~.F D b.uXyXyXyXiXN.e * 4 m 2 * 3 9 n , X + > ] V.n.O.d f l a.D.O.h g } B.q.e @ q 4XZXK G ,.9XfXvXfXg.{ %.#.` D ' ;...c ` X.X.| @.d.@.| 7.7.3.p.c.n.5.| h g Q g r g ! 2.k.e.` c i 0 3 n , l =.-.;XmX4X^.~.0XuXuXuXoX| 9 D d.$.*./.0XuXuX9Xb.B.#.N.a.4.3.3.j.n.k.n.J.4.j ` B.V.a.| O.s.s.' = 3 %.@.` =.:._ l ' i.x.9X9Xb.O.3 %.M.v.v.p.3...v n 8 @ 6 M X.D.L.[.:XU.#.d.l.p.h.j.@.' %.v b E.R.N.K.K.N.5 = i ` a.eXBXbXY.~ a i f.uXyXk.R T Q ..#.;.;.;.|.F.| p.pX0Xb.a.$.D H 3X4X5XV p ..w._ 9 = @ 6 C *.s.z.h.O.a 2 _ `.N.c { 9XyXyXn.' x R x | 5.0.h.z.z.l.5.6.} ' D D D ' &.i 3 Y.'.Z...E W o.2.x ; 3 u a O.K.9XyXv.p.i.| u 9 ' b.j.@.O.;.M ; e o.0.+XJ.B.;.v ; @ 5 &.Q.n 6 &X3XJ s ~ w.7.8.s.6.` E ;.D.i.` 2 @ + - / Q.M U.;XZXBXgXiXc.j.v.yXv.u.' E W r.R.a @ 9 w.3.3.D.A.u > 5X3XU , @ x | 5.| ` s.D. .E +.b.x.x.c.p.O.v.yXoXV.F 9 c :.C.q.}  . . .5.z.k.5.XXoX%.d x O.g.m.l.3.R.{.;X*XU n 1.xXaXM.eXBXkX~.0 # i v h x O.F.$.5 z ,.| =.%XU &     X O , i W ' k.oXXX5.} o.X.o.! R p ` K.dXaX'.W.K = @ s M %X3XJXJX3X& o i ..s.n.oXm.v.p.4.5.h.XXtXv.c.s.h a Q ..6.8.s.;.f #   # *.Z.X.! ! W ..x g =...x u m r.3.W | c ; 2 l 4.b.l.A.&.* i A.$.E x W h < 3 C C b 6 ; h | @.tXfXuXv.i.7.Q 4 t V t W 3.5.| _ ' 4.| 5 l H.pXyXg.i = r ^ X.;.l d %.$.>.i @ F `.B.4.@.j.n.",
"x ] &.k = @ @ s R.&.&X,X;XC * * 9 ' pXpXH.O.O.j.v.m.S.0 , ~.R.a ,.yXyXyXyXiXL.x < 4 m 2 * 3 0 q # o @ 9 _ V.m.u.a z _ N.Z._ p j 6.e.o.1 e :.:XH , { 0X9XuXvXaX,.,.a.q...' _ [ x h ] #.+.@.i.x.j.i.p.4.p.j.XXb.4.| E p e 4 R o.2.} 6.B. .W l 0 0 9 9 _ :.^.4X4X*XR.S.pXuXuXdXJ.W d { V.'.}.*.qXfXuXv.V.$.' w.a.4.O.5.5.h.n..XtXc.| j | w.E h | F.r.i o 3 %.7.E ..].#.z _ i.x.v.tXm.f.D f.m.v.x.s.7.E d v M t s s Q r. XNX,XC %.l.p.j.j.n.s._ ' &.C E.:.7.K.K.$.3 # 3 l O.`.bXZX;Xv 5 i M.fXuXJ.} T T | @.$.$.>. X[.O.f.aXM.f.,.$.z M 3X3XY N p ..7.' 3 # = n C &.a.n.z.7.c 4 _ A.%.i { m.yXyXm.' x E E +.h.h.j.z.z.s.+.} E l 0 f %.>.v 3 F `.V.P.#.x R X.e.R - 2 a l O.b.qX9Xv.x.p.+.l c i..X.Xi.#.R.U.< e ] 0.z.G.$.l 2 2 c w.`.R.H Z 3X3XZ 0 M :.| +.7.] g l :.B.| l 2 * @ ; b n b W.mXZXnXH.m.p.p.uXfXtXp.%.E x &.&.9 @ v r.2.3.G.B.x n 3X3XZ = 3 u c J.4.c $.k. .W  .l.x.x.b.@.{ M.dXpXL.F 3 l #.q.X. .2. .} 9.h.j.i.XXoX%.d E @.x.v.j.7.>X1X^.W.J n g.vXsX0XBXNXwXZ.d = a E h x 7.L.4._ ,.m.7.] E.A % O X X X o 2 ] `  .n..X0.! ! o.o.! E g ` n.dXaX~.H q # = f U.*X3XHXHXU % q &.#.k.c.x.x.v.p.4.5.h..XyXv.XX3.p Q ..X. .8.w.%.f # X O v ....X.2.} | ' x E ] h g -.C.O.h ....l a l %.H.n.D.*.; 3 <.C.' x x c a m C m m u 3 ] X.+.iXfXuXv.i...p 4 t S y W 3.7.| ` ] O.` 2 2 V.dXyX,.9 2 j ! X.#.[ c O.a.>.3 @ M :.8.4.@.i.n.",
"E ..-.x * @ + 2 &.a A &X%XE.7 > i { 0XyXpXp. .5.n.d.*.9 # Y.U.; { 9XyXyXyXdXOXO.e e ~ 2 * 2 s w X o = a E s.iXp.l l =.A.w.E g X.0.k.} p 3.[.F o 0 I.aX9X9XsX0X_ { $.#.X.$._ h 4 h ] ..O.u.p.j.p.h.p.4.p.c.XXp.a.| E e < 4 ] y.2.R W q.2.| ` i # > a ;.`.<XmX=XE.%.g.pXaXuXyXD.h d $.[.'./.G qXuXuXx.a.#._ ;.w.$.O.7.3.5.n.XXyXtX#.e h &.5 ; _ >.&.= X 3 { a.h x ;...a c s.j.v.9Xv.x.,.g.v.x.x.u.$.l 9 v &.M m e p R.1XZX;Xa { g.p.x.c..XD.c c T.C U.=.7.K.J.{ > @ , z $.>.~.:X!.v 5 i M.fXfXoX2.T T | +.O.7.N.C.[.7.g.aXg.{ @.%.D n &X5XP 7 v e.V.{ , + = n C &.s..Xn.s.` 5 c >.[ 3 { m.tXtXm.' x R ` 7.z.z.z.z.l.7.` c f 3 # f >.>.0 3 Y.`.H.J.$.x R ;.C.E - 2 h l ' g.tXqX0Xm.K.d.' @.J..X.Xp.X.T.C - e ! 8.8.#.x u l %.7.D.Z.*.n &XFX5Xb q M c W X.w.E e h :.%.D u 5 ; * ; 6 , V <XZXNX[.M.x.@.u.sXsXv.f.a.] h k b > > *.w.W  .8.w.=.E.3X5XB s ^.v _ gXl.l $.7. .W | i.k.l.V.O.' K.sXpXZ.n = a O.6.6. .2. .} 3.h.j.h.XXoXO.d ' a.v.tXz.w.bX<X!.W.W.f g.cXxXzXBXeX[.L.D 2 c c g E D.pXb.x.tX.Xa.] C q % % O X O X ; =.] +.z.+X8.W W o.o.! W x ` c.dXiX<.M # @ 3 v U.=X5X3X3Xq , C T.#.k.c.i.p.v.p.u.5.j..XtXv.n.| p &.Q x E w.;.*.f # O X , a x q.8. .` #.x g E R W C.`._ 3 =.A.[ a 3 _ H.m.x...> 3 >.[.#.h g v T.Q.m e M h p ;.6.+.iXfXuXv.i.E 4 p s b s ] e.7.6.| | | =.5 = %.0X0X{ 3 u ^ X. .| [ _ @.d.>.= = m =.7.4.O.3.k.",
"` ..e.` u 2 + = u u 8 A %X!.U.h D ,.9XyXyXj. .3.z.B.&.H C n 7 @ z f.9XyXXXyXdXu.l a M e e 9 s , X + 5 j ` s.oXOXc u ..;...R R 9.0.h.| 4.pXa.# 0 S.aXuXx.x.tXd.D O. .e.| >.=.u 5 h ` | @.a.l.c.p.h.5.u.b.iXx.p.3.} Q 3 ; l q.9.9.x p ] +.+.#.f @ = c `.>X4X,XC M $.b.0X0XuXaX%., _ S.V.[ 3 G qXfXuXx.O...;.>._ %.| 4.5.3.j.c.yXXX%.2 2 u @ @ a *.F @ @ i N.a.h u &.v u x 3.j.x.tXv.v.g.j.c.m.p.i.@.a 3 v &.U.C 6 3 *XZXmX`._ @.b.x.j.XXz.N.a l ~ C ~ ..d.n.H.] = # = _ V.$.O.@.$.=.9 d 0XfXuXv.@.R R o.#. . .8.7.>.].H.gX<.d { >.F C &XP q s ] G.V.[ = + = 0 m Q a.oXiXd.$.a u M 9 2 O.c.tXyXm.| R W | 5.j.j.z.l.7.| z M n , o f >.v , n ~.,.d.P.+.h R q.C.] < < u l _ p.yX9XwXkXzXH.O.4.z..X.Xh.X.Q t - t Q -.Q h a W 6.s.J.G.;.n B 3XFXU 6 n v e e Q -.x e E ;._ z i u 2 ; 8 8 7 &XmXZX[.b.m.p.' @.dXuXv.u.u.%.l s 8 @ u $.$.E ` ..Q ~ %X=XU q Y.].c D kX[.%.' +. .} | 6.7.| $._ ' b.pXgXA.9 = i _ V.+. . .6.} +.5.h.j..XiXO.l O.p.c.XXl.w.:X*XW.!.E.d 1.zXkXBXzX0X0XH.{ 3 l ] l D K.dXyXyXtXm.8.] m 7 $ O O O O   @ i c %.k.z.7.} E ! ! ! ! R } z.dXpX>.3 # , 5 M W.=X5XY Z = q C R.6.n.j.+.i.c.p.i.5.c.XXv.m.l.E g M 3 @ a :.*.v n , X o 3 4 h ].l.3.W ! g 4 x } 3.C.&.> @ &.B.#.5 @ a V.9Xx.%.3 > :.].6.x p g Q.%X7 e k k x w.5.O.iXfXuX9Xu.c e =.*.M p -.C.8.s.O.| O...h * a ].]._ a Q }  . .} ` ' u.H.*.@ > f ` 7.@.O.+.h.",
"' 7.D.+._ R.0 * a v 6 > U.!.T.&.' @.9XuXyXx.O.X.8.#.i J =X&X8 @ 9 %.g.v.XXyXdXM.' l x l c l f = X # u x } h.oXpX' 2 x -.E R ! 9.z.h.u.K.hXD 0 <.0XuXyXv.p.p.,.' s.5.6.| _ [ k u h ` { O.4.s.j.j.p.i.V.I.m.x.l. .} Q 5 * l 6.9.y.j 2 h | +.#.v ; e *.|.1X4X&Xp ] H.m.I.wXaX0Xi 3 @.I.N.9 # 1.fXfXqXf.' ] `._ l ' | +.s.5.i.j.tXoX..2 9 2 + @ d >.:.z i v Z.B.h ; i a u j X.l.n.m.9Xv.x.j.n.XXh.i.@.l 9 9 a &.C 7 C <XmX1X`.3.u.K.M.j.j.l.*.i 5 k C M ' l.n.D.] @ @ , [ B.@.O.5.d.A.0 z pXdXyXM.O.W R o.X. .| 3.7...>.L.[._ 0 z *.R.!.U B s &.6.s.7.[ = + = q s a +.n.iXm.a.l 5 s 2 4 @.v.tXtXb. . .2.3.5.h.j.z.k.| h n H q X + f &.a , H `.a.f.H.+.g R q.C.X.4 ; 5 l _ u.9X0XBXBXwXH.4.5.z.XXj.5.} R 5 ; r Q v u 4 x 6.k.n.n.s...0 A 4X4XK M &.~ 5 4 g Q h p W [ z D c i 2 7 7 7 Z 4XmX>XV.j.m.p._ ' pXyXp.@.4.+.Q s N 8 z ].V.l l v u n &X&XA V ^.=.3 i eXkX$.O.@.5.6.X.} ` l D D { x.iX[.>., > i _ a.O.} 2.6.} | 5.h.j.tXm.O.c 4.x.c.c.s.w.).Q.W.W.H 9 9 *.nXnXwXm.9Xm.{ > a _ z _ g.yXuXyX9Xb.a.] e , # o O X O   X , F ;.s.5.8.#.W W ! ) ! W } k.pXoX&.@ , , i v !.&XP B 8 7 &XW.(.w.n.j.5.j..Xj.i.5.c.tX.XJ.B.h h m @ + M Y.M i n , o , M 4 h F.j.3.! ! g r o.6.+.O.z + @ [ s.B.s + i N.m.m.@.3 > *.F.8.W g r / Z ; 4 Q ~ j X.3.O.K.fXuXv.u.c x >.A.&.p Q -.e.s.a.O.| #.] 3 3 [ :.E x W }  .2.+.O.O.p.H.D @ 3 a _ @.' @.3.5.",
"| 5.z.5.' `.a 2 _ ;.&.2 z :.r.;.] O.yXuXyXx.3.| w.[ 3 q &X=XB + = { g.x.XXXXdXiX@.c x ] =.[ n @ X , l W  .z..XpXw.; 5 x g j } 0.z.3.u.gXK.c @.hXaXyXyX9Xp.@.,.@.n.k.3.o.x l M k h W ' | 3.k.j.p.A.[.[.I.x.x.j. .} Q s * l 6.9.y.R - e Q X.#.E 4 l r.|.1X%Xb e X.J.tX0X0XhX'.0 F wXI.*., # qXfXfXaX{ E ;.>.d z a.` | l.5.5.l.oXJ._ a c 5 @ > _ B.Z.A.[ >.[.;.i = > 5 e h } k.j.v.9Xv.x.x..Xn.p.p.O.z i 3 3 m A V &X4X4X;XC.J.x.0XM.u.s.N.z i 2 e C M ] V.b.B.v @ + , [ a.4.5.i.D.<.3 D hXsXyXf.{ E R } #.X.}  .6.;.c a.[.<.[ _ >.{.!.A b ] w.s.s.7.z = = q A 6 < ' b.iXiXl._ 5 2 = 3 @.c.tXtXb.3.5.k.5.i.h.j.k.6.l u V B 8 X 3 &.v 3 0 U.'.d.u.D.O.g R 6.B.#.e * 3 l _ ,.0XzXVXkXH.j.u.5.j.j.p.i.} R p e h x 4 ; * E G.+X.Xn.$.v 7 U mX<X&.;.r.W e 4 r h p h ` E z %.=.p 2 7 q A 4XHX4X:X<.i.m.p.l D pXiX4.O.5.7.=.m V A M `.'.l a a 2 A U P 7 V U.9 @ n >XkXa.u.p.j.s.6. .` a a { u.v.iX'.F = 0 c _ 7.O.}  .6.} } 3.h.j..Xb.' ' p.c.XXj.+.;.-.U.E.E.H , , Y.nXnX[.M.v.0X%.i h c l ' x.yXuXv.f.b.7.E 5 q w $ o X   X X V Y.=.+.8.B.w.` R ! 2.2.! ! k.oXd.u ; s 9 i v W.&XB N : Z &XE.:.B.z.h.j.j.v.j.i.4.c.yX.Xn.w.e e u @ > U.Y.i 9 n 3 o n Y.e g [.J.5.} W j R e.e.%...F = = z $.Z.M @ 5 %.M.iX@.5 > &.C.8. .j e s b @ < Q Q g W +.+.m.fXuX9Xu.E ] N.Z.;.p g Q o.7.B.+.' ..=.h 2 u c E R W | 3.3.8.4.@.x.H.l @ s i _ O.l O.7.5.",
"+.h.XXh.` [ l x O.w.[ 3 a ` #.;.l z 9XuXyXv.8.| | _ l n A 5X5X7 = { S.x.c.XXuXtXi._ x ..:.*.n + + s ]  .h.j.XXiXV.e < g p h  .z.D.3.| K.p.u.tXtXM.9XyXv.p.O.u.p.n.h.3.o.[ a m m x E ' | 7.k.i.B.{.BXkXH.x.v.i.3.W v s ; a ..9.2.j - 1 j o.q.=.p c :.{.).m 4 j 6.x.tXpX0XkX}.W.bXkX[.*.# 3 0XvXfXqX{ | #.' ' O.d.` | k.5.5.l.K.d._ ` #.x < p | s.J.D.' $.[.%.i = > 4 e g ` 5.p.m.9Xv.x.x.oXj.p.p.| c v 5 2 q A U 3X4X=XU.e.oXXXtXb.O.O.=.f n 3 2 V m E a.i.@.a @ + , D a.s.s.s.V.{ , z wXjXpX,.' l x | 6.3.` ` 6.#._ O.Z.>.c [ Z.`.*.i &.F.s.5.s.$.l 2 s Z A ; ; ` z.m.iXJ. .p 2 * u 4.c.tXv.p.5.k.k.i.j.c.j.s.| e 0 V 8 o o f R.l u M Y.[.g.,.V.%.p x 6.k.6.p * 5 D { ,.eXVXVXwXg.p.i.3.l.p.5.l.8.` a h ] &.; + * v D.XXv.n.%.i B 5XmX<X>.N.B.` p e g h p j ] E ` V.A.h 2 6 A =XHX4X=XW.>.a.n.l.l d L.H.O.+.5.3.X.R.4X4X{.`.A.l i u 6 A P N 8 7 6 + @ W.:XeXH.x..Xn.i.+. .} l z f.9XyXiX`.s @ s &.O.4.O.}  .6.| } +.5.j.K.i.' O.j.XXn.i.| ;.=.T.E.J V + w bXbXnXS.x.v.9X,.D _ x l %.m.yXyX,.{ V.#.x a U.n # o % X   $ J U.Q } k.C.;.x R ! ) o. .! 3.V.' 9 n M i u M %XU N 8 B %XE.m =.D.n.j.c.c.x.p.i.u.c.yXXXb.#.< e c l F W.E.0 9 f , # U.R.p p [.OX5.! ! R o.6.X.] *.&.> # 9 ] ;.~ 4 5 ' b.iX,.9 2 &.w.3.6.W p e < @ 4 x x p R +.O.m.fXuXv.a.[ ..s.l.;.g r k `  .$.O.` ' =.Q u 2 h R R W  .3.2.k.3.4.n.l.a > f 9 [ %.u ' e.7.",
" .k..Xn.| x c =.w.$.c l h x W E 5 5 f.aXaXx.5.` x a _ Y.J =X4X=X0 *.S.x.j.c.yXyXb.' _ #.A.*.3 o = v ..9.z.c.XXyXH.x e Q p p 6.k.G.+.E d.b.XXyXx.f.9XtXv.b.@.u.i.j.z.5. .=.g 4 m Q R }  .7.5.a.`.bXBX[.b.v.v.i.3.R p 3 > 5 ] 6.2.j - 4 k Q X.;.E W r.R.M < 4 W 3.j.tXtX0XnX:X<XbX[.Z.v o G aXvXfXg.{ | | i.m.j.l.W | k.5.3.j.v.p.O.s.l.+.h a ' 7.z.n.O._ | ' f > 9 e e p E 7.p.m.9Xv.x.x.tXj.p.p.O._ D 9 6 b Z 5XFX3XZ k 6.n.yXyXb.l i i 0 H 0 = 7 6 h $.a.O.i + + , z a.l.k.s.B.D = 0 O.H.S.{ D a x  .8.7.` W ..q.' E ' [ a c N.'.$.' B.J.p.p.l.a.d 9 U.E.b * 2 E p.m..Xn.8.l ; * a a.c.tXv.p.5.0.5.5.j.XXc.s...v b V 8   , W.Y.l v Y.&.K.M.@.V.;.e j 3.k.8.a ; d <.<.'.ZXAXkXK.x.p.i.5.k.O.O.D.s.' x E ..] ; + # d s.XXc.M.>.0 A 3X4X;X>.B.B.X.p r j j g R ..` O.L.L.x 3 s E.mXHX4XU , F N.b.H.c u %.$.' #.3.+.7.(.%X,X2X XZ.l a s b V N 8 : 8 @   7 *X{.wXiXXX.Xn.i.+. .| c O.M.yXyXK.R.3 + s =.7.4.+. .2.6.6.}  .5.k.J.4.` O.n.XXz.+.` ;.:.!.E.J 8 % K bXnXrXd.p.v.tX,.O.$...c O.M.yXtX{ z V.#.R W R.M + o q $   B &XC v } 8.e.} g j o.2.2.2. .| { z M U.M 9 a Y.%XZ 8 8 &X,XA s ;.J.n.j.c.XXp.u.u.u.c.XXXXz...1 g r.A.R.Y.C > 3 f , , Y.`.p e [.@X5.} ! R W } ` _ =.*.i + + l ..=.l a _ f.I.V.i > F w.+.6.X.R r ; * 4 Q Q h R  .| x.fXuXK.,...[ p.b.7.x t e ] #.O.` _ ` ..=.l 3 h E R W  .3.3.5.+.4.n.d.l d M i %.O.u ' w.7.",
"O.h.n.J.%.u x ;.D.s.| w...x x l u d V.iX0Xx.+.h p u D ~.W.U 5X4XH >.I.x.j.j.yXuX.X| ' $.A.D + o 3 ]  .5.c.c.XXdXoX' j -.e e e.D.G.` E i.m.tXv.u.,.M.9Xv.n.i.@.u.p.oXk. .! k - y k R } +.3.7.A. XZX>XV.m.v.c.p.+.x e = = > c 2.2.R - 1 ~ Q o.6.| | ;.v e e v o.3.h.v.tXgXBXbX*X*X'.V.9 X { fXvXfXf._ O.+.K.pXJ.s.h W B.5.3.j.v.x.l.K.oXk.] e E 3.h.n.p._ _ %.D 3 d h s p x 3.p.x.9Xv.x.v..Xj.j.j.O.' _ u s V Z 5XFX5X7 u ' p.tXyXH.i = @ q *XE.7 7 6 p >.V.$.i + + # z B.b.p.s.N.d = i { { ' D d i x $.s.s.} R W o.| ` ` [ c c V.[.L.b.OXn.i.j.n.d.c i U.H 6 ; u E i.m.tXoXG.W < * a a..XtXv.j.5.5. .3.c.XXXXs.#.Y.E.B o X A &XF l -.R._ M.v.@.a.;.e j 7.z.s.c 3 D [.eXnXAXZXwX9Xx.p.h.5.7.c ' [.k.| _ ' | _ 2 + + 9 7.m.p.b.~.0 J 3X<X{.:.%.r.=.p r j x x ` ;.| O.L.L.E 5 v !.mX4X3X8 + , D V.H.[ 5 c { ` O.+.+.3.6.T.!.(.C.;.c a M b 8 8 : : 8 $ o &X:X'.0XyXyXv.j.5.3.+.+.O.d.tXuXyXH.*.= @ i #.k.s.3. .2.6.8.} } 3.s.s.O.` 4..Xc.4.' _ ;.:.R.H b 7 B &XbXnXS.f.u.v.iXf.' O...c ' x.dXiX' z A.O.} X.>.f + + n # X U &XC p o.e.8.' a h ! 2.3.2. .#._ v &.&.i 3 v !.&XB $ B 4X=Xq u w.J.c.j.j.XXx.u.4.5.c.XXc.s.#.e R r.C.`.C 6 @ , f , # &.`.p 2 ].@X5.} ! R R W E _ &.F n , + 3 &.r.` c _ { V.S.d > v r. .6.q...k 6 @ 5 Q ] R W  .' x.sXdXI.$.E ' b.n.4.E e 1 Q w.w.' ` W [ :._ h c W R !  .3.3.5.O.u.b.@.D &.v a >.O.l | w.+.",
"5.h.c.n.#.5 h 7.J.z.s.F.#.W c ] &.>.b.9X9XH.%.4 2 9 [ {.*XJ A H F >.wXx.p.h.9XuXtX5.| 4.C.d o + a .. .5.XXv.yXyXoX .! -.e 4 #.D.k.W _ f.x.m.b._ { g.m.v..Xh.| O.5.oX+X6.W p - t k R } 3.5.8.'.>X:X`.d.XXv.x.l.| k s = # = d X.2.R - 1 ~ =.} 6.6.| ` g p Q o.! 2.i.c.tXhXnXbX=X^.Z.N.9 # 1.vXvXqX{ D [ E %.%.{ h 5 Q w.s.5.j..Xx.x.n.n.s.[ 4 p ..s.z.z.i.p.S.D 3 v M k g x  .i.p.9Xv.x.v.v.p.x.x.5.$.' a b A V U 5XB * 4 x 3.v.yXL.z @ + K 4X4XA 7 6 u >.V.$.i + o # l V.n.h.s.$.i 9 { Z.' d d d 9 z a.l.s.X.E R  . .` E [ ` ` N.H.H.tXiXj.@.p.x.f.' l M s < s Q ` 3.c.tX.XJ.#.5 ; a 7.m.tXXXx.5. .} 5.c.XXc.5...R.!.n o 8 U &Xn M R.*._ m.tXu.%.=.e h 3.z.k.[ i O.wXBXZXMXnX0X9Xj.i.k.s.| h { [.P.+.' | +.;.f + o > O.l.u.b.'.F &X3X;XR.&.a v v e r R R E X.q.+.O.s.V.` p v !.;X=XA + + o 3 $.V.%.i c %.' O.+.+.5.3...=.#.O.' l l M 6 8 6 8 : 8 $ q 4X:XS.v.yXyXx.i.3.5.i.b.b.m.yXdXiXV.F = > l 6.k.k.5. .2.9.8.} W  .6.+.` ` a.J.p.@.| ' #.:.Y.n 6 q H =XZXrXf.g.p.x.tXd._ x _ E _ g.dXiX{ D A.#.| +.%.d , 9 n w % 5X5XZ e W G.8.' a h ! 2.9.3.2.q.] F M M 3 9 &.;X&XN % &X4X&X7 v B..XXXc.c.XXm.p.i.i.j.v.c.i.X.R } B.F.>.b @ @ 3 n , # i :.g 4 C.P.3.} ! W R R W [ c 3 , w 6 @ v w. .| | _ %.S.D > d ;.} | 6.X.v 6 * e ~ X.! ` | ` p.uXaXS.[ h ' l.b.4.] r 1 p ] #.| ' E E =.#._ W W R ! X.6.6.3.O.p.d._ c *.z l %.O.' @.7.3.",
"3.h.c.n.>.a x a.z.c.n.D.e.} x W ] ] ,.v.tXb._ ; ; 6 R.}.*XJ C 0 9 *.I.u.5.i.v.uXtXj.O.+.C.a o # l ;.3.5.XXXXyXyXXX3.o.-.e < ` s.7.W c 4.p.p.{ d z f.m.v.XXh._ _ 5.z.+X8.W r 1 y k Q } 3.5.B.'.}.R.`.n.v.v.x.d...p m 8 # = i ..q.Q < 4 ~ -.} 6.3.} x x &.=.W R 2.h.x.9XwX:X*X4X:XV.O.F *.g.fXfXqXD G c c { D d u 4 v q.s.5.k.n.j.j.x.p.u.[ p p E +.j.n.j.p.a.z d v M k k R | u.x.9Xv.x.tXx.p.x.x.p.s.#.v m V 7 B B 8 : ; g O.tXtXH.d @ 8 &X4X,XA N 6 u [ ,.O.9 + o # d F.n.h.s.' 9 i <.[.{ d 9 i 0 z a.z.k.6.W R R  .} W ....#.@.H.m.dXyXp.@.p.j.i.%.d i 5 e &.] } O.j.XX.X+Xw.a 3 l $.n.XXtXx.3.} W p.XXXXc.O.' R.!.W.q B &XU V &.R.&._ v.yXu.O.] e g 3.j.l...d ,.gXVXZXbXrX0Xv.j.5.i.s.#.l >.[.D.5.7.$.+.;.U., + > ' u.O.H.eXY.&X5XW.&.f @ ; ; < t R R ` q.e.3.' @.a.| h v !.!.E.7 $ $ + = _ V.%.d _ $.| O.3. . .3.6.w.7.7.#.` E v 6 S 7 7 : % % J <X:XH.9XyX9Xx.u.3.5.p..XtXtXyXyXm.,.f # 0 &.7.l.k.0.o.2.8.6.| W }  .' c ` D.J.l.a.$.O.#.;.M s 6 q E.<XbXwXf.b.x.v.tXK.' c #._ _ p.tX0XO._ >.#.}  .O.i f W.F w A 5X5X&X/ ] 6.6.W p h ! 2.9.9.9.X.*.U.&.h > v R.!.J N 8 &X&XZ b &.V.c.c.j.c.XXm.x.b.p.j.x.j.5.| X.X.8.a._ > @ = q q # # , v a p ;.@.' ! ! ! R W [ ] c , @ , + o 3 ..8.4.7.' _ Z.{ 3 i ..W ` 6...j < - p Q ] ! W } E u.uXaXV.z g #.d.p.s.X.k 4 r j x W | W x E ..| ` ` R o.2.3.6. .O.d.a.d l =.l l %.O.$.+.+.3."
};
