/* XPM */
static char *b8976d9643c14a9ff536e27d9c7314c4evlOq3Vb1JMky02J[] = {
/* columns rows colors chars-per-pixel */
"222 227 256 2 ",
"   c #020201",
".  c #0C0200",
"X  c #060905",
"o  c #140200",
"O  c #1B0200",
"+  c #140B00",
"@  c #1B0B01",
"#  c #191303",
"$  c #0C1013",
"%  c #230100",
"&  c #280900",
"*  c #281701",
"=  c #361800",
"-  c #2D1108",
";  c #372602",
":  c #322B10",
">  c #0B1426",
",  c #32312F",
"<  c #132728",
"1  c #451B01",
"2  c #472802",
"3  c #473504",
"4  c #563703",
"5  c #4C3412",
"6  c #653C05",
"7  c #4A3B2C",
"8  c #374424",
"9  c #59480E",
"0  c #6B500A",
"q  c #554A31",
"w  c #6E542C",
"e  c #776832",
"r  c #726814",
"t  c #253847",
"y  c #2C5661",
"u  c #595857",
"i  c #4E4C4A",
"p  c #675B4D",
"a  c #756C51",
"s  c #565B68",
"d  c #676766",
"f  c #787677",
"g  c #75716C",
"h  c #5D625C",
"j  c #413F44",
"k  c #906E0F",
"l  c #8D7232",
"z  c #936A1C",
"x  c #8E764E",
"c  c #87796D",
"v  c #9F7750",
"b  c #988411",
"n  c #B79214",
"m  c #978831",
"M  c #B99728",
"N  c #BA9838",
"B  c #AD8E31",
"V  c #BAA433",
"C  c #BCA81D",
"Z  c #C9981A",
"A  c #CD9817",
"S  c #D5A41B",
"D  c #CCA816",
"F  c #CD9B2B",
"G  c #C99826",
"H  c #D39D2B",
"J  c #D39C25",
"K  c #C79A36",
"L  c #D49B35",
"P  c #C88C27",
"I  c #C9A428",
"U  c #D6A428",
"Y  c #CAA538",
"T  c #D5A537",
"R  c #D4B531",
"E  c #E7B928",
"W  c #E6B234",
"Q  c #E4B01E",
"!  c #FAD80B",
"~  c #F6CC18",
"^  c #FCD514",
"/  c #FEDB14",
"(  c #FDD51C",
")  c #FEDA1C",
"_  c #F4D718",
"`  c #ECCF12",
"'  c #FDE31A",
"]  c #F5E30F",
"[  c #DCCA31",
"{  c #E9C927",
"}  c #F7CC27",
"|  c #EBD628",
" . c #FED624",
".. c #FED922",
"X. c #FED52B",
"o. c #FDDB2B",
"O. c #F4D828",
"+. c #E8C936",
"@. c #F8CB36",
"#. c #ECD637",
"$. c #FED433",
"%. c #FDDB33",
"&. c #F8D839",
"*. c #FEE223",
"=. c #FDE42A",
"-. c #FCE436",
";. c #F3E834",
":. c #DCC319",
">. c #968850",
",. c #B89946",
"<. c #B79956",
"1. c #AA8D50",
"2. c #BAA558",
"3. c #B9A64A",
"4. c #928871",
"5. c #A98765",
"6. c #B0976D",
"7. c #BBA468",
"8. c #B7A877",
"9. c #C59B45",
"0. c #C59B53",
"q. c #C8A748",
"w. c #D4A846",
"e. c #C7A757",
"r. c #D1B350",
"t. c #E5B44B",
"y. c #C6A967",
"u. c #C7A978",
"i. c #D4AE7C",
"p. c #CCB478",
"a. c #D2B17D",
"s. c #D2B576",
"d. c #D1B367",
"f. c #C6A16B",
"g. c #DACA52",
"h. c #EBD748",
"j. c #F7D947",
"k. c #EAD856",
"l. c #F6DA56",
"z. c #EBCB4C",
"x. c #FBE548",
"c. c #FAE556",
"v. c #F0E753",
"b. c #D6C96D",
"n. c #EADA67",
"m. c #F6DB66",
"M. c #ECD372",
"N. c #FAE667",
"B. c #F9E777",
"V. c #F7EC72",
"C. c #227698",
"Z. c #5B778B",
"A. c #847D85",
"S. c #1185AD",
"D. c #358DB3",
"F. c #1F8492",
"G. c #5195B7",
"H. c #6590A6",
"J. c #389ACF",
"K. c #39A3D8",
"L. c #4796C6",
"P. c #5099CD",
"I. c #54A5D5",
"U. c #999999",
"Y. c #8E8C8A",
"T. c #A7978D",
"R. c #B3AA92",
"E. c #A8A8A7",
"W. c #B8B7B6",
"Q. c #B5B0AA",
"!. c #9A9EA4",
"~. c #C9AB84",
"^. c #D4AE83",
"/. c #D4AE88",
"(. c #CCB385",
"). c #D2B183",
"_. c #D8B788",
"`. c #CEB697",
"'. c #C7BAAE",
"]. c #DDB790",
"[. c #D7C98F",
"{. c #EAD490",
"}. c #FBE987",
"|. c #F9E998",
" X c #FEF498",
".X c #F9F089",
"XX c #D1CAB6",
"oX c #E7D6AE",
"OX c #FEF5A8",
"+X c #F8EEB0",
"@X c #D6E0BE",
"#X c #93BAD0",
"$X c #B4B7C8",
"%X c #90BEE5",
"&X c #C9BBC6",
"*X c #97C9D5",
"=X c #AEC7D5",
"-X c #A6CBE4",
";X c #9AC5E7",
":X c #C9C8C8",
">X c #D3CCCA",
",X c #D7D4CB",
"<X c #D6CDD4",
"1X c #D5D3D3",
"2X c #DBD6D4",
"3X c #DDDBDB",
"4X c #DAD7D7",
"5X c #CDD1D0",
"6X c #E2DDDC",
"7X c #E5D8D7",
"8X c #E8D9CB",
"9X c #DCE2D5",
"0X c #E7E7DA",
"qX c #F3EFD6",
"wX c #DAD9E5",
"eX c #DAD3EA",
"rX c #E4DCE5",
"tX c #E4D9F3",
"yX c #DCEAED",
"uX c #E6E6E6",
"iX c #EBEBE5",
"pX c #ECECEC",
"aX c #E7E7E8",
"sX c #F2EDEC",
"dX c #F4EAE6",
"fX c #EDF2EC",
"gX c #ECF3E5",
"hX c #F3F3ED",
"jX c #FDFDED",
"kX c #F8F7E8",
"lX c #EDEDF2",
"zX c #EAE9F7",
"xX c #F2EDF3",
"cX c #F3EDFC",
"vX c #F7EBF9",
"bX c #EDF3F3",
"nX c #EDF3FC",
"mX c #ECFDFE",
"MX c #E6F7F9",
"NX c #F3F3F3",
"BX c #FAF5F4",
"VX c #F5FAF4",
"CX c #FDFDF4",
"ZX c #F4F4FB",
"AX c #FBF5FD",
"SX c #F5FBFD",
"DX c #F9F9F9",
"FX c #FBFBFB",
"GX c #F9FAF8",
"HX c #FCFCFC",
"JX c white",
"KX c #FEFEFE",
"LX c #FEFDFE",
"PX c #FDFDFD",
"IX c #BDC1A9",
"UX c #798070",
/* pixels */
"HXHXHXHXDXNXNXpXNXNXNXDXDXHXHXHXpXNXNXpXpXDXHXHXDXDXNXNXpXpXpXpXHXDXDXHXHXNXpXNXpXpXDXHXHXHXHXNXpXpXpXpXpXDXHXHXHXDXNXNXpXpXpXpXHXHXHXHXHXNXpXpXpXpXDXHXHXHXHXNXuXpXpXpXpXDXHXHXDXDXpXuXpXpXpXDXHXHXHXHXDXNXpXpXNXpXDXHXDXDXHXNXpXpXpXpXpXDXHXHXDXHXNXpXpXpXpXDXHXHXHXHXDXNXpXuXpXNXHXHXDXHXHXNXpXpXpXpXDXHXHXDXHXDXpXpXNXpXpXDXHXDXDXHXHXNXpXNXpXNXNXDXHXHXHXHXuXpXpXpXpXDXHXHXHXHXNXpXpXpXpXNXHXHXHXHXHXNXpXpXNXNXHXHXHXHXHXNXpXpXpXpXpXDXHXHXDXHXDXpXpXNX",
"HXHXHXHXDXNXpXpXpXNXNXDXHXHXHXHXpXNXNXpXpXDXHXHXHXDXNXNXpXpXpXNXHXDXHXHXHXNXpXpXpXpXDXHXHXHXHXNXpXNXNXpXpXDXHXDXHXHXNXNXpXpXpXNXHXDXDXHXHXNXpXNXpXpXDXHXHXHXHXNXpXNXNXpXpXDXHXDXHXHXNXuXpXpXpXDXDXDXHXHXDXNXNXpXpXpXDXHXHXHXHXNXpXNXNXpXpXDXHXDXHXHXNXpXpXpXpXDXDXDXHXHXDXNXNXpXpXpXHXHXDXHXHXpXNXpXpXNXDXHXDXNXHXHXpXpXNXpXpXHXHXDXHXHXHXNXpXpXpXNXNXHXHXHXHXHXpXNXNXpXpXDXHXDXHXHXNXpXpXpXpXNXHXDXDXHXHXNXpXNXpXpXDXHXHXHXHXNXpXNXNXpXpXDXHXDXHXHXDXpXpXpX",
"HXHXHXHXDXNXpXpXpXpXNXDXHXHXHXHXpXpXpXpXNXDXHXHXHXHXNXpXpXpXpXNXHXHXHXHXDXNXpXpXuXpXNXHXHXHXHXNXpXNXNXpXNXDXHXDXHXHXNXpXpXpXpXNXHXDXDXHXDXNXpXNXuXpXNXHXHXHXHXNXpXNXNXpXNXDXHXDXHXHXNXpXpXpXNXDXDXDXDXHXDXNXNXpXpXpXDXHXHXHXHXNXpXNXNXpXNXDXHXDXHXHXNXpXpXpXpXDXDXDXDXHXDXNXNXpXpXNXHXHXHXHXHXpXNXpXpXNXNXDXDXDXHXDXpXpXpXpXNXHXHXHXHXHXDXNXpXpXuXpXNXHXHXHXHXHXpXNXNXpXNXDXHXDXHXHXNXpXpXpXpXNXHXDXDXHXDXNXpXNXpXpXDXHXHXHXHXNXpXNXNXpXNXDXHXDXHXHXDXNXpXpX",
"HXHXHXDXNXNXpXpXpXpXNXDXHXHXHXDXpXpXNXNXNXDXHXHXHXHXNXpXpXpXNXNXHXHXDXDXNXNXpXpXuXpXNXHXHXHXDXNXpXpXpXNXNXHXHXHXHXHXNXpXpXpXNXNXHXHXHXDXNXpXpXpXuXpXNXHXHXHXHXNXpXpXpXNXNXHXHXHXHXHXNXpXpXpXNXNXHXHXHXDXNXpXpXpXpXpXDXHXHXHXHXDXpXpXpXNXNXHXHXHXHXHXNXpXpXpXNXNXHXHXHXDXNXNXpXpXpXNXDXHXHXHXNXpXpXpXpXNXDXHXHXHXHXDXNXpXpXNXNXHXHXHXDXDXNXNXpXpXuXpXNXHXHXHXHXDXpXpXpXNXNXHXHXHXHXHXNXpXpXpXNXNXHXHXHXHXNXpXpXpXuXpXNXHXHXHXDXNXpXpXpXNXNXHXHXHXHXHXDXNXNXNX",
"HXDXDXNXNXNXNXNXpXpXNXDXDXDXDXNXpXpXNXNXDXDXDXDXHXHXNXNXpXNXNXDXDXHXDXNXNXNXNXNXpXNXNXDXHXDXNXNXpXpXNXNXDXDXHXHXHXHXNXNXpXNXNXDXHXHXDXNXNXNXpXpXpXNXNXDXHXHXNXNXpXpXNXNXDXDXHXHXHXHXNXNXpXNXNXNXHXHXDXNXNXNXpXpXpXNXDXHXHXHXDXDXpXpXNXNXDXDXHXHXHXDXNXNXpXNXNXNXHXHXDXDXNXNXpXpXNXNXNXDXHXDXNXNXpXpXNXNXNXDXHXHXHXDXNXNXpXNXDXDXHXHXDXNXNXNXNXNXpXpXNXDXHXHXDXNXpXpXNXNXDXDXHXHXHXDXNXNXpXNXNXNXHXHXHXNXNXNXpXpXpXpXNXDXHXDXNXNXpXpXNXNXDXDXHXHXDXDXDXDXNXNX",
"NXNXNXNXNXNXNXNXNXNXNXNXNXNXNXNXNXNXNXDXHXNXNXNXDXNXNXNXNXNXDXDXNXDXNXNXNXNXDXNXNXDXNXNXDXNXNXNXDXNXDXHXDXNXNXNXNXNXNXNXNXNXDXDXNXNXNXpXNXDXDXDXNXDXNXNXDXNXNXNXDXNXDXHXDXNXNXNXDXNXDXDXNXNXDXNXNXNXNXNXNXNXDXHXNXNXNXNXDXNXNXDXDXNXDXHXDXNXNXNXDXNXDXDXNXNXDXNXNXNXNXNXNXNXDXHXNXNXNXNXDXNXpXNXNXDXDXDXNXNXNXNXNXNXDXNXNXDXHXNXNXDXNXNXNXNXDXNXNXNXNXNXNXNXNXNXDXNXDXHXDXNXNXNXNXNXNXDXNXNXDXNXNXNXNXNXNXDXDXDXNXNXNXNXDXNXNXNXDXNXDXHXDXNXNXNXNXNXNXDXDXNX",
"NXNXpXpXNXNXDXHXHXDXNXpXpXpXNXNXHXDXDXHXHXNXpXNXpXNXNXDXHXHXHXHXpXNXNXpXpXDXHXDXHXHXNXpXNXpXpXNXHXDXDXHXHXNXpXpXpXNXNXDXDXHXHXHXpXNXNXpXpXHXHXHXHXHXNXpXNXpXpXNXHXDXDXHXHXNXpXpXNXpXDXHXDXHXHXNXpXpXpXpXNXDXHXHXDXHXNXpXpXpXpXNXHXDXDXHXHXNXpXpXNXpXDXHXDXDXHXNXpXpXpXpXNXDXHXHXHXDXpXpXNXpXpXHXHXHXHXDXNXpXpXNXpXNXHXHXNXHXHXpXpXNXNXpXpXDXHXDXHXDXNXNXNXpXpXpXHXDXDXHXHXNXpXpXpXpXNXHXDXHXHXNXpXNXNXpXpXHXHXHXDXHXNXpXNXNXpXDXHXDXDXHXHXNXpXpXNXpXNXHXHXDX",
"pXpXpXpXNXDXHXHXHXHXNXpXpXpXpXNXHXDXDXHXHXNXpXpXuXpXNXHXHXHXHXHXpXNXNXpXpXHXHXHXHXHXNXuXpXpXpXNXHXNXDXHXHXNXpXNXuXpXNXDXHXHXHXHXpXNXNXpXpXDXHXDXHXHXNXuXpXpXpXNXHXNXDXHXHXNXpXNXpXpXDXHXHXHXHXNXNXNXpXpXNXNXHXHXHXHXpXuXpXpXpXNXHXNXDXHXHXNXpXNXpXpXDXHXHXHXHXNXNXNXpXpXNXDXHXHXHXHXpXpXNXpXpXHXDXHXHXDXNXpXNXNXpXpXHXHXDXHXHXpXpXNXNXpXpXHXHXHXHXHXNXpXpXpXpXpXHXNXDXHXHXNXpXNXuXuXNXHXHXHXHXNXpXNXNXpXpXDXHXDXHXHXNXuXpXpXpXDXHXNXDXHXHXNXpXNXpXpXNXHXHXDX",
"NXpXpXpXpXNXHXHXHXHXNXNXpXpXpXpXHXDXDXHXHXNXpXpXuXpXNXDXHXHXHXHXpXNXNXpXpXHXHXHXHXHXNXpXNXpXpXNXHXDXDXHXHXpXpXpXuXpXNXDXHXHXHXHXpXNXNXpXpXHXHXHXHXHXNXpXNXpXpXNXHXHXHXHXDXNXpXpXpXpXDXHXHXHXHXNXNXpXpXNXNXDXHXHXHXHXpXuXpXpXpXNXHXHXHXHXDXNXpXpXpXpXDXHXHXHXHXNXpXpXpXpXNXDXHXHXHXHXNXuXpXpXNXHXHXHXHXDXNXNXpXpXpXpXHXHXDXHXHXpXpXNXNXpXpXHXHXHXHXHXDXNXpXpXpXpXHXDXDXHXHXNXpXpXpXuXNXHXDXHXHXDXpXNXNXpXpXHXHXHXHXHXNXuXpXpXpXDXHXHXHXHXDXNXpXpXpXpXNXDXHXHX",
"NXNXpXpXNXNXHXHXHXDXNXNXNXNXNXNXHXDXDXHXHXNXpXNXpXNXNXDXDXHXDXDXpXNXNXpXpXDXHXDXDXHXNXNXNXNXpXNXHXNXDXHXHXNXpXpXpXNXNXDXDXHXHXHXpXNXNXpXpXDXHXDXDXHXNXNXNXNXpXNXDXDXHXHXDXNXNXpXNXpXDXHXDXDXHXNXNXNXNXNXNXNXHXHXDXHXNXpXNXpXpXDXDXDXDXDXDXNXpXpXNXpXDXHXDXDXHXNXNXNXNXNXNXNXHXHXDXHXNXpXNXNXNXDXHXDXDXNXNXNXNXNXpXNXHXHXNXHXHXpXpXNXNXpXpXDXHXDXHXHXDXNXNXpXNXNXHXDXDXHXHXNXpXNXpXpXNXHXNXDXHXDXpXNXNXpXpXDXHXDXDXHXNXpXNXNXpXDXDXDXDXDXDXNXpXpXpXNXNXDXHXHX",
"NXNXNXNXNXNXNXNXNXNXNXNXDXNXNXNXNXNXNXDXDXNXNXNXDXDXNXNXNXNXDXDXNXDXNXNXNXNXDXNXNXNXNXNXDXDXNXNXNXNXNXDXDXNXNXNXNXNXNXNXNXNXDXDXNXDXNXNXNXNXDXNXNXNXNXNXDXNXNXNXNXNXDXDXDXDXNXNXDXNXDXDXNXNXDXNXDXNXNXNXNXNXNXDXNXDXNXNXDXDXNXDXNXNXNXDXDXNXNXNXDXNXDXDXNXNXDXNXDXNXNXNXNXNXNXDXNXDXNXNXNXNXNXNXNXNXNXNXNXNXNXNXNXNXDXNXNXDXHXNXNXDXNXNXNXNXDXNXNXNXNXNXNXNXNXNXNXNXNXDXDXNXNXNXDXNXNXNXNXNXDXDXNXDXNXNXNXNXDXNXNXDXNXNXNXNXNXDXNXNXNXDXDXDXNXNXNXNXNXDXDXDX",
"DXDXDXDXDXNXpXpXpXpXNXHXHXHXDXNXNXNXNXNXDXDXDXHXHXHXNXNXpXNXNXNXHXHXDXNXNXNXNXNXpXpXNXDXHXHXNXNXNXNXNXNXDXDXDXDXHXHXNXNXpXNXNXNXDXHXDXNXNXNXNXNXpXpXNXDXHXHXNXNXpXNXNXNXDXDXDXDXHXDXNXNXpXNXNXNXHXDXDXNXNXNXNXNXpXNXDXHXHXHXFXDXNXNXNXNXNXDXDXDXHXDXNXNXpXNXNXNXHXDXDXNXNXNXNXNXpXNXDXDXHXDXNXNXNXNXNXNXNXDXDXHXDXDXNXNXpXNXDXDXDXHXDXNXNXNXNXNXpXpXNXDXHXHXDXNXNXNXNXNXDXDXDXHXHXDXNXNXpXNXNXNXDXHXDXNXNXNXNXNXpXNXNXDXHXDXNXNXNXNXNXNXNXDXDXDXDXDXDXNXNXNX",
"DXHXHXHXDXNXpXpXuXpXNXHXHXHXHXDXpXpXNXNXNXDXHXHXHXHXNXpXpXpXNXNXHXHXDXDXNXNXpXpXpXpXNXHXHXHXDXNXpXpXNXNXNXDXHXHXHXHXNXpXpXpXNXNXHXHXDXDXNXNXpXpXpXpXNXHXHXHXDXNXpXpXpXNXNXDXHXHXHXHXNXpXpXpXNXBXHXHXHXDXNXNXpXpXpXNXDXHXHXHXHXDXpXpXpXNXNXDXHXHXHXHXNXpXpXpXNXNXHXHXHXDXNXNXpXpXpXNXDXHXHXDXNXpXpXpXNXNXNXDXHXHXHXDXNXpXpXNXNXHXHXHXDXDXNXNXpXpXuXpXNXHXHXHXDXDXpXpXNXNXNXDXHXHXHXHXNXpXpXpXNXNXHXHXHXDXNXNXpXpXuXpXNXHXHXHXDXNXpXpXpXNXNXDXHXHXHXHXDXNXNXpX",
"HXHXHXHXDXNXpXpXuXpXNXHXHXHXHXDXpXpXpXpXNXDXHXHXHXHXNXpXpXpXpXNXHXHXHXHXDXNXpXpXpXpXNXHXHXHXHXNXpXNXNXpXNXDXHXHXHXHXNXpXpXpXNXNXHXHXHXHXDXNXpXpXpXpXDXHXHXHXHXNXpXpXpXpXNXDXHXHXHXHXNXpXpXpXfXDXHXHXHXDXNXNXpXpXpXpXHXHXHXHXHXNXpXpXpXNXNXDXHXHXHXHXNXpXpXpXpXDXHXHXHXHXNXNXpXpXpXpXDXHXHXHXDXNXpXpXpXNXNXDXHXHXHXDXNXpXpXpXNXHXHXHXHXHXDXNXpXpXuXpXNXHXHXHXHXDXpXpXpXpXNXDXHXHXHXHXNXpXpXpXpXNXHXHXHXHXDXNXpXpXpXpXDXHXHXHXHXNXpXpXpXNXNXDXHXHXHXHXDXNXpXpX",
"HXHXHXHXDXNXNXpXpXNXNXDXHXHXHXHXpXNXpXpXpXDXHXHXHXHXNXNXpXpXpXpXHXDXHXHXHXNXpXpXNXpXDXHXDXHXHXNXpXNXNXpXpXDXHXHXHXHXNXNXpXpXpXNXHXDXHXHXHXNXpXpXNXpXDXHXDXHXHXNXpXpXpXpXNXDXHXHXHXHXNXpXpXpXpXDXHXHXHXHXDXNXpXpXpXpXDXHXHXHXHXNXpXpXpXpXNXDXHXHXHXHXNXpXpXpXpXDXHXHXHXHXDXNXpXpXpXpXDXHXHXHXHXNXpXpXpXNXNXDXHXHXHXHXpXpXNXpXpXHXHXDXHXHXHXNXpXpXpXNXNXHXHXHXHXHXpXNXNXpXpXDXHXHXHXHXNXpXNXpXpXNXHXDXHXHXHXNXpXpXpXpXDXHXHXHXHXNXpXpXpXpXNXDXHXHXHXHXNXNXpXpX",
"HXHXHXDXDXNXNXNXpXNXNXDXHXHXHXHXpXNXNXpXpXDXHXDXHXDXNXNXpXpXpXpXHXDXDXHXHXNXpXNXNXNXDXHXDXDXHXNXpXNXNXpXpXDXHXHXHXDXNXNXpXpXpXpXHXDXDXHXHXNXpXNXNXNXDXHXDXDXHXNXfXfXpXpXbXNXFXHXDXHXfXaXfXfXiXGXDXLXHXHXDXNXpXpXhXpXDXHXPXFXHXNXNXpXpXpXNXNXHXHXDXHXNXpXpXpXpXDXDXHXHXHXDXNXpXpXpXpXDXHXHXHXHXNXpXpXpXNXNXDXDXHXHXDXpXpXNXpXpXDXHXDXDXHXHXNXpXNXpXNXNXDXHXHXHXHXpXNXNXpXpXDXHXHXDXHXNXpXNXpXpXNXHXDXDXHXHXNXpXNXNXpXDXHXHXHXHXNXNXpXpXpXNXNXHXHXHXDXNXNXpXpX",
"pXpXpXpXpXNXHXHXHXHXNXpXpXpXpXpXHXHXHXHXHXNXpXpXpXpXDXHXHXHXHXDXuXpXpXuXpXHXHXHXHXHXNXpXpXpXpXNXHXHXHXHXHXpXuXpXpXpXDXHXHXHXHXNXpXpXpXpXpXDXHXHXHXHXNXuXpXpXpXNXFXVXVXFXSXfXaXfXpXfXGXCXkXjXjXgXpXzXZXpXfXFXFXGXGXFXfXaXfXbXpXDXHXHXHXHXHXpXuXpXpXpXDXHXHXHXHXNXuXuXpXpXNXDXHXHXHXDXpXpXNXpXuXDXHXHXHXHXNXpXpXpXpXNXHXHXDXHXHXNXuXpXpXuXpXDXHXHXHXDXNXpXpXpXpXNXHXHXHXHXHXpXuXpXpXpXDXHXHXHXHXNXuXpXpXpXpXHXHXHXDXDXpXuXpXpXpXDXHXHXHXHXHXpXuXuXpXpXNXHXHXHX",
"NXNXpXpXpXNXDXHXDXNXNXpXpXpXNXNXHXDXDXHXHXNXpXNXNXpXDXHXHXHXHXNXpXNXpXpXpXDXHXHXHXHXNXpXpXpXpXNXHXDXHXHXHXNXpXpXpXpXDXHXHXHXHXNXpXNXNXpXpXDXHXDXHXHXNXpXpXpXpXNXVXVXFXFXPXbXlXbXZXDXFXGXjXCXjX0XlXzXZXpXNXFXFXGXGXFXfXuXpXlXlXZXHXDXHXHXHXNXpXpXpXpXDXHXHXHXHXNXpXpXpXpXNXNXHXHXHXDXpXpXpXpXpXDXHXHXHXHXNXpXpXNXpXNXHXHXDXHXHXpXpXNXNXpXpXNXDXDXHXHXNXpXpXpXpXNXHXDXHXHXHXNXpXNXpXpXDXHXHXHXHXNXpXNXpXpXpXDXHXHXHXHXNXuXpXpXpXDXHXDXHXHXHXNXpXpXNXpXNXHXHXDX",
"pXpXpXpXNXNXDXHXDXDXNXNXpXpXNXNXHXDXDXHXDXNXpXNXNXpXDXHXHXHXHXNXpXpXNXpXNXDXHXHXHXHXNXpXpXpXpXNXHXHXDXHXDXNXpXpXuXpXDXHXHXHXHXNXpXNXNXpXNXDXHXDXHXHXNXpXpXpXpXNXFXFXFXHXNXaXaXlXaXnXHXHXZXDXHXHXxXxXNXpXpXDXHXHXHXFXlXaXpXlXlXZXHXHXHXHXDXNXpXpXpXpXDXHXHXHXHXNXpXpXpXNXNXDXHXHXHXDXpXpXpXpXpXHXHXHXHXDXNXpXNXNXpXNXHXHXHXHXHXpXpXNXNXpXNXDXDXDXHXHXNXpXpXpXpXpXHXHXDXHXDXNXpXpXuXpXDXHXHXHXHXNXpXpXNXpXNXDXHXHXHXHXNXpXpXpXNXDXHXDXHXHXDXNXpXpXNXpXNXDXHXDX",
"pXpXpXNXNXDXHXHXHXHXDXNXNXpXpXpXHXHXHXDXNXpXpXpXpXpXNXDXHXHXHXHXuXpXpXNXNXHXHXHXHXHXNXpXpXpXNXNXHXHXHXDXNXpXpXpXuXpXNXHXHXHXDXNXpXpXpXNXNXHXHXHXHXHXNXpXpXpXNXNXFXHXHXHXDXlXlXZXxXzXcXHXHXLXFXLXNXiXiXsXCXFXFXhXFXDXxXaXaXlXxXAXHXHXHXHXNXpXpXpXpXNXDXHXHXHXDXNXpXpXpXNXNXHXHXHXHXDXNXpXpXNXNXHXHXHXHXDXNXpXpXpXpXNXDXHXHXHXNXpXuXpXpXNXNXHXHXHXHXHXNXNXpXpXpXNXHXHXHXDXNXpXpXpXuXpXNXHXHXHXDXNXuXpXpXNXNXHXHXHXHXHXNXpXpXpXNXNXHXHXHXHXNXpXpXpXpXpXpXNXDXHX",
"pXpXNXNXDXDXHXHXHXHXHXDXNXNXpXpXHXHXDXNXNXNXpXpXpXpXNXNXDXHXHXHXpXpXNXNXDXDXHXHXHXDXNXNXpXNXNXNXHXHXHXNXNXNXNXpXpXNXNXDXHXDXNXNXpXpXNXNXDXDXHXHXHXFXNXNXpXNXNXNXBXLXHXHXFXxXpXaXNXZXLXHXLXAXcXAX0X0X0XiXgXgXCXFXCXBXhXsXsXhXBXBXHXHXDXNXNXNXNXpXpXNXNXDXHXDXNXNXpXpXNXNXDXDXHXHXHXDXNXNXpXNXDXDXHXHXDXDXNXNXNXpXNXNXNXDXHXDXNXNXpXpXNXNXDXDXHXHXHXDXNXNXNXNXNXNXHXHXDXNXNXNXNXpXpXNXNXDXHXDXNXNXpXpXNXNXDXDXHXHXHXHXNXNXpXNXNXNXHXHXDXNXNXNXNXpXpXpXNXNXNXDX",
"DXDXDXDXDXNXNXNXNXNXNXDXDXDXDXDXNXNXNXpXNXDXDXDXNXDXNXNXNXNXpXNXHXDXDXHXDXNXpXpXNXNXDXDXNXNXDXNXpXNXNXNXNXDXHXHXNXDXNXNXNXNXNXNXDXNXDXHXDXNXNXNXNXNXDXDXNXDXFXDXxXAXvXxXxXFXFXBXBXHXDXaXaXZXAXFXCXCXjXCXFXhXhXpXBXNXBXCXBXBXCXBXsXNXNXpXNXDXHXHXNXNXNXNXNXNXNXNXDXDXDXDXNXNXNXpXNXNXDXDXNXDXHXNXNXNXNXNXDXHXHXDXNXNXNXNXDXNXpXNXDXNXDXHXHXNXNXNXNXNXNXNXDXDXDXDXpXNXNXpXNXDXHXHXNXDXNXNXNXNXNXNXHXDXDXHXDXNXpXpXDXNXDXDXNXNXDXNXNXNXNXNXNXDXHXHXDXDXDXNXNXNX",
"HXHXHXHXDXNXpXpXpXpXNXDXHXHXHXHXpXNXNXpXpXHXHXHXHXHXDXNXNXpXuXpXHXHXHXHXDXpXuXpXpXpXNXHXHXHXHXNXuXpXpXpXNXHXHXHXHXHXNXpXNXpXpXNXHXDXDXHXHXNXpXpXpXpXDXHXHXHXHXDXlXcXlXxXFXFXCXkXCXjX0XiXFXDX1XW.E.U.U.=XaXzXZXcXZXcXLXHXHXHXHXNXaXpXpXpXNXHXHXHXDXDXNXpXNXNXNXDXHXHXHXHXDXNXpXuXpXNXHXHXDXHXHXpXpXpXpXNXDXHXHXHXHXDXpXpXNXpXpXHXHXHXHXHXHXNXpXpXNXNXNXNXDXHXHXHXuXpXpXpXNXHXHXHXHXHXNXpXNXpXpXNXHXHXHXHXDXpXuXpXNXpXDXHXDXHXHXNXpXpXpXpXNXHXHXHXHXHXHXpXpXNX",
"DXHXHXHXHXNXNXpXpXNXNXDXHXHXHXHXpXNXNXpXpXDXHXDXDXHXNXpXNXpXpXpXHXDXHXHXHXpXpXpXuXuXNXHXHXHXHXDXpXNXNXpXpXHXHXHXHXHXNXuXpXpXpXNXHXNXDXHXHXNXpXNXuXuXDXHXHXHXHXDXzXcXcXxXsX3XQ.Y.h 4.E.XXU.q X   u d u , X > Z.eXZXZXHXHXHXHXHXhXpXNXpXpXpXHXHXHXHXHXpXuXpXpXNXHXHXHXHXHXDXNXpXpXpXNXHXHXDXHXHXpXpXpXpXNXDXHXHXDXHXHXpXpXNXpXpXHXHXDXDXHXHXNXpXNXpXpXNXDXHXHXHXHXpXNXpXpXpXHXHXHXHXHXNXuXpXpXpXNXHXDXHXHXHXpXpXpXpXpXDXHXHXHXHXNXpXNXNXpXpXHXHXHXDXHXDXpXpXNX",
"HXHXHXHXHXDXpXpXpXpXNXHXHXHXHXHXpXpXpXpXNXDXHXHXHXHXNXpXpXpXpXpXHXDXDXHXHXNXpXpXNXpXDXHXHXHXHXDXpXpXpXpXNXDXHXHXHXDXNXpXpXpXpXNXHXHXHXHXHXpXuXpXpXNXNXNXDXDXHXNXaXFXFXU.,     d d u         U.PXSXSXPXSXzX$Xj   !.zXHXHXHXVXCXCXpXuXNXNXpXDXHXHXHXHXpXuXpXpXpXNXHXHXHXDXNXpXpXpXpXpXDXHXHXHXHXNXuXpXpXNXDXHXHXHXHXDXpXpXpXpXpXHXHXHXHXHXHXDXpXuXpXpXNXHXHXHXHXHXuXpXpXpXpXHXHXHXHXDXNXpXpXpXpXNXHXHXHXHXDXNXpXuXNXpXDXHXHXHXHXDXpXpXpXpXNXDXHXHXHXHXNXpXpXpX",
"DXDXHXHXHXDXNXpXpXNXNXDXHXHXHXHXNXNXpXpXNXNXDXHXHXDXNXNXpXpXpXpXHXDXDXHXHXNXpXNXNXNXDXHXDXDXHXNXNXpXpXpXNXNXHXHXDXNXNXNXNXNXNXNXHXDXDXHXHXNXpXpXpXNXHXDXHXHXDXFXlX1X,   U.aXHXFXFXg X g !.j X W.PXPXPXSXSXPXnX:X  u PXVXFXVXCXhXpXuXpXpXpXHXHXHXDXHXNXpXNXpXpXDXHXHXDXDXNXNXpXpXNXpXDXHXHXHXHXNXpXpXNXNXNXDXHXHXHXDXpXpXNXpXpXHXDXDXHXHXHXNXNXpXpXNXNXDXHXHXHXHXpXNXNXpXpXDXHXHXDXNXNXNXNXNXNXNXDXDXHXHXDXNXpXpXNXNXDXHXDXDXHXNXNXNXpXNXNXDXHXHXHXHXNXNXpXpX",
"NXNXNXNXNXNXNXNXDXNXNXNXNXNXNXDXNXNXNXNXNXNXNXNXNXNXDXDXDXNXNXNXNXNXNXDXDXNXNXNXDXNXNXNXNXNXDXNXDXNXNXNXNXNXNXNXNXNXNXDXDXDXNXNXNXNXNXDXFXNXNXDXHXDXDXpXDXNXNXHX5X  f uXPXZXZXlXd < $XPXPXPX$X  U.FXFXNXHXaXaXHXaX, h VXbXuXPXpXHXDXDXNXNXNXHXNXNXDXNXNXDXNXNXDXNXNXNXNXNXNXNXDXNXNXNXDXNXNXDXNXNXNXNXNXNXNXNXNXDXDXNXNXDXNXNXDXNXNXNXNXNXNXNXNXNXNXNXNXNXNXNXDXNXDXNXNXNXNXNXNXNXNXNXDXDXDXNXNXNXNXNXDXDXDXNXNXDXNXNXNXNXNXDXNXDXDXNXNXNXNXNXNXNXNXNXNXNXNX",
"NXpXpXpXNXNXDXHXHXDXNXpXpXpXNXNXHXDXDXNXNXNXNXNXpXNXDXHXHXHXDXDXNXNXNXNXDXDXDXHXHXDXNXpXpXpXNXNXHXHXDXNXNXNXpXpXpXNXDXHXHXHXDXDXpXpXNXNXDXFXHXHXHXNXpXuXpXuXHX:X  f DXPXPXZXZXU.  $XHXLXAXHXHXaX# :XCX0XCXCXkXCXCXfX$ Q.aXlXnXZXHXHXHXHXDXpXpXpXpXNXDXHXHXHXDXDXpXpXNXNXNXDXHXHXHXNXNXpXpXpXNXNXHXHXDXDXNXNXpXpXNXNXDXHXHXDXNXNXNXNXpXpXNXNXDXHXHXDXNXpXpXpXNXNXHXHXHXNXNXNXpXpXpXNXDXHXHXHXDXDXpXpXNXNXDXDXHXHXHXDXNXpXpXpXNXNXHXHXHXDXNXNXpXpXpXpXNXDXDXDX",
"pXpXpXpXpXNXDXHXHXHXNXpXuXpXpXNXHXHXHXDXNXNXpXpXpXpXDXHXHXHXHXHXpXpXNXNXNXDXHXHXHXHXNXpXpXpXpXNXHXHXHXDXNXNXpXpXpXNXDXHXHXHXHXDXpXpXpXNXNXHXHXHXHXDXuXpXpXpXNXi i PXPXNXFXlX$X$ !.HXFXCX,X`.6.q o . : q q p a 4.'.kXuX  zXeXzXAXHXDXpXHXHXuXpXNXpXpXDXHXHXHXHXDXuXpXpXNXNXHXHXHXHXDXNXpXpXpXpXNXHXHXHXDXNXpXpXpXpXNXHXHXHXHXDXNXpXpXpXpXpXNXDXHXHXHXNXpXpXpXpXNXHXHXHXHXNXNXpXpXpXNXDXHXHXHXHXDXpXpXpXNXNXHXHXHXHXHXNXpXpXpXpXNXHXHXHXDXNXpXpXpXpXpXNXDXHXHX",
"pXpXpXpXNXNXHXHXHXHXNXpXpXpXpXpXHXHXHXHXDXNXpXpXuXpXNXHXHXHXHXHXpXpXpXpXNXDXHXHXHXHXNXpXpXpXpXNXHXHXHXHXDXNXpXpXpXNXDXHXHXHXDXDXpXpXpXpXNXDXHXHXHXHXpXpXNXHXW.X 6XDXHXxXHXAX,   XX4.7 . @ . 9 e 1.m 1.m l l 9 ; . + . . d vXAXAXHXHXNXHXHXpXpXpXpXpXDXHXHXHXHXNXpXpXpXNXDXDXHXHXHXHXNXuXpXpXpXDXHXHXHXDXNXNXpXpXpXNXHXHXHXHXHXpXpXpXpXpXNXNXHXHXHXHXNXpXpXpXpXNXHXHXHXHXDXNXpXpXpXNXDXHXHXHXDXDXpXpXpXNXNXDXHXHXHXHXNXpXpXpXpXNXHXHXHXHXNXNXpXpXpXpXNXDXHXHX",
"pXpXpXNXNXDXHXHXHXHXNXNXpXpXpXNXHXHXHXHXDXNXpXpXpXpXNXDXHXHXHXDXpXNXpXpXpXDXHXHXDXHXNXpXNXNXpXNXHXHXHXHXDXNXNXpXpXNXNXDXHXFXDXNXpXNXNXpXpXDXHXDXHXHXNXpXpXNXi h HXFXLXLXcXE.o . o * 0 1.b g.k.k.k.c.h.h.c.c.h.k.n.3.>.; . * c dXhXHXHXHXHXpXNXpXpXpXDXHXHXHXDXNXpXpXNXNXNXDXDXDXHXHXNXpXNXNXNXHXHXHXDXDXNXNXNXNXpXpXHXHXDXHXHXpXpXpXpXNXNXDXHXHXHXHXNXNXpXpXpXNXHXDXHXHXHXNXpXNXpXNXNXDXHXDXDXNXNXpXpXpXNXNXHXHXDXHXNXpXNXNXpXNXHXHXHXHXDXNXpXpXpXNXNXDXHXHX",
"pXpXNXNXNXDXHXHXHXHXDXNXNXNXNXNXHXHXHXHXDXNXNXpXpXpXNXDXDXHXHXHXpXNXNXpXpXDXHXDXDXHXNXpXDXNXNXDXDXDXHXHXHXDXNXNXNXNXNXDXDXDXNXNXlXDXNXpXiXNXGXDXHXFXDXSXNXuX  4XLXLXxX>Xp o o p 5.y.,.M h.#.#.O.O.O.| -.=.| -.| #.v.g.n.b.m * o T.iXFXHXFXlXSXbXfXiXGXHXFXDXDXfXNXNXNXNXNXNXNXNXDXHXNXpXNXNXNXHXHXDXDXDXNXNXNXNXpXpXDXHXNXHXHXpXpXNXNXNXNXDXHXHXHXHXDXNXNXNXNXNXHXNXDXHXHXNXNXNXNXNXNXDXDXDXNXNXNXNXNXNXNXNXDXHXDXHXNXpXNXNXNXDXDXDXDXHXDXNXNXpXNXNXNXNXDXHX",
"HXHXHXHXHXNXpXpXpXpXNXHXHXHXHXHXuXpXpXuXpXDXHXHXHXHXNXNXpXpXpXpXHXHXHXHXHXpXuXpXpXpXDXHXHXHXHXNXuXpXpXuXpXHXHXHXHXHXNXuXpXpXuXNXHXHXHXHXCXgX0XaXuXnXPXSXHX:X  NXkXdXp o 5 O 9 s.e.M C E &.O.O.....) ) ) ) ) ....-.O.{ #.x.c.j.g.o . >XAXzXSXSXSXGXCXhXaXpXuXaXFXHXHXHXHXHXpXuXpXuXpXHXHXHXHXHXpXpXuXuXpXNXHXHXHXHXHXpXuXpXuXpXHXHXHXHXHXHXNXpXpXpXNXNXHXHXHXHXHXuXpXpXpXpXHXHXHXHXHXNXpXpXpXuXNXHXHXHXHXHXpXuXpXpXpXDXHXHXHXHXNXuXpXpXuXpXHXHXHXHXHXDXpXpXpX",
"HXNXDXHXHXNXNXNXNXNXDXHXHXHXDXDXpXNXNXpXpXNXDXNXDXDXNXNXpXpXNXNXHXDXDXHXHXNXpXNXpXpXDXHXHXHXHXNXpXNXNXpXpXDXHXDXDXHXNXpXpXpXpXZXHXFXFXFXCXgXgXfXbXwXnXSXHXY., FX'.o o c R.& l ,.Y I S } o.( ( ..) / ) / ) ) ) ) ( ..o.o.o... .&.}.x . !.nXSXmXSXGXCXhXsXxXNXfXGXHXDXDXHXHXNXpXpXpXNXDXHXNXHXHXNXNXpXpXpXNXHXHXHXHXDXpXpXNXpXpXNXHXNXDXHXHXNXNXNXNXNXDXHXHXHXDXDXpXNXNXpXpXDXHXHXHXHXNXuXpXpXpXDXHXDXDXHXHXNXpXNXpXpXDXHXHXHXHXNXpXNXpXpXpXDXHXHXDXDXDXpXpXNX",
"HXDXDXHXDXNXNXNXNXNXNXDXHXHXHXDXpXNXNXpXpXNXDXDXDXDXNXNXNXpXNXNXHXDXDXHXDXNXpXpXpXpXDXHXHXHXHXNXpXNXNXpXNXDXHXHXHXHXNXpXhXhXpXZXHXLXFXFXCXgXgXfXbXaXPXHXZXf < g @ q 6.6.6.O m q.M U { o...( ( ( ) ) ) ) ) ) ) ) ~ ..-.=. .~  .j.m. X8.  4.SXSXfXVXCXhXsXNXNXbXDXHXDXDXHXDXNXpXNXpXNXDXHXDXHXHXNXNXpXpXpXNXDXHXHXHXDXNXpXNXpXpXDXHXDXDXHXDXNXNXNXNXNXNXDXHXHXHXDXpXpXNXpXNXDXHXHXHXHXNXpXpXpXNXDXHXFXDXHXHXNXpXpXpXpXDXHXHXHXHXNXpXpXNXpXNXDXHXHXDXHXDXNXpXNX",
"HXHXHXHXNXpXpXpXpXpXNXNXDXHXHXHXpXpXpXNXNXDXHXHXHXHXDXNXNXpXpXpXHXHXHXDXNXpXpXpXuXpXNXHXHXHXHXNXpXpXpXNXNXHXHXHXHXHXDXNXNXpXpXpXHXHXHXGXkXfXiXaXlXZXHXFXHXg   + e <.7.7.y.% b Y I { %.o...) ) / ) ) ) ) ) ) ) ..( ..o.o. . . .$.h.r. X[.X T.gXVXhXNXsXsXxXaXaXSXHXHXHXDXNXfXpXpXuXpXHXHXHXHXNXpXpXpXpXNXNXHXHXHXHXHXpXuXpXpXNXHXHXHXHXDXNXpXpXpXpXpXNXNXDXHXHXHXuXpXpXNXNXHXHXHXHXHXNXpXpXpXpXNXHXHXHXDXNXpXpXpXpXNXDXHXHXHXDXNXuXpXpXNXNXHXHXHXHXHXHXNXNXpX",
"HXHXDXNXNXNXNXpXpXpXNXNXNXDXHXHXpXpXNXNXDXDXHXHXHXHXDXDXNXNXpXpXHXHXDXNXNXNXNXpXpXNXNXDXHXHXNXNXpXpXNXNXDXDXDXHXHXDXDXDXNXNXNXpXHXHXDXNXNXbXbXlXzXnXlXBXCX, . a 7.e.0.e.N % k I E | o.) ) *.' / ) ) ) ) ) ) ) .............. .X.&.h.k.B.b.X Q.FXHXDXsXNXNXpXaXPXHXHXDXNXNXNXNXpXpXNXDXHXHXDXNXpXpXpXNXNXDXDXHXHXHXDXNXpXpXNXHXHXHXHXHXNXNXNXNXpXpXpXNXNXNXDXHXHXpXpXpXNXDXDXDXHXHXHXDXNXpXpXNXNXHXHXDXNXNXNXNXpXpXNXNXDXHXDXNXNXpXpXNXNXDXDXHXHXHXDXDXDXNXNX",
"NXNXNXpXNXDXHXDXHXDXNXNXNXNXNXNXHXDXDXHXDXNXNXNXpXNXNXDXDXDXDXDXpXNXNXpXNXDXHXHXNXDXNXNXNXNXNXNXHXDXDXHXDXNXpXpXpXpXNXHXDXDXHXNXpXhXhXfXbXSXPXHXFXHXBXjXp . q 8.e.q.q.K w.= k U @.O..._ / *.*./ ) ) ) ) ) ) ................ .o.-.` #.c..X<.+ >XHXAXNXCXFXGXbXSXlXNXNXpXNXDXHXHXLXDXNXNXNXNXNXDXNXDXHXDXNXNXpXpXNXNXHXHXNXHXHXNXNXNXNXpXNXDXHXDXHXDXNXNXNXNXNXNXHXDXDXDXDXNXpXpXNXNXNXDXNXDXHXDXpXNXNXpXNXDXHXHXNXNXNXNXNXNXNXNXHXDXDXHXDXNXpXNXNXNXNXDXHXDX",
"pXpXpXpXpXHXHXHXHXHXDXNXpXpXpXpXHXHXHXHXHXNXpXpXpXpXNXDXHXHXHXHXuXpXpXpXNXHXHXHXHXHXNXpXNXpXpXNXHXHXHXHXDXpXuXpXpXuXNXHXHXHXHXGX0XiXiXaXbXPXHXHXHXHXCXT.+ 3 0 ,.N K w.G Y k U D $. .( ^ ) ' ) ) ) ) ) ) ) ) ...................._ *._ | v.OXa : 7XAXHXFXCXFXSXSXaXpXpXpXNXHXHXHXHXHXpXpXNXpXpXHXHXHXHXHXNXpXpXpXpXNXHXHXHXHXHXpXpXpXNXpXpXHXHXHXHXHXDXNXpXpXpXpXHXHXHXHXDXpXuXpXpXpXNXHXHXHXHXDXuXpXpXpXNXHXHXHXDXDXNXpXNXNXNXDXHXHXHXHXDXpXuXpXpXpXpXHXHXHX",
"pXNXNXpXpXDXHXHXHXDXNXNXpXpXpXpXHXDXDXHXHXNXpXNXpXNXNXHXHXHXHXHXpXNXNXpXpXHXHXHXHXHXNXuXpXpXpXNXHXHXHXHXHXpXpXpXpXpXDXHXHXHXHXNX0XgXfXpXlXPXHXHXHXsX8X. e >.= r.Y T G T W U Z E O...) / / ) ) ( ) ) ) ) ) ) ....=...( ( ........^ ' / O.x.B.+Xo E.lXHXFXkXVXSXSXpXNXNXpXNXHXHXHXHXDXpXpXNXpXpXHXDXHXHXHXNXpXpXpXpXNXHXHXNXHXHXpXpXNXNXpXpXDXHXHXHXDXNXNXpXpXpXpXHXDXHXHXHXpXpXpXpXpXDXHXHXHXHXNXpXNXpXpXpXHXHXHXHXHXpXuXpXpXNXHXHXDXHXHXHXpXpXpXpXpXNXHXHXDX",
"pXpXuXuXpXNXHXHXHXDXNXpXpXpXpXNXHXHXHXHXHXNXpXuXpXNXDXHXHXHXHXDXpXpXuXuXpXNXHXHXHXDXNXpXpXpXpXNXHXHXHXHXDXNXpXuXpXNXDXHXHXHXHXGX0X0XgXpXuXFXHXHXHXCXw 3 u.<.,.K Y H U G J U S $.$...) ) ) ........) ) ) ) ) ) ..................( ^ / *.&.B.+X`.. xXxXFXCXCXFXNXaXpXpXNXDXHXHXHXDXHXNXuXNXpXuXNXHXHXHXDXNXpXpXpXpXNXDXHXHXHXHXDXpXpXuXuXpXNXHXHXHXDXNXpXpXpXpXNXHXHXHXHXHXNXpXuXpXNXDXHXHXHXHXDXpXpXpXpXpXDXHXHXHXDXNXpXpXpXpXNXHXHXHXDXNXpXpXpXuXpXNXHXHXHX",
"NXpXpXpXpXNXHXHXDXNXNXpXpXNXNXNXDXHXHXHXHXNXNXpXNXNXNXDXHXDXDXDXNXpXpXpXNXNXHXHXDXNXNXNXNXNXNXNXDXDXHXDXDXNXpXpXNXNXNXDXHXDXDXGXgXgXhXfXlXAXLXAXBXXX* 1.<.9.w.Y T H U J J U S @.X.....) ..........) ) ) ) ) ) ....................^ ) ..X.l.}.oXq c FXNXCXCXCXfXpXpXNXNXNXDXHXHXNXHXNXpXNXNXpXNXHXHXHXDXNXNXpXpXpXNXDXHXHXHXDXNXNXpXpXpXpXNXHXHXDXNXNXNXNXNXNXNXDXHXHXHXDXNXpXpXNXNXNXDXHXHXDXDXNXNXpXpXNXNXHXHXDXNXNXNXNXNXNXNXHXHXDXDXNXNXpXpXpXNXNXHXHXHX",
"DXDXDXNXNXNXNXNXNXNXNXNXNXNXDXDXNXNXNXNXNXNXNXNXDXNXNXNXNXNXNXNXDXDXDXNXNXNXNXNXNXNXNXDXDXDXNXNXNXNXNXDXDXDXNXNXDXNXNXNXNXNXNXNXkXjXGXDXZXZXcXxXCXq 9 y.9.K T T H H H G J U U @.X. ...) .... . .........) ) ....) ..............o...( ..X.@.M.+X`.o uXpXFXgXhXhXGXGXNXNXNXNXNXNXNXNXNXDXDXNXNXNXNXNXNXNXNXDXDXDXNXNXNXNXNXNXNXNXDXDXNXNXNXNXNXNXNXNXNXDXDXDXNXNXNXNXNXNXNXNXNXNXDXNXNXNXNXNXNXNXDXNXNXNXNXNXNXNXNXNXNXDXDXDXNXNXNXNXNXNXNXNXNXNXNXNXNXNXNXNX",
"HXHXHXHXDXNXpXpXpXNXDXHXHXHXHXHXpXpXpXpXNXNXHXHXHXDXNXpXpXpXNXNXHXHXHXHXHXNXpXpXpXNXDXHXHXHXDXDXpXpXNXNXDXDXHXHXHXDXNXpXpXpXNXhXCXCXFXHXHXzXzXBX,X. <.,.q.G F W H H H H J U E $.X.....) .... . .................) ..............o.o.( (  .{ l. X+X* E.DXNX6XiXgXFXHXFXDXNXNXpXpXNXpXDXHXHXHXHXNXpXpXNXNXDXHXHXHXHXDXNXpXuXpXNXDXHXHXHXHXDXNXpXpXpXNXDXHXHXHXHXDXpXpXpXpXNXNXHXHXHXDXNXpXpXpXNXNXHXHXHXDXDXNXpXpXpXNXDXHXHXHXDXDXpXpXNXNXNXDXHXHXHXHXNXNXpXpX",
"HXHXHXHXHXNXpXuXpXNXNXHXHXHXHXHXpXpXpXpXNXNXHXHXHXDXNXpXpXpXpXNXHXHXHXHXHXNXpXuXpXNXDXHXHXHXHXDXpXpXpXNXDXHXHXHXHXDXNXpXpXpXpXhXCXCXHXHXHXwXxXjXp 3 2.q.K P T H H F H U J S E $.X...) ) ) ......................) ......) ) ) ..o.o.( ( .. .&.N.OX4.i ZXaXlXVXiXHXHXHXDXNXpXpXpXpXpXDXHXHXHXHXNXpXpXpXNXNXDXHXHXHXDXNXpXpXpXpXNXHXHXHXHXHXNXpXpXpXpXDXHXHXHXHXDXpXpXpXpXpXNXHXHXHXDXNXpXpXpXNXNXHXHXHXHXDXNXpXuXpXNXDXHXHXHXHXDXpXpXpXNXNXHXHXHXHXHXNXpXpXpX",
"HXHXHXHXDXNXpXpXpXNXNXHXHXHXHXHXpXpXpXpXNXNXHXHXHXHXNXpXpXpXNXNXHXHXHXHXDXNXpXpXpXNXDXHXHXHXDXDXpXpXpXNXNXDXHXHXHXFXNXpXpXpXNXNXFXVXHXHXHXrXNX8X. >.,.r.G H U A H F F U J S { $. .) ) / ) ) ............................) ) ) .. .o.( ^ / ' O.h.}.oX+ yXnXZXNXVXHXHXHXDXNXNXpXpXpXpXDXHXHXHXHXNXpXpXpXNXNXDXHXHXHXDXNXpXpXpXNXNXHXHXHXHXHXNXpXpXpXNXDXHXHXHXHXDXpXpXpXpXNXDXHXHXHXDXNXpXpXpXNXNXHXHXHXHXDXNXpXuXpXNXDXHXHXHXDXDXpXpXpXNXNXDXHXHXHXHXNXNXpXpX",
"HXHXHXDXNXNXNXpXNXNXNXDXDXHXDXDXpXpXNXNXNXDXDXHXHXDXNXNXNXNXNXNXHXHXDXDXNXNXpXpXpXNXNXDXHXDXDXNXNXpXpXpXNXDXHXHXHXDXNXNXpXNXNXNXFXGXHXZXHXlXNXR.o <.e.K T U J J H F F U J S @.X...) / / / / ) ......................) ) ) ) ) ) ....( ^ ! ' / | V.|.: W.SXzXxXFXHXHXDXDXNXNXNXNXNXNXDXHXDXDXDXNXpXpXNXNXNXDXDXDXHXHXNXuXuXpXNXHXHXHXHXDXNXNXNXpXpXNXNXDXHXHXDXNXNXNXNXNXNXDXHXHXHXDXNXNXNXNXNXNXHXHXHXDXDXNXNXpXpXNXNXDXHXDXDXNXpXpXNXNXNXDXDXHXHXHXDXNXNXpX",
"DXDXNXNXNXNXNXNXNXNXNXNXNXDXDXDXNXNXNXNXDXDXDXDXDXDXNXNXNXNXNXNXDXDXNXNXNXNXNXNXNXNXNXDXDXDXNXNXNXNXNXpXNXNXDXHXDXDXNXNXNXNXNXNXBXNXHXlXFXLXBXa ; d.N K T Z J J H F F T J S @.X.../ / / / ) ) ..................) ) ) ) ) ) ........) ^ ! ! / | N.|.4.g zXzXZXpXDXDXDXDXNXNXNXNXNXNXNXDXDXNXNXNXNXNXNXNXNXNXNXNXDXDXNXNXNXNXNXDXDXDXNXNXNXNXNXNXpXNXNXDXDXDXNXNXNXNXNXNXDXDXDXDXDXDXNXNXNXNXNXNXHXDXDXDXNXNXNXNXNXNXNXDXDXDXNXNXNXNXNXNXNXNXDXDXDXDXDXNXNXNX",
"pXpXpXuXpXDXHXHXHXHXNXNXpXpXpXpXHXHXHXHXHXpXuXpXpXNXDXHXHXHXHXHXuXpXpXuXpXHXHXHXHXHXNXuXpXpXpXNXHXHXHXHXHXpXuXpXpXpXDXHXHXHXHXDXpXaXNXNXlXHXBX* e ,.Y F L F J H F K K T G Z @.$.) / / / / )  . .) ) ..........) / / / / ) ( ........) ) / ) O.&.n.|.8.: FXbXSXbXuXpXpXpXpXHXHXHXHXDXpXpXNXpXuXDXHXHXHXHXNXpXuXpXpXNXHXHXHXHXHXpXuXpXpXuXpXHXHXHXDXHXNXpXNXpXpXNXHXHXHXHXHXpXuXpXpXpXDXHXHXHXHXNXuXpXpXuXpXHXHXHXHXHXNXuXpXpXuXNXHXHXHXHXHXpXuXpXpXuXpXHXHXHX",
"pXNXNXpXpXNXDXNXDXNXNXpXpXpXNXNXHXDXDXHXHXNXpXNXpXNXNXDXHXHXHXHXpXNXNXpXpXDXHXDXHXHXNXpXpXpXpXNXHXDXDXHXHXNXpXNXpXpXDXHXHXHXHXDXcXlXNXhXpXLXdX@ l q.Y F L L J H F F F T G Z @.$.../ / / ) ..X.X...............) / / / / / ( ( ......) / / / O.&.l. X[.. jXVXMXmXpXNXNXpXpXDXHXHXHXDXpXpXNXpXpXDXDXHXHXHXNXpXpXNXpXNXHXHXDXHXHXNXpXNXNXpXpXDXHXDXDXHXNXpXNXpXpXNXHXDXHXHXHXNXpXNXpXpXDXHXHXHXHXNXpXNXNXpXpXDXHXDXHXHXNXpXpXpXpXNXHXDXDXHXHXNXpXNXNXpXNXHXHXDX",
"pXNXNXpXpXNXDXDXDXDXNXNXNXpXNXNXHXDXDXHXDXNXpXNXpXpXNXDXHXHXHXHXpXNXNXpXNXDXHXHXHXHXNXpXpXpXpXNXHXDXDXHXDXNXpXNXpXpXNXHXHXHXHXLXcXlXNXhXpXAX7X@ >.q.K F L L H J J J J U Z S { $...) ) / ) ..X.X.$.$.X.X. .....) ) ) ) ) ) ) / )  .../ ! ! ! / O.h.}.+X. kXCXPXaXpXNXNXpXNXDXHXHXHXHXpXpXpXpXpXHXDXHXHXHXNXNXNXNXpXNXDXHXDXHXHXNXpXpXNXpXNXDXHXDXHXHXNXNXNXpXpXpXHXDXDXHXHXNXpXNXpXpXNXHXHXHXHXDXpXNXNXpXNXDXHXHXHXHXNXpXpXpXpXNXHXDXDXHXDXNXpXNXpXpXNXDXHXDX",
"pXpXpXNXNXDXHXHXHXHXDXNXNXpXpXpXHXHXHXDXNXNXpXpXpXNXNXNXDXHXHXHXpXpXpXNXNXHXHXHXHXHXNXNXNXNXpXpXHXHXHXDXNXNXpXpXpXpXNXDXDXHXHXHXxXaXhXhXlXDX7X@ <.q.K F L L H J Z Z U U Z S E $.X...) ) ) ) ..X.$.$.X. .( ) ) ) .... .....) / ) X.X.) ! ! ! ! ..c.B.{.* XXFXFXZXpXpXpXNXNXHXHXHXHXDXNXpXpXNXNXHXHXHXHXDXNXpXpXpXuXNXHXHXHXHXNXpXuXpXpXNXNXHXHXHXHXHXDXNXNXpXpXpXHXHXHXDXNXNXpXpXpXpXNXDXDXDXHXHXpXpXpXNXNXHXHXHXDXDXNXNXNXNXNXNXHXHXHXDXNXNXpXpXpXpXNXNXDXHX",
"pXpXNXNXDXDXHXHXHXHXHXDXNXNXpXpXHXHXDXNXNXNXNXpXNXNXNXNXNXDXDXDXpXpXNXNXDXDXDXHXDXDXDXDXNXNXNXNXHXHXDXNXNXNXNXpXNXNXNXNXNXNXDXLXxXpXhXhXNXNX,Xo 2.q.K F L L U J S S U U Z S E $.$. .) ) ) ) ) ..X. .( / ! ! / ) ..X.$.$.o.......$.$. .( / / ) o.+..XOXx @ <XAXAXlXpXNXNXDXDXDXHXPXDXNXNXpXNXDXDXHXHXDXNXNXNXNXpXpXNXDXHXHXDXNXpXpXpXNXNXDXDXDXHXDXDXDXDXNXNXNXNXHXHXDXNXNXNXNXpXNXNXNXNXNXDXDXDXpXpXNXNXDXDXDXHXNXNXNXDXDXDXNXNXHXHXDXNXNXNXNXpXpXNXNXNXNXDX",
"HXDXDXHXHXNXNXNXpXNXNXDXFXHXDXDXpXNXNXpXNXDXHXHXDXNXNXNXNXNXNXNXHXDXDXHXDXNXpXpXNXNXDXHXDXDXDXNXpXNXNXpXNXDXHXHXDXDXNXpXNXNXNXDXHXFXCXVXDXsXXX. 2.q.G F L H U J J J U J Z S U $.$.X...) ) ) ) .. ...) / ! ! / / ..X.$.$.%.o.O...X.$.X.X... .o.%.#.h.}.OX5.. <XAXLXDXDXHXDXNXpXpXNXNXDXNXNXDXHXNXNXNXpXNXNXHXHXHXDXDXNXNXNXNXpXDXHXDXDXHXDXNXpXpXNXNXDXHXNXDXDXNXpXNXNXpXNXDXHXHXDXDXNXpXNXNXNXDXHXDXDXHXDXNXpXpXNXpXDXHXDXHXHXNXpXNXNXpXNXDXHXHXHXHXDXNXpXNX",
"HXHXHXHXHXNXpXpXpXpXNXDXHXHXHXHXuXpXpXpXNXHXHXHXHXDXNXNXpXpXpXpXHXHXHXHXDXpXuXpXpXpXNXHXHXHXHXNXuXpXpXpXNXHXHXHXHXHXNXpXpXpXpXNXHXHXCXCXHXsXXX. <.9.G T H F U J H L T J J S S $.X.X.............o.o...) / / / ) ....o.o.o.o.....) ..o.$.&.&.&.&.&.#.c..XOX5.. AXHXHXHXHXDXpXuXuXpXNXHXHXDXHXHXpXpXpXuXpXNXHXHXHXHXDXpXpXpXpXpXHXHXHXHXHXHXpXpXpXNXpXNXHXDXHXHXDXuXpXpXpXNXHXHXHXHXHXNXpXpXpXpXNXHXHXHXHXDXpXuXpXpXpXDXHXHXHXHXNXuXpXpXpXNXHXHXHXHXHXHXNXpXpX",
"HXDXDXHXHXNXpXNXpXNXNXDXHXHXHXHXpXpXpXpXpXHXHXHXHXHXNXNXpXpXpXpXHXHXHXHXHXpXpXpXuXuXNXHXHXHXHXDXpXpXpXpXpXHXHXHXHXHXNXpXpXpXuXNXHXFXCXFXHXNX>Xo 1.N K T H G J J L w.w.F J S S $.$.X.X.o.%.%.$.&.j.h.j.&.&.&.#.O.O...............) O.&.j.l.l.l.h.#.#.h.k. X+X. >XHXDXDXHXHXpXuXpXpXNXHXHXDXHXHXpXNXpXuXpXNXHXHXHXHXDXpXpXNXpXpXHXHXHXHXHXHXNXpXpXpXpXNXHXDXHXHXHXpXpXpXpXpXHXHXHXHXHXNXpXpXpXuXNXHXHXHXHXHXpXpXpXpXpXDXHXHXHXHXNXpXpXpXpXpXHXHXHXHXHXHXpXpXpX",
"NXDXHXHXHXDXNXpXpXpXNXHXHXHXHXHXNXNXpXpXpXNXDXHXHXHXNXpXpXpXpXpXNXHXHXHXHXDXNXpXpXNXDXHXHXHXHXDXDXNXpXpXpXNXHXHXHXDXNXpXpXpXpXNXBXFXCXGXFXNX6Xo l q.Y F T T Z U L L T G S A D &.&.| j.l.l.z.R M k r r m e.b.m.c.-.O._ _ *.^ ..O.-.v.k.r.<.1.1.B g.g.v.k.}.+Xq T.FXHXHXHXNXuXpXuXNXpXNXHXDXHXHXDXpXNXNXNXNXDXDXHXDXHXNXuXpXpXpXDXBXDXHXHXHXDXNXpXpXpXNXHXHXHXHXHXNXNXpXpXpXNXDXHXHXDXNXpXpXpXpXNXDXHXHXHXHXDXNXpXNXNXDXHXHXHXHXHXpXNXNXNXNXDXDXDXHXDXNXpXpXpX",
"HXHXHXHXDXNXpXuXNXNXNXDXDXDXDXDXpXpXpXpXNXDXHXHXDXDXNXNXlXbXpXNXHXHXHXHXFXNXpXuXNXNXNXDXDXDXDXDXpXpXpXpXNXDXHXHXDXNXNXNXNXNXNXNXFXHXCXVXDXNX6X* l q.Y K L T J J L P T J Z D D +.j.j.z.m.z = * 3 e x a 9 o @ 0 N k.#.-._ _ O.@.j.M 0 * o 5 a w 3 . + r b.|.+Xp Y.FXHXHXHXHXpXpXDXpXpXDXHXHXHXDXNXpXpXpXNXNXHXHXHXHXDXNXpXpXNXNXHXHXHXHXHXFXNXpXuXNXNXNXDXHXHXHXDXpXpXpXpXNXDXHXHXDXDXNXNXNXNXNXNXHXHXHXDXNXNXpXpXpXNXDXHXHXHXDXNXpXpXpXNXNXHXHXHXHXHXDXNXpXpX",
"pXNXNXNXNXDXDXDXDXDXNXNXNXNXNXNXHXHXDXNXNXNXNXNXNXNXNXDXDXDXDXDXpXNXNXNXNXDXDXDXDXNXNXNXNXNXNXNXHXDXDXNXNXNXNXNXNXNXNXDXDXDXDXDXpXhXhXfXZXLXBXq e ,.w.K K H U J H J U S D D n [ m.B.,.O 9 `.8XjXjXjXFXHXLX7Xx = 0 r.c.h.j.l.w.4 * a @XCXLXLXLXBXdXQ.w X UX,XX XXGXDXpXpXHXFXNXHXNXDXNXpXNXNXNXDXDXDXDXNXNXNXNXNXNXNXDXHXDXDXDXNXpXNXNXNXNXDXDXDXDXDXNXNXNXNXNXNXHXHXDXNXNXNXNXNXNXNXNXDXDXDXNXNXNXNXNXNXNXNXDXHXDXDXNXNXNXNXNXNXDXDXDXNXNXNXNXNXNXNXNXNXNXDX",
"uXuXpXpXNXDXHXHXHXHXNXpXpXpXpXpXHXHXHXHXDXNXpXuXpXpXNXHXHXHXHXHXuXuXpXpXNXDXHXHXHXDXNXpXpXpXNXNXHXHXHXHXNXpXuXuXpXNXDXHXHXHXHXDXuXuXuXaXZXHXLX4.2 e.q.Y L T U Z J U A U Q n C z.M.9 * XXjXFXLXHXFXPXSXZXAXLXFXqX>.* N n.B.,.& x kXFXHXLXcXAXLXHXHXHXFX>X: X : hXpXpXpXuXNXHXHXHXHXHXpXuXpXpXpXHXHXHXHXDXNXpXpXuXuXpXHXHXHXHXHXpXuXuXuXpXNXDXHXHXHXHXNXpXpXpXpXNXHXHXHXHXDXNXpXuXpXNXDXHXHXHXDXDXuXuXpXpXNXDXHXHXHXHXNXpXuXpXNXDXHXHXHXDXNXpXpXuXuXpXNXDXHXHX",
"NXpXpXpXpXNXDXHXHXHXNXpXaXaXpXpXDXHXHXHXHXDXNXpXuXpXNXHXHXHXHXHXNXpXpXpXpXNXDXHXHXDXNXpXpXpXpXNXDXDXHXHXDXNXpXpXpXpXDXHXHXHXHXDXbXpXiXiXzXFXLX'.o e.N Y K T U S Z A A U I M r.N ; e jXFXLXHXHXZXHXFXHXHXAXZXHXFXkX[.. 6.8.o '.BXCXDXNXDXHXHXHXFXHXHXNXGXhXh q kXaXuXNXNXNXDXHXDXDXHXNXpXNXpXpXNXHXHXDXDXNXNXNXNXpXpXDXHXHXHXHXNXNXpXpXpXpXNXDXHXHXHXNXpXuXuXpXpXDXHXHXHXHXDXNXpXpXNXDXHXHXHXFXDXNXpXpXpXpXNXDXHXHXDXNXpXpXpXpXpXHXHXDXDXNXNXNXNXpXNXDXHXHXHX",
"NXpXpXpXNXNXDXHXHXHXNXpXpXpXpXNXHXHXHXHXDXNXNXpXpXpXNXHXHXHXHXDXpXpXpXpXNXNXDXHXHXDXNXpXpXpXNXNXDXHXHXHXDXNXpXpXpXpXNXHXHXHXHXDXbXpXiXaXnXLXLX8XO ,.N Y K T J U H Z H T G r.,.= x jXFXLXFXSXnXPXFXFXPXHXHXZXFXHXCXqXQ.+   :XAXLXHXHXPXPXHXHXHXHXFXFXhXFXFXFX7 d LXNXpXNXNXNXHXDXHXHXNXpXpXpXpXNXHXHXDXDXNXNXNXpXpXNXDXHXHXHXDXNXpXpXpXpXNXNXDXHXHXHXNXpXpXpXpXNXHXHXHXHXDXNXNXpXpXNXNXHXHXHXDXNXpXpXpXNXNXNXDXHXHXDXNXpXpXpXpXNXHXHXHXDXNXNXNXpXpXNXNXDXHXHX",
"pXpXpXNXNXDXHXHXHXDXNXNXNXNXNXNXHXHXHXDXNXNXpXpXNXNXDXDXHXDXNXNXpXpXpXNXNXDXHXHXHXDXNXNXNXNXNXNXHXHXHXHXNXNXpXpXpXNXNXDXHXDXDXNXpXpXiXpXnXHXLXCX4 z 9.K K T G U T L L w.q.e.4 q CXvXLXFXPXSXSXVXhXNXHXHXHXHXHXDXFXCXGXY.X ZXPXnXNXHXPXPXPXPXHXFXCX9XCXCXHXHXLX$ :XDXuXpXHXDXHXDXHXDXNXpXpXpXDXDXHXHXHXDXNXNXpXpXpXNXDXHXHXDXNXpXpXpXlXNXNXDXHXHXDXDXNXNXpXNXNXNXHXHXHXDXNXNXpXpXpXNXNXDXDXDXDXNXpXpXNXNXDXHXHXHXHXHXNXpXpXpXNXDXHXHXHXDXNXNXpXpXpXpXNXNXDXHX",
"FXGXDXDXDXNXNXNXGXGXNXNXNXNXGXGXhXhXZXZXDXNXGXDXZXDXDXGXGXNXNXbXHXDXDXGXNXNXNXNXLXFXDXDXNXNXNXNXNXNXNXNXDXDXHXHXpXNXNXNXDXNXNXNXHXDXNXnXZXZXxXCXx 0 e.9.M T Z U G t.K K 0.x o kXAXAXAXHXSXSXVXgXCXFXHXHXLXHXHXHXHXfXfXSXX !.SXPXfXFXHXFXSXHXHXFXFXCXgXCXHXcXLX!.h NXHXpXHXNXHXNXDXNXDXHXNXNXDXNXNXNXNXNXDXDXDXHXDXHXNXpXNXNXpXDXPXFXDXGXNXNXNXNXZXZXZXZXZXDXDXFXxXxXNXNXZXSXSXSXbXNXNXBXGXVXNXNXNXDXDXHXDXNXNXpXDXDXNXNXNXNXNXNXNXNXNXNXDXDXDXHXDXDXNXNXNXNX",
"CXGXPXHXHXNXpXsXjX0XsXNXHXFXNXCXqX0XzXcXyXHXDXNXcXAXuXhXkXbXwXSXNXNXFXCXCXCXaXFXpXzXFXHXHXHXHXDXuXpXpXpXpXHXHXHXHXHXNXuXpXpXuXNXFXFXLXHXFXgXiXdXR.& 7.e.K G S S S A T q.7.& R.CXHXNXZXHXHXDXNXFXCXCXFXHXHXHXHXHXHXHXHXHXW.X PXHXHXHXHXHXHXHXHXHXSXHXFXFXHXZXHXpX  DXHXHXNXpXNXuXpXNXHXHXDXHXHXNXpXuXuXpXNXHXHXHXHXDXpXpXNXpXuXSXSXSXPXFXFXsXsXxXzXZXnXPXFXHXHXBX'.f Y.Z.$XSXSXSXSXPXlXlXpXkXgXkXFXHXHXNXHXpXpXNXpXaXGXFXHXFXFXDXuXpXpXpXpXHXHXHXHXHXHXpXuXpX",
"FXDXDXHXHXNXhXkX7XjXiXFXFXHXHXHX0XdXcXtXzX0XT.q + . # q R.CXlXzXHXFXhXCXkXhXhXpXlXpXAXHXHXHXHXGXpXNXNXpXpXDXHXDXHXHXNXpXpXpXpXhXCXGXFXHXFXgXiXdX7XO 1.e.K I A S A A F 9.1.o 0XVXFXfXPXPXFXFXLXBXFXFXHXHXHXHXHXHXHXNXHXHXxXX wXHXCXFXHXHXFXFXFXZXHXZXHXHXFXFXHXFXi 1XNXDXNXNXNXNXpXNXHXHXDXHXHXNXNXpXpXpXNXHXHXHXHXDXpXpXpXpXpXPXSXSXPXFXFXsXdXxXnXtXSXnXHXFXY.* o : 5 * + , Y.wXPXlXHXpXBX0XaXHXFXFXHXGXFXaXpXpXpXiXGXFXHXHXFXDXpXNXNXpXpXDXHXDXDXHXDXpXpXNX",
"PXSXDXGXjXkXhXhXCX2XhXFXAXAXAXLXAXvXzXxXW.# ; >.,.B B m + ; 7XDXGXFXCXVXkXiXiXaXsXlXDXHXHXHXFXVXpXNXNXpXNXDXHXHXHXHXNXpXpXpXpXhXCXFXLXHXGXgX0XdXBX: x e.N U A S J U n r.w q CXCXfXVXSXHXXXQ.LXLXHXHXHXHXHXHXHXHXFXHXFXHXHXi E.CXjXjXFXFXjXjXHXHXSXHXFXf j wXNXFXf E.HXHXNXuXpXNXpXNXDXHXDXHXHXNXNXpXpXpXNXDXHXHXHXDXpXpXpXpXpXPXPXSXPXHXCXsXpXpXZXSXaXGXgXa # e d.,.q.e.m e . Q.AXLXaXhXiXSXzXnXHXFXFXNXGXhXVXhXsXpXBXHXHXHXHXDXpXNXNXpXNXDXHXHXHXHXDXNXpXNX",
"HXHXFXjXgXgXiXpXzXAXLXsXLXLXeXY.d p R.R.. >.<.3.V C #.v.m.r @ 7XHXfXFXhXCXiXiXhXhXhXBXGXGXGXGXVXaXpXpXNXNXHXHXHXDXDXNXNXNXNXNXNXFXHXHXFXNXiX0X0XBXc 9 y.N T Z U T F n r.; Q.FXFXCXVXPX=XX # 7 LXLXHXHXHXCXCXCXFXFXHXZXHXDXY.UXjXkXjXGXGXjXjXFXHXHXFX,X# X < FXFXY.U.HXHXDX3XpXpXNXNXNXDXNXDXDXNXpXpXpXNXNXHXHXHXHXDXNXpXpXNXNXHXPXPXPXDXBXhXsXpX3XVXVXkXa . >.d.K U U I I ,.6.O U.d - 4.U.3XmXMXPXFXFXGXhXfXhXiXhXhXNXDXDXFXFXDXpXpXpXNXNXHXHXHXHXHXHXNXNXpX",
"FXFXCXkXhXfXlXzXzXAXAXLXjX7 & ; 0 l 3 @ 9 2.r.n C R x.:.O.k.w q FXNXNXHXGXfXGXhXkXVXhXhXhXhXhXBXpXpXNXNXDXDXDXHXNXNXNXDXGXGXDXNXCXFXFXDXNXhXhXkXFX'.o 7.q.T I T w.9.Y ,.* '.FXHXjXGXnX!.    . LXHXLXHXHXCXCXCXFXHXFXHXDXHXY.h jXCXFXHXHXCXCXVXhXFXVXCXX   u FXgXd E.NXpXDXpXHXNXNXNXNXNXNXNXNXDXpXpXNXNXDXDXDXHXFXDXNXNXpXNXDXFXFXFXAXAXNXBXNXbXfX9XjX4.. 1.2.K Z A E D U M.1.O & w l 3   u yXMXaXpXNXFXhXgXgXkXkXVXNXNXNXZXZXAXlXpXNXNXDXDXDXHXHXDXDXDXNXNX",
"gXhXhXfXfXDXPXSXHXAXLX'.o 0 B r.N.z.N.V 3 3 N w.Y +.@.=.*.x.b.O g HXuXfXDXFXFXhXCXCXkXgXhXgXhXBXHXDXDXHXDXNXpXpXNXpXNXHXDXFXHXNXaXpXxXlXNXHXCXCXFXkXo v q.M K w.9.d.Y 3.= &XAXHXCXGXHXtX<   Q.HXHXHXHXHXHXFXFXFXGXFXHXHXHXY.d VXHXFXFXAXDXFXHXHXFXFXjX0XW.pXFXVX, :XNXuXHXNXHXHXDXDXNXpXNXNXNXDXDXHXHXDXNXpXpXpXNXNXDXDXNXDXHXNXxXZXZXxXxXAXFXSXPXCXXX+ 5.7.,.K U A E j.m.z % 1.y.e.N ,.2.9 # 9XNXPXpXfXNXFXCXCXCXCXhXpXNXxXcXZXHXDXDXHXDXNXpXpXpXpXNXDXHXDX",
"pXpXlXpXlXSXFXFXNXFX>Xo w q.c.&.| { ;.x.z.4 6 ,.q.F x.=.! *.c.d.+ 5XbXwXbXHXNXGXFXCXhX0XiXiXpXNXHXHXHXHXDXpXuXpXpXpXDXHXHXHXHXNXuXpXpXpXnXHXCXCXFXFX7 w q.M K B z 1.N d.5 '.HXHXgXkXHXZXHXxXpXHXHXHXHXHXHXHXHXFXkXCXCXCXhXd Y.zXHXHXLXLXLXHXHXHXHXiXCXkXNXHXFXFX$ 3XHXNXNXDXHXHXHXDXpXpXNXpXpXHXHXHXHXHXNXpXuXpXpXNXHXHXDXHXHXsXaXsXxXlXxXFXHXPXZXHX4.5 (.<.<.Y D x.z.M.l % 0.K F Z D R n 3.q o rXHXZXuXpXHXNXVXFXFXhXpXlXlXlXDXHXHXHXHXDXpXuXpXpXuXpXHXHXHX",
"lXNXxXpXpXDXFXGXCXkX@ 9 e.R O._ _ ..' =.j.n.& v 0.w.@._ *._ &.B.q d HXNXpXPXPXHXHXFXhXuXpXpXpXBXHXHXHXHXHXpXpXpXpXpXDXHXHXHXHXNXpXNXhXpXlXSXCXCXFXBXc 5 e.q.9.0 & 4 e.2.q T.FXLXCXCXHXHXHXHXHXCXCXFXHXHXHXHXHXHXCXkXjXCXFX< W.AXLXLXAXzX>X!.f p Y.kXCXCXFXNXHXU., NXNXpXpXHXDXHXHXDXpXpXNXpXpXHXDXHXHXHXNXpXpXpXpXNXHXHXDXHXHXpX0XsXsXaXzXLXHXHXHXhX. a l l 1.N N.k.n.b.% 1.q.Z A { } { $.z.d.; g wXZXzXlXHXDXHXHXFXhXuXpXpXpXDXHXHXHXHXHXpXpXpXpXpXpXHXHXHX",
"zXlXNXhXgXhXFXHXLXa * <.M R O.*.( ^ ' / %.l.1.& f.e.R #.&.#.v.n.8.+ 2XNXuXPXPXSXSXPXNXpXNXlXaXxXHXHXHXHXHXNXpXpXpXpXNXHXHXHXHXHXBXaXiXbXnXSXGX4.4XLX'.o y.e.,.% l O 1.7.x : CXHXFXCXCXAXLXLXGXCXkXCXHXHXHXHXHXFXFXCXkXCX,X. rXvX>X4.: . + q c 6.q + R.CXFXHXzX  $X3XpXpXpXHXHXDXDXHXNXuXpXpXpXDXHXHXHXDXNXpXpXpXpXNXHXHXDXHXHXsXBXsXuXZXlXHXPXHX6Xq o O = % & & 2 7.|.e 0 q.Y n D ( ( %.$.j.l.r.. <XeXLXzXLXHXHXPXDXNXNXpXpXsXsXDXDXHXHXDXNXpXpXpXNXDXHXHXHX",
"aXuXgX0X0XFXHXAXrXo l d.Y n O.....) ! ' _ j.M.% <.,.k k k k b V [.: T.kXpXFXHXPXPXPXNXpXpXxXcXAXHXHXHXDXDXNXNXpXNXNXNXDXDXDXDXDXuXsXNXpXSXPX9X  X xXrX@ 1.<.v % y.4 9 7.7.@ 8XBXFXFXCXHXLXAXHXkXCXCXCXNXZXFXHXHXNXFXjXkXT.. . . 3 w 6.[.+X+X+X+XoX6.+ '.HXZXH.X 1XaXNXNXNXHXHXDXHXDXNXpXpXNXNXHXHXHXDXDXNXNXpXpXpXNXHXHXHXHXDXpXsX6XrXpXZXaXHX'.. 9 1.e.r.w.W w.m o 9 o m V C U } ..=.} j.z.+.m.q g LX4XxXHXFXFXHXSXNXpXpXsXNXBXHXHXHXDXNXNXpXpXpXpXNXNXHXHX",
"jXgXjXCXFX2Xu c 7 O w B w.I E %.( ^ ) ^ _ -.n.r 2 & % ; 4 0 0 * o * ; kXCXxXwXnXZXnXSXPXDXAXAXZXpXpXpXNXNXDXHXHXDXDXNXNXNXNXNXNXFXCXHXNXPXSXgX  X f LXo l y.l 1 e.1.& 1.y.9 e jXFXBXjXFXLXAXHXCXGXFXFXFXGXNXGXHXBXFXCXqXo 8.oX{.M.B.V.V.B.M.B.}. X+Xa * hX:X$ $XFXHXHXHXDXNXpXpXNXNXDXHXDXDXDXNXpXpXpXNXDXHXHXHXHXDXNXNXNXpXNXDXLXLXHXZXHXFXR.+ >.d.r.Y E &.$.-.x.R 0 & B Y n { x.o.o.j.m.B.d.l q . T.CXFXaXaXlXnXZXZXFXDXGXkXBXNXNXNXNXNXDXDXHXHXDXNXNXNXNX",
"qXjXCXkX'.a o * w 7.0 & 0 z.b U $.o. ._ O.x.r.2 = z N r.n.g.g.k.r.B ; . 8XBXAXzXzXzXFXHXHXHXLXxXpXpXpXpXNXDXHXHXHXHXNXpXpXpXpXsXCXCXHXHXPXuXfX  Z.$ aXp e 7.4 0 e.<.% l e.B o `.CXFXCXkXHXHXSXFXHXHXFXCXCXCXFXFXFXjXjXq 0 OXM.k.l.&.#.#.h.h.l.k.B.{.[.. Q.  s nXHXHXHXHXFXpXuXpXuXpXHXHXHXHXHXpXpXpXpXNXDXHXHXHXHXHXpXuXpXuXpXHXxXHXFXHXFXgX; w e.Y Z @.-.o.` *._ O.k.k * M I #.| -.j.z.r.0 O 9 e w @ * XXkXBXZXlXnXFXHXHXFXCXhXaXpXpXpXNXHXHXHXHXHXDXNXpXuX",
"FXFXHXsXg o 2.B.N.z.k.Y = = ,.q.t.z.+.x.h.g.1 4 N R j.c.z.h.x.| #.g.M.l . >XpXcXcXzXDXHXDXHXHXFXNXNXpXpXpXNXNXDXHXHXNXpXaXpXpXpXgXCXHXFXPXfXVX  $Xs u 4.5 8.& l N d.z 2 q.r.l * qXBXCXCXHXSXbXPXHXHXFXFXFXCXVXkXCXkX>.o B.m.l.&.| _ _ _ | | &.x.z.M.{.. + + d eXFXNXDXHXHXpXpXFXpXpXDXHXHXHXHXNXNXNXpXNXDXDXDXNXHXDXpXpXNXpXuXHXHXHXHXHXkXT.. 2.q.I E -.( ^ ! ' ) o.x.m.z - z.#.#.{ B.k % 0 V q.r.3.2.r . 6.qX0XlXZXZXFXHXHXFXFXNXNXpXpXNXNXHXHXHXDXNXpXpXpX",
"nXPXE.i . 7.n.h.| O.x.#.k.k % 1.9.t.j.l.g.O 4 N +.x.$.$.j.&.*.=.:.#.N.M.; T.sXAXzXlXDXFXCXCXFXBXpXpXpXNXNXDXHXHXHXHXNXpXpXpXhXhXCXCXLXAXPXgXbX> $XeXX : @ R.@ 1.r.N v % q.B e.4 : dXCXCXCXfXPXSXNXFXHXHXHXHXFXCXqX>.o M.l.#.| *.....' ' ..X.O.O.j.m.b.. oXT.< zXHXDXDXHXNXpXpXNXpXNXDXHXHXHXDXNXpXpXpXNXDXHXHXHXHXDXpXpXpXpXNXFXHXLXHXpXCXw w <.M Z E o.( ) ' ` ~ ..~ l.}.0 0 V.j.z.k & B B Y I C C V 3.r . XXkXpXnXZXPXHXHXCXGXpXpXpXNXNXDXHXHXHXDXNXNXNXpX",
"SXSXiX  l }.z.| ! ] ! ' &.k.l & B w.z.n.* 0 M [ %._ ( =...( ..^ =.-.+.m.l . dXxXaXbXVXGXCXCXkXhXuXpXpXNXDXHXHXHXHXDXNXNXNXNXNXVXCXCXLXHXGX0X3X< Y.LXY.. o x & 7.Y K e.% k Y q.<.q O '.FXqXCXaXPXVXFXHXSXPXHXLX0X9 ; g.h.| ) ' !  . .^ ^ X.%.o.o.#.z.m * oXIXX PXHXHXHXHXNXpXpXpXpXNXDXHXHXDXNXpXuXpXpXNXNXDXHXHXHXDXNXpXpXNXHXDXHXDXHXFX0X. >.y.M U @.&.o.X.o.=.*.( %.x.h.g.= N M.z & 9.q.t.I D :.| h.k.}.l # qXaXlXZXHXHXLXNXhXpXpXpXNXDXDXHXHXHXHXHXDXNXNX",
"SXpXR.o y.n.#._ ! ! ! ! O.j.m.z & ,.e.z ; Y R &.*.' (  ...~ ..=.! ' &.z.{.o 7XFXlXDXfXfXGXVXhXCXFXHXHXHXDXNXpXpXDXNXNXNXNXNXDXCXkXhXcXzXpXCXPXi !.ZXHX, . : 3 y.Y Y e.6 6 w.M ,.7.5.o = [.kXCXFXCXjXCXCXFX2Xa . l M.k.&._ ' ! ! o.&.o.o.&.&.&.#.[ M o >.+XoXX W.pXNXBXBXNXGXHXHXGXHXNXpXNXNXpXGXDXFXHXDXNXpXpXxXlXNXLXFXNXHXHXpXbXHXpXBX,Xo 7.9.F @.j.@.j.$.%.o.( ~  .O.;.h.b 9 1.% ,.r.M G E &.*._ -.h.g.M.o XXhXNXNXNXNXNXNXDXNXNXDXDXNXNXpXpXpXNXNXDXHXHX",
"fXkX4.5 e.l.X.! ! ! ! _ ..O.@.N.0 3 6.% B Z $. . .} $.@.{ %._ / ! / o.h.}.@ R.HXPXPXbXuXzXzXaXBXHXDXDXHXHXNXpXNXpXpXDXHXHXHXHXGX0XuXcXzXaXHXHXd H.PXNX0X. . l ,.Y K w.B z T U G I t.}.<.4 O 5 x 4.4.4.w + o r b.k.h.#.O.O._ _ _ $.j.&.+.+.z.R V b o + [.+XoX  0XgXFXuXsXBXFXBXFXFXFXsX6XBXiXiXBXVXFXFXFXNXlXcXAXxXAXHXHXBXFXFXhXAXwXLXaX'.& 2.Y D &.j.2 T l.-.` -.O./ ' _ #.B.O % 1.0.L U @.j.X.) _ &.x.[ k.a c HXCXgX9X0X0XpXFXHXDXDXHXHXNXpXNXNXpXNXHXHXDX",
"9XkXq l d.T x.~ / / ) ) *... .+.b.+ q 4 Y Q ../  .%.x.j.j.+.x.-./ ^  .j.}.3 4.HXPXSXnXzXzXzXsXBXHXHXHXHXHXNXpXpXpXpXDXHXHXHXHXDXiXpXcXcXsXFXCXf d VXhXkXc * m r.t.G K K K L G S A @.j.l.m.b.N m l e l ,.d.M.M.g.N.k.+.R I I I I G Y Y Y q.q.l 0 @ * . 9 R.XX  kXCX3XBXuXsXFXFXBXsXCXBXdXiXFXFXVXFXFXFXFXNXlXzXcXxXcXHXHXFXFXFXsXNXLXzXvXY.5 e.M D { j.k 2 m.{ =.O.{ _ ' O.j. X4 6 f.K I { } X.X...-.c.+.| v.4.< HXCXqX8XqXqXpXFXHXHXHXHXHXNXpXpXpXpXNXHXHXHX",
"0XjX7 x e.K M j.o._ ) *./ ^ ..j.V.r * z Z ~ ! ' ^ _ =.+.m.}.t.4 o.^ ..j.}.e a HXSXSXbXlXnXcXsXBXHXHXHXHXDXpXpXpXpXpXNXHXHXHXHXDXiXlXcXcXvXBXCXE.j GX9XgX4.= d.N I D Z Z F F J U U E @.x.{ #.#.#.k.n.V.B.M.b.M.b.e.<.1.v v 1.<.0.1.1.1.l 4 & - 5 5.8XXXc .   , xXpXaXuXNXpXHXFXHXHXNXuXDXuXpXNXHXFXFXHXHXNXpXpXlXlXxXHXHXHXHXCXiX0X0XDXvXT.2 e.M D %.j.j.1 k z.+.x.#.-.-.+.m.+X4 w <.C :.=.=.( X.&.l.Y * | h.(.. LXFXgXqXqXqXNXFXHXHXHXHXDXpXaXpXpXuXpXDXHXHX",
"CX,X@ v 0.B & t.&._ O.=.' ! ( -.h.b.o l I -./ ' _ =.| h.M.|.& k o.^ ..j..Xx q HXVXVXnXnXZXcXhXkXFXHXHXDXNXNXpXpXNXNXNXDXDXDXDXVX0XpXcXcXAXBXFX1X  FXhXVXQ.o 7.q.I R U Z U T L J Z { O.O.*.=.=.#.k.g.q.m 0 & O O O O O % % % % % & % % 2 w x v ~.`.`.'.XXXXc . , >XHX4XpXpXHXNXHXpXDXFXHXpXpXlXSXHXHXHXDXNXxXlXlXNXZXFXFXFXFXDXhX0X,XiXFXc 5 <.I D { x.j.R % M V.c.#.[ h.M.OXoX* l 3.D _ ' ! ` } l.t.= b ;.#.p.+ LXFXkXgXqXgXNXAXHXHXHXDXNXNXpXpXpXpXNXNXDXHX",
"DXCX* x ,.d.1 2 z.x.j.{ _ ' ^ =.;.k.O l t.j.| | &.+.c.m.+Xw 6 j. .) o.j. X>.q FXNXbXmXSXZXDXkXkXNXNXNXNXNXNXNXNXNXDXNXNXNXNXNXVXqXgXZXAXLXBXLXzXeXHXlXLX>Xo 5.0.9.T G Z U H H T U E %.O.O.-.x.g.l 3 O * 9 l v 5.5.5.6.6.5.5.v v v 5.6.5.5.6.~.`.].`.~.(.`.oXoXq   U.GXNXNXpXDXaXHXHXZXbXPXZXnXZXDXNXNXNXDXDXNXNXLXDXNXNXNXNXZXSXkXgXiXBX4.4 d.G A &.$.@.l.R & m B.V.B.}.OXoX6.o >.3.[ ' ` ' -.l.w.& % N #.v.[.. BXNXNXNXkXhXZXZXDXNXNXNXNXNXNXNXNXNXNXNXNXNX",
"LXLX: e e.<.& & 0 R N.h.| ' ' *.| h.9 2 M.m.c.l.N.N.V..Xw % t.x.( ) o.j. X>., CXfXfXSXPXFXLXjXkXiXpXNXpXNXHXHXHXDXHXNXpXNXNXNXhXjXjXHXAXLXxXcXzXtXzXpXg o o O & z K w.T G G P G Z W j.+.j.z.b & = w v 6.6.5.5.6.1.1.1.5.5.5.5.5.5.5.5.5.6.u.).(.u.7.[.(.u.p.[.oX4.  Y.GXDXGXpXHXpXZXPXZXPXnXSXZXlXlXlXNXDXHXHXFXHXFXfXaXlXlXnXPXSXSXFXjXR.= d.G U &.} -.#.h.r.& 9 d.|.|.|.x * o 1.3.[ ;._ -.:.k & z % q.v.k.6., kXhXGXPXDXSXFXDXpXpXNXpXNXHXHXHXHXHXHXNXpXNX",
"AXLX4.; y.e.2 6 1 0 q.B.c.=.' ` | k.4 1 1.{. X}.|. Xb.= = d.N.` ^ ) o.h..X1.: CXpXpXSXPXFXHXCXkXuXpXpXpXNXHXHXHXHXHXNXpXpXpXpXhXjXjXHXAXFXsXlXaXpXQ.X 0 y.b.I n & 6 N K G R U G I t.z.m.d.4 O w 5.6.5.5.7.y.7.y.a.a.u.u.u.~.~.~.~.u.u.)._.).u.u.y.[.p.p.b.7.7.[.@X'.+ p 0X:XU.i i Y.NXHXlXPXPXlXzXlXpXNXDXHXFXFXFXVXpXpXnXzXzXSXSXPXZXqXw 0 K T U j.x.{ =.#.k.M.w O & @ o 9 <.0 r V h.;.| [ b 4 d.l 2 n.g. Xp f kXgXVXHXSXFXHXNXuXpXpXpXNXHXHXHXHXHXHXNXpXpX",
"LXLXXX# 2.,.w 2 y.1 = B z.#.O.| x.r.% v O 2 ,.b.<.9 o z B.m.Q ) ..( o.h.}.7.* jXiXaXSXPXHXHXCXkXiXNXNXpXpXHXHXHXHXHXNXuXpXpXpXNXCXkXHXLXGXhXNXiX,X# <.}.n.k.#.j.t.9.w.Y G U I R Y Y B.e.& 5 T.6.5.6.u._.].i.y._._._._._._././.(.)._._.a.u.a.a.u.p.u._.p.y.[.p.p.R.XXXX: *   + i u X i NXHXHXFXaXxXlXpXxXFXHXFXGXGXVXpXbXZXzXlXZXPXZXLXa % 9.T T Z @.$.-.=.| N.b.O w s.r.g.g.}.g.@ B l.k.k.l.g.B.,.& V n.n.{.. &XgXqXjXHXFXFXHXhXaXNXNXpXpXHXHXHXHXHXHXpXpXpX",
"LXAXBX. >.2.1.O r y.<.1.9.Y R R r.4 2 M.r.b 2 @ 3 = r n.l.j.X.o. .X.$.c..X[.o XX0XpXHXHXHXHXFX0XpXpXpXpXNXNXHXHXHXHXDXpXpXaXpXaXFXHXHXHXhX0X0XjXq e {.n.n.k.x.#.l.t.F U Z T T F Y r.y.% w v v 8.^.a.i.a.).).).).).).a.s.s.d.d.s.a.(.(.(.).).).).).).).).).).).(.R.`.XX5 : R.8X8X8X>X. Y.FXpXHXDXcXxXlXxXDXHXFXFXVXFX9XVXDXuXlXFXLXHXi ; ,.K T A A j.%..._ O.N.9 0 z.c.#.;.-.j.h.Y = 2 q.d.b.y.0 O V k.g.}.>.$ eXkXqXjXFXFXFXHXhXpXpXpXpXNXBXHXHXHXHXNXpXpXpX",
"BXHXHXc 9 <.d.B % 0 <.d.9.N Y B 6 1 B Y z.h.k.n.b.1.; N.#.O.%.X.X.$.O.j.B.|.l : kXgXHXzXHXFXpXFXpXpXNXNXNXGXDXHXDXNXNXNXNXNXNXNXAXAXFXFXhXgXgX9X  6.M.N * O 9 R j.E Z T F G G T K ,.& w 5.5.u.a.a.s.a.i.)./././.).).a.s.s.d.d.d.p.(.(.(.).).).).).).)./././././.].(.e 5.oX`.`.XX`.qXc i FXBXCXFXxXxXxXZXDXFXFXFXfXGXVXhXaXhXxXFXdXp * <.q.Y Z U A @. .) *.| C O R j.O.` ' / ..x.z.l.k % & & = z g.k.k.}.OX. !.zXNXgXjXCXSXZXAXNXfXbXNXNXNXDXHXHXHXDXNXNXNXpX",
"qX0XDXpX  >.2.e.,.4 & 4 0 0 4 & 1 B F Z &.| ;.h.B.q.@ k.O._ ( o.$.} | x.l. X|.9 q jXsXaXcXnXNXhXHXHXHXDXNXNXpXpXpXNXNXDXDXHXHXLXcXcXcXnXgXjXgXXX+ 8.<.2 l % & % n U I T L K K K 9.4 = 5.6.6.s.s.s.a.a.a.).).).).).).).).a.p.p.s.s.s.s.s.s.a.a.a.a.a.).^.^.^.^.).)._.8._.u.~.`.~.`.XXQ.@ dXBXsXBXLXLXLXAXNXfXfXfXpXfXFXkXCXCXCXqX9 ; y.,.w.T H W S $.( ! ..j.k 0 c.-._ / ' / ( o.%.&.x.j.[ z.l.h.h.h.V.|.>.+ AXAXSXFXkXgXhXNXcXZXHXHXHXFXDXNXpXpXpXpXNXNXDXHX",
"8XjXlXaXU.* 2.2.,.r.K k 6 0 k v 0.q.I Q ` -.` | [ V * h.-./ ` ..X.} o.-.j.N.OX{.; a jXxXzXzXNXaXHXHXHXHXDXNXpXaXpXNXDXHXHXHXDXAXcXzXcXlXgXjXkXW.. 8.<.s.1 l ~.2 k U F K 9.9.9.,.z % 6.5.5.u.y.d.a.a.a.^.).).).).).).).).(.(.(.a.s.s.s.s.s.a.a.a.a.a.).).^.^.^.^.^._._._._.`.R.`.`.XXq q kXdXuXBXLXHXHXFXNXaXpXpXaXFXkXjXjXqXkX5 3 q.N q.M T H S Q %.*./ o.j.= M #.) ) ' ) / ( ~ .. .~ O.-.O.{ #.v.g.|.[.+ Q.HXHXPXPXfX0XgXiXlXZXHXHXHXHXFXNXpXpXpXpXNXHXHXHX",
"qX0XNXlXaX: e 7.,.N M T t.K B d.T Z Z n o...` -.x.n 0 c.O.^ ' / ~ o.*._ #.l.B. X{.. 6.dXLXzXaXNXDXDXHXHXHXDXNXNXpXpXDXHXHXHXHXAXcXtXzXzXgXVXGX,X. u.e.,.1 z u.0.z K K K w.N 0.0.% w 6.v 6.[.u.p.(././.).).).a.a.a.a.a.).).)./.).a.a.a.a.a.).).^.^.^.^.^.^.^.^.^.).u._.u.8.x `.`.`.XX. '.CXhXuXFXBXFXHXDXZXbXnXSXZXpXdXjXjXqX5 4 q.G Y G T T G A } ../ ' -.j.6 I O.) ..( ~ ( ) ( / / ...._ | ;.#.N..X+X: g kXFXDXPXPXbX0XgXiXpXAXAXDXHXHXHXDXNXNXNXNXDXHXHXHX",
"qXjXDXaXaX0X. x e.Y T T G L q.N T Z U U { ` -.` j.2 I h.O.) ' / ( -._ ' O.#.l.n. X[.. T.pXAXNXGXHXHXHXHXDXNXpXpXuXpXNXHXHXHXHXHXcXtXzXnXgXVXPXFX+ l e.r.k 0 9.B K w.T T w.9.e.z % 5.v 6./.(._.8.(././.).).).a.a.a.a.a.).).)././.).).^.).^.^.^.^.^.^.^.^.^.^.^.).y._.a.>.o 6.`.R.8Xq 7 iXsXNXaXDXFXFXHXFXZXlXzXlXlXuXCXjXoX5 w y.K F J U T G W E o./ ! ( -.@.j.&.-.) ..( ( ( / / ! ^ _ _ ;.x.x.k.}.|.w , kXGXCXFXSXSXbXiXgXgXNXAXHXHXHXHXNXNXpXpXpXpXNXDXHXHX",
"sXhXpX9X0XCXA.& ,.Y G T U J T Y Y F L n A -.~ -.E 4 x.{ %. .~ =.....! ' ) | x.k.n.}.[.. E.AX4XHXHXHXHXNXNXpXpXpXpXpXNXDXHXDXDXBXsXsXbXbXbXmXPXLXU.o e.q.q.w.N w.K L T T Y q.0.1 w 5.6.~.(.u._.u.p.s.p.a.a.).).).).).).a.a.a.s.a.).^.^.^.^.).).).a.a.a.a.a.a.a.a.).7.x o 3 [.`.`.T.. '.aXpXDXlXZXFXFXFXDXZXnXzXaXZXpXjXXX@ 5 7.f.t.L J A A W A j. .) ) ..o.{ x.O.=...o. ...) ! / ' ) O.&.c.c.N. X+Xa o dXuXHXkXGXSXnXZXbXfXhXGXGXHXHXHXNXNXpXpXpXpXpXpXNXNXHX",
"HXDXHXFXjXiXLX7 = 9.q.P T J F L L T K T E $.o. .$.x.{ x.%.} ~ ..../ ' ` ! =.| h.h..X|.[.. Q.HXNXxXlXpXpXhXVXFXFXBXGXDXDXDXNXlXpXCXCXFXNXbXnXnXcXvXq & 1.e.,.d.q.q.n n U F N <.& x 6.5.u.a.[.u.[.s.d.s.s.a.).).)./.).).^.a.s.s.s.a.a.a.).).a.a.a.a.a.a.a.a.a.s.a.a.8.9 O o 4.'.,X  d HXPXHXPXSXSXNXpXpXNXSXPXPXFXLXFXR.& l y.,.9.K L J A S Q j.$.o.=.*.~ O.-.` ) _ ..o.~ ~ ..^ ' ^ ( &.j.B..X|.oXq # ,XCXHXpXgXfXSXbXZXDXfXNXFXGXpXpXpXpXNXNXHXHXHXHXNXNXpXpX",
"HXSXSXPXPXVXxXBX5 3 f.0.9.K T G G K T F S } =.^ ) ..X.$.$.$...) ) ) ) ) .... .o.-.#.N.}.[.. T.HXzXaXZX3XVXCXCXCXCXCXhXaXlXzXzXZXHXCXFXHXHXbXpXlXaX0Xp . q 4.4.x 4 & z t.L e.l O 5.>.7.a.^.).^.).a.a.a.a.a.).).).).).).a.a.a.a.a.a.a.a.a.a.a.a.).^.i._.u.i.a.).).u.6.- o o x '.Y.# 3XHXHXPXPXSXSXSXbXfXuXiXPXHXHXLX'.O 1.9.Y H G H J A S E @.$.X...) ) ) ........_ _ ..o.o...) ) ( =.#.N. XqXQ.# u 3XFXNXDXpXhXaXpXpXDXHXHXHXHXGXpXpXpXpXpXDXHXHXHXHXHXpXpXNX",
"HXPXPXPXPXbXpXsXjXo 5 1.e.q.M T F F T H S { ../ / /  .$.$.$...) ) ) .... .....) ) ` &.N.|.[.o Y.ZXzXuXHXgXCXjXkXCXFXNXpXzXzXzXcXHXFXFXFXFXfXaXaXVXVXNX>Xu   X   4 z w.L K 0.w 3 5.>.7.i.^./.^.).).a.a.a.a.a.a.a.a.a.a.a.a.a.a.a.p.p.a.a.a.a.a.).].^.f.[._.).).f.].5.1 O O R.,X- 4.fXPXSXZXZXPXnXwXSXbX9XGXFXHXBXT.o <.,.T U A A U Z A E @.$.X.....) ) ) ........_ ) ............{ &.V.}.+Xa   Y.aXHXHXHXHXNXpXpXpXpXDXHXHXHXHXDXuXpXpXpXpXHXHXHXHXHXHXNXpXpX",
"HXPXPXHXSXbXpXpXdX8X7 = <.e.K K I F H H S Q } ../ / ( ..o.o.o...) ) .. . ...) ) ` _ -.c.g.|.oX@ f aXuXiX0XkXCXCXFXHXDXlXlXpXpXpXHXHXHXHXGXpXaXaXpX6XNXHXGXFXpX: w d.Y K w.0.4 w 5.>.7.i.^./.a.a.a.a.a.a.a.a.a.a.a.a.a.a.a.a.a.a.a.a.a.a.a.a.i.i.)._.a.).u.).u.{.u.6.5.x c `.XX  >XuXHXHXFXFXHXlXZXbXuXbXpXFX0X4.@ <.e.B T T H A A A S @.&.%.o.....) ) ) ..............( ( ( ..O.j.V.}.|.+ : 3XbXPXHXNXHXHXpXpXNXNXpXNXHXHXHXHXDXuXpXpXpXNXHXHXHXHXHXHXNXpXpX",
"FXFXDXDXDXNXNXNXsX0XqXa O 1.d.M T F H H J S E o.( / / ) ) ..o.o..... .X. ...) ) *.` ` &.c.n.{.{.# d CXgXCXFXGXNXFXFXZXZXNXhXhXhXFXFXDXDXNXNXhXhXuXpXNXNXFXFXHXp e e.M T w.e.2 w 6.>.7.i.^./.a.a.a.a.a.a.a.a.a.a.a.a.a.a.a.a.a.a.a.a.a.a.a.a.i.i.i.^.).f._._.).u.].~.6.6.'.'.Q.o 0X3XHXHXHXFXHXNXaXuXHXcXLXkXq ; 1.N w.w.K F G U A E @.$.$.X.o.....) ) ) ........o.o...( ^ ( O.#.k. X|.q : 0XhXFXNXHXHXHXDXpXNXhXNXNXNXDXDXDXDXNXpXNXNXNXNXDXDXDXDXDXDXNXNXNX",
"NXNXNXNXNXDXSXFXAXBXkXjX* 3 2.e.T H F H J Z Q @. .( ! ! / ) o.o..... .X.X. .( / ! *.` =.{ j.c..X{.5 q kXkXBXHXAXnXnXZXDXVXkXkXkXhXNXNXNXNXGXFXDXHXFXpXpXDXuXfXa 9 3.Y T P d.2 e 6.>.u.i.^.^.a.s.a.a.a.a.a.a.a.a.a.a.a.a.a.a.a.a.a.a.a.a.a.a.i.i._._.)._._.7._._.^.].].`.`.XXp : GXNXHXNXNXlXNXsXVXGXlXLX<X@ 9 2.V R Y M T P W Z E @.&.$.}  .....) ) ) ) ...... .o.X.( ^ _ O.&.l.|.+X4.. 2XFXiXkXFXHXDXNXNXNXHXpXNXDXNXNXNXNXNXNXDXDXDXDXNXNXNXNXNXNXNXNXDXDX",
"pXpXpXpXfXPXHXHXHXHXiXkXoXo x 2.q.H F H H J U W $...! ! ! / o.o.......X.X. .../ ' ! ' ! *.O.{ h.}.|.9 : CXvXwXZXzXzXnXSXGXCXCXCXaXpXhXpXNXFXHXHXHXFXNXhXNXFXHXg 9 q.Y F L e.1 a 6.5.u.i.^._.s.s.a.a.a.a.a.a.a.a.a.a.a.a.a.a.a.a.a.a.a.a.a.a.i.i.a.a.[._.).1.4 ~././.R.`.XXXX. U.HXHXDXuXlXpXaXsXBXFXLX:Xo w e.q.G I Z T F G J j.&.$.X.o.o.( ( ..) ) ) ) ...... .o.X.( ^ _ =.v.B.oX'.. :XLXLXCXkXhXpXuXpXNXNXHXHXDXHXNXpXNXNXNXNXHXHXHXHXDXpXpXpXpXpXpXDXHXHX",
"aXhXfXaXfXDXHXPXHXZXAX0XkX'.. 6.0.T F G U J J W j.X.( ! ! ^ ..o....... .X. ...) ' ! ! ' ` =.O.&.z.}.OXx . :XLXtXzXlXSXFXGXCXFXNXaXfXhXpXNXHXHXHXHXNXaXNXpXpXpXT.3 q.M G t.0.4 w 6.5.u.).^.a.s.s.a.a.a.a.a.a.a.a.a.a.a.a.a.a.a.a.a.a.a.a.i.i.i.i.u.f._.u.].u.O 5 6.`.oX8XQ.p . rXAXPXpXlXZXxXpXBXFXCX4.o v y.K T U U H G U S E x.%.X. .o.o.( ( ) ) ) ) ) .... . .....( ) O.x.N.|.+X+ A.LXAXHXjXkXiXpXpXNXDXDXDXHXHXHXNXpXpXpXpXNXHXHXHXHXHXpXpXpXpXpXpXHXHXHX",
"pXNXhXaXpXDXPXSXHXHXzXaXhXkX4.* <.e.K G U U J H j.@. ./ / / ) ..) ) .... . ...( ^ / ! ' ! / =...#.c.B.|.>.o '.LXnXlXSXFXFXFXFXNXpXNXNXpXpXDXHXHXHXHXNXuXpXNXuXQ.@ 3.I G T 9.l 5 6.5.u.).^._.s.s.a.a.a.a.a.a.a.a.a.a.a.a.a.a.a.a.a.a.a.a.i.i.i.a.).a.u.(.(.(.(.5 O o q 7 .   :XPXHXPXlXFXlXuXpXCXjXp * >.<.,.Y I J U U U S j.$.} } o.=.........( ) ) ) ............) ) ..;.c.}.+X: j LXLXLXLXCXkXiXpXpXuXDXHXDXDXHXHXNXuXpXpXpXNXHXDXDXHXHXNXpXpXpXpXNXHXHXDX",
"aXaXiXiXfXDXHXHXHXHXZXzXpXVX0X7 6 y.q.T D U G H H W j.X.( / *.) / ) ) .. . . ...( ) ) / ) ) ) ..O.{ l.n.OX8.+ T.pXuXHXPXHXPXNXHXuXNXpXpXuXHXHXDXHXHXHXlXpXpXpXQ.. 3.T U F 9.v O 6.5.6.^._.a.s.y.a.a.a.a.a.a.a.a.a.a.a.a.a.a.a.a.a.i.i.i.i.a._._.u.[.u.~.~.`.R.o 4.R.Y.4.:XlXzXPXSXPXlX4XpXFXiX0X* w 1.e.9.K T P H J A S } X.o. .........) ) ) ) ) ) ............) / ..&.h.V.OXa X 5XPXFXHXHXCXkXaXNXNXpXpXDXHXHXDXHXpXuXpXpXpXHXHXHXHXHXDXNXpXpXuXpXNXDXHXHX",
"NXNXhXhXhXNXZXZXnXSXnXnXlXpXFXXXO v e.N G n U T L T W &.o.^ _ ) / ) ) .... . . .......( ........=.-.#.x.m. X[.+ a HXlXZXZXHXFXVXpXpXpXNXNXDXDXHXNXNXDXNXNXNXNX'.o e.Y G F w.1.& x 5.5.].u.a.s.d.a.a.a.a.a.a.a.a.a.a.a.a.a.a.a.a.a.i.i.i.i.a._._._.7.].`.R.`.* 4.dXCXNXNXHXPXnXSXPXnXVXFXkXiX'.. e 1.,.N w.Y P L G U E }  ... ._ ....) ) ) ) ) ) ) ) ............' ) | j.V.OX8.X IXPXSXnXFXNXFXdXpXNXNXNXNXDXHXHXpXNXNXNXDXNXNXNXHXHXDXDXNXNXNXpXNXNXDXDXDXDX",
"HXFXCXGXVXhXfXlXnXPXnXPXPXZXHXFX'.O 1.,.F I W F L F U @.&...^ / / ) ) ) .... . . . . . . . . . ...-.o.O.x.h..X[.; 7 BXlXlXuX0XgXFXFXFXHXHXpXpXNXpXlXDXDXFXHXHXXX. 2.Y G F w.0.4 4 5.6.f._.].7.s.a.a.a.a.a.a.a.a.a.a.a.a.a.a.a.a.a.a.i.i.i.a.)._.(.[.`.`.`.q q gXHXHXHXPXnXaXnXnXaXbXVXiXjX6.o l y.q.Y T T T L L H E } ..) (  . ...) ) ) ) ) ) ) ................_ -.x.m. X[.  T.GXVXgXfXpXpXHXDXHXHXHXHXDXNXpXpXpXpXDXHXHXHXDXNXpXpXpXNXNXDXHXHXHXHXDXNXNXpX",
"HXHXFXFXGXVXhXlXzXZXnXHXHXPXVXFXLXc O d.N Y n t.T L P U @.-...^ ) ) ) ) ...... . .X.X.X.X. . . .o.~ ) ` *.-.h..X|.a o :XBXGX0X0XFXHXHXDXHXpXpXaXlXNXHXFXHXHXHXXXo <.K U H K e.>.& 1.v ^./.^._.p.a.a.a.a.a.a.a.a.a.a.a.a.a.a.a.a.a.a.a.a.a.a.).(./.~.`.`.q # 0XNXPXSXSXSXzXaXnXnXNXdXkXjX5 o 1.<.r.G I T F F T H W @.../ ! ^ ..-...) ) ) ) ) ....................-.+.N.}.+X# g CXVXgXkXkX0XaXxXxXHXHXHXHXHXNXpXpXpXpXDXHXHXHXHXNXpXpXpXpXNXNXHXHXHXDXNXpXpXpX",
"HXHXHXFXCXkXhXpXlXzXFXHXZXHXNXHXsXBXq 9 y.N T U T L F G W $.%._ ......) ) ) ...... .X.X. . . . .` =.=.*.` _ %.+.B.OX5.. Q.iX0XCXDXDXHXDXHXNXDXNXpXlXFXFXHXHXHXXX. <.K U U G e.e.9 = 5.u.~.u.[.p.a.a.a.a.a.a.a.a.a.a.a.a.a.a.a.a.a.a.a.a.a.a.a.~.(.R.'.p . 6XxXHXHXHXZXHXPXnXpXuXkXkX`.o 4 0.e.w.P J J J T G G W j.$.( / ^ ( o.-...............................o.+.V.B.OXw : GXDXFXGXVX0XiXpXaXxXLXNXDXHXHXNXNXNXpXpXDXHXHXHXHXNXNXNXpXpXpXNXNXDXHXDXNXpXpXpX",
"HXHXHXFXVXhXiXaXFXaXZXHXZXDXVXVXlXFX0Xo l e.w.G U U L H J E } o. . .....) ) ) ) ........ .........-.` / *.(  .x.z.m. Xp.. 4.kXaXHXDXFXHXHXpXpXpXpXpXDXDXHXHXHX>X. 6.9.G U T q.e.<.O w v /./.u.(.a.a.a.a.a.a.a.a.a.a.a.a.a.a.a.a.a.a.a.a.a.p.u.u.~.`.q + iXNXaXHXHXHXNXHXHXaXBXCXkX6.o l e.e.N L Z J J J S S E &.%.o...........................................&.k..XOX5.  uXHXNXHXFXkX0XgXpXzXHXHXHXHXHXDXNXpXpXpXpXDXHXHXHXDXNXpXpXpXNXNXDXHXHXHXHXDXNXpXpX",
"HXHXDXNXhXhXhXhXpXaXlXFXHXFXFXFXuXaX6XXXo l r.Y J J H H F S E } X.X. ...) ) ) ) ) ........) ) ) ) ` ..o.~ ~  .o.-.#.k..X{.# , lXZXDXDXHXZXNXaXaXNXlXDXNXDXLXHX:X. 7.q.G U U Y ,.2.1.& l 5./.~.u.a.a.a.a.a.a.a.a.a.a.a.a.a.a.a.a.a.a.a.a.a.p.u.8.`.. 7 0XpXaXnXzXLXHXDXHXDXBXCXXX7 & 1.e.w.L t.J W A J U S E %. ... .O.$.$.o.( ^ ) ............................&..XOX8.. XXHXHXHXNXFXVXhXhXpXzXAXHXHXHXNXpXpXpXuXNXNXNXNXDXDXNXNXuXpXpXNXHXHXHXHXHXDXDXDXNXNX",
"ZXNXNXhXhXhXGXFXNXHXHXpXlXuXNXfXHXHXLXLXT.% 1.q.F J J G G U U Q $.$.X...) ) ) ) ) ) ....) ) / / _ *...X.-. .o.( ~ =.&.k.}.|.a . >XuXpXNXcXHXHXZXHXDXFXlXlXNXDX'.. 6.q.Y T G M q.e.<.l % w ~._.u.).a.a.a.a.a.a.a.a.).).).).).).).).).)._.(.~.R.R.. c jXFXHXHXHXFXlXsXpXxXsXBX'.@ 5 <.e.w.L H G U J U A A { %...) .. .X.X.X...( / ) ) .... .X. .....) ) ....o.o.l.OXoX+ 4.FXxXZXaXpXDXNXDXGXHXHXcXpXNXNXpXpXDXHXHXHXHXNXuXpXNXNXHXHXHXHXHXHXNXNXpXpXNXNXDXHXDX",
"pXNXNXaXpXNXFXGXDXNXNXlXpXpXpXfXFXFXFXLXvXq 2 0.K G U U Z W G U E @.%.o.( ) ) ) ........) / / / ) ............) ....$.{ z.V.}.e.. 4.jXBXtXAXHXDXhXFXPXuXiXhXwX:Xo <.e.9.Y K Y K N q.e.z % 9 R.(.u._.p.a._.u.u.).u.)._.(.).(.(.u.].(.`.`.`.T.,   T.CXCXHXLXHXHXNX4XU.W.uXdXg o l e.q.F F U H L P H A S { o.o.o.o.o.o...........) / / ) ..X.X.X...^ / ^ ..O.#.l.}.+X# p FXHXuXNXpXlXpXFXHXHXHXHXNXpXpXpXpXpXDXHXHXHXHXNXpXpXpXuXpXHXHXHXHXHXNXpXpXpXpXNXHXHXHX",
"pXpXpXpXpXDXHXHXHXDXNXNXpXpXpXpXVXFXPXcXAXAX= w d.Y G Z U n t.P U E $.%..._ ^ ..........) ) / / ........) ) ) ) ....%.$.{ @.j.m.{.. q 8XLXLXZXFXFXpX4XDX2XhXHXQ.& 0.0.q.w.K Y G G w.q.e.l & @ 5._.[._.a.u.p.s.7.a.a.)._.~.~._.].~.].`.6.p X u 9XiXpXHXpXHXDXHX1X      , + o >.7.3.w.Y I Z T P W J E { } ( ) o.o.X.o...) ) ) ..../ / ) ..X.X. .( / ' ` -.x.z..XOXq , HXDXpXHXpXpXpXpXDXHXHXHXHXDXuXpXpXpXpXHXHXHXHXHXNXpXpXpXpXNXHXHXHXHXHXpXpXpXpXpXpXDXHXHX",
"pXpXpXpXNXDXHXHXHXHXDXNXpXpXpXiXVXCXfXHXLXrXdX* w d.K n T U F F G S E $.o. .( ..) ) ........) ..........) ) ) ) ( ( o.-.$.{ @.c.B. X0 . 4.u X   Y.ZXzX3XgXgXNX'.= 9.9.9.w.H H J n W G K n.M.0 % 7 T.`.(.(.y.d.b.s.u.u.~.u.~._.)._.6.w o + # gXuX6XNXNXHXDXHX4XX f 0X:Xc , . 5 6.y.B Y I U Z W A Q @.%. .( ( ..................) ) ) ...... ...) ' ^ -.&.z..XOXe + HXHXHXHXuX3XNXpXpXNXHXHXHXHXHXuXpXpXpXNXHXHXHXHXHXNXpXpXpXNXDXHXHXHXHXDXpXpXpXpXpXpXDXHXHX",
"pXNXNXNXNXDXDXDXDXDXNXNXNXNXNXhXgXCXFXlXLXAXdX'.* v e.r.K T F J G Z A E $.$...) ) ) ) ) .. .X.X. .......) ) ) ) ( ....o.-.$.} &.k.k.n.N # . XXi $ , :XNX0XgXuXT.4 9.w.L F G J A S S U I M k.N.d.5 o @ e 7.p.[.p.[.(.~.].]._.f.l 2 O 9 [.R.  iXbXfXpXHXHXNXxXX g sXrXaX<X<XE.: o x 7.,.q.n U S D } X.X. ...../ ^ ) ..X.X.X...) ) .... .....) ) ) ^ -.&.z.}.OX6.@ >XuXHXHXNXuXNXpXNXNXNXDXDXDXDXDXpXNXNXNXNXDXDXDXDXDXNXpXNXNXNXDXHXDXDXDXNXNXNXNXNXNXNXNXDXDX",
"DXDXNXDXNXNXNXNXNXNXNXNXDXDXDXGXgXgXhXHXwXHXLXLXQ.o 7.e.K M G Z H J Z S E $.%...) / / ) ..X.$.$.X.........) ) ) ( *...~  .X.X.-.+.&.x.h.V ; 5 h A.d   E.VXaXpXR.9 Y T L G F U U Z D Z Z I l.N.k.b.b.r * + @ 5 a x x x w = % % = z d.OX+XR.+ FXbXZXlXAXxXxX  i NX3X:X<X<X<XdX7XR.o = y.q.Y I D { =.( (  ...) ! ! / ) X.$.$. ./ ) X.X.X...) / / ) o.&.h.}.OX[.o Q.FXNXDXNXDXHXNXHXDXDXNXNXNXNXNXNXDXDXDXDXNXNXNXNXNXNXNXDXDXDXNXNXNXNXNXNXNXDXDXDXDXDXDXNXNXNX",
"HXHXDXHXDXNXpXpXpXpXNXDXHXHXHXHX0X0XCX3XlXZXHXHXLX4.o 7.0.Y I U G U U J S E $.o.) / / ) ..X.$.$.X.........) ) ) ) ) ( ..o. .} %.o.} =.| x.k.l . f tXY.  Y.HXHXp e e.e.q.,.9.q.9.K B z B B ,.,.3.3.2.b.[.8.4.c q 7 = = 4 z B r.B.B.n.M.OX[.7 HXHXHXHXaXaXu , 1X1X:XxXrX4XrX2X<XrX8Xc o l q.R h.O.*.^ ( ....^ ! ! / ) X.$.$. ./ / X.$. .( / / / ..&.z.B.OX[.. U.HXuXNXpXHXpXHXNXHXHXHXNXpXNXpXpXNXHXHXHXHXDXpXpXpXpXpXDXHXHXHXDXNXpXpXpXpXNXHXHXHXHXHXHXNXpXNX",
"HXDXDXHXHXNXpXNXpXpXNXDXHXHXHXFX0XFXpX6XaXZXSXHXFXAX, = y.e.N R J U T J Z U E $. .) ) ) )  .X.$.X.........) ) ) ) ^ _ ..=...(  .%.%.) *.' #.b.; f 4X0XR.  Y.FXg p a w q 5 & O o o o @ @ o * * # * +   + .   q (.{.M.k.j.x.&.+.j.j.k.B.|.5.: pXlXwX<XE.f < >XiX1XaX<X4X6X6X6X1X2X>X7XT.o 0 M.v.x.../ ) ) ( ^ ! / / ) X.$.X.../ ) X.X...) / / ) &.h.m.|.+X: u HXcXlXuXpXNXNXpXHXNXHXHXNXpXpXpXpXNXHXHXHXHXHXpXpXpXpXpXDXHXHXHXHXNXpXNXNXpXNXHXHXHXHXHXHXNXpXpX",
"HXNXDXHXHXNXNXNXNXNXDXHXHXHXDXDXAXaXNXDXpXSXPXPXFXHX'.. 9 y.,.Y I J H H G Z U E $. .) ) ) ....o. .........) ) ) ) ) ) ( ( ) ....X.~ ( *.] | b.. '.xX0X0XY.  ,       . i g A.U.Q.&X<XeXcXLXLXZXSXGXFXHXFXFXpX4.X m g.x.| _ _ _ =.O.h.k. XR.  X     < j     Q.0X3X<X4X<X7X2X,X6X1XrX:XdXoX3 9 b.k.O.....( / / ' / ) .. .X. ...) )  ...( ) / ) O.h.m.|.+X7 q AXFXLXxXNXuXNXuXHXNXHXHXHXNXuXpXpXpXDXHXDXDXHXHXNXpXpXpXpXNXHXHXHXHXDXpXNXNXpXpXDXHXHXHXHXDXpXpXNX",
"HXHXHXHXDXNXpXpXpXNXNXDXDXHXHXHXcXcXlXpXgXVXSXSXnXnX5Xu . e 2.r.M R J Z T F J A E } o...) / ) ( ..........) ) ) ) ) ) ) ) ) ) ..$.X...` ' #.m . BXcXiXXXpXY.X i XX@X0X9X,X1X1XuXwXaXZXPXHXPXPXFXjXjXCXDXHXHXDX0X+ r v.;.` ` ' ' =.#.h. X8.  pX<XwXzX<XuXU.X W.3XwXrX6X>X,X0X>X2X3XrXBXCXqXe + b.c.| -._ ^ / ` ) ......) ) ) ) ) ( ^ ) *.*.| x.N. X+Xq : GXHXSXSXpXNXNXpXpXDXHXHXHXHXNXpXNXpXuXNXHXDXDXHXHXNXpXpXpXpXDXHXHXHXHXNXpXpXpXpXNXNXHXHXHXHXNXNXpXpX",
"NXNXNXNXDXDXDXDXDXDXDXNXNXNXNXZXAXAXZXNXfXgXfXbXSXnXnXNXp . e y.Y G G t.L T P J U E X.o...^ ! / ............) ) ) ) ) ) ) ) ) ..X. .....=.h.3 p LXLXBXgX4X:XY.  U.@X0X,X9X1X1X4X3XaXZXSXPXFXFXCXjXjXCXHXSXwXW.CX8X+ b k.x.*.` ' ` :.N..X(.+ :XzXwXzXZXBXNXu u 4XrX4X2X,X,X,X,X9X4XHXHXaXCXjX4.# g.z.&.O.-._ =.(  ...) / / ) ....! ' / ..| h.k. X+X>.. iXbXZXPXSXDXDXDXNXNXNXNXNXpXNXNXDXHXDXNXNXNXNXNXDXDXNXNXDXHXDXDXNXNXNXNXNXDXDXNXNXNXNXNXNXNXNXNXNXNXNX",
"pXpXpXNXNXDXHXHXHXHXDXNXpXpXpXlXLXLXHXPXVXgXgXgXbX1XHXHXE.a @ l r.M t.Y K M t.G Z S E $.o.^ ! ' ) ............) ) ) ) ) ) ) ) ) ( ( ( -.x.g.o >XAXAXZXCXuX6X2Xi # XX,X4X,X3X1X3X6XpXVXCXCXjXjXjXFXHXFXPXDXh H.HXCX@X. ,.m.j.=.` _ =.h.}.[.+ uX:XwX, 3XBXVX4X  4X4X2X7X,XXX,X9X0XCXFXFXHXHXFXhX4.o r.k.x.| O.-. .X...) / / ) ....*.! _ X.j.V. X+X>.+ XXhXhXNXuXNXHXHXHXHXDXNXpXpXuXpXNXHXHXHXHXNXpXpXpXpXNXHXHXHXHXHXNXpXpXpXpXDXHXHXHXDXNXNXpXpXpXpXNXDXDXHX",
"pXpXpXpXpXNXDXHXHXHXNXpXpXpXpXxXLXLXHXHXGXkXgXgXuXSXlXlXuXFXa + l e.,.q.Y F L H G G U E X.../ ' ) ....................) ) ) ) ) ( .. .&.N.z = AXAXLXAXFXCX0X7X2X$ i 6X<XuX:X3X6XaXsXCXCXjXjXjXCXHXHXHXHXFX  :XHXLXFXR.o d.k.+.O.' =.h.B.oX  :XzXi Y.HXFXFXFX$ Q.4X7X6X,X>X9XgXkXCXFXDXHXHXZXHXCX>.@ b.g.x.#.O.-.X.../ / / ) ....! ' -.#.m. X+X6.# XXVX0XfXuX6XfXHXDXDXHXHXNXpXNXNXpXDXHXDXHXHXDXpXNXNXpXpXDXHXDXDXHXpXuXpXpXpXDXHXHXHXHXHXNXNXpXpXNXDXHXHXHX",
"pXpXpXpXpXNXDXHXHXHXNXpXpXpXpXNXLXLXHXHXFXVXfXpXuXSXbXDXHXSXaX# . >.d.3.N Y G H H H H U E $.o.................................) ) ) %.j.M.* 4.HXLXZXHXHXBXjXdX7XW.$ Y.aXrX<X<XrXxXBXFXFXCXCXCXLXAXAXLXFXQ.  CXDXZXHXLXc o M.N.| *._ j..X{.. iXY.  HXCXhXFXHXU.h 6X7X2X2X0XfXGXGXCXCXFXVXHXHXHXNXjX5.o b.k.h.&.o...) ) / / ) ...._ O.&.N.}.|.XX  E.CXGXaXuX6XHXaXHXDXDXHXHXNXpXNXNXpXDXHXDXHXHXDXpXNXNXpXpXDXHXDXDXHXpXuXpXpXpXDXHXHXHXHXHXNXNXpXpXNXDXHXHXHX",
"pXpXpXNXNXDXHXHXHXHXDXNXpXpXpXpXHXHXHXFXNXNXpXpXuXwXPXPXSXSXVXU.: & >.e.N M W J G T T H U E $.o.................................) ) -.l.3.o 0XHXHXHXHXHXBXCXLX7XuXA.$ 5XrXrX1X3XBXLXHXHXHXFXFXLXAXLXHXCXq g CXVXZXAXLXBX* 0 B.#._ *.+..XoX+ '.$ 1XNXFXCXNXHXwX  2X2X>XuXHXHXPXHXFXkXVXGXNXPXHXHXsXkXx # b.k.x.| ) ) ) ) ) ) ....o.#.k.}.OXoX+ 4.FXFXfXiXaXNXrXAXHXHXHXHXDXNXpXpXuXpXNXHXHXHXHXNXpXpXNXpXNXDXHXHXHXHXNXpXpXpXNXDXHXHXHXHXNXNXpXpXpXpXNXDXDXHX",
"NXNXNXDXDXDXDXDXDXDXDXNXNXNXNXNXVXkXNXNXNXZXZXZXaXHXpXPXPXSXmXnXtX, o <.V I D S H T w.L F U E X...) ................ ...........) ..-.g.9 a jXjXkXHXSXFXHXBXAXLX>X9X7 q 0X:X0X0XGXHXHXHXHXLXLXLXAXBXCXkXX ,XGXPXPXZXAXjXqX@ b v.O.O.j.M.qX+   f DXCXCXCXFXHXPXX Q.0XuXNXHXHXPXPXFXCXjXjXCXHXHXZXHXCXkXw 9 k.#.=./ / ) ......) ..{ v.B.|.oX+ c HXHXiXCXkXuXZXzXcXAXDXDXNXNXNXNXNXpXNXNXDXHXDXNXNXNXNXNXDXDXNXNXDXHXDXDXNXNXNXNXNXDXDXNXNXNXNXNXNXNXNXNXNXNXNX",
"HXHXHXHXHXNXpXpXpXNXNXDXDXHXHXFXgXgXiXpXNXAXLXHXHXFXHXbXfXyXlXaXAXAX: ; 3.M I Z T L L L L G U E X....................... . .....O.-.h.q.o 8XjXCXCXVXHXFXFXLXAXLXFX,XIX  E.9X:XCXFXHXHXHXHXLXLXHXLXHXCX,X  gXVXSXSXHXHXkXjX(.o r.x.O.h.B.+X: - 5XHXHXBXFXNXDXHXu f gXHXLXHXHXPXSXVXCXjXjXCXNXHXHXNXHXFXjX3 r l.-.) / ) .. .....O.l.B.|.+X* q DXlXuXfXiXFXHXNXHXLXpXNXNXpXpXDXHXHXHXHXNXpXpXpXuXNXHXDXHXHXHXNXpXpXpXpXDXHXHXHXHXNXpXpXpXpXNXNXHXHXHXHXNXNXpXpX",
"HXHXHXHXHXNXpXNXNXNXDXHXHXHXHXDXaXfXpXuXpXDXHXLXHXHXNXaXpXpXpXSXSXHX0X+ ; d.q.M Y G T H P L L A @.O.o.o...*.) _ ..=._ (  . .o.%.#.c.k.9 x CXBXLXHXHXHXHXFXHXHXHXHX4XhXg , 4X4XFXDXDXDXHXHXHXHXHXHXLXFXU., NXHXHXSXHXHXFXCX0Xc @ n.h.k..X{.. XX< U.ZXHXZXHXHXhXQ., NXHXHXFXHXPXHXHXHXFXFXHXHXHXHXCXCXHXDXCX. m k.%.^ / / ..o.O.h..X+X+X9 q gXVXpXlXlXPXHXHXHXHXNXpXNXsXpXpXDXHXHXHXHXNXuXpXpXpXDXHXDXDXHXHXNXpXpXpXpXNXHXHXHXHXHXpXNXpXpXpXDXHXHXDXHXDXpXuXpX",
"HXHXHXHXHXNXpXpXpXNXNXDXHXHXHXHXuXpXpXpXpXDXHXHXHXHXNXpXpXpXpXNXPXbXFX9X+ 3 <.,.K G Z H T L L T U { %.o.O._ _ ) =.....-.o.~  .O.x.g.b.o 8XsXLXFXHXHXHXFXFXFXHXHXNXHXuX1XX E.HXpXHXHXHXHXHXHXDXDXHXHXHXd f HXDXHXHXDXHXFXDXHX0Xq r n.M.|.9 a kXuXX wXHXHXHXpXFX2X  pXDXHXDXNXDXHXHXHXHXHXHXHXHXFXCXCXHXFXZXQ.; g.#.~ ( ^  .%.j.V.+XqXq : kXgX9XfXlXpXAXHXHXFXFXGXaXpXpXpXpXFXHXHXHXHXNXpXpXpXpXNXHXHXHXHXDXpXpXpXpXpXDXHXHXHXHXNXpXpXpXpXpXDXHXHXHXHXHXpXpXpX",
"HXHXHXHXDXNXpXpXpXpXNXDXHXHXHXHXuXpXpXpXNXDXHXHXHXHXDXxXNXpXpXNXPXbXHXFX7X. ; <.N Y R Z J T P t.Z U @.%. ._ _ ..=.`  .o. . ...X.h..X; >.jXFXZXHXHXPXHXFXFXFXHXHXHXHXuX4XY., DXHXHXHXHXHXHXHXHXHXHXHXHX$ W.HXHXHXNXHXHXHXDXHXHX8X@ 2.{.>.. qXkXHX!.$ nXHXNXHXCXCX  :XpXHXHXHXPXDXHXHXHXHXHXHXHXHXFXHXHXSXFXCXe 3 N.&.%.-.:.+.V..XqXp : kXCXhX1XHXlXlXDXHXHXFXFXFXuXpXpXpXNXHXHXHXHXHXNXpXpXpXpXpXHXHXHXHXDXpXpXpXpXpXDXHXHXHXDXNXpXpXpXpXNXHXHXHXHXHXDXNXpXpX",
"HXDXDXDXNXNXNXNXNXNXNXNXDXDXDXHXNXNXNXNXNXDXDXDXDXFXDXNXNXNXNXNXFXHXHXAXAX,Xo ; 2.B Y U Z G L F F Z U @.$. . .....~  .O. .=...| k.m # qXjXBXZXPXPXPXFXFXFXFXHXHXDXNXHX3X4X$ 3XaXHXHXHXHXHXDXDXDXNXHXNX  NXDXHXHXHXHXDXHXHXFXDXCX[.* R.. 8XCXFXbXZXi Y.HXDXFXCXCXu U.HXHXHXNXHXHXHXHXHXHXHXHXHXHXFXHXHXnXHXGXqX* B l.&.{ c.V.M.OXq   gXCXGXFX3XlXNXNXDXDXDXGXGXGXpXNXNXNXNXDXDXDXDXDXNXNXNXNXNXNXDXDXDXDXNXNXNXNXNXNXDXHXDXDXDXNXNXNXNXNXNXDXDXDXDXDXNXNXNXNX",
"NXNXNXNXNXDXDXDXDXDXDXNXNXNXNXNXDXDXDXDXNXNXNXNXNXNXNXDXDXDXDXDXuXHXAXzXcXLX7X+ ; 3.r.M I G H P L F G U } $.o.o. .o.%.X.o.o._ &.n.+ [.kXCXFXHXZXPXPXFXFXFXFXHXHXDXHXHXHX:Xg d HXDXDXDXFXDXHXHXHXHXHXW., HXNXHXHXHXNXDXHXNXHXHXdXjX4.+ T.kXHXDXHXzXlX  :XHXFXCXkXQ.u HXHXHXHXHXDXHXHXHXHXHXHXHXHXAXLXHXSXPXPXCX`.O b.m.l.n.}.+Xa # XXiXhXhXpXHXpXFXFXDXNXNXhXhXhXDXDXDXDXNXNXNXNXNXNXNXNXDXDXDXDXpXNXNXNXNXDXDXDXDXDXNXNXNXNXNXDXDXDXDXNXNXNXNXNXNXNXNXNXDXDX",
"pXpXpXpXNXHXHXHXHXHXDXNXNXpXpXpXHXHXHXHXDXpXpXpXpXpXNXHXHXHXHXHXaXrXzXcXcXHXHXXX# 9 ,.V N T G T K T T A S } $.X. .%.O.o.$.O.&.c.9 a jXjXHXHXHXPXPXPXFXFXFXHXHXHXHXHXpXHXpX:X  :XW.W.W.E.E.U.U.U.E.U.u Y.DXHXHXHXDXHXHXHXNXFXHXBXFXFX>XHXHXHXPXHXPXPXY.i aXCXCXFX1Xi HXDXBXHXHXHXHXHXHXHXHXHXHXHXLXZXHXPXPXHXhXjXe r M.}.OX+X4.  ,XCXpXpXuXHXHXHXHXHXDXlXNXpXiXhXHXHXHXHXDXpXpXpXpXpXNXHXHXHXHXDXuXpXpXpXNXHXHXHXHXHXNXpXpXpXNXDXHXHXHXHXDXpXpXpXpXpXpXDXHXHX",
"pXpXpXpXpXHXHXHXHXHXNXNXpXpXpXpXHXHXHXHXHXpXpXpXpXpXDXHXHXHXHXFXZXzXzXZXaXZXHXFXXX. 3 7.,.Y T G F T T G A Q } X. ...` O.#.#.j.M + qX0XGXHXnXPXPXPXFXFXFXFXHXHXHXDXpXHXHXDXpX, $ i i i i u d d d u d u 3XHXHXNXNXHXHXDXDXHXHXNXHXHXHXHXDXHXSXHXPXSXSXbX  Y.'.W.c < , pXHXHXDXNXHXHXHXHXHXHXHXHXHXHXZXPXPXPXPXFXhXoX* {.OX+X>.  :XhXpXNXuXNXHXDXHXHXHXZXpXpXpXiXhXHXHXHXHXFXpXpXpXpXpXNXHXHXHXHXNXuXpXpXpXpXHXHXHXHXHXNXpXpXpXpXNXHXHXHXHXDXpXpXpXpXpXpXHXHXHX",
"pXNXpXpXpXDXHXHXHXDXNXpXpXpXNXNXHXDXHXHXHXNXpXNXpXpXHXHXHXHXHXNXcXrXZXpXNXPXSXHXDX6X+ ; y.,.Y M T F F H A A Q X.X.o._ -.#.l.r.* XXCXHXSXPXPXSXPXPXFXFXFXFXHXHXHXHXHXNXNXHXHXU.i HXHXHXHXHXHXHXHXHXHXDXHXNXNXDXDXHXDXHXHXNXHXHXHXLXnXHXPXZXPXSXPXFXHXHXU.  u g c E.uXHXHXHXHXHXHXHXHXHXHXHXHXHXHXHXHXZXPXPXSXHXFXkXq x qX4.+ 4XNXwXNXlXaXZXDXHXHXHXHXNXuXpXpXpXGXHXDXDXHXHXNXpXpXpXpXDXHXHXHXHXNXpXNXpXpXpXDXHXHXHXHXNXpXNXpXuXNXHXDXDXHXHXNXpXpXNXpXNXHXHXHX",
"pXpXpXpXNXNXHXHXHXHXNXNXpXpXpXpXHXHXHXHXDXNXpXpXpXpXNXDXHXHXHXHXsXxXsXaXpXSXPXSXPXFX7X@ * y.e.K I U Z F T Z S D %.` -.| h.m.= >.CXHXHXHXHXPXPXPXHXHXFXFXHXHXHXHXHXHXHXHXDXDXpX  pXHXHXDXHXHXHXDXHXHXHXHXHXHXHXHXHXHXHXHXHXHXHXHXHXHXHXHXHXHXFXFXhXFXFXHXX >XHXDXHXHXHXHXHXHXHXHXHXHXHXHXHXHXHXHXFXHXHXHXPXHXHXCXkX@X  4.X 4XbXaXlXlXpXlXxXDXHXHXHXLXDXNXhXpXiXiXHXDXDXHXHXNXpXNXpXpXNXHXDXHXHXDXpXNXNXpXpXDXHXHXHXHXNXuXpXpXpXDXHXHXHXHXDXNXpXpXpXpXNXDXHXHX",
"DXDXNXNXNXNXNXNXNXNXNXNXNXNXDXDXNXNXNXNXDXDXDXDXDXDXNXNXNXNXNXNXBXCXBXhXfXbXnXnXSXZXLX7X@ * >.e.Y n W t.P H U A D %.{ v.n.0 9 qXHXHXHXHXHXHXPXHXHXHXHXHXHXHXHXHXHXHXHXHXHXHXNX, 1XHXHXHXHXHXHXHXHXHXHXHXHXHXHXHXHXHXHXHXHXHXHXHXHXHXHXHXFXFXFXFXFXGXFXHXY.j HXHXHXHXHXHXHXHXHXHXHXHXHXHXHXHXHXHXCXCXHXHXHXHXFXCXjXjX, X 5XSXyXPXDXDXDXDXNXNXZXNXxXNXNXNXNXNXVXVXNXNXNXDXHXNXNXDXHXDXNXNXpXNXDXDXDXDXDXNXNXNXNXNXpXNXNXNXDXDXNXNXNXNXNXNXDXDXDXDXDXDXDXDXNXNX",
"HXHXHXDXNXNXpXpXpXpXNXNXDXHXHXHXpXpXpXNXNXDXHXHXHXHXDXNXpXpXpXsXCXjXCXFXDXbXzXzXzXlXFXCXqXo * 1.q.I M K T L n U n D j.m.m # qXHXHXHXHXHXHXHXHXHXHXHXHXHXHXHXHXHXHXHXHXHXHXHXHXf U.HXDXHXHXHXHXHXHXHXHXHXHXHXHXHXHXHXHXHXHXHXHXHXHXFXFXFXCXCXCXCXFXFXHXDXpX  1XHXHXHXHXHXHXHXHXHXHXHXHXHXHXHXHXFXCXCXHXHXHXHXCXCXjXiXf t nXyXPXfXHXHXHXFXDXNXlXpXpXpXNXDXHXHXHXHXpXpXpXpXNXHXHXHXHXHXNXpXpXpXpXNXHXHXHXHXDXNXpXpXuXpXDXHXHXHXHXNXpXpXpXNXNXDXHXHXHXHXDXNXNXpX",
"HXHXHXHXHXNXNXpXpXNXNXHXHXHXHXHXpXpXpXpXpXNXDXHXHXDXNXpXpXpXpXhXCXjXCXFXHXbXzXnXZXaXFXFXCXdX- @ m q.q.w.K G T n Z I r.B o XXBXHXHXHXHXHXHXHXHXHXHXHXHXHXHXHXHXHXHXHXHXHXHXHXHXW.d HXHXHXHXHXHXHXHXHXHXHXHXHXHXHXHXHXHXHXHXHXHXHXHXFXFXFXFXFXFXFXGXFXHXHXHXd d HXHXHXHXHXHXHXHXHXHXHXHXHXHXHXHXHXCXCXHXHXHXHXCXCXVXFXE.$ ZXzX9XFXHXHXHXHXHXDXNXpXpXlXDXHXHXHXFXDXpXNXNXpXpXDXHXDXDXHXNXpXNXpXpXNXHXDXDXHXHXNXpXNXNXpXHXHXHXHXHXNXpXpXpXpXNXNXDXHXHXDXNXpXpXpX",
"HXHXHXHXHXNXNXpXpXNXDXHXHXHXHXHXpXpXpXpXpXNXDXHXHXDXNXpXpXpXxXNXFXCXCXHXHXNXlXNXNXuXNXHXFXFXNX* o l d.,.K K T Y Y r.z o R.CXHXHXHXHXHXHXHXHXHXHXHXHXHXHXHXHXHXFXHXHXHXHXHXDXHX3Xi DXHXHXDXHXHXHXHXHXHXHXHXHXHXHXHXHXHXHXHXHXHXHXHXHXFXHXFXHXHXHXHXFXNXHXFX5XX hXHXHXHXHXHXHXHXHXHXHXHXHXHXHXHXHXFXFXHXHXHXHXFXFXHXPX=X> ZXZXuXFXFXHXHXHXHXGXhXpXpXpXGXHXHXHXHXDXpXNXNXpXpXDXHXDXDXHXNXpXNXpXpXNXHXDXDXHXHXNXpXNXNXpXHXHXHXHXHXNXpXpXpXpXpXNXDXHXHXDXNXpXpXpX",
"HXHXHXHXNXNXpXpXpXpXNXDXHXHXHXHXpXpXpXNXNXDXHXHXHXHXDXNXpXpXpXNXHXHXLXFXCXhXiXsXiXuXpXLXHXHXHXiXq & e y.N Y Y Y q.l O 6.CXHXPXHXHXHXHXHXHXHXHXHXHXHXHXHXHXHXFXFXHXHXHXHXHXDXDXNXf DXHXHXDXHXHXHXHXHXHXHXHXHXHXHXHXHXHXHXHXHXHXHXHXHXHXHXHXHXHXHXHXHXHXHXFXVX< U.FXHXHXHXHXHXHXHXHXHXHXHXHXHXHXHXHXHXFXFXFXFXHXHXPXFXj U.ZXpXiXFXFXFXHXCXVXhXpXiXaXpXNXDXHXHXHXHXpXpXpXpXNXDXHXHXHXHXNXpXpXpXpXNXHXHXHXHXDXNXpXpXuXpXDXHXHXHXHXNXpXpXpXNXNXDXHXHXHXHXDXNXNXpX",
"DXDXNXNXNXNXNXNXNXNXNXNXNXNXDXDXNXNXNXNXDXDXDXDXDXDXDXNXNXNXNXZXZXAXAXhXkXkXkXkXsXHXZXZXZXPXVXFXxXg * l 3.q.B q.v % 4.dXLXFXPXnXHXFXFXFXFXFXHXHXHXHXHXHXHXHXFXFXHXDXHXHXHXHXHXDX:XHXHXHXHXHXHXHXHXHXHXHXHXHXHXHXHXHXHXHXHXHXHXHXHXHXLXLXLXLXHXHXLXHXHXGXFXCXY., FXHXHXHXHXHXHXHXHXHXHXHXHXHXHXHXHXHXFXCXCXCXHXHXnX!.X uXuXGXCXFXGXGXVXhXhXhXhXhXhXhXNXNXNXDXDXDXNXNXNXDXDXDXNXDXHXDXNXNXpXNXDXDXDXDXDXNXNXNXNXNXpXNXNXNXDXDXNXNXNXNXNXNXDXDXDXDXDXDXDXDXNXNX",
"pXpXpXpXNXNXHXHXHXHXNXNXpXpXpXpXHXHXHXHXDXNXpXpXpXNXNXDXHXHXHXHXzXcXcXaXqXjXjXjXFXpXAXcXlXbXuXfXAXxX. & r 2.e.1.O c 7X<XAXHXnXHXHXFXFXFXFXFXHXHXHXHXHXHXHXHXFXFXHXNXDXHXHXHXHXHXHXHXDXDXHXHXHXHXHXHXHXHXHXHXHXHXHXHXHXHXHXHXHXHXHXHXHXHXLXLXHXHXLXAXLXGXFXCX0X  FXHXHXHXHXHXHXHXHXHXHXHXHXHXHXHXHXHXFXCXCXCXHXHX!.X :XPXDXFXFXBXpXpXpXpXhXNXFXFXFXFXGXNXNXpXpXpXHXDXDXHXHXNXpXpXpXpXNXHXDXHXHXDXpXNXNXpXpXDXHXHXHXHXNXuXpXpXpXDXHXHXHXHXDXNXpXpXpXpXNXHXHXHX",
"pXNXpXuXpXDXHXDXDXNXNXpXpXpXpXNXHXDXHXHXHXNXpXpXNXpXHXHXHXHXHXNXlXcXxXaXiXVXFXCXBXLXxXpXNXfXpXNXHX>X  4.. q c . c 8X0X<X6XNXHXNXFXHXHXHXHXFXHXHXHXHXHXHXHXHXHXHXHXHXHXHXHXHXHXHXHXHXHXHXHXHXHXHXHXHXHXHXHXHXHXHXHXHXHXHXHXHXHXHXHXHXHXHXHXHXHXHXHXHXHXDXHXFXhXi U.NXFXDXHXHXBXHXHXHXHXHXHXNXDXHXHXHXHXFXNXCXHXU.  W.FXNXHXFXHXpXpXhXpXaXpXDXHXFXFXHXNXuXpXpXpXDXHXDXDXHXHXNXpXpXNXpXDXHXDXHXHXNXpXNXpXpXpXDXHXHXDXHXNXpXNXpXpXNXHXDXHXHXHXNXpXpXpXpXNXHXHXDX",
"uXpXpXpXpXDXHXHXHXDXNXNXpXpXpXpXHXHXHXHXHXNXpXpXpXpXDXHXHXHXHXDXuXpXpXpXpXHXHXHXHXHXNXpXpXpXpXNXCX6X  W.'.+ . Y.2XuX>X:X2X0XBXFXHXHXLXLXHXHXHXHXHXHXHXHXHXHXHXHXHXHXHXHXHXHXHXHXHXHXHXHXHXHXHXHXHXHXHXHXHXHXHXHXHXHXHXHXHXHXHXHXHXHXHXHXHXHXHXHXHXDXHXHXHXHXHXY., NXHXHXHXHXHXHXHXHXHXDXDXHXHXHXDXHXHXNXHXHXY.X W.DXHXHXHXHXHXpXuXpXpXpXpXHXHXHXHXHXNXpXpXpXpXNXHXHXHXHXDXpXpXpXpXpXNXHXHXHXHXNXuXpXpXpXpXHXHXHXHXHXNXpXpXpXpXNXHXHXHXHXHXpXpXpXpXpXpXDXHXHX",
"uXpXpXpXNXDXHXHXHXHXDXNXpXpXpXpXHXHXHXHXDXpXpXpXpXpXNXHXHXHXHXHXuXpXpXpXNXHXHXHXHXHXNXpXpXpXpXNXFXBX  d 7   W.uX2X2X,X2X6X,X2XiXHXHXFXDXHXHXHXLXHXHXHXHXHXHXHXHXHXHXHXHXHXHXHXHXHXHXHXHXHXHXHXHXHXHXHXHXHXHXHXHXHXHXHXHXHXHXHXHXHXHXHXHXHXHXHXHXHXNXHXHXHXDXHX4X  pXHXHXHXHXHXDXHXHXHXHXHXDXDXHXHXHXNXHXNXi X 3XpXNXNXHXHXHXHXpXpXpXpXpXNXHXHXHXHXHXNXpXpXpXpXpXHXHXHXHXDXpXpXpXuXuXNXHXHXHXHXNXuXpXpXpXNXHXHXHXHXHXNXpXpXpXpXNXHXHXHXHXDXpXpXpXpXpXpXDXHXHX",
"pXNXNXNXNXDXDXDXDXDXNXNXNXNXNXNXDXDXDXDXNXNXNXNXNXNXNXDXDXDXDXDXpXNXNXNXNXDXDXDXHXDXNXNXNXNXNXNXHXFXY.  g 2X>X>X6X2X2X,X2XuX6X1XhXBXHXHXLXFXHXHXHXHXHXHXHXHXHXHXHXHXHXHXHXHXHXHXHXHXHXHXHXHXHXHXHXHXHXHXHXHXHXHXHXHXHXHXHXHXHXHXHXHXHXHXHXHXHXHXHXHXHXHXHXDXHXHX$ W.HXDXHXHXHXNXNXHXHXDXNXHXHXHXNXHXHXW.X i pXuXuXNXDXHXDXNXHXpXNXNXNXNXNXDXDXDXDXDXNXNXNXNXNXNXHXDXDXDXNXNXNXNXpXpXNXDXDXDXDXNXNXNXNXNXNXDXDXDXHXDXNXNXNXNXNXNXHXDXDXDXNXNXNXNXNXNXNXNXDXDX",
"DXDXDXDXNXNXNXNXNXNXNXNXDXDXDXDXpXNXNXNXNXDXDXDXDXDXNXNXNXNXNXNXDXDXDXDXNXNXNXNXpXpXNXDXDXDXDXNXsXBXiXd   E.CX>X5X,X2X>X>X6X6X7X3XuXNXFXHXHXHXHXHXHXHXHXHXHXHXHXHXHXHXHXHXHXHXHXHXHXHXHXHXHXHXHXHXHXHXHXHXHXHXHXHXHXHXHXHXHXHXHXHXHXHXHXHXHXHXHXHXHXHXDXHXHXHXHXd d HXDXHXHXDXHXHXHXHXHXHXHXHXHXNXDXd $ Y.NXHXHXHXHXNXpXpXpXNXDXHXDXDXDXNXNXNXNXNXNXNXNXDXDXDXDXNXNXNXNXNXDXDXDXHXDXNXNXNXNXNXNXDXDXDXDXNXNXNXNXpXpXNXDXDXDXDXNXNXNXNXNXNXDXHXDXDXDXDXNXNXNX",
"HXHXHXHXDXNXpXpXpXpXNXNXHXHXHXHXuXpXpXpXNXDXHXHXHXHXNXpXNXpXpXNXHXHXHXHXDXpXpXpXuXuXNXHXHXHXHXNXiX0XiXFXc   Y.0X3X2X2X6X6X>X>X2X1X4XrXpXLXHXHXDXHXHXHXHXHXHXHXHXHXHXHXHXHXHXHXHXHXHXHXHXHXHXHXHXHXHXHXHXHXHXHXHXHXHXHXHXHXHXHXHXHXHXHXHXHXHXHXHXNXHXHXDXHXHXHXHXE.$ HXHXHXHXNXHXNXDXHXHXDXDXDXDXY.X i 1XHXDXNXNXHXHXpXuXNXuXuXHXHXHXHXHXDXNXpXpXpXpXNXHXHXHXHXHXuXpXpXpXNXHXHXHXHXHXNXpXpXpXpXNXHXHXHXHXDXpXpXpXuXuXNXHXHXHXHXNXpXpXNXpXNXHXHXHXHXHXHXNXpXpX",
"HXHXHXHXHXpXpXpXpXpXNXDXHXHXHXHXuXpXpXpXpXDXHXHXHXHXNXpXpXpXpXNXHXHXHXHXHXpXpXpXpXpXNXHXHXHXHXNXBXsXBX6XFX:X  u >X0X,X2XuX6X2X>X1X1X4XrXpXDXLXLXHXHXHXHXHXHXHXHXHXHXHXHXHXHXHXHXHXHXHXHXHXHXHXHXHXHXHXHXHXHXHXHXHXHXHXHXHXHXHXHXHXHXHXHXHXHXHXHXDXHXHXHXHXHXHXHXuX  uXHXHXHXHXHXHXHXHXNXHXNXY.  < Q.HXuXpXHXDXHXDXHXDXPXHXuX3XHXHXHXHXHXHXNXpXpXpXpXNXHXHXHXHXNXuXpXpXpXpXHXHXHXHXHXNXpXpXpXpXNXHXHXDXHXDXpXpXpXpXpXNXHXHXHXHXNXpXpXNXpXNXHXHXHXHXHXDXpXpXpX",
"HXDXHXHXHXNXpXpXNXNXDXHXHXHXDXDXpXpXpXuXpXDXHXDXHXHXNXuXpXpXpXDXHXDXDXHXHXNXpXpXNXpXDXHXDXHXHXNX0XiXuXhXsXBXiX7 X !.0X3X>X:X6X2X4X4X4X4X3XaXBXHXHXHXHXHXHXHXHXHXHXHXHXHXHXHXHXHXHXHXHXHXHXHXHXHXHXHXHXHXHXHXHXHXHXHXHXHXHXHXHXHXHXHXHXHXHXHXHXHXHXHXHXHXDXNXHXHXHXX :XDXNXHXHXHXHXHXDX:Xu X , E.pXDXuXDXNXDXHXHXHXpXuXpXpXpXpXHXHXHXHXHXHXNXpXNXpXpXDXHXHXHXHXNXpXNXpXpXpXDXHXHXNXDXNXpXNXpXpXNXHXDXDXHXHXNXpXpXNXpXDXHXDXHXHXNXpXNXNXpXpXDXHXHXHXHXDXpXpXpX",
"HXHXHXHXDXNXpXpXpXpXNXDXHXHXHXHXpXNXNXpXpXDXHXHXHXHXDXNXNXpXpXpXHXDXDXHXHXNXpXpXpXpXNXHXDXHXHXDXpXpXpXpXhXNXFXHXE.  , W.4X4X3X1X1XrX1X1X4X1X6XpXHXDXNXHXHXHXHXHXHXHXHXHXHXHXHXHXHXHXHXHXHXHXHXHXHXHXHXHXHXHXHXHXHXHXHXHXHXHXHXHXHXHXHXHXHXHXHXHXHXHXDXHXNXNXHXNXHXu Y.HXHXHXNXpX:Xf     d 1XHXDXNXpXpXNXDXHXHXDXHXHXpXpXNXpXpXHXHXHXHXHXDXNXpXpXpXpXNXDXHXHXHXHXpXNXNXpXpXDXHXHXHXHXNXpXNXpXuXNXHXHXHXHXDXNXpXpXpXpXDXHXHXHXHXNXpXpXpXpXNXNXHXHXHXHXNXNXpXpX",
"NXNXNXNXDXDXDXDXDXDXDXDXNXNXNXNXDXDXDXNXNXNXNXNXNXNXNXNXNXNXDXDXNXNXNXDXDXNXNXDXHXDXNXNXpXNXDXDXFXGXNXNXNXNXNXNXNXpXc   , E.4X3X6X:X4X1X3X3X4X3X1XNXHXHXFXHXHXLXHXHXHXHXHXHXHXHXHXHXHXHXHXHXHXHXHXHXHXHXHXHXHXHXHXHXHXHXHXHXHXHXHXHXHXHXHXHXHXHXHXHXHXHXHXHXNXE.W.E., pX:Xf i X X d W.pXDXNXpXpXDXDXNXNXNXNXNXNXNXNXNXDXHXNXpXNXNXNXNXNXDXDXDXDXDXDXNXNXNXNXNXNXDXDXDXNXNXNXNXNXpXNXNXDXHXDXNXNXNXNXNXNXDXDXDXDXHXDXDXNXNXNXNXNXDXDXNXNXNXNXNXNXNXNXNXNXNXNX",
"pXpXpXNXNXDXHXHXHXHXDXNXNXpXpXpXHXHXHXHXDXNXpXpXpXpXNXDXHXHXHXHXpXpXpXpXNXHXHXHXHXHXNXpXpXpXpXNXHXHXHXDXNXNXpXpXpXpXDXpXY.    f :X4XaX6X1X4XuX<XrX4X6XxXLXDXFXHXHXHXHXHXHXHXHXHXHXHXHXHXHXHXHXHXHXHXHXHXHXHXHXHXHXHXHXHXHXHXHXHXHXHXHXHXHXHXHXHXDXHXHXHXDXHXDXW.$   X     u U.:XNXHXpXuXpXNXDXpXHXHXHXDXNXpXpXpXpXNXHXHXHXHXDXpXpXpXpXNXNXDXHXHXHXHXDXNXpXpXpXNXHXHXHXHXDXNXpXpXuXpXNXHXHXHXHXNXpXpXpXNXNXDXHXHXHXHXNXpXpXpXfXDXHXHXHXDXNXNXpXpXpXpXNXNXDXHX",
"pXpXpXpXNXNXDXHXHXDXNXpXpXpXpXpXHXDXDXHXHXNXpXNXpXpXDXHXHXHXHXDXpXNXNXpXpXDXHXDXDXHXNXpXNXpXpXNXHXHXHXHXHXNXNXpXuX3XHXHXHXHXW.,   $ u E.5X>X1X6X1X3XrX6XpXHXHXHXHXHXHXHXHXHXHXHXHXHXHXHXHXHXHXHXHXHXHXHXHXHXHXHXHXHXHXHXHXHXHXHXHXHXHXHXHXHXHXHXDXHXHXHXDXDXHXNX3Xu   , HXHXHXHXHXHXpXuXuXuXNXHXDXHXHXDXNXpXpXNXpXNXHXHXDXHXHXNXpXpXpXpXpXNXDXHXHXDXNXpXpXpXpXNXHXDXDXHXHXNXpXNXNXpXDXHXDXHXHXDXpXpXpXpXpXNXDXHXDXHXpXuXpXpXpXDXHXHXHXHXHXNXNXpXpXNXNXHXHXHX",
"pXpXpXpXpXNXDXHXHXDXNXpXpXpXpXpXHXDXDXHXHXNXpXNXpXpXNXHXHXHXHXDXpXNXNXpXpXDXHXDXDXHXNXpXNXpXpXNXHXHXHXHXHXDXNXpXNXuXpXHXDXNXHXDX<XU.f $   $ , u f f f d i i U.HXHXHXHXHXHXHXHXHXHXHXHXHXHXHXHXHXHXHXHXHXHXHXHXHXHXHXHXHXHXHXHXHXHXHXHXHXHXHXHXHXHXHXHXHXHXDXHXHXHXHXW.X , pXNXNXHXHXNXDXHXpXNXHXDXHXHXDXNXpXpXNXpXNXHXHXDXHXHXNXpXpXpXpXpXNXDXHXHXHXNXpXpXpXpXNXHXDXDXHXHXNXpXNXNXpXDXHXDXHXHXDXpXpXpXpXpXNXDXHXDXHXpXuXpXpXpXDXHXHXHXHXHXNXNXpXpXNXNXHXHXHX",
"pXpXpXNXNXDXHXHXHXHXDXNXNXpXpXpXHXHXHXHXDXNXpXpXpXpXNXDXHXHXHXHXpXpXNXpXNXDXHXHXHXHXNXpXpXpXpXNXHXHXHXFXNXNXpXpX4XNXNXDXHXHXHXNXpXuXLXLXQ.X h Y.f Y.A.f !.rXHXHXHXHXHXHXHXHXHXHXHXHXHXHXHXHXHXHXHXHXHXHXHXHXHXHXHXHXHXHXHXHXHXHXHXHXHXHXHXHXHXHXHXHXHXHXHXHXHXDXHXDXNXHX, X :XHXHXHXpXuXpXuXpXHXHXHXHXDXNXpXpXpXpXNXDXHXHXHXDXpXpXpXpXNXNXDXHXHXHXHXDXNXpXpXpXpXHXHXHXHXDXNXpXpXuXpXNXHXHXHXHXDXpXpXpXNXNXDXHXHXHXHXNXpXpXpXpXDXHXHXHXDXNXNXpXpXpXpXNXNXDXHX",
"NXNXNXNXDXDXDXDXDXDXDXDXNXNXNXNXDXDXDXNXNXNXNXNXNXNXNXNXNXNXNXDXNXNXNXDXDXNXNXDXHXDXNXNXpXNXDXDXDXDXNXNXNXNXNXNXHXDXNXHXNXpXFXNXaXHXHXHXd , 4XuXuX6X3X6XuXpXDXHXHXHXHXHXHXHXHXHXHXHXHXHXHXHXHXHXHXHXHXHXHXHXHXHXHXHXHXHXHXHXHXHXHXHXHXHXHXHXHXHXNXDXHXHXDXHXHXHXHXDXHXNXHXf $ W.DXHXpXpXHXHXDXpXDXDXNXNXNXNXNXNXNXNXNXDXHXNXpXNXNXNXNXDXDXDXDXDXDXDXNXNXNXNXNXNXDXDXDXNXNXNXNXNXpXNXNXDXHXDXNXNXNXNXNXNXDXDXDXDXHXDXDXNXNXNXNXNXDXDXNXNXNXNXNXNXNXNXNXNXNXNX",
"HXHXHXHXDXNXpXpXpXpXNXHXHXHXHXHXpXNXNXpXpXDXHXHXHXHXDXNXNXpXpXpXHXDXHXHXHXNXpXpXpXpXNXHXDXHXHXDXpXpXpXpXNXNXHXHXuXHXDXpXNXpXNXNXHXNXNX:X  W.pX:X4X4X4XpXFXHXHXHXHXHXHXHXHXHXHXHXHXHXHXHXHXHXHXHXHXHXHXHXHXHXHXHXHXHXHXHXHXHXHXHXHXHXHXHXHXHXHXHXHXHXHXHXHXHXDXHXHXHXHXHXNXHXU.  W.pXHXDXDXHXHXNXNXpXpXNXDXHXHXHXHXDXpXpXNXpXpXHXHXHXHXHXHXNXpXpXpXpXNXDXHXHXHXHXpXNXNXpXpXDXHXHXHXHXNXpXNXpXpXNXHXHXHXHXDXNXpXpXpXpXDXHXHXHXHXNXpXpXpXpXNXNXHXHXHXHXNXNXpXpX",
"HXDXHXHXHXNXpXpXNXNXDXHXHXHXDXDXpXpXpXpXpXDXHXDXHXHXNXuXpXpXpXDXHXDXHXHXHXNXpXpXNXpXDXHXDXHXHXNXpXNXNXpXpXDXHXHXHXNXHXpXuXNXuXNXFXHXaX. Y.2X3X,X4X1X0XNXHXHXHXHXHXHXHXHXHXHXHXHXHXHXHXHXHXHXHXHXHXHXHXHXHXHXHXHXHXHXHXHXHXHXHXHXHXHXHXHXHXHXHXHXHXHXHXHXHXHXHXHXHXHXDXHXHXHXuX:X  U.HXNXNXHXNXNXNXpXpXpXNXHXHXHXHXDXpXpXNXpXpXDXHXDXHXHXHXNXpXpXpXpXDXHXHXHXHXNXpXNXpXpXpXDXHXHXDXHXNXpXNXpXpXNXHXDXDXHXHXNXpXpXpXpXNXHXDXHXHXDXpXNXNXpXpXDXHXHXHXHXDXpXpXpX",
"HXHXHXHXHXpXpXpXpXpXNXDXHXHXHXHXuXpXpXpXpXDXHXHXHXHXNXpXpXpXpXNXHXHXHXHXDXpXpXpXpXpXNXHXHXHXHXNXpXpXNXpXNXHXHXHXHXHXNXuXHXpXpXNXhXHXu , 3X4X5X6X1X2XaXGXHXHXHXHXHXHXHXHXHXHXHXHXHXHXHXHXHXHXHXHXHXHXHXHXHXHXHXHXHXHXHXHXHXHXHXHXHXHXHXHXHXHXHXHXHXHXHXHXHXHXHXHXHXHXDXDXHXHXDXuX:X$ E.HXNXHXDXpXNXpXpXpXNXHXHXHXHXDXpXpXNXpXpXHXHXHXHXHXHXNXpXpXpXpXNXHXHXHXHXDXuXpXpXpXpXDXHXHXHXHXNXpXpXpXpXNXHXHXHXHXDXpXpXpXpXpXDXHXHXHXHXNXpXpXpXpXNXHXHXHXHXHXHXNXpXpX",
"HXHXHXHXDXpXpXpXpXpXNXNXHXHXHXHXuXpXpXpXNXDXHXHXHXHXNXpXNXpXpXNXHXHXHXHXDXpXpXpXuXuXNXHXHXHXHXNXpXpXNXpXNXHXHXHXNXHXDXpXNXuXpXpXHXU.  >X3X1XuX2X1XuXNXFXFXHXHXHXHXHXHXHXHXHXHXHXHXHXHXHXHXHXHXHXHXHXHXHXHXHXHXHXHXHXHXHXHXHXHXHXHXHXHXHXHXHXHXHXHXHXHXHXHXHXHXHXHXHXHXHXHXHXHXHXHXE.  :XHXHXHXuXpXpXpXNXNXHXHXHXHXDXpXpXpXpXNXHXHXHXHXHXDXpXpXpXpXpXNXHXHXHXHXHXuXpXpXpXNXHXHXHXHXHXNXpXpXpXpXNXHXHXHXHXDXpXpXpXpXpXDXHXHXHXDXNXpXpXNXpXNXHXHXHXHXHXHXNXpXpX",
"DXDXDXDXNXNXNXNXNXNXNXNXDXDXDXDXpXNXNXNXNXDXDXDXHXDXNXNXNXNXNXNXDXDXDXDXNXNXNXNXpXpXNXDXDXDXDXNXNXNXNXNXNXDXHXDXHXNXpXNXNXNXpXHX:XX Y.pX5X1X6X3X1XpXHXHXFXHXHXFXHXHXHXHXHXHXHXHXHXHXHXHXHXHXHXHXHXHXHXHXHXHXHXHXHXHXHXHXHXHXHXHXHXHXHXHXHXHXHXHXHXHXHXHXHXHXHXHXHXHXHXHXHXHXHXHXHXHXU.  3XHXNXpXNXNXNXNXDXDXDXDXDXDXNXNXNXNXNXDXDXDXDXDXNXNXNXNXNXNXNXNXDXDXDXDXpXNXNXNXNXDXDXDXHXHXNXNXNXNXNXNXDXDXDXDXNXNXNXNXNXNXNXDXDXDXNXNXNXNXNXNXNXDXHXDXDXDXDXNXNXNX",
"pXNXNXNXNXDXDXDXDXDXNXNXNXNXNXNXDXDXDXDXNXNXNXNXNXNXNXDXDXDXHXDXpXNXNXNXNXNXDXDXHXDXNXNXNXNXNXNXHXDXDXDXNXNXNXNXxXNXNXHXHXNXDXHX$ u iX:XuX>X>X6X3XNXHXHXFXHXHXFXHXHXHXHXHXHXHXHXHXHXHXHXHXHXHXHXHXHXHXHXHXHXHXHXHXHXHXHXHXHXHXHXHXHXHXHXHXHXHXHXHXHXHXHXHXHXHXHXHXHXHXHXHXHXHXHXDXHXHXd $ uXNXDXDXDXDXDXNXNXNXNXNXNXDXHXDXDXDXNXpXNXNXNXNXDXDXDXDXDXNXNXNXNXNXNXDXDXDXDXNXNXNXNXpXNXNXHXDXDXDXNXpXNXNXNXNXDXDXDXDXDXNXpXNXNXNXDXHXDXDXDXNXNXNXNXNXNXNXNXDXDX",
"uXpXpXpXNXDXHXHXHXHXDXNXpXpXpXpXHXHXHXHXDXpXpXpXpXpXNXHXHXHXHXHXuXpXpXpXNXHXHXHXHXHXNXpXpXpXpXNXHXHXHXHXDXNXpXpX3XpXHXHXDXDXHXd , 2X>XrX3X1X3X,XpXDXHXHXHXFXHXHXHXHXHXHXHXHXHXHXHXHXHXHXHXHXHXHXHXHXHXHXHXHXHXHXHXHXHXHXHXHXHXHXHXHXHXHXHXHXHXHXHXHXHXHXHXHXHXHXHXDXDXHXHXHXHXDXHXNXHXHX, i DXHXHXHXHXHXNXpXpXpXpXNXHXHXHXHXDXpXuXpXpXpXNXDXHXHXHXHXNXpXpXpXpXNXHXHXHXHXDXpXpXpXuXpXDXHXHXHXHXNXuXpXpXpXNXHXHXHXHXHXNXpXpXpXNXDXHXHXHXHXDXNXpXpXpXpXNXDXHXHX",
"uXpXpXpXpXDXHXHXHXDXNXNXpXpXpXpXHXHXHXHXHXpXpXpXpXpXDXHXHXHXHXDXuXpXpXpXpXHXHXHXHXHXNXpXpXpXpXNXHXHXHXHXHXpXpXpXNXuXpXNXHXHXU.$ ,X:XpX4X,XuX2X1XHXFXHXHXHXFXFXHXHXHXHXHXHXHXHXHXHXHXHXHXHXHXHXHXHXHXHXHXHXHXHXHXHXHXHXHXHXHXHXHXHXHXHXHXHXHXHXHXHXHXHXHXHXHXHXHXHXDXDXHXHXHXHXHXHXNXHXHXpX$ E.DXHXHXHXHXNXpXpXpXpXNXHXHXDXHXHXpXuXpXpXpXpXDXHXHXHXHXNXpXpXpXpXNXHXHXHXHXHXpXpXpXpXpXDXHXHXHXHXNXuXpXpXpXpXHXHXHXHXHXNXpXpXpXpXNXHXHXHXHXHXpXpXpXpXpXNXHXHXHX",
"pXpXpXpXpXDXHXDXDXNXNXpXpXpXNXNXHXDXHXHXHXNXpXpXpXpXHXHXHXHXHXNXpXNXpXpXpXDXHXHXNXHXNXpXNXpXpXNXHXDXHXHXHXNXpXNXpXDXDXHXHX5XX W.2X7X>X1X4X1X3X0XHXFXGXHXHXDXFXHXHXHXHXHXHXHXHXHXHXHXHXHXHXHXHXHXHXHXHXHXHXHXHXHXHXHXHXHXHXHXHXHXHXHXHXHXHXHXHXHXHXHXHXHXHXHXHXHXHXHXHXHXHXDXDXHXHXHXHXHXDXQ.X uXDXHXHXHXNXpXpXpXNXNXHXHXNXHXHXNXpXpXpXuXpXDXHXDXHXHXfXuXpXpXpXDXHXDXDXHXHXNXpXpXNXpXDXHXHXHXHXNXpXNXNXpXpXDXHXHXHXHXNXpXpXpXuXpXHXDXHXHXHXNXpXpXNXpXNXHXHXHX",
"pXpXpXpXNXNXHXHXHXHXNXNXpXpXpXpXHXHXHXHXDXNXpXpXpXpXNXDXHXHXHXHXpXNXNXpXpXDXHXHXHXHXNXpXNXpXpXNXHXHXHXDXDXDXNXuXpXpXHXHXuX  Y.4X2X2X2X2X5X3X1XFXHXHXHXHXHXHXHXHXHXHXHXHXHXHXHXHXHXHXHXHXHXHXHXHXHXHXHXHXHXHXHXHXHXHXHXHXHXHXHXHXHXHXHXHXHXHXHXHXHXHXHXHXHXHXHXHXHXHXHXHXHXHXHXHXHXHXHXNXNXHXu , HXNXNXHXHXpXpXaXpXNXHXHXDXHXHXpXpXpXpXpXNXNXHXHXHXHXNXNXpXpXpXpXHXDXDXHXHXNXpXNXpXpXNXHXDXHXHXDXpXpXpXpXNXNXHXHXHXHXNXuXpXpXpXDXDXHXHXDXDXNXpXpXpXpXNXDXHXHX",
"DXDXNXNXNXNXNXNXNXNXNXNXNXNXDXDXNXNXNXDXDXDXDXDXDXDXNXNXNXNXNXNXDXDXDXNXNXNXNXNXpXNXNXDXHXDXNXNXNXNXpXpXpXPXHXDXHXDXNXpX, f 4XuX4X3X2X2X1X4X3XFXHXHXHXHXHXHXHXHXHXHXHXHXHXHXHXHXHXHXHXHXHXHXHXHXHXHXHXHXHXHXHXHXHXHXHXHXHXHXHXHXHXHXHXHXHXHXHXHXHXHXHXHXHXHXHXHXHXHXHXHXHXHXHXHXHXHXNXHXHXHXNX< Y.NXNXNXpXDXDXHXDXNXNXNXNXDXHXNXDXDXNXNXNXNXNXNXNXNXNXNXNXNXDXDXNXNXNXDXHXNXNXDXHXDXNXNXpXNXDXDXDXDXNXNXNXNXNXNXpXNXNXNXDXDXNXNXNXNXNXNXDXDXDXDXDXDXDXDXNXNX",
"HXHXHXDXNXNXpXpXpXpXNXNXDXHXHXHXpXpXpXNXNXDXHXHXHXHXDXNXpXpXpXNXHXHXHXHXDXNXpXpXuXpXNXHXHXHXHXNXpXpXuXuXpXHXHXHXHXHXNXd , 4XuXuX4X7X2X1X3X1XiXFXHXHXHXHXHXHXHXHXHXHXHXHXHXHXHXHXHXHXHXHXHXHXHXHXHXHXHXHXHXHXHXHXHXHXHXHXHXHXHXHXHXHXHXHXHXHXHXHXHXHXHXHXHXHXHXHXHXHXHXHXHXHXHXHXHXDXHXHXHXpXHXE.$ 3XpXNXNXHXDXHXHXHXpXpXpXpXNXHXHXHXHXDXNXNXpXpXpXpXNXNXDXHXHXHXpXpXpXpXNXHXHXHXHXHXNXpXpXpXpXNXHXHXHXHXDXNXpXpXuXpXDXHXHXHXHXNXpXpXpXNXNXDXHXHXHXHXDXNXNXpX",
"HXHXHXHXHXNXNXpXpXNXDXHXHXHXHXHXpXpXpXpXpXNXDXHXHXDXNXpXpXpXNXNXHXDXDXHXHXNXpXNXNXpXDXHXDXHXHXDXpXpXpXpXNXHXHXDXDXHXQ.  5X4X4X1X2X7X4X1X6X1XBXBXHXHXHXHXHXHXHXHXHXHXHXHXHXHXHXHXHXHXHXHXHXHXHXHXHXHXHXHXHXHXHXHXHXHXHXHXHXHXHXHXHXHXHXHXHXHXHXHXHXHXHXHXHXHXHXHXHXHXHXHXHXHXHXHXHXDXHXDXHXHXuXHXi u HXpXDXHXDXHXHXDXpXpXNXpXuXHXHXHXHXHXHXNXNXpXpXNXNXHXHXHXHXHXpXNXNXpXpXDXHXDXDXHXNXpXNXpXpXNXHXHXHXHXHXDXNXpXNXpXHXHXHXHXHXNXNXNXNXpXNXDXHXHXHXDXNXpXpXpX",
"HXHXHXHXHXDXNXpXpXNXNXHXHXHXHXHXpXpXpXpXpXNXDXHXHXFXNXpXpXpXNXNXHXDXDXHXHXNXpXNXNXpXDXHXDXHXHXDXpXpXpXpXBXHXHXDXHX:X$ U.5XpX5X<X2X3X4X1X0X6XHXCXHXHXHXHXHXHXHXHXHXHXHXHXHXHXHXHXHXHXHXHXHXHXHXHXHXHXHXHXHXHXHXHXHXHXHXHXHXHXHXHXHXHXHXHXHXHXHXHXHXHXHXHXHXHXHXHXHXHXHXHXHXHXHXHXDXHXDXHXHXHXDXHX4X  4XpXpXNXHXHXHXDXpXpXNXpXpXHXHXHXHXHXHXDXNXpXpXNXNXHXHXHXHXHXpXNXNXpXpXDXHXDXDXHXNXpXNXpXpXNXHXHXHXHXHXNXNXpXNXpXHXHXHXHXHXNXNXNXpXpXNXDXHXHXHXDXNXpXpXpX",
"HXHXHXDXNXNXpXpXpXpXNXNXDXHXHXHXpXpXpXNXNXDXHXHXHXHXNXNXpXpXpXNXHXHXHXHXDXNXpXpXuXpXNXHXHXHXHXDXNXNXpXpXNXHXHXPXNX< d 3X3X1X3X1X4X2X4X4X6XiXHXFXHXHXHXHXHXHXHXHXHXHXHXHXHXHXHXHXHXHXHXHXHXHXHXHXHXHXHXHXHXHXHXHXHXHXHXHXHXHXHXHXHXHXHXHXHXHXHXHXHXHXHXHXHXHXHXHXHXHXHXHXHXHXHXHXNXHXHXHXNXNXHXHXHXd i HXNXNXDXHXHXDXNXpXpXpXNXHXHXHXHXHXDXNXpXpXpXpXNXNXDXHXHXHXpXpXpXpXNXDXHXHXHXHXNXpXpXpXpXNXHXHXHXDXNXNXpXpXuXpXDXHXHXHXHXNXpXpXpXNXNXDXHXHXHXHXDXNXNXpX",
"DXDXNXNXNXNXNXNXNXNXNXNXNXNXDXDXNXNXNXNXDXDXDXDXDXDXNXNXNXNXNXNXDXDXDXNXNXNXNXNXpXNXNXDXHXDXNXNXNXDXNXNXNXBXNXpXf < 4X4XpX1X1X3X4X1X2X2X4XBXHXHXHXHXHXHXHXHXHXHXHXHXHXHXHXHXHXHXHXHXHXHXHXHXHXHXHXHXHXHXHXHXHXHXHXHXHXHXHXHXHXHXHXHXHXHXHXHXHXHXHXHXHXHXHXHXHXHXHXHXHXHXHXHXHXHXHXDXHXpXHXHXNXHXpXNXX 1XHXNXpXDXDXNXNXNXNXNXHXNXDXDXNXNXNXNXNXNXNXNXNXNXNXNXDXDXNXNXNXDXDXDXNXDXHXDXNXNXpXNXDXDXDXDXNXNXNXNXNXNXpXNXNXNXDXDXNXNXNXNXNXNXDXDXNXNXDXDXDXDXNXNX",
"pXpXpXpXNXNXHXHXHXHXNXNXpXpXpXpXHXHXHXHXHXNXpXpXpXpXNXDXHXHXHXHXpXNXNXpXpXDXHXHXHXHXNXpXNXpXuXNXNXHXHXHXDXNX3X>X  W.3X4X1X1X4X4X4X>X2X3X1XHXHXHXHXHXHXHXHXHXHXHXHXHXHXHXHXHXHXHXHXHXHXHXHXHXHXHXHXHXHXHXHXHXHXHXHXHXHXHXHXHXHXHXHXHXHXHXHXHXHXHXHXHXHXHXHXHXHXHXHXHXHXHXHXHXHXHXNXHXHXHXDXDXHXHXHXFXu g NXNXpXuXpXNXHXHXDXHXHXpXpXpXpXpXNXNXHXHXHXHXDXNXpXpXpXpXHXDXDXHXHXNXpXpXpXpXNXHXDXHXHXDXpXpXpXpXNXNXHXHXHXHXNXuXpXpXpXDXDXDXHXDXDXNXpXuXpXpXNXHXHXHX",
"pXNXNXpXpXDXHXDXDXNXNXNXpXpXNXNXHXDXDXHXHXNXpXNXpXpXDXHXHXHXHXNXpXNXNXpXpXDXHXHXHXHXNXuXpXpXpXNXBXHXHXHXNXuXsX  4.,XsX1X1X7X2X2X2X3X3X1XpXHXFXHXHXHXHXHXHXHXHXHXHXHXHXHXHXHXHXHXHXHXHXHXHXHXHXHXHXHXHXHXHXHXHXHXHXHXHXHXHXHXHXHXHXHXHXHXHXHXHXHXHXHXHXHXHXHXHXHXHXHXHXHXHXHXHXHXHXHXHXHXHXHXHXHXFXHX3X  4XDXNXpXpXNXHXHXNXHXHXNXpXNXNXpXpXDXHXDXHXHXNXuXpXpXpXDXHXDXDXHXHXNXpXpXpXpXDXHXHXHXHXNXpXNXNXpXpXDXHXHXHXHXNXpXpXpXpXNXHXDXDXHXHXNXpXpXNXpXNXHXHXDX",
"pXpXpXpXpXDXHXHXHXDXNXNXpXpXpXpXHXHXHXHXHXNXpXpXpXpXDXHXHXHXHXNXpXpXpXpXNXHXHXHXHXHXNXpXpXpXpXNXBXLXDXHXFXHXi , '.6X6X>X,X2X,X2X2X3X4X1XpXHXHXHXHXHXHXHXHXHXHXHXHXHXHXHXHXHXHXHXHXHXHXHXHXHXHXHXHXHXHXHXHXHXHXHXHXHXHXHXHXHXHXHXHXHXHXHXHXHXHXHXHXHXHXHXHXHXHXHXHXHXHXHXHXHXHXHXHXHXHXHXHXHXHXHXHXHXDXi f HXaXNXpXNXHXHXDXHXHXpXpXpXpXpXpXDXHXHXHXHXNXpXpXpXpXNXHXHXHXHXHXNXpXpXpXpXDXHXHXHXHXNXpXNXpXpXNXHXHXHXHXHXNXpXpXpXpXNXHXHXHXHXHXpXpXpXpXpXNXHXHXHX",
"pXpXpXpXNXDXHXHXHXHXDXNXNXpXpXpXHXHXHXHXDXpXpXpXpXpXNXHXDXHXHXDXpXpXNXpXNXHXHXHXHXHXNXpXNXNXNXNXHXLXHXHXHXQ.  E.iX6X2X,X2X2X2X4X2X4X4X3XNXHXHXHXHXHXHXHXHXHXHXHXHXHXHXHXHXHXHXHXHXHXHXHXHXHXHXHXHXHXHXHXHXHXHXHXHXHXHXHXHXHXHXHXHXHXHXHXHXHXHXHXHXHXHXHXHXHXHXHXHXHXHXHXHXHXHXHXHXHXHXHXHXHXHXHXHXHXHXW.X pXuXNXpXNXHXHXHXHXDXpXpXpXNXpXNXHXHXHXHXHXNXpXNXpXpXNXHXHXHXHXDXpXpXpXNXpXNXHXDXDXHXNXpXpXpXpXNXHXHXHXHXHXNXpXNXNXNXNXHXHXHXHXDXpXpXpXpXpXpXDXHXHX",
"NXNXNXNXNXDXDXDXDXDXDXNXNXNXNXNXDXDXDXDXNXNXNXNXNXNXNXDXNXDXDXNXNXNXNXNXNXDXDXDXDXDXNXNXNXNXNXNXHXNXHXNXBX$ h pX6X1X2X0X7X2X7X3X2X4X4XuXNXHXHXHXHXHXHXHXHXHXHXHXHXHXHXHXHXHXHXHXHXHXHXHXHXHXHXHXHXHXHXHXHXHXHXHXHXHXHXHXHXHXHXHXHXHXHXHXHXHXHXHXHXHXHXHXHXHXHXHXHXHXHXHXHXHXHXHXHXHXHXHXHXHXHXHXHXHXNXDX  E.NXDXNXNXDXDXDXDXNXNXNXNXNXNXNXDXDXDXDXDXNXNXNXNXNXNXDXDXDXDXNXNXNXNXNXNXNXDXDXNXNXNXNXNXNXNXNXDXDXDXDXDXNXNXNXNXNXNXDXDXDXDXNXNXNXNXNXNXNXNXDXDX",
"HXDXDXDXDXNXNXNXNXNXNXDXDXDXDXHXpXNXNXNXNXDXDXDXDXDXNXNXNXNXpXNXHXDXDXDXNXNXNXNXNXNXNXDXDXDXDXNXaXuXpXDXY.X >X2X,X>X6XuX2X2X6X2X2X4X4XpXLXHXHXLXHXHXHXHXHXHXHXHXHXHXHXHXHXHXHXHXHXHXHXHXHXHXHXHXHXHXFXFXFXFXFXFXHXHXFXFXHXHXHXHXHXHXHXHXHXHXHXHXHXHXHXHXHXHXHXHXHXHXHXHXHXHXHXHXHXHXHXHXHXHXHXHXHXHXNXHXd , HXHXDXNXNXNXNXNXNXDXHXDXDXDXNXNXNXNXNXNXNXDXDXDXHXDXpXNXNXNXNXDXDXDXDXDXNXNXNXNXNXNXHXDXDXDXNXNXNXNXNXNXNXDXDXDXDXNXpXNXNXNXNXDXHXDXDXDXDXNXNXNX",
"HXHXHXHXDXNXpXpXpXpXNXDXHXHXHXHXuXpXpXpXNXHXHXHXHXHXNXpXpXpXpXpXHXHXHXHXDXpXpXpXNXpXDXHXHXHXHXDXrXpXNXpX  A.uX>X2X2X2X2X>X2X6X>X2X2X4XNXHXHXHXDXHXHXHXHXHXHXHXHXHXHXHXHXHXHXHXHXHXHXHXHXHXHXHXHXHXFXFXFXFXFXFXFXHXFXFXFXHXFXHXHXHXHXHXHXHXHXHXHXHXHXHXHXHXHXHXHXHXHXHXHXHXHXHXHXHXHXHXHXHXHXHXHXDXHXHXNX4X  pXHXHXDXpXpXpXpXNXHXHXHXHXHXDXpXpXpXpXpXNXHXHXHXHXHXuXpXpXpXNXHXHXHXDXHXNXpXNXpXpXNXHXHXHXHXDXpXpXpXNXpXDXHXHXHXHXNXuXpXpXpXNXHXHXHXHXHXHXNXpXpX",
"HXHXHXHXHXNXpXpXpXpXNXHXHXHXHXHXuXpXpXpXpXDXHXHXHXHXNXpXpXpXpXNXHXHXHXHXHXpXpXpXpXpXDXHXHXHXHXNXpXBXDXA.$ 4X7X3X7X2X2X1X,X2X7X,X2X1X4XFXHXHXHXDXHXHXHXHXHXHXHXHXHXHXHXHXHXHXHXHXHXHXHXHXHXHXHXHXHXHXHXFXHXFXHXFXHXFXHXFXHXFXHXHXHXHXHXHXHXHXHXHXHXHXHXHXHXHXHXHXHXHXHXHXHXHXHXHXHXHXHXHXHXHXHXHXFXHXHXpXHX< E.HXHXDXpXpXNXpXpXFXHXHXHXHXHXNXpXpXpXpXDXHXHXHXHXDXuXpXpXpXpXHXHXHXHXHXNXpXpXpXpXNXHXHXHXHXHXpXpXpXpXpXDXHXHXHXHXNXuXpXpXpXpXHXHXHXHXHXDXpXpXpX",
"HXHXHXHXHXNXpXNXNXNXDXHXHXHXHXDXuXpXpXpXpXDXHXHXHXHXNXuXpXpXpXNXHXHXHXHXHXNXpXpXpXpXDXHXHXHXHXNXNXaXuX  f 6X3X>X,X2X2X7X7X2X2X2X2X1X4XHXHXHXHXNXHXHXHXHXHXHXHXHXHXHXHXHXHXHXHXHXHXHXHXHXHXHXHXHXHXHXHXHXHXHXHXHXHXHXHXHXHXHXHXHXHXHXHXHXHXHXHXHXHXHXHXHXHXHXHXHXHXHXHXHXHXHXHXHXHXHXHXHXHXHXHXHXHXHXDXDXHXd d NXDXDXpXpXNXpXuXDXHXHXHXHXHXNXpXpXpXpXDXHXHXHXHXNXpXpXpXpXpXDXHXHXHXHXNXuXpXpXpXNXHXHXHXHXHXNXpXpXpXpXDXHXHXHXHXDXpXpXpXpXpXDXHXHXHXHXDXpXuXpX",
"NXDXDXHXDXNXNXpXNXNXNXNXDXDXDXDXNXNXNXNXNXNXDXHXHXHXDXNXNXpXpXpXDXDXDXHXDXNXNXpXpXpXDXHXHXDXDXpXpXBXY.  4X1X3X1X2X2X2X2X2X2X2X2X1X3XuXHXHXFXHXNXHXHXHXHXHXHXHXHXHXHXHXHXHXHXDXNXHXHXHXHXHXHXHXHXDXZXFXFXHXHXHXHXHXHXHXHXHXHXHXHXFXFXHXHXHXHXHXHXHXHXHXHXHXHXHXHXHXHXHXHXHXHXHXHXHXHXHXHXHXHXHXHXDXHXHXHXHX:X  HXDXDXNXNXpXpXDXHXDXDXDXHXDXNXNXpXNXNXNXNXDXDXDXDXNXNXNXpXNXNXDXHXHXHXDXNXNXpXpXpXHXDXDXHXHXNXpXpXpXpXDXHXHXDXDXpXpXpXpXpXNXNXHXHXHXDXNXNXpXNX",
"pXpXNXNXDXDXDXDXHXHXDXNXNXNXNXpXHXHXDXNXNXNXNXNXNXNXNXNXNXDXDXDXpXpXNXNXDXDXDXDXDXNXNXNXNXNXDXNXHXpX$ d aX4X2X2X2X2X2X2X2X2X2X2X1X4XuXHXHXFXHXNXHXHXHXHXHXHXHXHXHXHXHXHXHXHXHXHXHXHXHXDXDXDXHXHXHXHXHXHXHXHXLXFXHXHXHXHXHXHXHXHXHXHXHXHXHXHXHXHXHXHXHXHXHXHXHXHXHXHXHXHXHXHXHXHXHXHXHXHXHXHXHXHXHXHXHXHXHX3X  5XpXNXHXHXHXDXNXpXpXpXNXNXDXDXDXDXHXDXDXNXNXNXNXNXHXHXDXNXNXNXNXNXNXNXNXDXNXDXNXNXuXuXpXNXHXHXHXHXDXNXNXNXNXNXDXNXHXHXHXNXNXpXpXpXNXNXNXNXNXDX",
"pXpXpXNXNXDXHXHXHXHXDXNXpXpXpXpXHXHXHXHXNXNXpXpXpXpXNXDXHXHXHXHXpXpXpXpXNXDXHXHXHXHXNXaXpXpXNXDXHXW.  >X4X4X3X4X2X2X2X2X2X2X2X2X1X4XaXHXHXFXHXDXHXHXHXHXHXHXHXHXHXHXHXHXHXHXHXHXHXHXHXHXHXHXHXHXHXHXHXHXHXHXLXHXHXHXHXHXHXHXHXHXHXHXFXHXHXHXHXHXHXHXHXHXHXHXHXHXHXHXHXHXHXHXHXHXHXHXHXHXHXHXHXHXHXHXHXHXHXDX< U.NXNXDXHXHXHXHXpXpXpXpXpXNXDXHXHXHXHXDXNXpXpXpXpXHXHXHXHXNXNXpXpXpXpXNXHXHXHXHXHXuXpXpXpXNXDXHXHXHXHXNXpXpXpXNXDXHXHXHXHXNXNXpXpXpXpXNXNXHXHX",
"pXpXpXpXNXNXDXHXHXHXNXpXpXpXpXNXHXHXHXHXHXNXNXpXpXNXDXHXHXHXHXDXpXpXpXpXpXNXHXHXHXHXNXpXpXpXpXNXNXi i aX>X4X3X3X2X2X2X2X2X2X2X2X1X4XpXHXHXFXHXHXHXHXHXHXHXHXHXHXDXHXHXHXHXHXHXHXDXHXHXHXHXDXHXHXLXLXLXHXHXHXHXHXHXHXHXHXHXHXHXHXHXHXHXHXHXHXHXHXDXDXDXHXHXHXHXHXHXHXHXHXHXHXHXHXHXHXHXHXHXHXHXHXHXHXHXDXDXHXu f HXNXNXFXNXHXHXNXpXpXpXpXpXNXHXHXHXDXNXpXpXpXpXNXHXHXHXHXHXNXNXpXpXNXDXHXHXHXHXDXpXNXNXpXpXNXDXNXHXHXNXuXpXpXpXNXDXDXHXHXHXDXNXNXpXNXNXHXHXHX",
"NXpXpXpXpXNXDXHXHXHXNXpXpXpXpXNXHXHXHXHXHXNXNXpXpXNXDXHXHXHXHXDXNXpXpXpXpXNXDXHXHXHXNXpXpXpXpXNXuX  E.rX6X5X4X2X2X2X2X2X2X2X2X2X2X4XNXHXHXHXHXHXHXHXHXHXHXHXHXHXHXHXHXHXHXHXHXHXHXHXHXHXFXHXHXHXHXFXHXFXFXCXGXBXHXFXFXFXHXFXHXHXGXDXDXHXHXHXHXHXHXHXHXHXDXDXNXNXHXHXHXHXHXHXHXHXHXHXHXHXHXHXHXHXHXHXHXNXHXDXU.j NXNXNXHXHXHXHXpXNXpXpXpXpXNXDXHXHXDXNXpXpXpXNXNXHXHXHXHXHXNXNXpXpXNXDXHXHXHXHXDXuXpXpXpXpXHXHXHXHXHXNXpXpXpXpXNXHXHXHXHXDXNXpXpXpXNXNXHXHXHX",
"pXpXpXNXNXDXHXHXHXHXDXNXpXpXpXNXHXHXHXDXNXNXpXpXpXpXNXDXHXHXHXDXpXpXpXNXNXDXHXHXHXHXNXpXpXpXNXHXU.X 5X3XuX:X3X2X2X2X2X2X2X2X2X2X1X4XBXHXHXHXHXHXHXHXHXHXHXHXHXHXHXHXHXDXHXHXHXHXHXHXHXHXHXHXDXNXCXCXCXCXCXCXCXCXCXCXCXCXCXCXCXFXHXHXHXHXHXHXHXHXHXHXHXHXHXHXHXHXHXHXHXHXHXHXHXHXHXHXHXHXHXHXHXHXHXHXPXDXHXDX:XX pXNXNXHXHXHXNXpXpXpXpXNXNXDXHXHXHXHXNXNXpXpXNXNXHXHXHXDXNXNXpXpXpXpXNXDXHXHXHXHXpXpXNXpXNXHXHXHXHXHXNXpXpXpXNXHXHXHXHXDXNXNXpXpXpXpXNXNXDXHX",
"NXNXDXDXDXDXNXNXDXDXNXNXNXNXDXDXNXNXNXNXNXNXNXNXNXNXNXNXNXNXNXNXNXNXDXDXDXDXNXNXHXNXNXNXNXNXDXDX, d uX4X4X<X6X2X2X2X2X2X2X2X2X2X2X4XDXHXHXHXHXHXHXHXHXHXHXHXHXHXDXHXHXHXHXHXDXNXHXFXNXpXpXuX4X>X'.Q.R.T.T.4.4.c c c c c c c c c U.U.E.W.:X4XuXuXHXHXHXHXHXHXFXLXHXHXHXHXHXHXHXHXHXHXHXHXHXHXHXHXHXHXHXHXHXHX3X  pXDXNXpXGXNXpXDXNXNXDXDXDXDXNXNXNXNXNXNXNXDXDXDXNXNXNXNXNXNXNXNXNXNXNXNXNXNXNXNXHXDXDXHXDXNXpXNXHXNXNXNXNXNXDXDXpXpXNXNXNXDXHXHXNXNXNXNXNXNX",
"HXHXHXHXDXNXpXuXpXpXNXDXHXHXHXHXpXpXpXpXNXDXHXHXHXDXNXNXpXpXpXpXHXHXHXHXHXNXpXpXNXpXHXHXHXHXLXpX  E.3X1X6X6X>X7X7X7X7X7X2X2X2X2X1X2XFXHXHXHXHXHXHXHXHXHXHXHXHXHXCXCXCXkX0XXXT.4.q 7 # . . . . . * = ; ; 3 9 9 9 9 9 9 9 9 9 9 q 7 , : * # . . . @ * q a T.XXqXjXCXFXFXFXHXHXHXHXHXHXHXHXHXHXPXHXDXDXHXHXNXHXlXX aXPXbXaXNXsXuXFXHXHXHXHXHXNXpXpXpXpXNXDXHXHXHXHXpXpXpXpXNXDXHXHXHXDXNXNXpXpXpXpXHXHXHXHXHXNXpXpXNXpXHXHXHXHXHXpXpXpXpXpXNXNXHXHXHXHXDXNXpXpX",
"PXDXFXHXHXNXbXNXbXNXDXPXHXPXFXDXpXNXNXpXpXDXHXDXHXHXNXuXpXpXpXDXHXDXDXHXHXNXpXpXDXNXDXDXHXDXNXW.  5X1X4X2X7X7X7X7X7X7XrXrX<X<X1X,X,XkXFXFXHXFXHXFXHXHXFXHXHXuXW.4.q * . . + ; 4 r z l B N 9.q.q.q.q.q.q.w.R R R R R R R R R R r.a.8.7.2.,.q.N N B l l 0 2 = O o : a R.9XkXGXHXHXPXSXSXSXmXSXSXSXbXPXNXDXHXPXSX  5XSXyXnXpXsX7XCXFXDXDXHXHXNXpXNXpXpXDXHXHXHXHXNXpXNXNXpXpXDXHXHXHXHXNXuXpXpXpXNXHXDXDXHXHXNXpXpXpXpXDXHXHXHXHXNXpXNXNXpXpXDXHXHXHXHXDXpXpXNX",
"HXFXPXHXHXNXlXbXlXbXZXFXHXHXHXPXpXpXpXpXpXDXHXHXHXHXNXpXpXpXpXNXHXHXHXHXHXpXpXpXNXpXDXDXDXHXHXf , 3X4X4X2X7X7X7X7X7X7X7XrXwXwXwX,X,XCXFXHXHXHXDXLXsX>XU.i +   + 3 9 l 1.1.,.,.q.Y Y Y U U R W W z.@.@.@.$.$.%.%.O.{ %.-.%.{ &.N.B & q.m.R E +.Q U T K 9.9.,.N ,.e 9 * . + q T.,XNXNXSXPXPXSXSXSXPXPXPXHXHXHXHX  =XSXzXnXpXdX0XCXFXHXHXHXHXNXpXpXpXpXDXHXHXHXHXNXpXNXpXpXNXHXHXHXHXHXNXpXpXpXpXNXHXHXHXHXHXpXpXpXpXpXDXHXHXHXHXNXpXNXpXpXNXDXHXHXHXHXHXNXpXNX",
"HXHXFXHXFXNXpXlXpXlXNXDXFXHXHXHXpXpXlXpXNXDXHXHXHXHXDXNXNXpXpXNXHXHXHXHXDXpXpXpXNXuXDXDXNXHXHX, d aX2X2X2X2X,X7X,X,X,X7X7X7X<X<X0X0XaXFXkXCXXXT.7 * o = 0 l 1.e.9.q.w.Y Y I U U R E +.&.j.j.@.@.}  .X...........o.o.-.%.$.$.&.b % O m N.x.| ..o.&.&.@.+.R I D C Y q.3.,.l 9 = o o p &XvXLXLXFXHXbXPXHXVXFXFXGX$ W.SXmXSXlXBXdXCXHXHXHXHXDXhXpXpXpXpXNXHXDXHXHXDXpXpXpXpXNXHXHXHXDXHXNXpXNXNXNXNXHXHXHXHXDXpXpXpXNXpXNXHXDXDXHXNXpXpXpXpXNXHXHXHXHXHXHXNXpXpX",
"DXDXDXDXDXNXNXNXNXNXNXDXDXDXDXDXNXNXNXNXNXDXDXDXDXDXNXNXNXNXNXNXDXDXNXNXNXNXNXNXNXpXNXNXpXDXNX  U.dX2X2X2X,X>X,X,X,X,X>X<X7X7X7X6X3XNXW.g * @ O w l <.e.q.K G G J U S S E j.&.} } X.X.X.$.%.%.%.( / / / / / ) ) .. .o.{ } &.E 1 ,.M.* b #.-.........%.%.-.-.-.-.j.z.W R w.w.e.<.l 5 o O p '.BXHXHXbXHXFXCXkXFX, W.SXSXSXZXFXNXCXDXDXDXDXNXNXNXNXNXNXNXDXNXDXDXNXNXNXNXNXNXDXDXDXNXDXNXNXNXNXNXNXDXDXDXDXNXNXNXNXNXNXNXDXNXNXDXNXNXNXNXNXNXDXDXDXDXDXDXNXNXNX",
"lXbXNXNXNXDXFXFXFXDXDXNXNXNXNXlXHXDXDXDXDXNXNXNXNXNXNXDXDXDXHXDXpXNXNXNXNXDXDXDXNXDXNXpXNXpX1X  Q.7X1X2X6X2X,X5X1X9X1X:X,X0X7X:XE.s X     p 4.(.7.d.r.K F U U S E } $.X.X.o...( ( ( ( / / / / / / ! ! / ! / / / *.~  .X.$.@.j.k & k & +.x.O.O...*.o.o.o.o.O._ O.-.&.$.$.@.{ Q D n R r.m 3 o # p :XmXPXGXCXCXCX- W.DXHXPXSXPXFXDXlXNXNXNXNXDXDXDXDXDXNXNXNXNXpXNXHXDXDXDXNXNXNXNXNXNXNXDXDXDXDXNXpXNXNXNXNXDXDXDXNXDXNXNXNXNXNXNXHXDXDXDXDXNXNXNXNXNXNXDXDXDX",
"aXpXlXpXNXFXHXHXHXHXDXNXlXpXpXpXHXHXHXHXDXNXpXpXpXpXNXHXHXHXHXHXuXpXpXpXNXHXHXHXDXHXNXpXNXpXW.X &X<X2X2X6X3X1X5X5X9XyXyXyXW.s $ > < y t < $ , , q e m ,.e.t.n.l.j.j.j.&.#.&.%.-. . .o.=.*.) ^ ` ^ _ ! ! ! / / ^ ..~ o.%.$.} c.j.Y B R c.%._ ....) ..o.....O.) ..} }  .........o.| R C N 2.6.a 7 X y =XHXBXkXjX+ XXNXHXPXHXPXPXZXuXpXpXpXNXHXHXHXHXHXNXpXpXpXpXpXHXHXHXHXDXpXpXpXpXpXDXHXHXHXHXDXuXpXpXpXNXHXHXHXDXHXNXpXpXpXpXNXHXHXHXHXDXNXpXpXpXpXpXDXHXHX",
"pXlXlXpXlXSXHXPXHXPXDXbXpXpXpXpXHXHXHXHXHXNXpXpXpXpXDXHXHXHXHXDXuXpXpXpXpXHXHXHXHXHXpXNXpXpXE.X 1X1X3X4X3XrXwX4X1XyX=XH.t $ < y C.C.L.I.G.G.Z.y y < X   X : q a 1.,.2.b.n.N.N.l.l.j.j.@.@.@.$.$.&.;.;.;.;.=.O.O.O.O.o.O.O.o.-.$.c.R c.| *.' ! ! ^ ) ..O.o.o.=.o.$.X.}  .( ....o.#.c.B.b.8.4.a j > > > Z.ZXFXdX. ,XNXFXPXPXSXSXnXuXpXpXpXpXDXHXHXHXHXNXpXpXpXpXNXHXHXHXHXHXpXpXpXpXpXDXHXHXHXHXDXuXpXpXpXpXHXHXHXHXHXNXpXpXpXpXNXHXHXHXHXHXNXpXpXpXpXpXHXHXHX",
"pXNXbXaXpXDXPXDXPXDXNXlXpXpXlXbXHXHXHXHXHXNXpXNXpXpXHXHXHXHXHXNXpXNXNXpXpXHXHXHXHXHXpXNXuXNXU.X uX2XrX<X4XrXrXwX$Xs > > t y C.F.S.C.J.J.K.P.I.I.P.P.G.G.H.Z.y t < X   X X # 3 9 m m ,.e.r.g.n.n.n.n.n.n.k.k.k.k.v.v.h.#.j.j.j.j.z.c.+.&.-.-.%.%.&.&.j.j.j.l.l.l.l.l.l.l.v.k.g.r.3.m e 8     > t Z.P.Z.> < :XFX  6XhXDXHXPXFXSXbXaXpXpXpXpXDXHXHXHXHXNXuXpXpXpXNXHXHXHXHXHXNXpXpXpXpXDXHXHXHXHXDXpXpXpXpXpXDXHXHXHXHXNXuXpXpXpXNXHXHXHXHXHXNXpXpXpXpXNXHXHXHX",
"DXlXuXDXDXHXDXHXNXHXNXNXlXpXFXuXDXHXHXHXDXNXpXpXNXNXNXDXDXDXDXNXNXNXpXpXNXNXHXHXHXHXDXpXpXNXU.  6XrX7XrXwXW.Z.< > < y C.D.D.C.C.S.S.S.J.J.K.J.J.P.P.P.P.P.P.I.I.P.G.G.G.Z.y y y < < X X X     X : : 5 q w e x >.>.1.1.,.3.2.2.e.y.y.e.e.q.q.q.q.3.2.2.<.<.1.1.>.e e q 8 : # X   $ > t y C.G.P.P.P.L.P.H.>   E.  sXhXHXFXZXHXHXlXNXNXpXpXNXNXHXHXDXDXDXDXNXNXpXpXHXDXDXHXHXNXpXpXDXNXNXNXNXNXDXHXNXpXpXpXNXNXHXHXpXNXNXNXHXDXNXDXHXHXHXHXDXNXNXpXpXpXNXDXHXHX",
"DXlXHXDXHX4XuX6X5XwXNXHXHXDXDXHXuXpXpXNXDXHXHXHXDXDXNXNXNXNXNXNXHXHXHXDXNXpXpXpXuXNXNXNXDXHX:X  :XE.Y.s > $ > y Z.C.C.C.S.S.S.S.S.S.S.J.K.K.K.K.K.K.I.K.P.P.K.K.K.K.K.L.L.L.G.G.G.G.G.G.H.H.H.Z.Z.s s y t < < $ X X X                           X     X $ > < < t t y y Z.H.G.G.L.L.P.P.I.I.K.K.P.I.P.G.$ <   d FXGXNXpXpXNXHXFXHXHXHXDXNXpXpXpXpXpXNXDXHXHXDXNXuXpXpXNXHXHXHXHXHXDXNXNXNXNXNXDXHXHXHXNXNXpXpXpXpXNXNXDXHXDXNXDXuXpXNXNXHXHXHXHXHXHXHXDXNXpX",
"HXHXHXh , , !.5X< u =Xu Z.Y.$ DXpXpXpXNXNXDXHXHXHXHXNXNXpXpXpXNXHXHXHXHXDXNXpXpXuXDXHXHXDXDX5X$ X X $ < y F.C.C.F.S.S.S.S.S.S.S.S.C.S.J.J.J.K.K.K.K.K.K.K.K.J.J.J.J.K.J.K.K.K.I.I.K.J.J.J.J.L.L.P.P.P.P.P.P.P.P.G.G.G.G.H.H.H.H.G.G.G.G.G.G.G.G.G.G.G.G.P.P.I.I.G.G.P.L.L.L.L.L.I.I.P.K.J.J.J.J.P.L.G.C.$ =X$ U.HXDXlXpXlXpXsXFXHXHXHXHXDXNXpXpXuXpXNXHXHXHXHXHXuXpXpXpXNXDXHXHXHXHXNXpXpXpXpXNXHXHXHXHXDXNXpXpXpXpXDXHXHXHXHXNXpXpXpXNXNXDXHXHXHXHXDXNXpXpX",
"PXbXHXDXHXaXpXpXNXwXpXHXFXpXlXFXNXNXpXpXpXNXNXDXHXHXNXpXpXpXpXpXDXDXHXHXHXDXNXNXpXpXNXHXDXHXHX:XY.s X y y y F.F.C.C.C.C.S.S.S.S.C.C.C.C.D.D.L.L.D.J.L.L.L.J.D.D.L.L.L.G.G.G.L.L.D.L.L.L.L.J.J.J.L.L.L.L.L.L.L.G.G.G.G.G.G.G.G.G.G.G.G.G.G.G.G.G.G.G.G.G.D.D.D.D.G.L.L.L.P.P.P.P.L.L.L.J.J.J.J.L.P.L.G.Z.> t   pXHXFXpXpXNXaXaXFXDXDXHXHXHXDXNXNXpXNXDXHXHXHXHXDXpXNXNXpXpXNXDXNXHXHXNXpXpXpXpXpXDXDXHXHXHXDXNXNXpXpXDXHXHXHXHXNXNXNXpXpXpXNXNXDXDXNXNXpXpXpX",
"HXNXNXHXHXpXpXFXpXlXDXHXHXHXbXHXpXpXpXpXNXDXHXHXHXHXNXpXpXpXpXNXHXHXHXHXDXNXpXpXNXNXDXHXDXNXNXHXaX1XY.$X#X!.*X*X*X%XI.I.I.I.#X#X#X#X#X#X*X*X*X*X*X*X*X-X-X-X*X*X#X#X#X#X#X-X-X-X;X;X;X;X%X%X%X%X;X*X*X-X-X-X-X-X#X*X-X-X-X-X-X*X*X*X*X*X*X*X*X*X*X*X*X*X*X*X*X-X-X-X-X*X*X*X#X#X-X-X-X-X-X;X;X;X;X#X-X!.Z.U.uXFXHXHXpXaXpXuXsXFXHXHXHXHXDXNXpXpXpXNXDXHXHXHXDXDXuXpXpXuXpXHXHXHXHXHXNXpXpXpXpXpXHXHXHXHXHXNXpXpXNXpXDXHXHXHXHXNXpXpXpXpXNXNXHXHXHXHXDXNXpXpX",
"NXHXHXlXNXFXDXaXaXNXpXpXHXHXDXHXpXpXpXNXNXDXHXHXHXDXNXNXpXNXNXNXHXHXHXDXDXNXpXpXuXNXHXHXHXHXNXHXsXLXAXnXzXSXmXmXmXmXmXMXMXMXMXMXSXmXmXmXmXmXMXyXMXmXmXmXSXSXSXSXnXnXnXnXnXmXSXSXSXSXmXMXMXMXmXmXSXSXmXmXmXmXmXMXMXmXmXmXSXSXmXmXMXMXMXmXmXmXmXmXmXmXmXmXMXMXMXMXmXmXmXmXmXmXVXVXMXMXmXmXmXmXmXmXMXmXyXlXHXFXFXCXHXDXbXbXNXlXxXFXHXHXHXDXNXNXpXpXpXNXNXDXDXDXHXDXpXpXNXNXNXDXHXHXDXDXNXNXNXNXNXNXHXHXHXDXNXNXpXpXNXNXNXDXNXDXDXNXpXpXpXNXNXDXHXHXHXHXDXNXNXpX",
"bXpXlXDXDXpXNXHXHXHXNXpXpXpXpXlXHXHXHXDXDXNXNXpXNXNXNXNXNXDXHXHXpXpXpXNXNXNXDXHXHXDXpX3XuXpXNXDXZXbXPXPXZXzXwXzXnXnXZXSXHXFXGXGXnXZXlXpXpXPXFXNXbXbXlXlXlXxXZXZXPXPXPXSXSXbXfXaXpXfXDXHXHXHXDXNXlXlXbXbXnXZXSXSXSXSXSXMXbXpXaXuXhXBXBXZXZXZXZXZXzXnXSXPXPXSXnXMXyXyXMXMXMXmXSXSXPXPXDXNXbXfXbXbXbXpXhXFXdXdXdXBXpXNXPXPXPXHXDXpXpXpXpXNXNXNXDXHXDXNXNXNXNXNXNXNXHXDXDXHXDXNXpXNXpXNXNXDXDXDXDXDXpXpXNXNXNXNXDXHXDXDXNXNXNXNXNXNXHXHXDXDXNXNXpXpXpXNXNXDXDXHX",
"aXDXpXNXuXHXHXHXHXNXDXbXlXbXaXlXHXHXHXHXHXNXpXpXpXpXNXDXHXHXHXHXpXpXpXpXpXNXHXHXHXDXpXNXuXuXDXfXSXSXSXPXHXlXxXpXsXxXNXGXFXCXCXCXaXlXuXpXaXHXHXHXLXAXAXxXxXxXvXDXPXPXPXPXSXVXfXiXuXiXhXCXFXCXFXCXuXaXpXNXDXFXHXHXPXDXbXpXiXfXNXGXCXFXHXAXAXcXcXzXcXZXAXLXLXLXAXZXbXMXMXmXmXSXSXPXPXNXpX0X0X0XgXhXFXVXCXCXCXjXdXdXsXNXHXPXSXHXHXxXpXpXpXpXpXNXHXHXHXHXDXpXpXuXpXpXHXHXHXHXHXNXpXpXpXpXNXHXHXHXHXHXpXpXpXpXpXNXHXHXHXHXNXpXpXpXpXNXHXHXHXHXDXNXpXpXpXpXNXHXHXHX",
"uXpXpXpXpXHXHXHXHXHXDXNXpXpXpXpXHXHXHXHXHXNXpXpXpXpXDXHXHXHXHXDXpXpXpXpXpXHXHXHXHXHXNXpXpXpXpXNXHXPXPXHXHXlXaXpXpXpXFXHXHXFXFXNXuXpXpXpXpXHXHXHXHXHXNXaXlXpXpXDXHXPXPXHXHXbXpXpXpXpXFXHXHXFXFXhXpXpXpXpXNXDXHXHXHXHXNXaXpXpXpXNXHXFXLXHXHXxXaXlXxXlXLXHXHXHXLXNXaXbXbXaXlXHXHXHXHXDXpXpXhXaXiXFXDXHXHXHXBXdXiXiXpXNXHXHXDXHXHXpXpXfXpXpXpXHXHXHXHXHXNXpXNXpXpXNXHXHXHXHXHXpXuXpXpXpXDXHXHXHXHXNXuXpXpXpXpXHXHXHXHXHXNXuXpXpXpXNXHXHXHXHXHXNXpXpXpXuXpXHXHXHX",
"pXNXNXpXpXDXHXHXHXHXNXNXpXpXpXpXHXHXHXHXHXNXpXpXpXpXNXHXHXHXHXDXpXpXpXpXNXHXHXHXHXHXNXpXpXpXpXNXHXHXHXHXHXpXpXpXpXpXDXHXHXHXHXNXuXpXpXpXNXHXHXHXHXHXNXpXpXpXpXNXHXHXPXHXHXpXpXpXNXpXDXHXHXHXHXNXpXpXpXpXNXDXHXHXHXHXNXpXpXpXpXNXHXHXHXHXLXpXpXpXNXpXDXHXHXHXHXNXuXpXpXpXNXHXHXHXHXDXpXpXNXpXpXHXFXHXHXHXNXpXpXpXpXNXHXHXHXHXHXpXpXpXpXpXNXHXHXHXDXHXNXpXNXNXpXNXHXHXHXHXDXpXuXpXpXpXDXHXHXHXHXNXuXpXpXpXNXHXHXHXHXHXNXpXpXpXpXNXHXHXHXHXHXpXpXpXpXuXpXDXHXHX",
"NXNXNXpXNXNXDXDXDXNXNXNXNXNXNXNXHXHXHXHXDXNXpXpXpXNXNXDXHXHXDXNXpXNXNXpXNXHXHXHXHXHXNXpXNXNXNXNXHXHXDXHXDXNXpXpXNXsXGXHXDXDXDXNXpXpXNXpXNXHXHXHXDXHXNXpXNXNXNXNXHXPXDXHXDXNXpXpXNXNXDXHXDXDXDXNXpXpXNXNXNXDXHXHXHXHXNXpXNXNXNXNXHXLXDXHXDXNXpXpXNXNXDXHXDXDXDXNXpXpXNXpXNXHXHXHXDXDXNXpXNXNXNXHXFXHXHXHXNXpXpXpXpXNXHXHXPXHXFXpXpXNXNXpXNXHXHXHXDXHXNXNXNXNXpXNXHXHXDXHXDXNXpXpXNXNXDXHXDXDXDXNXpXpXNXpXNXHXHXHXDXHXNXpXNXNXNXNXHXDXDXHXDXNXpXpXpXpXNXDXHXDX",
"DXDXDXNXNXNXNXNXNXNXNXNXNXNXDXDXNXNXNXDXNXNXNXNXNXNXNXNXDXDXNXNXNXDXNXNXNXNXNXNXNXDXNXNXNXNXNXNXNXNXNXNXNXNXNXNXNXNXNXDXGXNXNXNXNXBXNXNXNXNXNXNXNXDXNXNXNXNXNXNXNXNXNXDXNXNXNXNXNXNXNXDXNXNXNXNXNXNXNXNXNXNXNXNXDXDXNXNXNXNXNXNXNXNXNXNXNXNXNXNXNXNXNXDXNXNXNXNXNXDXNXNXNXNXNXNXNXNXNXNXNXNXNXDXNXNXNXNXNXNXNXNXNXNXNXNXNXDXDXNXNXNXNXNXNXNXNXNXNXDXNXNXNXNXNXNXNXNXNXNXNXNXNXNXNXNXNXDXDXNXNXNXNXDXNXNXNXNXNXNXNXDXNXNXNXNXNXNXNXNXNXNXNXNXNXNXNXNXNXNXNXNX",
"HXHXDXDXNXNXNXNXpXNXNXNXDXDXHXHXpXpXpXNXNXDXHXHXDXNXNXNXNXNXNXNXHXHXHXDXNXNXpXpXNXNXNXDXDXDXDXNXpXpXpXNXNXHXHXHXDXDXNXNXNXNXNXNXHXHXHXDXNXNXpXpXNXNXNXDXDXDXDXNXpXpXpXNXNXHXHXHXNXDXNXNXNXNXNXNXHXHXHXDXNXNXpXpXNXNXNXDXDXDXDXNXpXpXpXNXNXHXHXHXNXDXNXNXNXNXNXNXHXHXHXDXNXNXpXpXNXNXNXDXDXDXDXNXpXpXpXNXNXDXHXHXHXDXNXpXpXNXNXHXHXHXHXDXNXNXpXpXNXNXNXDXNXDXDXDXpXpXNXNXNXHXHXHXDXDXNXNXNXNXNXNXHXHXHXDXNXNXpXpXNXNXNXDXDXDXDXNXpXpXpXNXNXHXHXHXHXHXDXNXNXpX",
"HXHXHXHXDXNXpXNXpXNXNXDXHXHXHXHXuXpXpXpXNXHXHXHXHXDXNXpXpXpXNXNXHXHXHXHXDXpXuXpXpXpXNXHXHXHXHXDXuXpXpXpXNXHXHXHXHXHXNXpXpXpXpXNXHXHXHXHXDXpXuXpXpXpXDXHXHXHXHXDXuXpXpXpXNXHXHXHXDXDXNXpXNXpXpXNXHXHXHXHXNXpXpXuXpXpXNXHXHXHXHXDXuXpXpXpXNXHXHXHXDXDXNXpXNXpXpXNXHXHXHXHXDXpXuXpXpXNXFXHXDXHXHXNXpXpXuXpXNXHXHXHXHXDXpXuXpXpXNXHXHXHXHXHXDXpXpXpXNXpXNXHXDXHXHXDXuXpXpXpXNXHXHXHXHXHXNXpXpXpXpXNXHXHXHXHXDXpXuXpXpXpXDXHXHXHXHXDXuXpXpXpXNXHXHXHXHXHXHXNXpXpX",
"HXDXDXHXHXNXpXNXpXNXNXHXHXHXHXHXuXpXpXpXpXDXHXHXHXHXNXpXpXpXpXNXHXHXHXHXHXNXpXpXpXpXDXHXHXHXHXDXuXpXpXpXpXHXHXHXHXHXNXpXpXpXpXNXHXHXHXHXHXNXpXpXpXpXDXHXHXHXHXDXuXpXpXpXpXHXHXHXHXHXNXpXpXpXpXNXHXHXHXHXDXNXpXpXpXpXDXHXHXHXHXDXuXpXpXpXpXHXHXHXHXHXNXpXpXpXpXDXHXHXHXHXHXNXpXpXpXNXHXHXDXHXHXNXNXpXaXpXNXHXHXHXHXDXpXpXNXpXpXDXHXHXHXHXHXNXpXpXpXpXNXHXHXHXHXHXuXpXpXpXpXDXHXHXHXHXNXpXpXpXpXNXHXHXHXHXHXNXpXpXpXpXDXHXHXHXHXDXuXpXpXpXpXHXHXHXHXHXDXpXpXpX",
"HXDXDXHXHXNXpXNXNXNXDXHXHXHXHXDXpXNXNXpXpXNXDXDXHXHXNXpXuXpXpXNXHXDXDXHXHXNXpXNXpXpXDXHXHXHXHXDXpXNXNXpXpXDXHXDXHXHXNXuXpXpXpXNXHXDXDXHXHXNXpXNXpXpXDXHXHXHXHXDXpXNXNXpXpXDXHXDXHXHXNXuXpXpXpXGXDXDXHXHXDXNXNXpXpXpXDXHXHXHXHXDXpXNXNXpXpXDXHXDXHXHXNXuXpXpXpXDXHXDXDXHXHXNXpXNXpXNXHXHXDXHXHXNXDXNXpXpXNXDXHXDXNXNXpXNXDXpXuXNXHXDXDXHXHXNXpXNXpXpXNXHXHXHXHXHXpXNXNXpXpXDXHXDXHXHXNXuXpXpXpXNXHXDXDXHXHXNXpXNXpXpXDXHXHXHXHXDXpXNXNXpXpXDXHXDXDXHXDXpXpXNX",
"HXDXDXDXNXNXNXNXDXDXNXNXNXNXDXDXNXNXNXpXNXNXDXHXNXNXNXDXDXNXNXNXNXDXDXHXDXNXNXpXDXDXDXDXNXNXNXNXNXNXNXNXNXDXHXHXNXNXDXDXDXNXNXNXDXDXDXHXDXNXNXpXHXNXDXDXpXNXDXNXNXNXNXpXNXNXDXHXNXDXNXNXDXDXNXDXDXDXNXNXNXNXNXpXDXDXDXDXNXNXNXNXNXNXNXNXNXDXHXHXpXDXNXNXDXNXNXDXDXDXDXNXNXNXNXNXNXNXDXHXNXNXDXpXNXNXNXNXDXHXDXDXHXDXNXNXDXpXpXHXHXDXDXDXNXNXNXNXDXNXNXNXNXNXDXHXNXNXNXpXNXNXDXHXpXNXNXNXNXNXNXNXDXDXDXHXDXNXNXpXHXNXDXHXNXNXDXNXNXNXNXNXNXDXHXHXHXDXNXNXNXNX",
"pXpXpXNXNXDXHXHXHXDXNXNXNXNXNXNXHXHXDXNXNXpXpXpXpXNXNXDXHXDXDXNXpXpXNXNXDXHXHXHXHXHXNXpXpXpXNXDXHXHXHXNXNXNXpXpXpXNXNXDXDXDXNXNXpXpXNXNXDXHXHXHXHXDXNXNXpXNXNXNXHXHXDXNXNXpXpXpXpXNXDXHXHXHXNXNXpXpXpXNXNXDXHXHXHXHXNXpXpXpXNXDXHXHXHXNXNXNXpXpXuXNXNXHXHXHXNXNXpXpXbXNXNXDXHXHXHXDXNXNXpXNXDXDXHXHXDXDXNXNXpXpXpXNXDXHXHXNXpXNXpXpXpXNXNXDXHXHXHXDXNXNXNXNXNXDXHXHXDXNXNXpXpXpXpXNXNXDXDXDXDXNXpXpXNXNXDXHXHXHXHXDXNXpXpXpXDXDXHXHXHXNXNXNXpXNXpXpXNXNXNXDX",
"NXpXpXpXNXNXDXHXHXHXNXpXpXpXpXNXHXHXHXHXDXNXNXpXpXpXNXHXHXHXHXHXpXpXpXNXNXNXDXHXHXDXNXpXpXpXNXNXHXHXHXDXNXNXpXpXpXpXNXHXHXHXHXDXpXpXpXNXNXNXDXHXHXHXNXpXpXpXpXNXHXHXHXHXDXNXNXpXpXpXDXHXHXHXHXDXpXpXNXNXNXDXDXHXHXDXNXpXpXpXNXNXHXHXHXDXNXNXpXpXpXpXNXHXHXHXHXNXpXpXNXNXNXDXHXHXHXHXNXpXpXpXNXNXHXHXHXDXNXNXNXNXpXNXHXHXHXHXDXNXpXpXpXpXNXNXDXHXHXHXNXpXpXpXpXNXHXHXHXHXDXNXNXpXpXNXNXHXHXHXDXDXpXpXpXNXNXNXDXHXHXHXNXpXpXpXpXNXHXHXHXDXNXNXNXpXpXNXNXDXHXHX",
"NXpXpXpXpXNXDXHXHXHXNXpXpXuXpXpXHXHXHXHXHXDXNXpXuXpXNXHXHXHXHXHXpXpXpXpXpXNXDXHXHXDXNXpXpXpXpXpXDXDXHXHXDXNXpXpXuXpXNXHXHXHXHXHXNXpXpXpXpXNXDXHXHXHXNXuXpXpXpXNXHXHXHXHXHXDXNXpXNXpXDXHXDXHXHXDXpXpXNXNXNXDXDXDXHXDXNXpXpXpXpXpXDXDXHXHXDXNXpXpXNXpXDXHXDXHXHXDXpXNXNXNXNXDXDXHXHXHXNXuXpXpXpXNXDXHXHXDXNXpXNXNXpXNXHXHXDXHXHXpXNXpXpXpXpXNXDXHXHXHXNXpXuXpXpXpXHXHXHXHXHXDXNXpXpXNXDXHXHXHXHXDXNXpXpXpXpXNXDXHXDXHXNXpXNXpXpXNXDXDXHXHXDXNXNXpXpXNXDXHXHXHX",
"uXuXuXpXNXDXHXHXHXHXNXpXpXpXpXpXHXHXHXHXDXNXpXuXuXpXNXHXHXHXHXHXuXuXuXpXNXDXHXHXHXDXNXpXuXpXNXDXHXHXHXHXNXpXuXuXpXpXNXHXHXHXHXHXuXuXuXpXNXDXHXHXDXHXNXpXpXpXpXNXHXHXHXHXDXNXpXuXpXpXDXHXHXHXHXNXuXuXpXNXDXHXHXHXHXDXNXpXuXpXNXDXHXHXHXHXNXpXuXuXpXpXDXHXHXHXHXNXuXuXpXNXDXHXHXHXHXHXpX3XuXpXNXHXHXHXHXHXNXpXpXpXuXpXHXHXHXHXHXpXuXuXpXpXNXDXHXHXHXHXNXpXpXpXpXpXHXHXHXHXDXNXpXuXpXNXDXHXHXHXHXDXuXuXuXpXNXDXHXHXHXHXNXuXpXpXpXDXHXHXHXHXNXpXuXuXuXpXNXDXHXHX",
"pXNXNXNXNXDXDXDXDXDXNXNXNXNXNXNXDXDXHXDXNXNXNXpXpXNXNXDXDXDXDXDXNXNXNXNXNXNXDXHXDXNXNXNXNXNXNXNXDXDXDXDXNXNXNXpXNXNXNXDXDXDXDXNXNXNXNXNXNXNXDXHXNXDXNXNXNXNXNXNXDXDXHXDXNXNXNXpXNXNXNXDXDXDXDXNXNXNXNXNXNXDXDXDXDXNXNXNXNXNXNXNXDXDXDXDXNXNXNXpXNXNXDXHXDXDXDXNXpXNXNXNXNXDXDXDXDXDXNXpXNXNXNXDXDXDXHXDXNXNXNXNXpXNXDXHXDXHXDXNXpXNXNXNXNXDXDXDXDXDXNXNXNXNXNXNXDXDXDXDXNXNXNXpXNXNXNXDXDXDXDXNXNXNXNXNXNXNXDXHXDXDXNXpXNXNXNXDXDXDXDXDXNXNXNXpXpXNXNXNXDXDX",
"HXHXHXHXDXNXpXuXNXNXNXDXDXDXDXDXpXpXpXNXNXDXHXHXDXDXNXNXNXNXNXNXHXHXHXDXNXNXpXpXpXNXDXHXHXHXNXNXpXpXpXNXNXHXHXHXHXDXNXNXNXNXNXNXHXHXHXHXNXNXpXpXNXNXNXHXDXDXHXNXpXpXpXNXNXDXHXHXHXDXNXpXpXpXNXDXHXHXHXDXNXNXpXpXpXNXDXHXHXHXNXNXpXpXpXNXNXHXHXHXHXHXNXpXpXpXNXDXHXHXDXNXNXNXpXpXpXpXDXHXHXHXDXNXpXpXpXNXDXHXHXHXHXDXpXpXpXpXNXHXHXHXHXHXDXNXpXuXNXNXNXDXHXHXDXDXpXpXpXNXNXDXHXHXDXDXNXNXNXNXNXNXHXHXHXHXNXNXpXpXpXpXDXHXHXHXDXNXpXpXpXNXNXDXHXHXHXHXDXNXNXpX",
"DXHXHXHXHXDXNXpXpXpXNXHXHXHXHXHXNXpXpXpXpXNXDXHXHXHXNXpXpXpXpXpXHXHXHXHXHXDXNXpXNXNXDXHXHXHXHXHXNXNXNXNXNXDXHXHXHXHXNXpXpXpXpXpXDXHXHXHXHXDXNXpXNXpXDXHXHXHXHXDXNXpXpXpXpXNXDXHXNXHXNXpXNXpXpXNXHXHXDXNXNXNXNXNXNXNXDXHXHXHXHXHXNXNXNXNXNXDXHXHXDXHXNXpXNXpXpXNXDXDXDXNXNXNXNXsXpXpXDXHXHXHXHXNXNXpXpXNXDXHXDXNXHXDXpXpXNXpXpXHXNXDXHXHXHXDXNXpXpXpXNXHXHXHXHXHXNXpXpXpXpXNXDXHXHXDXNXpXpXpXpXNXDXHXHXHXHXDXNXpXNXpXDXHXDXHXHXDXNXNXNXNXNXNXHXHXHXDXNXpXpXpX",
"HXHXHXHXHXNXpXpXpXpXNXHXHXHXHXHXpXpXpXpXpXDXHXHXHXHXNXpXpXpXpXNXHXHXHXHXHXNXpXpXpXpXDXHXHXHXHXNXpXNXNXpXNXDXHXHXHXHXNXpXpXpXpXNXHXHXHXHXDXNXpXpXpXpXDXHXHXHXHXNXpXNXNXpXNXDXHXHXHXHXNXpXpXpXpXNXHXHXHXHXDXpXpXNXNXpXDXHXHXHXHXNXpXpXpXpXNXHXHXHXHXHXNXpXpXpXpXNXHXHXHXHXDXpXpXNXpXpXHXHXHXHXHXpXNXpXpXpXNXHXHXHXHXDXpXpXpXpXpXHXHXHXHXHXHXNXpXpXpXpXNXHXHXHXHXDXpXpXpXpXpXDXHXHXHXHXNXpXpXpXpXNXHXHXHXHXDXNXpXpXpXpXDXHXHXHXHXNXpXpXpXpXNXHXHXHXHXHXDXpXpXpX",
"HXHXHXHXHXNXpXpXpXpXNXHXHXHXHXDXpXpXpXpXpXDXHXHXHXHXNXpXpXpXpXNXHXHXHXHXHXNXpXpXpXpXDXHXHXHXHXNXpXNXNXpXNXDXHXHXHXHXNXpXpXpXpXNXHXHXHXHXDXNXpXpXpXpXDXHXHXHXHXNXpXpXNXpXNXDXHXHXHXHXNXpXpXpXpXNXHXHXHXHXDXpXpXNXNXpXDXHXHXHXHXNXpXpXpXpXNXHXHXHXHXHXNXpXpXpXpXNXHXHXHXHXDXpXpXNXpXpXHXHXHXHXHXpXNXpXpXpXNXHXHXHXHXDXpXpXpXpXpXHXHXHXHXHXHXNXpXpXpXpXNXHXHXHXHXDXpXpXpXpXpXDXHXHXHXHXNXpXpXpXpXNXHXHXHXHXDXNXpXpXpXpXDXHXHXHXHXNXpXpXpXpXNXHXHXHXHXHXDXpXpXpX",
"HXHXHXHXHXNXpXpXpXpXNXHXHXHXHXHXpXpXpXpXpXDXHXHXHXHXNXpXNXpXpXNXHXHXHXHXHXNXpXpXpXpXDXHXHXHXHXNXpXNXpXpXNXDXHXHXHXHXNXpXpXpXpXNXHXHXHXHXDXNXpXpXpXpXDXHXHXHXHXNXpXNXpXpXNXDXHXHXHXHXNXpXpXpXpXNXHXHXHXHXDXpXpXNXNXpXDXHXHXHXHXDXpXpXpXpXNXHXHXHXHXHXNXpXpXpXpXNXHXHXHXHXDXpXpXNXpXpXHXHXHXHXHXpXNXpXpXpXNXHXHXHXHXDXpXpXNXpXpXHXHXHXHXHXHXNXpXpXpXpXNXHXHXHXHXDXpXpXpXpXpXDXHXHXHXHXNXpXpXpXpXNXHXHXHXHXDXNXpXpXpXpXDXHXHXHXHXNXpXpXpXpXNXHXHXHXHXHXDXNXpXpX"
};
