/* XPM */
static char *_836f9553e5d4040fdc7caaae36dc3b4xHnTT5f5T8xEo9er[] = {
/* columns rows colors chars-per-pixel */
"354 142 256 2 ",
"   c #051901",
".  c #071304",
"X  c #0C2C01",
"o  c #082601",
"O  c #132B07",
"+  c #0C3400",
"@  c #0C3B00",
"#  c #033900",
"$  c #133402",
"%  c #143C01",
"&  c #1A3C03",
"*  c #18380A",
"=  c #1A3214",
"-  c #233917",
";  c #21360F",
":  c #2C3926",
">  c #0C4300",
",  c #0C4B00",
"<  c #044500",
"1  c #144401",
"2  c #1A4402",
"3  c #144B00",
"4  c #1B4B01",
"5  c #1B460B",
"6  c #145300",
"7  c #1B5301",
"8  c #1C5B00",
"9  c #185803",
"0  c #154D0A",
"q  c #224B09",
"w  c #225402",
"e  c #235C01",
"r  c #265809",
"t  c #264816",
"y  c #295615",
"u  c #335417",
"i  c #1D6300",
"p  c #236300",
"a  c #2B6402",
"s  c #256B00",
"d  c #2B6C01",
"f  c #2B660B",
"g  c #336B06",
"h  c #2C7300",
"j  c #2B7701",
"k  c #337401",
"l  c #347B01",
"z  c #3A7C02",
"x  c #3A7709",
"c  c #376A16",
"v  c #3B7715",
"b  c #2C6414",
"n  c #355129",
"m  c #3B6827",
"M  c #437C08",
"N  c #447A17",
"B  c #456E1A",
"V  c #4A732E",
"C  c #435738",
"Z  c #556F4B",
"A  c #647857",
"S  c #5E6C5A",
"D  c #3C8401",
"F  c #3D8A00",
"G  c #398305",
"H  c #3B8C06",
"J  c #428502",
"K  c #438C01",
"L  c #4A8D01",
"P  c #46890B",
"I  c #459301",
"U  c #4B9401",
"Y  c #4C9B01",
"T  c #4A9609",
"R  c #539501",
"E  c #539C01",
"W  c #5B9C00",
"Q  c #569909",
"!  c #488817",
"~  c #4D9314",
"^  c #559818",
"/  c #548B0C",
"(  c #659B01",
")  c #6B9C0E",
"_  c #4DA301",
"`  c #4BA903",
"'  c #54A301",
"]  c #5BA401",
"[  c #54AB01",
"{  c #5CAB01",
"}  c #59A60B",
"|  c #5AB304",
" . c #5AA416",
".. c #57B310",
"X. c #63A401",
"o. c #63AC02",
"O. c #6BAC02",
"+. c #68A806",
"@. c #75AA02",
"#. c #64B303",
"$. c #6BB302",
"%. c #6CBB0B",
"&. c #68B708",
"*. c #73BC0B",
"=. c #7BBC0C",
"-. c #76B606",
";. c #66AA17",
":. c #69B615",
">. c #77BA16",
",. c #75AB19",
"<. c #4B8724",
"1. c #579826",
"2. c #548C2C",
"3. c #5CA326",
"4. c #78B826",
"5. c #6CAC2A",
"6. c #65972F",
"7. c #78C30A",
"8. c #7AC416",
"9. c #6BC30C",
"0. c #7BC424",
"q. c #7ECA2F",
"w. c #698C54",
"e. c #768E6C",
"r. c #72A056",
"t. c #86B90A",
"y. c #84BC16",
"u. c #8DB50D",
"i. c #88B72F",
"p. c #87C50A",
"a. c #84C314",
"s. c #8CCB1C",
"d. c #87C719",
"f. c #93CD1C",
"g. c #97CA19",
"h. c #98D31C",
"j. c #8ED013",
"k. c #A4D41C",
"l. c #87CA25",
"z. c #96CC24",
"x. c #8BD328",
"c. c #94D324",
"v. c #9CD424",
"b. c #9BD52B",
"n. c #98D82A",
"m. c #99DA34",
"M. c #90CC35",
"N. c #A2D524",
"B. c #A3DB2B",
"V. c #ABDC2C",
"C. c #A5D827",
"Z. c #A4DD33",
"A. c #A9DB34",
"S. c #B4DD34",
"D. c #ADD52C",
"F. c #9BE337",
"G. c #9AE12A",
"H. c #A9E22B",
"J. c #ACE233",
"K. c #A8E539",
"L. c #B7E738",
"P. c #B7E931",
"I. c #B5E71D",
"U. c #C5E93B",
"Y. c #C7F33C",
"T. c #D2F53C",
"R. c #D3E63E",
"E. c #8EB44C",
"W. c #84967A",
"Q. c #8BAD73",
"!. c #A4BD69",
"~. c #97C94C",
"^. c #ABD350",
"/. c #AAE943",
"(. c #B7EB43",
"). c #B9F448",
"_. c #B3F04F",
"`. c #B0D26F",
"'. c #B5E76E",
"]. c #9BD25C",
"[. c #C7EC45",
"{. c #D4ED45",
"}. c #C4F343",
"|. c #CCF344",
" X c #CCFC4C",
".X c #C7F74A",
"XX c #D3F445",
"oX c #D4FC4C",
"OX c #DCFC4C",
"+X c #D7F749",
"@X c #CCFD53",
"#X c #C8FC56",
"$X c #D4FE53",
"%X c #DBFE54",
"&X c #DCFF5B",
"*X c #D6FC59",
"=X c #CAEA56",
"-X c #E2FA4D",
";X c #E2FE54",
":X c #E3FF5B",
">X c #E8FC56",
",X c #E8F452",
"<X c #DAFE64",
"1X c #CBED71",
"2X c #E6FF65",
"3X c #ECFF6D",
"4X c #C3DB67",
"5X c #95AD8B",
"6X c #A4B698",
"7X c #ACB7A7",
"8X c #8D9A8A",
"9X c #B1D091",
"0X c #B7CDAF",
"qX c #B5E095",
"wX c #CFEF91",
"eX c #C6D6B6",
"rX c #D3EFAF",
"tX c #E8FBB3",
"yX c #D0E693",
"uX c #CED8CA",
"iX c #D8EDCF",
"pX c #E7FBC8",
"aX c #E5EADC",
"sX c #E8F9DA",
"dX c #F5FCD9",
"fX c #F3FCCB",
"gX c #EEEEEE",
"hX c #E7E9E6",
"jX c #F1EEED",
"kX c #F4EDE5",
"lX c #EBF3E4",
"zX c #EDF1EC",
"xX c #EBFAE6",
"cX c #F2F2ED",
"vX c #F3FDEC",
"bX c #FBFEEC",
"nX c #F4FAE4",
"mX c #EEEEF2",
"MX c #ECECFA",
"NX c #F1EEF3",
"BX c #F3ECFC",
"VX c #EDF2F3",
"CX c #ECF7F6",
"ZX c #F3F3F3",
"AX c #F5FDF3",
"SX c #FCFEF4",
"DX c #F4F4FB",
"FX c #F5FCFB",
"GX c white",
"HX c #FEFEFE",
"JX c #FDFDFD",
"KX c #FEFEFE",
"LX c #FAF5FA",
"PX c #DEE7E2",
"IX c #BCD2C3",
"UX c #7A8C80",
/* pixels */
"GXGXGXGXGXGXGXGXGXGXGXGXGXGXGXZXgXgXgXgXmXmXgXgXgXgXgXmXZXZXGXGXGXGXGXGXGXGXGXGXGXGXGXJXZXgXgXZXgXgXgXgXcXzXzXgXgXgXZXGXGXGXGXGXGXGXGXGXGXGXGXGXGXJXZXgXgXZXZXgXgXgXgXgXgXgXgXgXJXJXGXGXGXGXGXGXGXGXGXJXGXGXGXZXgXgXgXgXgXgXgXgXgXgXZXgXgXZXJXGXGXGXGXGXGXGXGXGXGXGXGXGXJXgXgXZXgXgXgXmXmXmXgXgXgXgXZXDXGXGXGXJXGXGXGXGXGXGXGXGXKXSXLXBXBXBXBXBXBXNXNXjXjXjXjXNXDXGXGXGXGXGXGXJXJXJXGXSXdXdXnXbXmXMXMXMXVXzXcXcXmXNXcXkXkXkXLXJXGXGXGXGXGXGXGXGXGXGXGXGXGXZXgXNXgXgXmXmXmXmXmXmXNXmXmXDXJXGXGXGXGXGXGXGXGXGXGXGXGXGXJXZXgXZXZXgXgXgXgXgXmXmXgXgXZXZXGXGXGXGXGXGXGXSXSXSXSXGXGXJXBXmXlXsXsXlXNXmXzXlXmXDXMXMXMXJXGXSXSXbXSXKXGXGXGXGXGXGXGXJXZXgXgXgXgXgXmXmXmXcXZXgXgXgXZXGXGXGXGXGXGXGXGXGXGXGXGXGXGXZXgXZXZXgXgXgXgXgXgXgXgXgXgXgX",
"GXGXGXGXGXGXGXGXGXGXGXGXGXGXGXZXgXzXgXgXNXNXgXgXgXgXgXmXZXZXGXGXGXGXGXGXGXGXGXGXGXGXGXJXZXgXgXZXgXgXgXgXjXjXgXgXgXgXZXGXGXGXJXGXGXGXGXGXGXGXGXGXGXJXZXgXgXZXZXgXgXgXgXgXgXgXgXgXJXJXGXGXGXGXGXGXGXGXGXJXGXGXGXZXgXgXgXgXgXgXgXgXgXZXZXgXhXZXJXGXGXGXGXGXGXGXGXGXGXGXGXGXJXgXgXZXgXgXgXmXNXmXgXgXgXgXZXDXGXGXGXGXGXGXGXGXGXGXGXGXKXSXLXNXBXBXBXBXNXNXNXjXjXjXjXNXDXGXGXJXDXKXKXGXJXJXGXKXbXbXbXSXgXmXMXMXmXzXcXcXmXNXNXkXkXkXLXJXGXGXGXGXGXGXGXGXGXGXGXGXGXZXgXgXgXgXmXmXmXmXmXmXNXmXmXDXJXGXGXGXGXGXGXGXGXGXGXGXGXGXJXZXgXZXZXgXgXgXgXgXNXNXgXgXZXZXGXGXGXGXGXGXGXKXSXSXSXGXGXJXBXNXlXsXsXlXNXmXzXlXzXCXMXMXDXJXGXKXSXSXKXGXGXGXGXGXGXGXGXJXZXgXgXgXgXgXmXmXjXcXZXgXgXgXZXGXGXGXGXGXGXGXGXGXGXGXGXGXGXZXgXZXZXgXgXgXgXgXgXgXgXgXgXgX",
"GXGXGXGXGXGXGXGXGXGXGXGXGXGXJXgXgXgXgXjXNXgXgXzXgXgXgXNXZXZXGXGXGXGXGXGXGXGXGXGXGXGXGXJXZXgXgXZXgXgXgXgXmXmXmXmXgXgXZXGXGXJXJXGXGXGXGXGXGXGXGXGXGXJXZXgXgXZXZXgXgXgXgXgXgXgXgXgXJXJXGXGXGXGXGXGXGXGXGXJXGXGXGXZXgXgXgXgXgXgXgXgXgXZXgXgXgXZXJXGXGXGXGXGXGXGXGXGXGXGXGXGXJXgXgXZXjXzXjXgXmXjXzXzXgXgXZXLXGXGXGXGXGXGXGXGXGXGXGXGXSXSXZXNXmXmXNXNXNXjXjXjXjXjXjXjXcXSXGXLXJXKXSXSXGXGXGXGXGXGXKXKXzXgXMXMXmXzXzXzXmXNXZXcXkXkXLXJXGXGXGXGXGXGXGXGXGXGXGXGXGXZXgXZXmXmXmXmXNXZXmXVXNXmXmXZXJXGXGXGXGXGXGXGXGXGXGXGXGXGXJXZXgXZXZXgXgXgXgXjXcXgXgXgXZXZXGXGXGXJXGXGXGXKXSXSXSXGXGXGXBXNXkXkXlXzXmXMXzXlXlXzXzXgXcXKXGXGXGXGXGXGXGXGXJXGXGXGXGXJXZXgXgXgXgXgXgXmXgXgXZXgXgXgXZXGXGXGXGXGXGXGXGXGXGXGXGXGXGXZXgXZXZXgXgXgXgXgXgXgXgXgXgXgX",
"GXGXGXGXGXGXGXGXGXGXGXGXGXGXJXgXgXzXgXgXjXjXzXzXgXgXgXgXZXZXGXGXGXGXGXGXGXGXGXGXGXGXGXJXZXgXgXZXgXgXgXgXmXmXmXgXgXgXZXGXGXJXJXGXGXGXGXGXGXGXGXGXGXJXZXgXgXZXZXgXgXgXgXgXgXgXgXgXJXJXGXGXGXGXGXGXGXGXGXJXGXGXGXZXgXgXgXgXgXgXgXgXgXZXZXgXgXZXJXGXGXGXGXGXGXGXGXGXGXGXGXGXJXgXgXZXgXzXgXgXgXgXzXzXgXgXZXLXGXGXGXGXGXGXGXGXGXGXGXGXSXSXZXjXgXgXjXZXjXkXkXkXjXNXNXjXaXbXKXKXSXbXbXbXSXGXGXJXGXGXGXKXlXzXmXMXmXzXzXcXmXNXZXcXkXkXLXJXGXGXGXGXGXGXGXGXGXGXGXGXGXZXgXgXmXmXmXmXmXZXVXVXmXmXmXZXJXGXGXGXGXGXGXGXGXGXGXGXGXGXJXZXgXZXZXgXgXgXzXgXzXzXgXgXZXZXGXGXGXJXGXGXGXGXSXSXSXGXGXGXBXNXkXkXlXzXMXMXCXgXlXlXlXaXnXKXGXGXGXGXGXGXGXGXJXGXGXGXGXJXZXgXgXgXgXgXgXgXgXgXZXgXgXgXZXGXGXGXGXGXGXGXGXGXGXGXGXGXGXZXgXZXZXgXgXgXgXgXgXgXgXgXgXgX",
"GXGXGXGXGXGXGXGXGXGXGXJXGXGXJXgXgXgXgXmXgXgXgXgXgXgXgXgXZXZXGXGXGXGXGXGXGXGXGXGXGXGXGXJXZXgXgXZXgXgXmXgXmXgXgXgXgXhXZXJXGXJXJXGXGXGXGXGXGXGXGXGXGXJXZXgXgXgXZXgXjXgXgXmXgXgXgXgXJXJXGXGXGXGXGXGXGXGXGXJXGXGXGXZXmXgXgXgXgXgXgXmXgXZXZXgXgXZXJXGXGXGXGXGXGXGXGXGXGXGXGXGXJXgXhXZXgXgXmXgXgXgXgXgXgXgXZXZXGXGXGXGXGXGXGXGXGXGXGXGXKXSXLXkXgXgXcXcXcXcXkXkXjXNXNXNXkXbXbXdXdXdXdXbXbXKXGXGXJXJXGXGXsXaXmXmXmXmXzXzXmXMXZXcXlXcXLXJXGXGXGXGXGXGXGXGXGXGXGXGXGXZXgXZXmXmXmXmXmXmXmXmXZXgXgXZXJXGXGXGXGXGXGXGXGXGXGXGXGXGXJXZXgXZXZXgXgXgXgXmXgXgXgXgXZXZXGXGXGXGXGXGXGXGXKXSXSXKXGXGXmXVXcXkXkXjXMXMXMXmXgXcXlXaXnXSXGXGXGXJXGXGXKXKXKXGXGXGXGXJXZXgXgXgXgXgXgXgXgXgXZXgXgXgXSXGXGXGXGXGXGXGXGXGXGXGXGXGXGXZXgXZXZXhXmXmXmXmXgXmXgXgXgXgX",
"GXGXGXGXGXGXGXGXGXGXGXJXGXGXGXZXgXgXgXmXgXgXgXgXgXgXgXgXZXZXGXGXGXGXGXGXGXGXGXGXGXGXGXJXZXgXgXZXgXgXgXgXgXgXgXgXgXhXZXJXGXJXGXGXGXGXGXGXGXGXGXGXGXJXgXhXgXZXZXgXjXgXgXmXmXgXjXgXJXJXGXGXGXGXGXGXGXGXGXJXGXGXGXZXmXgXgXgXgXgXgXgXgXgXgXgXgXZXJXGXGXGXGXGXGXGXGXGXGXGXGXGXJXgXhXZXgXgXmXgXgXgXgXgXgXgXZXZXGXGXGXGXGXGXGXGXGXGXGXGXKXSXLXcXlXlXkXcXcXkXkXjXNXNXmXmXZXbXfXtXtXtXtXdXbXSXGXGXGXJXJXAXsXsXgXmXmXmXgXzXmXMXNXNXgXcXLXJXGXGXGXGXGXGXGXGXGXGXGXGXGXZXgXgXmXmXmXmXmXmXmXmXZXmXgXZXJXGXGXGXGXGXGXGXGXGXGXGXGXGXJXZXgXZXZXgXgXgXmXgXgXgXgXgXZXJXGXGXGXGXGXGXGXGXGXKXSXKXGXGXVXVXcXcXkXNXMXMXMXMXmXcXlXaXkXSXGXGXJXGXGXKXSXSXSXGXGXGXGXJXZXgXgXgXgXgXgXgXzXjXZXgXgXgXZXGXGXGXGXGXGXGXGXGXGXGXGXGXGXZXgXZXZXhXmXmXmXmXgXgXgXgXgXgX",
"GXGXGXGXGXGXGXGXGXGXGXJXGXGXGXZXgXgXgXgXgXgXgXgXgXgXgXgXZXZXGXGXGXGXGXGXGXGXGXGXGXGXGXJXZXgXgXZXgXgXgXgXjXjXgXgXgXhXZXJXGXGXGXGXGXGXGXGXGXGXGXGXGXJXgXhXgXZXZXgXcXzXmXmXgXgXzXNXJXJXGXGXGXGXGXGXGXGXGXJXGXGXGXZXmXNXgXgXzXgXgXmXgXgXZXgXhXZXJXGXGXGXGXGXGXGXGXGXGXGXGXGXJXgXgXZXgXgXgXgXgXgXgXgXgXgXZXZXGXGXGXGXGXGXGXGXGXGXGXGXGXJXZXzXlXlXkXcXzXzXgXmXmXmXmXMXBXSXtX1X3XwXwXfXdXbXSXGXGXJXkXsXpXpXlXmXmXmXgXgXmXMXDXNXgXcXLXJXGXGXGXGXGXGXGXGXGXGXGXGXGXZXgXZXmXmXNXmXVXmXmXmXZXgXgXZXJXGXGXGXGXGXGXGXGXGXGXGXGXGXJXZXgXZXZXgXgXgXgXgXgXgXgXgXZXZXGXGXGXGXGXGXGXGXGXKXSXSXKXGXZXZXcXcXjXNXmXMXBXMXMXDXmXgXcXKXGXGXGXGXKXSXbXbXSXGXGXGXGXJXZXgXgXgXgXgXmXgXgXzXZXgXgXgXDXGXGXGXGXGXGXGXGXGXGXGXGXGXJXZXgXZXZXhXmXgXgXgXzXjXgXgXgXgX",
"GXGXGXGXGXGXGXGXGXGXGXJXGXGXGXZXgXgXgXgXgXgXgXgXgXgXgXgXZXZXGXGXGXGXGXGXGXGXGXGXGXGXGXJXZXgXgXZXgXgXgXgXzXgXzXgXgXgXZXGXGXGXGXGXGXGXGXGXGXGXGXGXGXJXgXhXgXZXZXNXgXzXgXgXgXgXzXgXJXJXGXGXGXGXGXGXGXGXGXJXGXGXGXZXzXNXgXgXgXcXjXgXgXZXZXgXgXZXJXGXGXGXGXGXGXGXGXGXGXGXGXGXJXgXhXZXgXgXgXgXgXgXgXgXgXgXZXZXGXGXGXGXGXGXGXGXGXGXGXGXGXJXZXzXlXlXkXcXzXgXmXmXmXmXmXmXMXSXtX4X<X<X1XtXtXdXbXKXGXnXpXrXtXtXsXgXmXmXgXgXmXmXDXNXgXNXLXJXGXGXGXGXGXGXGXGXGXGXGXGXGXZXgXZXmXmXNXZXZXmXmXgXZXgXgXZXJXGXGXGXGXGXGXGXGXGXGXGXGXGXJXZXgXZXZXgXgXgXgXgXgXgXgXgXZXZXGXGXGXGXGXGXGXGXGXGXKXSXKXKXcXZXZXZXNXgXmXNXBXMXMXDXmXmXZXGXGXGXGXGXKXSXSXSXSXGXGXGXGXJXZXgXgXgXgXgXgXmXgXjXZXgXgXgXDXGXGXGXGXGXGXGXGXGXGXGXGXGXJXZXgXZXZXhXcXjXgXgXgXzXgXjXgXgX",
"GXGXGXGXGXGXGXGXGXGXGXGXGXGXZXgXgXgXgXgXgXgXgXgXZXgXhXhXgXZXGXGXGXGXGXGXGXGXGXGXGXGXGXGXZXgXgXgXgXgXgXgXgXgXgXgXhXgXZXJXGXGXGXGXGXGXGXGXGXGXGXGXGXJXZXgXgXZXZXZXZXZXZXZXZXZXZXZXGXGXGXGXGXGXGXGXGXGXGXGXGXGXJXJXZXZXZXZXZXZXZXZXZXZXZXZXZXZXJXGXGXGXGXGXGXGXGXGXGXGXGXGXJXZXgXgXgXgXgXgXgXgXgXgXhXgXZXZXJXGXGXGXGXGXGXGXGXGXGXGXGXJXDXZXzXcXzXgXZXNXmXBXDXLXcXgXmXSXtX1X=X{.*X=XwXtXbXbXSXdXwX1X1XtXdXlXhXmXhXhXZXDXDXmXhXgXLXGXGXGXGXGXGXGXGXGXGXGXGXGXGXZXgXhXgXmXmXmXgXgXgXgXZXSXgXcXKXKXSXSXGXGXGXGXGXGXGXGXGXGXZXgXhXhXgXZXgXgXgXgXgXgXgXgXgXZXGXGXGXGXGXGXGXGXGXGXKXSXSXKXZXgXgXNXgXaXaXcXaXSXlXhXZXmXDXZXGXJXNXGXGXLXGXGXGXGXGXGXGXZXgXhXgXgXgXgXgXgXgXgXhXgXZXZXLXJXGXGXGXGXGXGXGXGXGXGXGXGXJXZXZXgXgXgXgXgXgXgXgXgXgXgXgXgX",
"GXGXGXGXGXGXGXGXGXGXGXGXGXGXZXhXgXgXgXgXgXgXgXgXZXZXgXgXgXZXGXGXGXGXGXGXGXGXGXGXJXGXGXJXZXgXZXZXgXgXgXgXgXgXgXgXgXZXZXJXGXGXGXGXGXGXGXGXGXGXGXGXGXJXZXgXgXZXZXZXgXgXgXgXgXgXgXgXGXGXGXGXGXGXGXGXGXGXGXGXGXGXJXJXgXgXgXgXgXgXgXgXgXZXZXgXgXZXJXGXGXGXGXGXGXGXGXGXGXGXGXGXJXZXZXgXgXgXgXgXgXgXgXgXgXZXZXZXJXJXGXGXGXGXGXGXGXGXGXGXGXJXBXgXhXgXcXZXLXmXmXBXZXlXaXnXhXbXtX4X=XXXXX[.<XwXpXdXdXtX1X=X=XwXpXzXCXCXzXcXZXZXDXmXmXZXJXGXGXGXGXGXGXGXGXGXJXGXGXGXGXJXZXgXmXmXmXmXmXmXgXgXhXZXcXgXSXKXKXKXGXGXGXGXGXGXGXGXGXGXZXgXgXgXZXZXgXgXgXgXgXgXgXgXhXZXGXGXGXGXGXGXGXGXGXGXKXSXSXSXZXmXmXNXNXlXsXfXtXfXpXsXvXZXDXJXGXGXLXGXGXJXJXJXGXGXGXGXGXJXZXgXgXgXgXgXgXgXgXgXgXZXZXZXJXJXGXGXGXGXGXGXGXGXGXGXGXJXZXZXZXZXZXZXzXzXgXgXgXgXgXgXgXgX",
"GXGXGXGXGXGXGXGXGXGXGXGXGXGXZXgXZXZXZXZXZXZXZXZXZXZXZXgXZXZXJXGXGXGXGXGXGXGXGXGXJXGXGXJXZXZXZXZXZXZXZXZXZXZXZXZXZXZXLXJXGXGXGXJXGXGXGXGXGXGXGXGXGXJXZXgXgXgXgXhXgXgXgXgXgXgXgXgXGXGXGXGXGXGXGXGXJXGXGXGXGXJXJXZXgXgXgXgXgXgXgXgXgXgXgXhXhXgXJXGXGXGXGXGXGXGXGXGXJXGXGXGXJXZXZXZXZXZXZXZXZXZXZXZXZXZXZXZXJXJXJXGXGXGXGXGXGXGXGXGXGXJXDXmXgXzXgXmXMXMXMXmXlXaXfXsXhXbXtX4X{.T.U.U.=X4XwXtXtX1X[.U.[.1XrXxXFXCXlXvXzXVXDXMXmXZXJXGXGXGXGXGXGXGXGXGXJXJXGXGXGXJXZXmXZXZXZXZXZXZXZXZXaXZXcXhXSXSXSXKXGXGXGXGXGXGXGXGXGXJXZXzXgXgXZXZXZXZXZXZXZXZXZXZXhXZXJXGXGXGXGXGXGXGXGXGXGXKXSXKXZXZXMXmXZXnXfXtXwX1XwXrXdXnXcXGXJXGXJXJXJXJXJXJXGXGXGXGXGXJXZXgXZXZXZXZXZXZXZXZXZXZXZXZXZXJXJXJXGXGXGXGXGXGXGXGXGXJXZXZXZXZXZXZXZXZXZXZXZXZXZXZXZXZX",
"JXJXGXGXGXGXJXJXGXGXGXGXGXGXJXZXgXgXgXgXgXgXgXgXZXZXgXZXZXZXGXGXGXGXGXGXJXJXJXJXGXGXGXJXZXgXgXZXgXgXgXgXgXgXgXgXgXZXZXJXGXGXGXGXJXJXJXJXGXGXGXGXGXJXZXgXgXgXhXhXZXZXZXZXZXZXZXZXJXJXJXJXKXJXJXJXGXGXGXGXGXGXJXJXZXZXZXZXZXZXZXZXgXgXhXhXhXgXJXGXJXJXGXGXGXGXGXGXGXGXGXGXJXZXgXgXgXgXgXgXgXgXgXgXgXZXZXZXJXJXGXGXGXGXGXGXGXGXGXJXJXLXLXZXZXcXgXhXhXDXDXhXaXfXtXrXaXnXtX4X[.U.U.Y.=X^.1XwX3X=XL.P.[.4XrXsXDXmXaXaXhXgXmXMXmXZXJXGXGXGXGXGXGXGXGXGXGXGXGXGXJXZXZXgXmXmXmXmXmXmXgXgXhXSXcXhXSXSXSXSXJXJXGXGXGXGXJXJXGXGXZXZXgXgXmXZXgXgXgXgXgXgXgXgXgXZXGXGXGXGXGXGXJXJXJXJXGXKXSXSXZXDXMXmXcXbXtXwX=X[.1XyXrXsXlXGXDXGXGXGXGXJXLXGXJXGXGXGXJXZXZXgXgXgXgXgXgXgXgXgXgXgXZXZXJXJXGXGXGXGXGXJXJXJXJXJXGXGXJXZXZXZXZXZXgXgXgXgXgXgXgXgXgXgX",
"GXGXGXGXGXGXGXGXGXGXGXGXGXGXGXZXgXgXgXgXgXgXgXgXgXgXgXZXZXJXGXGXGXGXGXGXGXGXGXGXGXGXGXGXZXgXgXgXgXgXgXgXgXgXgXgXhXgXZXJXGXGXGXGXGXGXGXGXGXGXGXGXGXZXZXgXNXNXgXhXcXZXZXZXZXZXgXcXJXGXGXGXGXGXGXGXGXGXGXGXGXGXGXJXZXZXZXZXgXgXgXZXgXgXgXhXhXgXJXGXGXGXGXGXGXGXGXGXGXGXGXGXJXZXgXhXgXgXgXgXgXgXgXgXhXgXZXZXJXGXGXGXGXGXGXGXGXGXGXGXGXJXZXzXcXcXgXgXmXmXgXlXdXtXyX`.rXdXtX1X[.U.U.=X=X(.[.$X[.L.[.U.U.=XyXaXAXVXlXaXaXhXmXmXmXzXZXJXGXGXGXGXGXGXGXGXGXGXGXGXJXZXgXhXmXmXmXmXmXmXgXgXcXSXgXhXKXSXSXSXKXGXGXGXGXGXGXGXGXGXGXZXZXgXhXhXgXgXgXgXgXgXgXgXZXJXGXGXGXGXGXGXGXGXGXGXGXGXKXKXmXBXMXmXlXdXtX4XU.P.=X4XyXtXsXSXAXGXGXKXSXvXaXSXKXGXGXGXGXJXZXZXgXgXgXgXgXgXgXgXhXhXgXZXJXGXGXGXGXGXGXGXGXGXGXGXGXGXGXZXZXgXgXgXgXgXgXgXgXgXgXgXgXgX",
"GXGXGXGXGXGXGXGXGXGXJXGXGXGXGXJXZXZXZXZXZXZXZXZXgXgXZXZXZXJXGXGXGXGXGXGXGXGXGXGXGXGXGXJXZXgXgXZXZXZXZXZXZXZXZXZXhXgXZXJXGXGXGXGXGXGXGXGXGXGXGXGXJXZXZXZXZXZXZXgXgXgXgXgXgXgXgXgXGXGXGXGXGXGXGXGXGXGXGXGXGXGXJXJXgXgXgXgXgXgXgXgXZXZXZXZXNXZXZXGXGXGXGXGXGXGXGXGXGXGXGXGXJXZXgXhXZXZXZXZXZXZXZXZXgXgXZXZXJXGXGXGXGXGXGXGXGXGXGXGXGXJXzXhXlXlXzXmXLXhXhXnXfXyX4X`.yXtXtX1X^.(.[.@X[.U.L.P.I.P.[.[.P.[.yXsXAXAXlXsXaXzXZXCXmXgXcXZXGXGXGXGXGXGXGXGXGXGXGXJXZXZXgXgXNXNXNXNXZXZXZXcXzXcXhXgXSXSXSXSXKXGXGXGXGXGXGXGXGXGXJXDXZXgXgXgXZXZXZXcXNXZXZXZXZXJXGXGXGXKXGXGXKXGXGXGXGXGXGXGXNXBXBXmXsXtXyX4XU.U.[.=X`.rXdXbXSXKXSXbXnXpXrXdXSXGXGXGXGXGXGXJXZXZXZXZXVXVXZXZXhXgXZXZXJXGXGXGXGXGXGXGXGXGXGXGXGXGXGXZXZXZXgXgXZXZXZXZXZXZXZXZXZXZX",
"JXJXJXJXJXJXJXJXJXZXZXZXJXJXJXZXZXZXZXZXZXZXZXZXZXZXZXZXZXZXZXZXJXJXJXJXJXJXJXJXZXJXJXJXZXZXZXJXZXZXZXZXZXZXZXZXZXZXJXJXJXJXZXZXJXJXJXJXJXJXJXJXJXZXZXZXJXJXJXZXZXZXZXZXZXZXZXZXJXJXJXJXJXJXJXJXZXJXJXJXJXJXZXZXZXZXZXZXZXZXZXZXZXJXGXGXZXZXZXZXJXJXJXJXJXJXJXJXZXJXJXJXJXZXZXZXZXZXZXZXZXZXZXZXZXZXZXZXJXJXJXJXJXJXJXJXJXJXJXJXJXAXcXvXnXlXhXhXDXZXvXdXrX4X^.^.^.wXtXwX`.^.(.L.L.P.P.I.P.P.(.[.I.S.yXsXAXPXaXsXnXAXJXFXZXZXcXAXJXJXJXJXJXJXJXJXJXJXZXZXZXZXZXZXDXDXDXDXDXZXZXZXcXcXcXcXbXaXaXSXSXJXJXJXJXJXKXKXDXSXZXDXZXZXZXZXZXZXZXZXZXZXZXZXZXJXGXJXZXZXZXSXSXSXJXJXJXJXJXJXLXDXLXJXdXrX1X=XL.L.[.=X^.yXpXdXvXSXnXpXtXyX4XwXnXJXJXJXJXJXJXJXZXZXZXZXZXZXZXZXZXZXZXZXZXZXJXJXJXJXJXJXJXJXJXJXGXJXZXZXZXZXZXJXZXZXZXZXZXZXZXZXZXZX",
"ZXZXZXZXZXgXZXZXZXgXgXgXZXZXZXZXGXGXGXGXGXGXGXKXKXKXSXSXZXZXjXgXVXVXzXgXZXZXNXCXmXZXZXAXZXLXJXGXKXSXKXJXJXJXJXSXJXJXJXKXJXZXcXgXcXZXZXZXcXzXzXzXZXZXDXJXGXGXGXJXGXGXGXKXGXGXGXGXgXgXgXgXmXmXmXgXZXZXZXZXZXZXgXgXGXGXGXGXGXGXGXGXZXJXGXGXJXDXZXcXcXzXCXNXNXjXjXjXgXVXZXJXJXJXJXJXGXGXGXGXGXGXJXJXGXGXJXJXZXZXZXNXcXzXzXzXzXzXgXmXhXzXSXbXbXdXiXeXpXnXnXtX`.^.(.S.A.'.wXwX^._.(.V.V.P.I.I.P.P.S.(.I.V.1XtXpXeXeXiXbXJXGXGXJXZXZXAXzXzXzXzXjXjXNXZXZXZXZXZXAXSXSXKXJXJXJXJXJXJXJXJXJXGXKXSXpX0X0XpXsXzXzXcXcXcXcXZXgXZXcXZXJXJXJXJXKXKXKXKXGXGXGXKXZXSXSXcXgXlXgXZXcXzXlXlXlXlXzXVXJXJXGXGXdXyX4X[.S.L.S.=X^.].rXpXpXdXtXqX4X^.A.1XpXsXsXpXpXpXpXsXbXSXGXJXJXJXKXKXGXGXJXSXZXcXzXzXVXVXmXmXcXcXcXcXZXZXZXZXZXJXGXGXGXGXGXGXGXGXGXGXGXGX",
"gXgXgXgXgXgXgXgXZXgXgXZXZXgXZXGXGXGXGXGXGXGXGXKXSXSXSXSXSXLXNXmXVXVXzXzXgXNXBXMXMXVXAXhXGXGXJXJXKXSXSXJXFXJXJXSXJXJXAXzXmXZXcXlXzXgXmXmXlXsXsXlXZXJXGXGXGXJXJXJXGXGXKXSXKXGXGXGXZXZXcXjXNXNXNXZXhXzXDXhXmXDXhXDXGXGXGXGXGXGXGXJXJXJXAXGXGXGXLXkXlXzXDXMXmXLXZXkXgXVXzXhXgXSXGXGXGXGXGXGXGXGXJXGXGXFXLXLXZXjXNXNXkXlXzXzXlXlXzXgXgXcXSXbXdXtX`.~.^.wXfXrX`.^.J.B.J.S./././.K.J.J.J.P.V.H.J.V.L.L.J.L.(.^.^.^.].yXnXJXGXGXKXAXJXmXzXlXzXgXNXNXNXNXgXgXhXhXlXvXbXbXGXJXJXJXGXGXLXLXJXLXGXbXwX^.^.`.pXlXhXSXdXiXcXgXZXgXcXSXGXJXJXGXKXSXKXKXGXGXGXKXSXvXkXlXkXkXgXgXhXzXdXtXrXrXaXzXLXJXLXkXdXyX^.[.U.S.S.^._.^.'.wXtXwX1X^.^.(.A._.wXyX'.'.(.(.^.`.yXsXGXJXLXGXKXSXGXLXJXKXSXsXaXlXzXVXCXNXNXjXkXkXcXgXgXJXGXGXGXGXGXGXGXGXGXGXGXGXGXGX",
"gXgXgXgXgXgXgXgXZXgXgXZXZXgXZXGXGXGXGXGXGXGXGXKXSXSXSXSXSXLXNXNXVXzXzXzXjXNXBXMXMXhXxXlXJXGXJXLXSXbXSXJXFXFXJXSXFXJXAXzXmXZXcXkXkXmXMXmXlXsXsXsXmXLXJXGXKXJXJXJXGXKXSXSXSXGXGXGXZXZXcXjXNXNXNXZXzXhXVXzXZXSXgXJXGXGXGXGXGXGXGXJXJXJXJXGXJXJXcXaXnXzXMXMXhXhXjXLXgXVXZXzXcXKXGXJXGXJXLXJXGXGXGXGXJXJXJXLXkXkXNXLXkXlXzXzXlXlXzXgXZXcXbXdXdXyX^.D.D._.wXqX].^.Z.H.H.Z.V.V.V.V.V.V.C.V.k.C.V.N.V.N.J.K.L.V.C.D.~.yXsXSXKXKXbXvXJXgXzXlXzXmXNXNXNXNXcXAXlXlXnXbXbXbXFXJXJXFXGXGXGXGXJXJXLXdX1XN.N.M.yXdXnXlXdXsXhXmXNXgXnXSXGXJXJXGXKXKXKXGXGXGXGXGXSXvXkXlXkXcXzXgXZXnXrXyX`.qXiXvXSXGXKXbXdX1X^.S.S.S.D.A.(.^.^.1XwX4X^.D.D.S.J.(.'.'.^.J.I.I.V.A.`.dXKXFXFXJXSXKXFXFXGXJXSXvXlXhXVXCXMXBXNXNXkXkXZXgXgXJXGXGXGXGXGXGXGXGXGXGXGXGXGXGX",
"gXgXgXgXgXgXgXgXZXgXgXZXgXgXZXGXGXGXGXGXGXGXGXGXKXSXSXSXSXLXNXNXzXlXlXkXkXjXBXMXFXCXxXaXvXAXGXGXSXSXJXJXJXJXJXJXJXJXAXzXgXZXcXkXjXmXBXMXzXlXsXlXmXDXJXGXKXSXJXJXKXSXSXSXKXGXGXGXDXDXNXjXjXjXcXcXZXhXlXnXsXnXvXSXGXGXGXGXGXGXGXKXAXFXKXGXJXJXkXaXvXlXMXMXZXkXkXZXMXDXzXaXnXSXGXGXGXJXDXSXSXSXSXSXAXJXGXLXkXkXBXBXkXzXmXVXlXlXgXNXNXjXbXnXdX9X^.A.D.A.^.^.m.Z.v.H.B.b.B.B.B.B.N.N.N.N.k.V.J.V.V.g.B.B.J.B.C.D.M.`.tXnXnXdXdXdXbXhXVXVXmXmXNXNXNXjXzXvXaXiXxXSXSXJXFXFXSXvXGXGXSXGXGXJXDXdX^.D.V.N.`.pXnXPXzXAXhXMXZXgXnXSXGXGXJXGXGXGXGXGXGXGXGXGXGXLXNXgXNXZXNXmXJXdXyX^.^.`.yXfXbXbXbXdXfX`.A.C.D.D.N.A.A.m.A._.<X^.(.[.L.L.H.A.^.^.A.C.I.I.C.A.`.fXdXvXSXJXvXAXFXJXJXAXvXxXlXgXMXMXMXBXBXBXNXNXZXgXgXJXGXGXGXGXGXGXGXGXGXGXGXGXGXGX",
"gXgXgXgXgXgXgXgXZXgXgXZXgXgXZXGXGXGXGXGXGXGXGXGXKXKXKXKXSXLXZXjXzXlXkXkXkXkXNXmXhXvXvXnXnXbXSXKXbXSXGXGXGXGXGXJXJXJXJXZXgXcXZXjXNXNXBXBXmXzXlXzXmXDXJXKXbXbXSXSXSXSXSXSXKXGXGXGXDXDXNXjXjXkXcXcXDXhXsXpXrXrXdXbXGXGXGXGXKXKXSXSXAXJXKXGXJXJXZXsXvXlXVXCXLXcXjXhXMXDXlXaXaXbXGXGXGXGXGXKXSXbXpXrXsXvXKXLXkXkXBXBXjXgXMXMXzXzXmXNXmXgXSXbXnX9X~.A.B.C.b.M.A.J.N.N.b.b.v.v.v.v.N.N.N.N.V.Y.}.|.U.V.B.c.B.N.N.C.M.^.rXpXtXtXrXrXdXlXCXMXmXmXNXNXjXzXsXpXeX9XiXvXJXFXJXvXpXpXbXSXvXvXSXKXJXdX~.g.I.C.^.yXdXhXmXFXMXMXDXgXnXSXGXJXSXKXGXJXJXGXGXGXGXGXJXLXBXMXBXBXBXgXvXpX`.~.^.~.`.rXdXdXrXtXtX^.Z.v.C.N.N.B.Z.b.b.A.^.(.<X2X%XL.N.B.B.Z.N.N.k.k.D.A.^.wXtXrXiXiXsXAXAXAXAXvXbXvXlXZXMXMXBXBXBXBXMXmXZXgXgXJXGXGXGXGXGXGXGXGXGXGXGXGXGXGX",
"mXgXgXgXgXgXgXgXgXgXgXZXZXgXZXGXGXGXGXGXGXGXGXGXGXGXGXGXJXZXZXgXzXkXdXkXkXjXNXmXhXxXiXqX9XrXsXbXbXJXJXJXGXGXGXGXSXSXJXNXgXcXZXNXjXmXBXBXNXgXzXzXmXDXJXbXdXdXnXbXbXSXKXKXKXKXKXKXZXZXNXgXgXcXcXZXDXxXpXyX!.`.tXnXGXGXGXGXSXSXbXSXSXJXGXJXJXGXSXsXpXxXCXCXhXgXNXNXMXDXcXlXkXSXKXSXSXSXGXJXJXsXyX`.rXsXbXSXkXjXBXBXNXVXMXMXVXgXNXNXBXmXSXbXsX9X~.A.h.H.v.N.Y.T.L.N.v.b.v.v.v.v.N.N.N.k.L.oXoX%X%X}.V.z.b.b.v.D.b.^.wXyX`.^.~.`.rXxXmXMXNXjXkXkXcXsXpXrX`.!.yXdXSXJXvXrXqXqXnXvXnXdXdXdXnXfXM.g.k.g.D.`.pXzXMXDXMXMXZXgXnXSXGXJXSXSXGXJXGXGXGXGXGXGXJXLXBXBXBXBXBXgXnXtX`.M.A.m.~.wXtXwX`.wXwX~.b.h.C.h.N.B.N.v.N.N.U.%X2X;X:X}.g.V.h.v.N.N.N.C.B.A.^.^.'.!.w.r.eXxXsXrXqX9X9X5X6XuXcXBXBXBXMXmXgXzXZXgXgXJXGXGXGXGXGXGXGXGXGXGXGXGXGXGX",
"mXmXgXgXgXgXmXgXgXgXgXZXZXgXZXGXGXGXGXGXGXGXGXGXGXGXGXGXJXZXcXgXkXkXkXkXkXjXNXmXAXiXQ.6.V Q.rXdXbXJXJXJXGXGXJXLXbXbXSXNXgXcXZXNXzXzXBXBXBXNXgXzXgXDXSXsXrXrXtXdXbXKXGXGXGXKXSXSXcXcXNXgXgXjXcXZXVXxXyX`.i.E.yXdXGXGXGXGXSXbXbXSXSXKXKXLXGXGXdXrX9XrXvXvXhXhXNXDXgXcXbXvXSXKXSXbXfXpXlXFXAXrX^.i.`.tXbXbXkXjXBXBXNXmXMXMXmXgXNXNXmXCXbXdXpX`.~.m.j.h.h.I.T.-XOXS.c.c.c.c.v.v.v.N.g.g.U.%XoX:X:XoXL.v.b.z.v.N.b.m.^.^.M.M.M.E.qXsXmXMXjXkXkXkXlXsXpXqXE.E.`.rXnXbXpX`.E.E.pXxXdXfXtXrXyXtXA.k.C.g.N.i.yXxXMXMXCXMXzXlXcXKXJXJXSXSXGXGXGXGXKXKXGXGXJXLXBXBXBXBXNXlXdXrX^.z.v.z.M.'.wX`.E.^.1XM.n.v.C.h.h.N.v.N.N.g.XX>X-XT.:X Xj.h.h.h.N.N.v.v.b.Z.Z.M.M.5.x 2.5XqX`.E.6.2.V B A 6XkXcXNXNXmXzXlXlXcXhXgXJXGXGXGXGXGXGXGXGXGXGXGXGXGXGX",
"mXmXgXgXzXjXgXmXZXgXgXZXZXgXZXGXGXGXGXGXGXGXGXGXGXGXGXGXJXAXzXgXgXjXjXkXjXNXNXzXvX9X2.N M 5.`.rXbXJXJXJXGXJXvXdXdXdXbXZXmXZXZXgXsXsXzXmXmXmXgXzXhXAXnXrX`.].`.rXbXGXGXGXGXKXbXbXnXcXcXgXgXVXVXVXvXiX`.~.i.i.`.fXJXGXGXGXKXSXSXSXGXJXGXJXGXSXrX`.E.9XiXxXxXlXmXZXgXlXsXaXlXSXKXbXrX9X0XsXdX9Xi.g.~.rXnXvXkXgXBXBXmXmXMXMXmXzXkXjXhXzXdXpXtX`.M.l.j.j.h.Y.T.-X:X[.z.s.f.f.f.f.f.g.g.g.|.%X|.%X;XoX|.v.v.z.g.v.v.b.z.b.z.Z.A.~.yXsXmXmXkXkXdXdXsXsXrX].z.v.M.^.rXpX'.~.i.i.pXxXdXtX^.~.~.'.B.h.C.g.k.i.`.iXlXmXAXlXsXsXcXJXJXJXSXSXGXGXKXSXSXSXSXKXJXLXBXBXNXNXkXaXdXyXM.g.j.j.c./._.M.M.M.^.l.h.h.n.f.h.h.g.k.C.g.OX-X+XXX:X Xg.h.h.h.N.v.c.z.c.n.n.x.l.;.P 1.r.r.x P P ! 2.V w.eXdXdXkXcXzXlXlXlXZXgXgXJXGXGXGXGXGXGXGXGXGXGXGXGXGXGX",
"cXNXgXgXgXzXjXgXZXgXgXZXZXgXZXGXGXGXGXGXGXGXGXGXGXGXGXJXFXAXlXlXmXNXjXjXNXNXNXzXAX5XB ! ^ 4.~.wXbXGXJXJXGXbXfXtXtXfXdXzXmXDXZXlXpXpXlXzXmXgXcXzXhXvXpXyXE.4.~.`.dXKXGXGXGXKXbXbXnXcXZXgXgXlXlXlXvXrXE.z.k.u.`.pXJXJXGXGXKXKXKXGXGXGXGXKXKXnXyXE.i.E.9XrXsXvXZXZXnXsXrXeXeXhXJXbXyXE.Q.rXtX].y.N.i.yXdXvXlXgXBXMXzXzXMXMXzXlXkXkXzXxXpXwXwX].M.x.j.j.h.Y.T.T.>X=Xf.s.s.s.s.f.g.g.C.k.oX;X[.+XOX+XoXN.v.g.g.v.c.v.z.c.g.f.z.~.rXdXzXmXkXdXdXdXlXsXyX~.h.k.t.y.1XwXi.z.N.M.tXsXtX`.i.y.i.A.k.t.g.v.g.z.].rXdXsXsXfXpXsXcXJXJXJXJXSXGXGXKXSXSXbXSXKXGXLXNXmXNXZXkXaXpX9XM.f.j.p.s.n.b.z.Z.M.M.l.h.j.v.s.s.f.j.h.C.g.>X+X+X%X%X[.N.V.g.h.k.h.f.s.x.c.s.F.l.E J ^ <.x H ^ P P ! V Q.tXsXsXkXlXzXlXhXhXcXgXgXJXGXGXGXGXGXGXGXGXGXGXGXGXGXGX",
"gXgXgXgXgXgXgXgXZXZXZXZXhXgXZXGXGXGXGXKXKXGXGXGXGXJXGXJXAXSXvXvXhXLXVXhXNXBXmXVXvXQ.<.z ;.l.>.].pXGXGXJXJXbX`.E.^.wXfXbXhXJXlXsXyX9XeXvXgXhXhXlXvXdXpX!.i.l.M.i.yXvXGXJXGXGXSXSXgXDXmXhXsXsXiXsXpX`.M.t.p.t.i.tXvXFXJXGXKXLXLXJXGXGXGXSXbXdX].i.Z.l.i.`.rXpXAXZXsXrX`.E.9XbXJXhX9XE.i.^.1XM.s.z.M.'.dXnXlXNXmXZXvXxXzXAXxXsXdXnXsXiX`.i.M.M.z.c.s.j.-.Y.OXT.2X2XB.d.c.c.p.f.h.C.g.g.U.:X+X>X+X;XOXk.g.L.).v.d.c.c.d.j.j.y.^.tXsXzXmXaXbXSXlXvXsX9Xi.p.j.j.g.M.^.y.z.g.y.yXpX9X4.m.a.s.v.p.j.C.N.k.g.~.`.fXpXrXyXqXrXKXJXLXLXGXZXGXJXKXKXSXSXSXSXJXJXNXmXZXhXhXbXpXyX^.f.p.j.j.s.d.d.z.z.n.n.j.p.y.J.v.f.h.h.p.V.>X>X;XXX+X(.y.g.N.g.p.g.h.f.s.x.x.d.#.I J ^ ^ P T F ~ ! N 6.qXdXsXnXnXlXzXhXhXFXgXZXZXJXGXGXGXGXGXGXGXGXGXGXGXGXGXGX",
"gXgXgXgXgXgXgXgXgXZXZXZXgXgXZXJXGXGXGXKXKXKXGXGXLXLXGXJXJXvXiXiXzXFXFXZXDXmXmXFXxXQ.! z +.x.>.M.tXSXFXJXDXdXE.y.i.^.yXpXvXlXsXpX].!.9XsXlXlXaXlXlXsXtX~.i.d.s.i.`.pXJXLXLXGXSXSXDXDXCXzXiX9X9XrXrX].z.p.p.t.i.wXnXAXFXJXAXJXGXGXLXLXJXSXbXpXi.y.p.j.M.E.`.rXvXvXpX9XE.i.9XdXJXvXyXE.y.b./.l.d.z.M.`.pXsXhXZXmXzXiXpXxXvXpXeXyXrXpXqXi.y.f.f.j.a.d.d.y.}.OXT.+X<Xz.a.s.a.t.f.j.t.t.u.P.:XOX;X+XOXT.I.D.@X$XL.f.a.c.s.h.h.z.'.tXxXPXZXzXcXzXhXAXxX9Xi.p.j.p.j.B.=Xz.g.p.y.'.rX].i.c.j.s.g.h.P.|.}.Y.C.i.~.tXwX^.E.E.!.aXDXGXGXGXLXJXJXGXGXGXGXGXJXGXLXmXgXZXZXgXlXsXqX~.s.j.j.j.j.f.h.h.z.z.z.s.d.Z..XJ.z.d.h.p.V.:XXXOX%X*XN.A.(..XL.V.v.f.s.c.s.x.#.F F U I K T I I T G <.!.rXpXpXsXxXxXAXJXCXVXgXgXZXJXGXGXGXGXGXGXGXGXGXGXGXGXGXGX",
"gXgXgXgXgXgXgXgXhXgXgXgXgXcXZXJXJXJXGXKXKXKXGXGXLXJXGXJXSXeXQ.Q.6X0XuXlXSXzXhXzXxXQ.! z ] s.8.i.rXdXvXJXvXfXi.t.y.i.E.9XnXsXpX`.i.i.`.pXnXvXlXlXlXsXrXi.d.j.8.8.M.yXvXFXJXGXSXGXLXMXCXvXrXE.i.^.'.M.z.p.p.p.i.'.pXdXnXnXbXSXGXLXDXLXJXSXnXpXi.f.-.p.s.4.i.`.pXdXyXE.,.i.`.fXvXdXwXi.y.j.f.-.d.l.i.].pXvXzXZXhXeX9XqXpXsXrX`.].`.rX].y.p.j.j.p.p.f.d.z.S.%XoXoX2XJ.s.d.=.a.H.V.N.t.t.k.:XOX+XOX+XT.I.[.2X&X.XB.=.d.d.j.d.z.^.qXeXhXDXZXlXhXzXCXsX9XE.d.p.p.k.}.<X[.u.p.a.^.'.i.l.s.f.d.t.V.oX%X%X%X(.z.y.^.~.y.y.i.!.pXAXJXGXGXJXJXJXGXGXGXJXJXJXGXLXZXVXgXCXmXPXdXqXi.d.j.j.d.s.d.d.d.d.y.y.a.d.#X*X.Xb.y.f.t.H.$X$X%X:X[.N..X2X2X*X.XB.p.j.c.d.&.I F U R K D K D F I G 1.~.].E.Q.Q.Q.9X0XuXVXFXgXgXZXJXGXGXGXGXGXGXGXGXGXGXGXGXGXGX",
"gXgXgXgXgXgXgXgXhXgXgXgXZXZXZXJXJXJXJXSXSXSXGXJXJXJXGXFXvX9XV V V w.e.9XsXvXvXaXxXQ.! z Y 8.d.>.qXfXdXdXdXtXm.t.d.y.,.E.rXpXwX5.i.i.!.tXnXvXlXhXlXsXwXi.d.j.7.7.i.1XnXFXJXJXvXSXDXMXhXiXqXi.>.l.M.y.d.p.p.d.l.'.tXrXqXqXrXiXSXGXGXGXKXSXvXpXi.a.p.7.7.l.4.E.qXtX~.i.y.4.`.tXfXtX'.y.p.p.a.*.s.y.,.].pXSXvXvXiX6XE.E.qXrXwX~.i.~.'.~.d.j.p.t.p.p.g.y.i.y.|.%X*X<X).f.a.t.V. XoX XN.t.u.OX;XXXOX+X-XU.+X:X$X@XL.=.d.s.a.p.=.4.E.9XxXCXhXhXlXvXxXpX`.E.l.p.j.P.oX2X&XN.t.a.x.c.>.l.d.x.y.-.J.%XoXOX$X$XN.y.i.,.y.c.i.~.pXnXvXbXSXKXKXJXJXJXJXFXFXJXJXvXvXbXlXhXCXzXsXqXE.y.d.d.d.x.=.t.g.g.z.d.d.g.&X&X*XA.=.s.-.b.@X2X&X*Xk.[.*X2X&X*X XN.-.j.n.8.{ &.} U J J J D F F I T P ! P x N B V V Z e.0XAXgXgXZXZXJXGXGXGXGXGXGXGXGXGXGXGXGXGX",
"ZXZXZXZXZXZXZXZXgXgXZXZXZXZXZXDXFXFXJXSXSXSXJXJXJXGXJXAXvX9XV B c N N w.Q.rXvXxX0Xr.P D I 8.d.+.`.tXtXtXyXtX_.>.y.l.l.4.~.1X].,.a.y.E.rXsXlXhXhXlXdXyX4.y.p.7.7.y.'.dXFXFXxXeXrXaXvXsXyX~.y.a.p.-.y.d.t.p.d.l.^._.~.4.E.E.!.rXvXSXKXSXAXlXdX~.-.j.7.7.s.l.4.~.1X>.8.l.4.~.wXwX'./.=.d.d.d.7.j.=.i.].iXvXlXxXiX!.5.i.~.'.].M.i.i.M.4.p.p.p.p.h.k.g.y.y.@.V.oX*X@X).y.t.a..X$X$XoXoXg.t.U.:X|.oX+X-X{.%X%X|.$X(.=.l.l.a.j.a.,.i.yXsXlXsXsXpXiXrXrX`.i.l.a.h. X%X$X&X}.d.a.p.-.d.7.d.d.=.-.L.&XT.+XoX$Xg.a.M.l.a.d.-.m.wXrXyXrXsXnXbXbXAXJXFXDXFXJXnXrXrXdXsXsXvXAXxXpX'.i.8.8.8.l.a.j.N.L.}.L.L.L.%X%X:XL.t.d.*.x.).*X$XS.u.:X%X%X|.$X.XN.-.d.c.*.0.x.:.K l U ] E K I I I F l l J L J ! B B w.0XSXcXZXZXZXZXJXGXGXJXJXJXJXJXJXJXJXJXJX",
"ZXZXZXZXZXZXZXJXZXZXZXJXJXJXZXZXDXDXAXZXcXbXZXLXBXLXCXzXnXqXV N z ~ z x <.Q.rXeXw.N z D I 9.8.X.~.wX1X].i.].'.4.>.l.x.8.&.m.l.d.p.a.5.qXsXAXLXJXZXnXrXi.>.7.7.9.>.].pXxXxXeX!.E.9XtXdXwXM.=.7.-.p.C.B.y.>.>.>.l.%.>.>.M.i.5.9XpXnXSXSXAXVXxXqX,.a.7.7.8.8.y.M.m.-.7.s.0.i.M.i.y.l.-.d.d.d.8.j.=.,.`.iXvXzXvXpX`.i.y.4.l.l.>.y.a.=.=.7.p.h.L. XY.Y.S.N.@.t.Y.*X*X@Xy.t.t.@X@X X$X2XP.u.k.%XoXoXOX+X{.,X%XoX$XL.-.y.>.p.j.j.=.~.wXpXpXdXtXqX`.].`.~.4.a.a.N.$X*X[.%X*Xz.y.=.$.j.7.>.8.t.t.L.2XXXOXoX$Xp.t.M.M.a.7.a.m.'.].E.`.tXdXpXrXaXAXCXVXAXvXrX!.!.rXfXfXaXaXvXdXwXM.8.8.>.d.d.p.C.oX2X&XoXOX{.{.:X}.t.d.7.8.K.c.J.u.g.;XOXOX+X&X.Xv.p.s.d.$.l.8.o.Y ] >.>.:.D K K F I T I I T T P g V 9XxXSXAXLXZXZXZXZXZXJXZXZXZXZXZXZXZXZXZXZX",
"GXGXGXGXGXGXGXGXGXGXJXGXGXGXZXVXCXCXzXcXkXkXjXNXMXBXmXhXnXqX2.k D Y F D k <.Q.r.V v P D K &.8.:.i.^.i.i.;.4.wX~.4.>.8.7.7.7.7.7.7.7.5.qXnXJXJXGXFXvXtXE.,.*.7.9.,.].iXxXsXyXi.i.E.`.wXwXM.$.-.7.H. X).l.>.>.>.7.*.7.7.d.>.,.'.tXdXsXvXGXDXlXrX5.*.7.8.7.-.p.y.y.7.7.7.7.>.>.+.-.>.=.8.*.8.7.a.*.,.`.pXAXAXnXtX`.y.d.>.>.*.7.7.7.7.7.7.p.J.<X2XoX;XoX}.g.-.h.L..X@Xg.t.t.@X$X$X%X:X|.k.t.|.%XoX%X+X,X>X%X%X$XV.@.=.*.-.p.p.p.z.`.qXyXtXyX!.i.,.y.s.=.a.=.g.oX&X|.T.:XA.i.=.-.j.8.*.8.p.-.V.2X*X%XoX%Xp.-.4.4.d.d.7.j.l.>.,.i.rXpX`.!.eXxXlXlXvXpX`.E.i.'.tXtX9X6XsXpX'.i.l.8.>.a.a.t.g.Y.:X:X+X+X{.-X>XoXt.7.8.8.s.*.s.@.D.OXOX+XOX:XL.p.p.d.=.*.*.%.#.&.d.M.l.,.k P ! G ~ ~ H G T J z <.Q.iXAXGXGXGXLXZXZXZXZXZXZXZXZXZXZXZXZXZXZXZX",
"GXGXGXGXGXGXGXGXGXGXGXGXGXGXZXmXmXmXzXzXkXkXkXjXmXDXDXzXvXrXw.x F Y F K z M 6.V N <.~ D z ] l.>.O.y.+.d.>.;.wX].;.>.8.*.7.$.p.$.7.7.) '.pXsXxXzXJXvXtXE.,.*.8.>.:.~.rXsXdXtXi.i.i.i.]._.8.O.p.h.Y.:X@Xz.>.>.8.7.#.7.$.7.=.,.^.wX`.9XeXxXCXPXpX].:.7.7.-.-.=.y.=.p.7.7.$.*.8.7.=.=.=.>.O.-.-.7.$.i.wXpXsXsXpXtX`.@.a.d.8.7.a.7.$.7.7.$.-.A.*X$X|.XX+X%X X-.-.p.d.K.t.t.-.$X$X$X X XoXP.@.U.%XoX%X-X>X%XOX%X+XD.t.y.y.-.-.p.7.*.,.5.E.'.~.i.y.=.a.-.-.p.-.j..X&X+XT.:X^.y.=.7.7.8.*.8.p.+.g.&X*XXX|.$Xp.t.4.l.l.8.$.7.*.=.y.,.`.`.i.6.`.pXpXiXpXrXE.4.y.^.wX1XE.w.yXqX~.,.l.8.*.d.s.-.t.P.%X%XoXXX-X,X>XoX=.7.d.8.=.a.t.t.S.>X-X+XoX%XV.-.a.d.=.a.8.s.d.>.8.l.,.L z / P G H H G H G l N Q.pXvXAXJXJXJXAXZXVXmXmXZXmXgXgXgXgXgXgXgXgXgX",
"GXGXGXGXGXGXGXGXGXGXGXJXGXGXGXZXmXNXNXkXkXkXjXjXDXVXmXzXvXsX9XV J F D D T P l G G P J L J R 4.4.:.8.*.>.+.+._.wX:.:.8.*.-.-.+.-.$.%.X.^.tXwXE.!.iXnXrX`.,.*.*.$.:.~.wXtXtXtX4Xi.4.,.:.8.8.$.t.L.+XOXoXv.X.+.8.9.#.%.9.7.*.*.>.y.>.;.E.yXsXxXsXrX4.=.-.t.t.t.>.>.*.7.$.7.s.*.O.-.t.b.(.K.d.$.$.*.l._.'.!.E.qXtX`.,.>.*.*.-.*.-.*.8.8.*.O.-.D.oX>X;X3X:X$Xp.=.7.$.%.-.7.$.P.$X$X$XoX%X|.t.T.OX+X+XOX$X%XOXOXOX%X;XXX+XV.t.-.8.9.:.:.;.>.>.a.=.=.7.-.-.d.t.-.J.<XoXOXOX<Xd.O.9.#.&.#.] j.@.( 2X:XXX$X*Xt.O.>.%.8.8.9.9.7.=.=.>.>.4.4.,.~.yXtXfXrX].4.0.a.z./.^.i.6.4.4.>.8.8.8.8.>.$.a.-.-.J.$XoX|.+X-XXX X7.9.d.t.t.t.t.-.S.%XXXoX$XH.7.%.8.=.=.y.=.>.%.9.0.>.W L ,.;.:...F G F T G r.wXpXpXsXAXvXvXvXlXzXzXDXmXgXNXNXjXgXgXzXzXzXzXgX",
"GXGXGXGXGXGXGXGXGXGXGXJXGXGXGXZXNXNXNXjXkXkXkXjXhXVXVXhXzXAX0XV x F K F K D D H P K J J h l ;.>.%.9.8.*.&.>.F.1X0.:.>.$.). XY.h.-.%.8.m./.i.5.5.qXdXpX`.,.-.d.$.:.M.'.].!.rXyXi.;.:.9.9.9.$.d.[.+XOXoXV.t.$.%.&.&.%.9.8.8.=.-.$.$.$.;.qXfXpXrXwXM.@.t.p.p.+.X.>.*.o.$.$.*.8.-.-.s.L.@X@XL.s.$.$.-.l.i.5.6.'.tX'.4.,.*.-.-.*.*.*.{ &.7.-.@.@.u.N.[.%X*X@Xa.$.*.8.$.9.#.7.d.@X.X$XoX%X+Xg.OX-X+X+X%X%X+X+X+XOX;X>X+X:X%XV.a.#.| 9.9.7.*.$.$.*.7.=.=.-.=.t.-.s.).<X{.+X$Xf.a.8.#.#.x.c.=.+.t.L.2X$X@X).a.-.8.*.8.7.9.9.9.*.=.=.=.=.%.:.4.!.rXtXqX5.4.8.7.7.b.M.4.5.>.*.*.*.*.*.*.*.*.a.-.-.p.h.L.&X>XOX|.<X9.9.-.@.k.S.B.-.u.*X2X*X}.=.$.9.$.$.y.y.=.d.8.%.&.#.$.d.O.*.8.%.Y F F G ! 6.r.r.w.e.Q.Q.qXpXvXvXhXVXmXDXNXNXNXjXmXmXmXVXmXgX",
"GXGXGXGXGXGXGXGXGXGXGXJXGXGXJXZXNXNXNXjXkXkXkXjXZXZXCXhXhXAXlX9Xx l P ~ H G G D G D D U J D +.>.{ { >.>.@.>.,.M.>.&.%.s.<XoX;XoXj.] >.l.y.,.i.6.`.pXtXwXM.o.7.9.:.:.4.6.E.yXwX`.5.:.9.9.%.o.y..X:X;XL.p.@.$.%.%.&.9.9.9.*.%.*.%.7.8.;.].wX`.E.q.4.O.L.oX XN.8.*.=.$.d.=.o.*.-.-.N. X<X<X*XB.$.O.$.&.;.3.q.wXtXwX4.>.*.*.*.*.*.>.8.%.&.%.%.$.-.a.-.-.a.d.*.8.&.$.$.7.o.7.-.$XoX$XoXoX;XU.>X-XOX+X;X%XOXOX+XOX+XOXOX-X;X}.f.$.$.9.$.*.*.7.7.7.*.*.$.-.-.-.*.$.s.#X&X2X*Xd.-.$.a.K..X@Xh.@.t.t.@X&X<Xb.X.X.o.*.8.%.9.9.*.*.*.*.=.*.#.8.,.i.'.wX].5.9.9.$.$.7.>.>.>.*.%.%.%.%.%.%.*.$.a.$.$.$.O.p.C.OX;X X<X9.#.$.g.|.&X*Xa.@.L. XL.p.@.a.G.x.*.-.=.y.>.>.&.*.$.X.+.t.f.n.8.U F P G ! N N B B V <.v 2.w.Q.rXxXAXgXZXNXNXNXNXMXMXMXMXmXgX",
"GXGXGXGXGXGXGXGXGXGXGXJXGXGXJXmXNXNXNXjXkXkXjXjXhXmXDXDXhXlXxXpX6.z k G G G G D D G D } :.o.%.*.7.$.-.=.@.( ( @.>.+.E n.<X$XXXOX X#.&.>.*.X.,.) !.pXtXtX_.%.{ | 8.} ;.5.E.wXtXwXi.:.{ $.%.o.a.#X$X*XJ.-.$.=.*.#.9.%.#.| #.$.%.*.%.{ :.M.4.5.4.;.0.=.%XoXOXY.h.] =.m.).F.$.X.@.t.L.*X*X$X<XZ.O.$.8.*.:.5.4.].'.~.4.>.*.%.%.*.>.%.%.| | 9.8.9.#.#.#.$.7.$.o.*.$.$.o.$.-.O.@.J.%X%XoX+X;XOX>X+X-XOXOX-X;X;XOX+XXXT.OX+XoX}.s.$.$.%.8.*.=.a.7.$.X.o.o.*.=.$.$.$.*.f.L. X<XK.-.O.H.*X*X*XoXg.@.-.c.#X@Xy.-.=.$.*.8.%.%.%.%.%.*.*.*.*.| 8.>.) i.^.~.:.:.9.&.$.$.*.:.>.%.%.%.%.%.%.%.*.O.=.O.-.g.g.g.@.t.N.H.c.9.{ 7..X&X&X<XK.@.a.s.t.@.N.L..X#Xc.X.=.-.-.d.b.).).b.y.}.$X#Xl.J h z z ! ! N M ! ! G x B 2.V Z W.iXAXhXjXNXNXNXNXMXMXMXmXgX",
"GXGXGXGXGXGXGXGXGXGXGXGXGXGXGXmXmXmXjXkXkXkXkXNXmXmXZXZXhXlXSXsXwX5.P G G G D D I F F | 8.#.&.%.o.x.L.@X=XD.u.( X.*.X.s.$X;X-X+X$Xd.O.X.-.-.>.) E.tXwX~.M.8.&.9.%.>.4.5.~.wXwX^.l.8.$.$.$.$.d.).@X).f.O.$.*.$.*.*.&.{ #.&.%.$.#.&.[ >.>.X.-.>.>.*.t.2XoX;X;XP.-.@.#X<X).c.X.X.t.}.&XoX X&XJ.@.-.*.%.>.:.5.4.5. .:.:.%.$.%.%.%.%.7.9.9.9.9.9.9.9.9.&.%.' $.d.d.a.$.X.-.-.t.g.|.:XOX+XOX-X-XXX-X;X-X,X-X;X;X;X%XOX%X%X%XL.-.X.O.$.$.@.O.X.$.d.F.K.s.7.*.%.#.$.%.$.=.a.(.J.-.-. X%X:X%X2XL.@.O.$.G.B.( @.-.$.*.%.$.%.%.%.%.%.*.*.%.&.#.+.+.) ,.4.| | 9.9.9.$.&.%.9.%.%.%.%.%.%.*.*.$.-.=.v.}.$XoXV.( @.7.$.{ *.K.2X$X X*X).$.*.$.@.k.oX%X X*XL.=.*.$.=.K.@X&X2X*X%XOX:X<XZ.Q J P z G D D D D G G G c V u n e.uXSXgXkXjXjXkXkXkXzXgXgXgX",
"GXGXGXGXGXGXGXGXGXGXGXGXGXGXGXZXmXmXjXkXkXkXjXNXLXDXmXPXhXSXSXeX9X5.x P ! G G l j D F [ %.{ #.$.$.).*X*X*X&X&XD.@.$.o.-.$X+X-X>X.Xn.W O.B..X(.b.4.'.5.Q o.$.{ 8.X.O.;.;.i.].M.M.m.).K.p.O.O.*.x.K.a.O.O.-.O.X.=.] =.n.n.7.| | &.9.:.&.$.-.O.E 7.] @. X$X;XOXY.k.( ).*X@X).a.+.t..X&X+X$X2XJ.@.-.$.#.>.:.:.4.4.4.:.&.$.$.$.$.%.$.8.$.] ' { | [ [ &.| #.$.(.*X$XL.L.-.( C.L.L.|.:XOXOX+XOXOXXX-X-X;X>X,X-XOX%X%X&X$X XL.f.-.@.t.y.L.).A.-.t.L.#X).).s.$.$.$.$.*.$.$.W O.$.X.u.2X+X-X>XOX$Xp.O.#.$.-.( @.-.O.$.o.$.&.&.%.%.%.%.&.&.$.$.c.b.@.( %.%.&.| 9.9.$.$.9.&.%.%.%.%.%.%.*.*.$.$.b. X%X%X%X:XV.@.$.9.] H.$X@X$X$X*X).o.&.$.t.$XOX;X+X X@XG.] $.a.@X&X%X%XoX%X{.%X<X_.i. .T k G D I ' :._ G j c m Z 6XiXvXhXgXkXkXkXkXkXdXkXlXzXgX",
"GXGXGXGXGXGXGXGXGXGXGXGXGXGXGXZXmXmXmXjXkXkXjXNXgXNXNXhXzXvX0XV N z k k l l D I G F F _ %.#.$.$.' K.2X&X%X2X2X=X).a.E W $X;X+X-X%XL.( b. X:X%X.Xi.,.) >.-.#.E $.a.t.O.W :.;.+.m._.<X&XL.j.O.o.$.$.o.7.H.K.f.@.( +.B.*X#Xs.{ { 9.| :.' o.*.o.-.h.L.L.$X%XOX+XOXOX@.v.$X@X@XL.@.u.oX:X*X&X2XC.+.O.o.#.$.o.;.:.:.:.&.$.$.$.$.$.$.$.=.+.O.f.K.K.s.*.O.o.@.g.$XoX%X%X2XL.t..X:X:XXXOX+X;XXXOX;XOX-X+X-X;X;X%X+XY.L.J.H.h.=.-.=.y.v.L.$X:X%XL.L.*X2X@X<XK.-.X.$.$.$.$.$.$.O.X.@.u.;X{.-X:X{.%XL.O.{ $.@.C..X.XH.=.o.7.&.&.&.&.%.&.&.&.$.c..X@Xv.@.$.8.9.| &.%.$.$.9.#.&.&.%.&.%.&.&.&.$.-.(.&X%XXXT.>X|.-.Y #.p. X%XoX*X&X&X).' | -.V.%X+X-X;XoX$XK.Y $.8.$X2X>X:XXXOX:X2X3X'.5.L z j { #.&.8.x.5.H H Q.0XiXvXlXAXgXgXkXkXkXdXdXdXdXkXzXmX",
"GXGXGXGXGXGXGXGXGXGXGXGXGXGXJXZXmXmXgXgXkXkXjXNXNXmXmXZXcXaX5Xu 6.5.5.D h j K  .:.:.F I #.9.%.&.{ c.*X&X{.%X*X2X2X#X8.X.H.;XT.-XOXL.@.$X%XY.XX2X/.) ( -.X.f./.#X XoXb.X.&.;.+._.*X&X&X%XL.t.X.$.] 7.K.@X*X@XV.@.g.}.2X*XH.*.$.9.{ 8.{ $.{ $.Y.Y.oX$XoXoX%X;XOX+Xu.u.&X*X$X X@.g.%X:X%X*X$Xg.( X.] ] $.{ &.8.&.o.#.#.#.$.O.O.@.@.@.( t.}.2X*X#X#X(.y.( g.:X+X>X:X|.2XoX%XoXXXXXOXXX:X+X-X:X>X;XXX{.OX:X;X|.C.t.O.$.#.{ o.$.@.v.&X:X;X%X%X%XoX X.X X Xp.R O.-.X.X.p.L.v.@.@.t.+X;X;X>XOX%X$XO.E a..X<X$X@X<XL.*.{ $.$.$.$.&.&.&.&.#.K.$X%XY.p.o.%.9.#.O.O.o.$.9.| #.#.$.$.$.$.&.$.*.-..X$X+X:X+XOX:XN.{ ' .X%X[.:X{.XX$X.X{ { a.&X|.OX-X+X%X@Xn.$.#.=.$X:X-X-X+X>X%X2X<X^./ k J { %.8.7.%.:.3.r.qXpXsXsXvXxXAXVXJXjXjXkXkXkXkXkXkXgXgX",
"GXGXGXGXGXGXGXGXGXGXJXGXGXGXZXgXmXmXgXgXgXgXjXNXgXDXVXcXvXsX0XV r.4.i.4.Q l F :.:.:.:.&.| | &.%.{ { a.L.%X3X3X X).n.] ] O.OX>X+XXXoX[.:XXXT.T.oX[.( ( v.L.$X*X@XoX2XB.W &.%.*./.<X*XOX%X%XV.-.X.$.c..X$X.X&X%XD.[.:XoX$X).-.o.] ' &.8.] o.j.*XY.|.OX:X;X%X-X>X>XU.@.D.*X*X&XS.u.;X;X%X%X[.g.p.L.L..X).s.&.&.%.&.$.*.$.o.-.H..X.Xg.( ( S.<X*X=X<X&X*XS.u.+X:XXXOX+XoXoXoXOXOXOXOXOX:X+X{.XX+X[.g.+X%X%X:X%XJ.-.] [ | [ | o.-.L.:XOX+X+X+XOX+X+X+X%XL.C.C.J.C.t.( L.*X*X X-.( L.%XOXOX%X+X$Xt.j.@X&X.X X@X*X#Xd.] ] $.%.$.#.#.&.#.X.Z.$X$XoXV.=.$.-.W X.+.( o.%.9.&.#.| | &.&.#.o.o.l.#X.X+X:X{.-X:X}.U H.%X;X%XU.+X+X:XV.E o..X*X+X;X+X{.2X X$.{ $.d.L.;X,X-X-XOX%X$X<Xi.d h I &.*.8.d.*.R l x v <.r.9XiXxXlXhXVXNXNXZXNXNXDXBXmXmXgX",
"GXGXGXGXGXGXGXGXGXGXGXGXGXGXJXZXDXZXZXZXcXcXZXZXGXgXhXlXxXdXiXQ.6.;.4.M.;.D F } :.:.....:.&.} ' #.{ O.t.u.u.t.@.+.$.O.$.X.V.T.T.+XOX[.:X+XT.T.OX|.u.D.&X;X X X&X|.2XJ.O.o.#.+.c.*X2XOX[.%X$Xv.( W J.@X.X%X:X>X>X{.>X;X2XL.+.+.=.d.&.o.o.o.=. X&XoXoX|.[.{.*X2X2X{.u.g.|.$X%X%X$X%X;XOXXXXX.X.X$X@X&X*XK.*.E ' { o.o.] @.B. X*X%X$Xj.( u.@X2X<X<X&X2X&X:Xk.[.%X%XoXoXoXOXOXOXOXOXXX>XOXOX+XOX|.u.U.:X+X|.&X.Xa.{ | 9.9.| { -.(.2XOX-X-X-X-X-XOXOX:X%XoX%X:X&XoXY.S.+X:X%XL.@.g.*X XXX+XXX%XS.L.$X%X$X$X.X@X@Xs.X.o.o.&.$.&.&.&.o.o.Z.*X%XoX.Xv.] W y.^.(.y.X.{ &.&.$.| | &.%.%.%.o.$.<X@XXX;X;X-X;XoX-.).%X-X,X+X+X:X&Xt.E d.&X&X%X;X;X:X|.g.O.o.%.X.N.:X+X{.>XOX%X*X).,.D l F } :.o.E J z k v v f r m w.6XaXAXmXmXmXBXLXMXMXMXBXDXZX",
"GXGXGXGXGXGXGXGXGXGXGXGXGXGXGXDXmXmXmXgXgXgXgXgXJXhXhXvXsXdXdXrX~.;. .4.q.} F F ' } :...} } ..:.{ &.$.X.R ( t.L.@X*X*X$X}.oXOX+XOX-X{.:XOX+XT.OX+XU.:X2XOX+X$X$X%X$Xv.X.] o.o.-.A.$X2X&X*X2X Xd.W A.*X$X%X;X-X>X{.-X-X>XS.t.N.).).a.] &.o.X.z..X%X%X%X&X2X2X3X2X2XU.S.+X$X X%X+X+X+XOXOX%X&X*X X}.<X*Xc.O.#.%.$.$.o.] =.).*X$XoX@XH.@.( g.[.#X*X*X2X&X}.@.@.J..XOXOXOXOXOXOXOX-XXX;X;X;X%X:X+Xu.g.$X&XoX2X).*.#.| | | | | $.J.%X-X-X-X-X-X-X-X-XT.XXOXOXOXoXoXXXU.+X%X$X2Xj.+.$X X X+XXX;XOX%XoX+X%X%XoX*X}.t.X.$.O.o.#.{ { { #.] ,.A.&X&X$XP.O.+.A.<X<X(.@.] &.#.#.{ | &.&.#.{ o.W #X<X[.;X:XOX+X;XJ.$XOX,X,X>X+X:X}.@.O.Z.2X:X X X%X3XS.( O.$.=.R t.oX>X+XOXT.OX%XH.&.:.:.T D J J J z k k N N v c y m 5XxXFXPXDXhXmXBXmXDXGXJXmXgX",
"GXGXGXGXGXGXGXGXGXJXJXJXGXJXJXJXNXNXZXZXcXcXcXzXzXAXvXxXpXtXtXtX'.4.Q ;.q.:.F j F Y :.:.} ' } #.&.o.o.o.X.s..X<X@X.X.X X%X%X%XOXOX-X%X:X-X-X-X-X+X+X;XOXT.OX:X=X2XL.-.E ] o.o.o.+.t.D.[..X$XL.a.R @.L.:X%XOX;X{.>X>X+X+XU.L.*X*X*Xb.] &.{ X.X.y.L.L.}..X.X(.[.[.:X:X%X+X$X%X%X[.;X{.%X:X%XoX$X@X$X*XJ.-.] %.9.{ { o.X.=.(.$XoX%X.X@XH.X.( -.y.l.s.z.s.( W @.L.oXOXOXOXOX-X-X-X-X;XOXOXOX%X2XoXu.@.C. X&X*XN.X.] [ ` [ 9.&.O.v.&X-X-X-X-X-X-X-X-X+XOX;X;XOX+X+X+X-X+XOXoX:XH.R L.$XoX%XOXOX;X:XXX+XOXOX;X:XD.+.@.X.X.o.&.#.{ | :.&.R +.Z.*X<XH.X.b.*X2X<X(.=.' &.{ { [ { &.&.&.&.{ ] c.2X[.:X;XOX+X;XoX:X+X;X-X:X{.&Xv.( @.@X*X{.[.*X*X.Xy.( X.X.X.( ( N.2X2X+XOXY.Y.j.] } :.;.K d k z M M x x v f V Q.pXvXxXhXJXZXhXmXhXPXgXLXhXZXZX",
"ZXZXZXZXgXZXZXZXZXZXZXZXZXZXZXDXGXGXGXGXGXGXGXKXAXAX0Xe.Z B e a P l l D D G j j j G Y { :.:.+.] >.] o.o.] n.<X X%X%XOXOXOX|.|.oX+X+X;X%X%XOXOXOXOX{.XXOXOXOX:X*X@Xd.W ' { { o.o.+.( ( ( W ( +.( @.+.g.$X:X;XOXR.;X-XOX;X+XoX:X}.<Xb.E { | :.W +.X.X.O.o.W W u.D.%X>X;X[.|.:X%X%X:X{.{.+X|. X*X*X*XZ.-.O.o.[ ' [ { #.{ O.b. X%X%XoX2X Xt.X.O.X.W E U X.W X..X*XoXOXOXOXOXOXOXOXOX>X+XXXoX%X*XV.@.R @.C.oX*X[.v.=.#.[ | | E L @.S.OXOXOXOXOXOXOXOX+X+X+XOX-XOXOXOX+X+X;X%X$X X@.V.%XoX%X>XXX+XOXXX>X>XXX|.U.u./ ( ( ( X.o.:.:.&.#.{ -.+.X.y.s.$.W B.<X&X*X(.@.] :.%.$.{ { | &.&.&.o.o.X.@X$X%XOXOX+X%X:X%XXX;X+XOX%X$X=.W X.2X+X{.&X<X.X=.X.O.( ( @.y.-.t.L.oXXXoXoXk.O.O.&.:.} s k d s d k M x x ! r.qXsXxXxXvXSXSXSXSXSXvXvXKXJXGXGX",
"gXgXgXgXgXgXgXgXgXgXZXgXgXgXZXDXGXGXGXGXGXGXKXJXJXAX6Xn u c g x s l G l j j F } &.{ ] ' ] ] W E W R $.%.' x.#X.X+X;X-X>X>X%X X%XT.T.:XXX%XOXOX+X$X&XOX+XOX-X:X*Xz.o.] $.#.[ { #.Y ] -.O.R R ( X.+.( ( v.*X%XXX>X+XT.T.OXOXXXoX$X<Xd.' { | &.] +.X.o.#.{ E ] v.2X:XOXOXXXXXoX|.;X2X>X;X%X%X:X$X(.d.@.X.o.#.[ [ [ &.&.{ X.y.(.&XOXXX;XoXN.@.o.o.' ] ] 8.R f.<XoX|.+X+XOXOXOXOXOXOX%X|.|.oX$X}.t.( t.g.[.%X+X2X2X).*.{ [ { d.L.$X:XoX+X+X+X+X+X+XOXOX+X+XOX;X;X;X-X+XOX%X+X}.&XC.Y.oX|.+X:XT.XXoXOXXX>X+X[.OXoX X@XZ.z.-.] { :.&.' ' >.&.W W R Y $.B.*X+X+X[.-.' ` { { { | #.| [ _ #.o.W z.&XoX%XXXOXXX%XOX|.%XOXXX2XZ.' #.-.<X{.2X2XK.=.] X.o.+.Z.<X<X<X).h.L.:X%X[.@./ O.*.{ E G T L J z k k l z s v v b Z 0XsXvXSXbXlXnXSXSXAXJXGXGX",
"ZXZXZXZXZXZXZXZXgXgXZXgXhXgXZXGXJXJXJXJXKXJXJXAXAXxX0XV r v N v v v x j j l T :.} ] ' { $.s.K.).K.d.X.I I $.(.2X;X>X{.,X{.%XL.Y.T.T.&X[.oXoXoX|. X2X%XT.T.T.[.N.o.' { &.| [ | | :.{ E ] d.K.).#X#X).J.(.$X|.U.OXT.T.U.T.XX|.oX&XJ.o.[ [ [ [ ] +.+.o.| | [ #.n.2X+X{.[.%X%X|.+X+XU.{.{.XX|.D.t.( ( +.+.{ [ | | ` | _ [ ] O.N.$X;X+X-X>X}.t.W ] [ [ &.9.J v.oXXXOX+X+X+X+X+X+X+X+X+X|.XXoX$XJ.t.f. X:X2X;X{.+X&X@Xm.o.' *./.*X$X+X|. X.X|.|.|.oXoX+XXXXXXXXXXXT.T.-XOXOXY.|. X|.%X+X+XXX;XT.XX|.oXXX>X+XU.{.+X&X$X<X#Xm.X.R { #.' &.{ o.l.F.x.%.#.L.:X%XOXJ.X.Y ` { ] { { | | | [ &.{ X.O.L.$X%X[.OX[.OX+X}..X%X+X.XO.I #.=.$X+X&XA.X.U { &.*.m.<X*X@X<X).-.-.J.S.@.u.[.2X<XK.7.&.:.4.4.^ D s s j F k d f r u w.6XxXSXSXcXJXJXDXDXJXGX",
"gXgXgXgXgXgXgXgXgXZXZXZXgXmXLXGXGXGXGXGXGXKXKXJXJXAXsXe.y b k p d s j G G G K  .:.} X.8.K.#X*X*X*X<X<X/.8.U ( A.&X3X{.,XU.;X|.%XT.Y.%X(. XoXoX|.[.oX[.%XOXV.u.W ] [ [ [ [ #.#.[ ' [ &.m.#X*X X*X<X@X*X*X}.Y.oXXXT.-XOXY.+X%X|.}.( D { [ [ [ %.o.&.} [ [ ` [ j. XoX%X[.%XXXU.:XU.[.[.+X:X Xu.( ( X.X.X.{ | | | | | ` &.&.L O.J. X;XU.%X<Xb.$.&.{ | { ' $.+..X$X|.XXXXXXXX+X+X+XXX+XoXXX|. XJ.N.&X}.|.U.U.%X+X=X*Xs.U { G.#X@XU.%X|.|.|.|.|.|.|.|.oX+X+XoXXXXX+X+X+X|.+XY.:XS.U.OXOXOXXXOXT.OX|.|.T.XXU.+XOX+X%X X@X<X#Xd.W ] #.{ _ #.F.<X<X#XK.O.v.$X%X|.g.R >.F.).m.7.{ _ _ [ | #.] $.W s.<X$X[.+XY.+X$X.X}.%X*Xt.E | ` $.<X<XN.R W ' { ] x.<X#X[..X#X).a.W W @.[.2X2X.X.X).7.o.o.+.} T G l l G s j j d a b c u A iXvXvXFXJXJXJXGXGX",
"zXzXzXgXgXgXjXgXgXgXZXhXhXLXNXJXJXJXGXZXKXKXSXKXJXFXFXPXA r ^ X.E Y I G j j j l ^ ;.Q m.<X@XL.Y.L.L..X*X<XK.W R t.z.S.|.%X|.U.OXOXT.oX}.|. XL.|.[.*X$XoXh.W E ' { ' { &.&.{ { $.Y o.F.*X@X[.[.U.{.U.{.[.U.|.|.OXOXI.T.T.oXoX|.L. XL.v.7.{ [ { | _ | [ [ | ' ] 7.J.oX|.P.Y.XX[.XX X%X.XL.$X}.t.( @.O.X.o.$.| [ | ..[ [ &.o.W O.z.@X*X<X<X/.>.] ' ' ' &.] ] O._.<X<X X}.oX&X%X%XoXoXY.}.|.|.XX+XT.|.Y.XXXX{.$X@X(.E ' | 8.). X XXXY.Y.Y.|.|.|.oXoX|.|.|.}.}.|.|.|.U.|.U.+X|.U.XXT.T.U.T.T.U.U.oXL.U.|.|.XXOXXX{.;X+X|.@XB.W ] &.E X.h.$XoX+X{.XXN.g..X*XL.-.( A.<X$X$X#Xn.' Y | | [ ' &.+.( z.#X)..X$XL. X}..X<XB.W -.[ &.' { { ' ] +.o.R y..X X.X}..X@XJ.X.R a.(.*X*X{.}..X).s.X.$.+.} T l h h h G F  .;.P k k g 4 y pXxXAXFXJXGXGXGX",
"zXzXzXzXgXzXjXjXgXjXZXhXgXDXNXGXLXGXGXcXLXKXKXKXKXJXFXFXiXQ.,.-.>.:.:.;.} U l h k g g i.#X=XU.Y.L..X XL.#X#Xz.O.L J -.L.L.U.T.U.XXY.|.Y.}..X}.|.+XXX%X[.f.] _ &.| | o.#.{ { o.$.o.8.L.*X.XU.{.+X,X+X{.U.%X%XP.P.U.XXOXU.+XoXY. X XOX&X&X.Xn.#.I | | &.%.#.E $.m..X}.}.|.|.XXOXOXU.L.}.}.$XL.g.V.$X XH.=.o.' Y [ &.' ' &.*.X.W ( X.b./.#X<Xm.W ] &.{ #.{ :.Y { 8.n.v.f.p.t.@.@.t.}.}.}.Y.Y.OXOXT.XX+X|.U.|.&X).d.{ [ ` %.K.@X X|.XXXXXX|.|.Y.|.Y.|.|.|.|.|.}.|.|.[.+XU.|.+XXXU.T.U.T.T.XXoX%XoX%X.X X|.|.+XXXU.[.[.oX*XZ.X.] &.o.$.N.+X{.{.-X+XD.t.#X#Xc.W -.[.XX{.XX$XL.8.{ ' [ &.:.] R W O.c.#XL.P.}..XL.*XL.( W X.E :.[ _ ` | &.-.O.X.N.$X.X[.%X*X}.y.X.y.(.*X|.oXXX[..X(.s.( X.] J j k h s k  .} 0.0.} G j s v f t eXAXJXCXGXGXGX",
"VXzXzXzXzXzXgXgXgXZXZXhXNXZXNXGXGXLXSXKXGXGXKXAX0X8X0XAXvXrX5.) :.;.;.:.4.5.~ k k d e L ^.3X2XL.}.}..X.X*X).-.L X.b..X X|.oXXXT.+XXXoX|.}..X|.|.XXU.%X|.J.d.' [ | &.&.{ ' { #.#.| %.n.).@X.X|.[.|.@X X$X*XN.@.k.Y.XX|.D.D.|.|.|.Y.U.L.oX2X*XK.=.E ] o.X.O.z.).@X@XL..XoX[.+XOXL.t.v..X@X@XL.v.L.oX$X X).n.o.E %.] ' W X.X.+.( ( ( R R +.>.>.-.+.&.&.o.{ %.' I ] ] W R ( @.g.S.L. X.X}.}.|.XXXXT.P.|.|.U. X@Xc.] _ [ ` Y *.H..X%XXXXXXXXX|.|.Y.Y.|.|.|.|.|.|.|.|.|.oX|.|.U.+XU.XXT.XXU.T.oXoXk.J. X@X X X%X%X X[.@X*X(.a.W ' { #.-.J.oXU.{.%X%XS.@.F.F.$.R s.*X|.[.[. X@XK.#.Y &.F._.K.-.X.( =.L.$X}.L.}.<X(.@.W X.O.E { { :.&.' E ] ( +.L.*X}.|.L.|.V.@.t.(.#X).U.P.}.&X}.t.@.t.K.K.+.D D z l 1.4.:.:.;.F j h k f c t t uXAXGXGXGXGX",
"VXzXzXzXzXgXgXgXjXZXgXhXZXNXNXGXvXvXSXAXzXJXFXuXC - A eXxXtX~.^ 4.4.;.;.5. .P j d z g a L M.#X@X X}..X XJ.-.W X.d.#X*XL.Y.T.U.U.[.U.|.|.}.}. X|.[.U.{.XX@X).*.Y ` ..&.[ ' [ | | [ ` { 8.K.).*X<X<X#X).K.z.W ( L. XU.U.S.@.D.$X}.+XXX[.[.(..X#X#XW @.X.( z.#X*X.XL. X}.k.u.S.U.N.@.p.).*X#XJ.N..XL.L.).*X#Xz.X.o.L *.K.).#X#X@X.Xb.@.W W R X.&.] E o.o.] o.#.{ { L -.J.@X%X&X$X|.oXY.L..XoXY.U.|.U. X$X.X(.z.o.' { &.| [ ' E ( @.U.Y.Y.[.|.XXXXXX|.|.|.|.[.[.{.|.[..X$XU.g.|.+XXXT.XXoXU.Y.Y.t.( ( O.t.f.J..X@X#X)._.z.o.o.#.| #.*.J.$XU.{.+XoXL.-.o.#.{ E d.#XoX+X{.[.@X).$.E 8._.#X<XK.@.R ( @.J..X.X}.).R @.L.).l.X.+.o.] { *.d.c.s.v.@X$XU.|.oX.Xg.( t.(.#X).$XoX}.C.g.h.L..X X*X).M.:.T J ^ 4.:.:.} D s s h v b y V sXJXVXJXGXGX",
"gXgXgXgXgXgXgXgXmXZXgXhXZXZXgXvX0X0XiXvXFXCXuXe.q B u w.iXpXrX~.3. .^ T F G j j p s k z g a M @.u.C.L.C.@.R ( +.<X(.L..XY.Y.+XU.OXU.[.oX.X}. X[.[.XXU.U. X XJ.$.I [ | [ [ [ | [ | | [ ' ' W X.-.@.O.] E L W c.#X[.[.*X=X( t.(.#XL.[.$X$X#X.X#X<X( -.( @.#X<X}.(.}.$XV.( @.D.|.[.B.@.a.K.m.$.=.#X X X(.(.#X).y.L y.K.#X.X(.(..X.X.X.XB.t.-.X.W O.o.] { o.[ { { E K..X*X@X[.[.|.[.U.L.L.}.|.|.[.U.}.@X).B.d.O.] &.| | [ &.9.$.@.g.U.U.Y.Y.[.|.XXXX[.{.{.{.{.{.{.[.[.@XL.u.u.|.|.XXS.|.:XL.L.$XL.+.R E ] ] W ] o.o.{ o.Y I { | _ _ o.v.@X[.{.[..X(.8.' ' #.] $.A.@XOX{.U..X.X-.W l._.K.).*XA.@.R ( @.d.B.f.( ( ).*X<X).b.O.W o.z./.#X*X}.}.$X}.L. X|.C.@.R -.m._.#XL.H.j.t.k.L.oX XP.L.*X).l.R J j U I F G j s j ! v w.r.sXvXAXPXGXGXGX",
"gXgXgXgXgXgXgXgXZXZXhXgXgXZXcXuX5 2 m 6XsXxX0XV u N a r r.pXpXr.8 s h j j j G H G d k M M a w M N.P.|..XL.v.t.( <X.XL.P.L.U.U.U.|.N.N.[..X[.|.[.D.XXU.U.U.Y..Xn._ ` [ [ [ | | [ ` ` ` | &.{ W X.] ] ] o.W X.c.L.S.=X*X=Xz.+.>.Z..X[.(.).).K.l.-.R *.( X./.*X.X#X).V.@.( N. X X@X(.X.W $.X.R X.c.}.@X@X.X#XJ.y.X.y.A..X#X.X.X[.L.}.@X.Xv.@.@.s.K.K.*.E &.{ { [ %.).).L.L.U.|.[.U.U.}..XL.P.[.U.k.t.d.=.X.X.o.o.| &.[ ` [ { E o.n..X|.|.|.[.U.U.U.U.U.U.U.U.U.U.U.(.#Xy.R D.oXP.|.L.P.|.|.L.}. XL.O.] ] { ' Y ' [ _ [ [ [ &.| [ &.] =.(.@X.X(..XK.$.' &.%.' o.n.#X[.U.L. X.Xa.W -.#X@X(..X*XA.@.( O.X.X.W R #X.X}.V.@X.X@.@.L.*X).)..XL.Y.Y.L.U.oXV.u.( ( X.W W O.X.R @.P. XL.P.L.P.P..X).>.U J s i s h j l k l <.rXpXsXsXxXJXJXGXGXGX",
"gXgXgXgXgXjXmXmXZXVXhXgXhXAXcX0X5 c r y w.eX0Xy w e g a V 9X9Xe e s h j j D T  .T D k d z J ;._.*XY.P..X.XL.B.@.V..XL.P.Y.Y.U.oXC.( ( A.}.L..X[.u.D.U.[.U.L.Y.L.8...[ [ { | [ [ | [ ` ` | { ] o.W O.$.d.d.-.Z.<XS.[.[.(.A.+.E ] X.X.X.] ] ' E E { >.&.E $.x.n.x.d.( L t.}.@X(.J.(.$.o.{ E o.$.o.d.N.L.L.b.@.@.z.#X@X.X(.[..X.X[.L.A.@X.Xg.B.#X).<XH.E { $.| [ F.)..X}.[.L.L.U. XL.J.}.}.D.U.U.g.R R R E W o.#._ ` [ | &.| Y ] l.).}.}.}.}.U.U.U.U.U.U.U.U.U.U.U..XA.( / (.}.L.L.|.V.u. XL.L.L.*Xn.$.] $.| [ | | | | | [ | [ [ #.o.] n..X.X(..XZ.] ' %.| ' o.d./.[.U.L..X).d.W X.Z.@X@XA.(..Xv.X.O.O.( W z.*XV.@X}.L.}.C.L.}.}.L.L.Y.L.Y.P.P.|.Y.t.+.( +.+.X.X.X.U -.H.L.P.Y.}.Y.Y.L..XK.+.J l s j I  .5.5.~ d a c w.eXvXvXJXAXGXGXGX",
"gXgXgXgXjXgXmXmXZXgXhXhXhXAXvX5Xr v f e 9 V w.c g k M a c r.r.N d d s s j F } 5. .j i z ;.;.,.#XL.P.P.}.L.L.$X).g.p.N.L.L.P.U.P.@Xt.@.(.@XL.}.L.u.u.L.Y.U.Y.P..Xm.8.' ' { { { | ` | | [ | ' E -.a.).).).#XZ.B.}.=X[.@X#XZ.X.{ I &.[ Y _ [ | { [ &.' { | _ _ [ I ] R t.(.}.L.).)./.$.{ { ' #.#.' R ( ( R L ( s.*X).(.L.L.L.}.}.}.L.)..X(.(..X).L.).).o.E $.[ H F.#X(.J.L.|.[.[.}.S.t.C. XL.L.XXL.y.X.] %.o.] [ ' | | ` _ | [ } 8.).(.(.).).}.}.}.L.L.U.U.U.U.U.U.*X=.( @.(.L.$XV.}.}.( L.L.@XA.(.).*.E #.&.[ [ ` [ ` ` | &.#.' E &.L a.).).(.).m.o.' | [ ' ] ] a.(.U.L.L.K.d.] W a.Z.*X.XB.)..Xd.O.] W X.(.(..XL.}.L.|.S.[.L.L.L.L.L.P.Y.P.L.|.V.C.N.A.J.m.x.>.W O.h.).).L.L.L.L.}.}.J.@.k 8 h T ;.5.5.5.3.! k c w q * 0XAXAXJXGXGXGX",
"cXcXcXcXZXZXCXVXgXLXzXhXhXAXlX5X3 v h d v c b v g k g g c f e x x G l i j Y ....:.j j  .;.R >./..XU.|.P.L.}.L.(.}.R @.J.V.P.|.L.L.#X( J..XS.L..Xu.( C.}.J.}.}.)./.>.#.o.+.W U o.[ [ [ [ { E +.K.}..XL.L..XV.N.[.[.[.L.#Xn.] &.[ :.| _ [ | [ _ [ | [ | [ | _ ` [ o.( s.#XL.).(.).m.' ' { ' | #.{ X.+.@.( W a.(.L.).L.L.g.f.J.L.L.(.#X(.v.L.L.L.J.L..X*.' { [ Y { /..X.X}.L.U.U.L.t.L N.).}.}.U.L.m.o.E Y { &.[ | { _ _ | ..[ [ | >.n./.(.(.L.B.f.@.t.L.oXU.L.[.(.).>.W d.)..XL.L.}.L.R h.(.).(.K._./.E ' { ' [ ....[ _ _ { &.X.R ] X.W y.(.)./.>.E { ' _ | &.{ o.Z.L.L.(.K.d.{ ] W -.c.(..X).).).x.*.X.R B.(.L. XL.U.U.U.U.U.U.U.L.L.L.L.L.U.L.L.}.@X.X).#X#Xm.R 7.K.).J.(.(.L.@X(.N.=.W z d P 5.5.4.^ 3.z 6 v f V m t - AXJXJXGXGXGX",
"gXgXgXgXmXmXmXmXmXVXhXlXlXvXlX6X0 c s s l k g a g k g g c f g ! 1. .T D D Y [ _ _ I U ] ;.l.K.Z.L.Y.L.L.L.L.L.L.(.B.}.}.V.L.L.L.).n.( (.(.L.L..Xz.W d.L.L.L.J.L._.*.E W X.X.W X.' ] E E &.l.K.*X}.U.P.L.}.v.g.}.[.L.A.).n.{ [ ` _ _ :.&.I _ { ' #.| #.' [ Y [ [ { o.K.).(.(.).(.l.' ' [ _ [ | &.d.n.K.z.-.a.J.).L.).L.t.X.O.-.d.a.d.@.X.A.).(.L.L.#X-.W { { ` { o.d.B.C.V.U.}.J.J.-.a.L.).L.(.(.K.8.] E [ ' Y { { { ' ' ' [ [ ' Y ] o.o.o.O.X.L @.c.L.L.L.L.L.(.(.&.R d.).).L.(.@XN.R t..XL.K.).(._.>.E { [ [ _ [ | | { ] X.,.>.>.X.L W >.>.>.&.] &.{ ' | { ' E z.K.)._.K.9.{ $.R X.X.X.a.G./.).#X_.n.-.A.L.L..XU.U.U.U.U.U.U.U.U.L.L.L.L.L.L.L.J.L.L.J.(.).z.W z.(.).(.).(.A.(.t.@.( +.Q J l l ^ k p k p g a B u t n A AXJXGXGXGXGX",
"cXcXZXZXZXZXDXVXCXhXhXhXhXvXvX0X0 f s j l k g a a g g g x g x ^ ;.;. .Y I [ [ [ { Y } 0.m./.).L.L.P.V.}.}.C.L.L.L.J.L.L.(.).L.(.#X>.-.).(.).(.).d.R O.n.(..X(..XK.o.X.d.b.b.y.-.] o.] o.l._.).(.U.U.S.U.L.t.@.B.(.L.L.).c.#.{ | ' &./.K.*.] E $.n.m.m.>.{ ' { { ' $.)./././._.m.&.' [ [ _ ' { 8.).).).).B.B.J.L.J.L.L.a.] ] E ] X.X.W X.L..XL.L.L..X=.E ] #.[ [ E ( ( ( t.C.}.}.).s.W b.).L.(.(._.K.%.{ { ' { 8.n.n.d.o.E ' [ ' ] ] ' E ] o.X.E a.L.).J.L.L.L.).m.o.E l.).).J.(.).g.( ( B.).(.(./.).m.U o.8.8.&.Y ' o.X.X.y.Z.(.K.s.X.R ] X.E o.Y { { ' { { [ ] +.l./._.F.&.' o.E W W W X.o.8././.).).Z..XL.A.L.L.L.U.U.L.L.U.L.L.L.P.P.P.P.P.P.}.).L.J.A.B.y.( y.b.(.)._.Z.y.X.( ( +.,.;.P d 8 G i p d g v r y V A 6XlXJXJXJXLXJXJX",
"KXKXKXGXGXGXGXJXJXJXJXSXAXAXxX0Xn 9 p k h d g f e a a d g k D  .Q } ' Y _ [ | [ &.Y #.F.).K.P.L.L.L.J.L.L.V.L.L.J.L.L.L.(.J.K.).m.E X./.(.).K./.X.E { &.n.).(.(.>.W d.).#X.XA.z.X.W X.>.K.).(.A.L.U.U.L.A.@.W -.K.(.#XK.=.W E o.E d.#X#X).y.R c.(.).).n.+.E ] ' U &._._./.(.m.>.] ' | [ [ ' } x.#X/.K.(.).).L.J.A.K.L.d.o.o.' ' ' ] X.-.).(.J.L.L..X=.E ' &.[ [ o.W ( t.V.L.L.).(.s.L d.).).L.L.)./.&.] o.' *.F.).).K.d.o.{ { [ { o.{ ] o.O.$.$.c.(.L.H.L.L.L.).d.] ] x._.).K.K.K.y.W W X.K.)._./._.m.L o.F./.m.&.o.W W -.Z.).).#X(.c.X.X.O.E o.] o.o.] ' ' { o.E X.0.F.x.{ Y { 8.a.=.*.$.Y _ 8.K.).).L.(.S.S.[.L.L.L.L.P.L.L.L.L.L.L.L.P.P.P.P.L.J.L.L.L.A.b.z.d.d.y.@.( R R L X.+.;.Q D k d s s d d 6 g v Q.Q.9XeXvXSXPXhXJXDXZXZX",
"KXKXKXGXGXGXGXJXJXJXJXAXvXvXvXsXr.b p k d a g v e f a p d s k Y Q } ' _ _ [ [ _ _ Y >.K.K.H.P.P.J.L.L.B.L..XV.t.L.L.L.K.K.(.K.l.] U R M._._.K.F.Y ] { Y { d.y.=.( W b.).(.(.(.K.y.W X.c._.(.K.(.(.}.L.b.d.] U ' >.z.n.>.X.X.O.$.L a.).L.(.J.u.L.L.L.).K.*.W ] { Y { x./.K.K.>.X.E { #.{ { ' { m./.K.J.P.L.J.J.Y.J.L.(.=.E E E { ' ' Y ] K.K.L.L.L.).-.W ' &.} [ ] O.a.L..XL.J.K.).z.R $.m.).Z.K.J.K.O.E ] E -.L.B.J.L.A.d.o.Y Y ] o.&.&.X.W W X.K.Z.K.L.H.L.L.L.o.' ' >.F._.).(./.( R d.O.X.n._.m.m.>.E +._._./.K.d.( R >./.(.Z.(.).K.-.W ] W *.n.n.l.&.E Y ' [ ] ] { #.' Y o.d./.).n.$.o.o.' Y d.Z.L.L.J.A.L.|.L.L.P.P.P.P.P.P.L.L.L.L.P.P.P.P.V.V.J.L.L.L.(..X(.A.z.@.R R ] &.{ ' I l j s d d s h k 7 c V qXsXsXxXvXPXPXgXDXgXmXgX",
"SXKXKXGXGXJXJXJXJXJXJXAXvXsXeXiX5Xv e d d a a c c g a a d s h F } ' [ [ [ [ ' ' Y } l./.L.L.P.P.L.v.A.L..X(.t.( .XZ.b.(.(.K.l.E Y | ' >.K.m.l.>.' [ [ _ Y E W ( E X.m.).Z.Z.J.).x.X.X.F.).K.A.(.(.K.c.*.{ _ _ _ I ] X.X.=.c.B.B.y.t.V.J.D.P.P.U.L.J.(.(.>.] ' ' [ Y E &.X.*.W W ] ] | { | ] } x.K.J.J.J.J.C.V.Y.P.L.K.d.-.%.{ [ [ _ Y ' K.(.L.V.L.J.+.W ' | ' _ E 7.H.H.N.B.J.K.).8.] ] =.K.K.(.L.K.a.$.$.o.p.L.C.V.L.(.z.X.E o.l.x.m.m.y.X.( O.K.b.J.L.V.J.L.B.] ' Y ' >.F.).).z.L y.).Z.L O.>.*.&.] W O._./././.m.@.W -.K.(.Z.A.J.L.z.] L $.F._._./.l.] Y ' { ' ] } ] U ' d.K.).).K.y.] ] [ ' @.g.N.(.L.S.S.L.S.S.P.S.S.J.J.S.J.J.J.J.J.J.J.V.L.P.P.L.L.J.P.L.S.L.L.Z.l.o.' [ [ [ _ I l s p d s 9 d f e b V 5XsXxXlXPXFXhXhXmXZXZX",
"SXSXKXGXGXJXJXJXJXJXFXAXaXW.- n 2.f a k k g w w c g a d J D D Y ' _ _ ' [ [ } } } ] >.Z.J.H.I.k.C.v.A.).J.t.( ( (.K.K.(.z.X.W E ' | ' ] -.+.] I [ ` ` .._ Y W +.W o.n.K.A.A.A.(.c.] E d.m.m.m.b.l.>.#.[ ` ` ` ` _ } R >.A.L.L.A.).f.N.L.V.V.L.Y.V.B.J.K.o.' ' Y { Y Y E R W R W o.E ' ' [ ' E >.J.L.V.V.P.D.D.S.P.V.J.b.K./.0._ ` | [ ' F.K.J.B.(.B.( W ' ' _ _ $.n.).K.B.J.L.K.n.] ] E X.a.m.Z.L.J.J.G.n.j.j.P.L.P.U.U.v.O.&.x././._./.n.-.X.+.A.Z.J.J.J.J.N.a.] ' Y Y ] 8.l.s.W X.).)._.*.W R Y E E E o.c.K./.K.Z.y.( O.n.(.K.A.A.(.K.$.X.c.).K./.).n.o.' { { E ] +.} E %.m./.K.Z.(.m.X.U &.x.K.L.V.L.C.D.L.L.S.S.S.S.S.V.V.S.S.S.S.J.J.J.H.H.V.V.J.V.V.S.S.S.S.U.L.L.K.8.{ | [ [ ..;.T h p h v d c c r c & Z sXvXAXhXVXhXmXGXZXZX",
"KXKXGXGXGXGXJXJXJXAXxXvXsXe.O n 4 f ^ ;.;.^ g f a a p k ^ ^  .;.' _ _ _ _ Y Y ' Y E X.>.a.g.p.@.-.).#XK.@.R X.W =.x.>.o.E L E E { ' ] E W ] ] Y [ _ ` ` _ Y ] W E ] a.c.Z.K.Z./.).*.U E X.>.=.X.] U I _ ..` ` ` _ | R l.(.A.S.B.J.J.B.B.P.P.P.P.C.V.J.K.O.>.8.%.] { d.>.d.O.W W +.Y E E ' E R +.B.L.J.V.P.D.N.S.V.V.L.K./._.l.} F ` [ I 8.m.K.(.).c.R W W E Y ' n.H.J.B.B.J.K./.x.Y ' { Y Y 8.>.Z.v.L.).L.H.h.J.D.D.L.L.N.=.d././.K././.n.-.( ( b.(.J.b.L.J.d.-.o.} ' ' ' ' E E R y.).b.Z.Z.R O.' [ #.Y ] +.m.K.K.K.z.X.X.l.K.K.B.A.L.K.d.d.).K.n.m.K.n.o.E { ' ] W ] E ] l./.K.J.A.(.b.W ] x./.Z.L.C.L.V.S.S.V.V.V.V.V.V.V.V.V.V.V.V.V.V.V.H.H.C.V.V.V.S.L.L.D.D.L.B.Z./.l.' [ [ H H _  .H h g 6 g f r y u t - uXvXFXVXVXFXCXhXgXgX",
"ZXLXGXGXKXJXAXSXvXvXbXnXsX0Xu u w x 3.5.+.+.;.U h s s l ! ^ ^  .Y _ _ _ _ } } } Y { ] E ] W R E >.m.l.] E E E ] ' ] U Y { ' E ' >.x.+.o.' ] [ [ ` ` ` [ ' ' ] ] Y U &.F._.m.n./.K.>.] ] ] E U Y } ' } Y Y [ _ _ [ { o.d.(.(.B.B.K.J.J.V.V.V.V.V.V.V.C.N.B.J.L.).a.s.B.(.L.v.t.-.X.L E W X.*.X.R y.v.J.L.J.V.V.S.C.V.A.B.K.(.c.X.[ ` I H | F././.x.o.] E ] E I 8.J.P.J.B.B.K.K.m.] } } _ _ Y Y Y z.J.L.B.v.A.L.S.S.S.S.D.V.A.J.J.L.b.b.K.K.a.X.W :.m././.m.l.+.W U ' { { ' [ ' E R m.L.J.J.J.X.L { _ Y Y Y Y o.>.l.>.o.W W -.n.(.A.A.A.J.J.J.K.K.m.(./.a.W W W E R +.X.R X.z.K.Z.B.L.).c.R m._.m.A.V.V.V.V.V.V.V.C.P.k.N.P.J.J.J.C.V.A.B.Z.J.J.V.C.J.K.z.m./.Z.L.B.J.(._.F.l.#._ [ | _ _  .P p p f a y y n C S 6XzXzXzXzXzXzXVXVXzXgX",
"KXuXuX0X0XeXeXeXeXeXqXrXrXrXB r e k  .:.{ { &.#.I j i p k G T } _ ` _ _ _ ' ' ' Y ' Y I E R U } ' :.&.E ' ' ' ' { ' ' ' | _ Y :././.>.E Y ' ' _ _ _ _ _ Y Y E ' { E o.n./.K.m.K.K.>.W W ] E Y ' _ Q } ' ' [ Y Y Y E U X.c.K.J.L.Z.Z.A.V.V.V.V.V.V.J.P.J.J.J.J.J.J.V.C.V.J.B.v.v.+.X.d.c.n.m.l.>.s.v.J.L.V.C.C.V.V.J.A.B.L.(.l.W _ _ ` _ | 0.x.x.&.Y ' E ] ] W m.H.V.N.N.J.(.m.>.E Y Y _ _ _ _ _ 8.B.L.J.A.L.L.A.A.A.A.A.V.V.V.V.J.C.H.K.c.O.R E U W l.x.;.] +.L ] :.[ _ _ Y ' E X.K.L.L.L.L.t.R ' [ } } ' Y Y Y U ] X.X.W X.a.b.A.A.A.A.A.Z.Z.J.Z.K.m.-.W X.*.=.>.d.y.=.y.b.Z.B.Z.K.K.a.W d./.n.A.V.V.V.V.V.V.V.V.H.C.C.J.J.A.V.V.V.A.Z.A.J.J.C.H.J.m.>.+.>.>.d.c.c.l.l.:.+.] E ' ' { ;.^ G f 6 g 8 V r.5X7XuXGXNXNXmXzXzXzXzXzXzXgX",
"eXn t n t 5 5 r 4 7 e <.r.`.6.<.! z J E { #.#.} :.K p 8 s G K Y _ _ _ _ _ _ _ _ ' { ] &.l.0.;.E I Y Y Y ' } ' _ } E } E Y Y Y l._./.n.] ] ] Y I Y _ ' ' Y U E E ] U R *.n.K.Z.Z.Z.>.X.X.o.{ ] | ' Y ' ' ' ' Y ' ' o.] o.d.B.B.v.B.B.B.B.V.V.V.V.C.C.C.V.V.V.B.B.L.L.J.B.H.J.J.B.s.d.K.K.K./.K.Z.z.B.J.J.C.C.C.V.V.V.N.N.L.(.l.W ' [ [ [ ' ' } | U I ] ] ] ' ] F.H.B.B.J.(./.d.E E ' ' _ _ _ ` _ E -.z.v.N.J.J.C.V.V.V.V.V.V.V.V.C.C.J.J.d.X.W +.W U W X.R R W R 8.x.#.Y ' Y { E *.L.J.J.A.L.z.R Y _ ' ' ' ' | &.l.n.m.m.l.a.s.c.B.V.V.B.B.B.Z.Z.J.K.b.y.*.d.n.m.Z.K.K.K.J.J.J.A.Z.K.b.-.R X.n.n.A.A.V.V.V.V.V.V.V.C.J.J.N.B.A.B.H.V.Z.Z.A.J.J.h.H.C.Z.,.R W W W ( +.@.@.+.X.o.&.E J U ^ z d f e 8 7 V 9XvXAXAXKXNXNXgXgXzXzXVXVXzXgX",
"eXt * t y y b v 8 p G 1.^ 5.^ 3.3.z s l E ..;. . .G s s D Y ' ' _ _ _ _ _ Y Y Y Y %.d.m._./.>.E _ Y Y ' } } Y _ I U :.Q U E ] m.m.Z.K.X.] ] Y Y Y Y Y Y E ] &.>.*.o.X.$.s.Z.Z.N.J.c.l.n.m.x.0.0.{ ' Y Y Y ' { %.x.x.x.s.n.H.C.h.B.B.B.B.C.V.C.C.C.C.N.N.B.Z.Z.B.z.Z.J.B.B.J.J.B.J.B.Z.Z.c.m.K.K.b.Z.A.V.C.N.C.V.V.V.N.B.J.K.y.R E _ _ ' Y Y Y _ Y Y { { } E E l.n.J.K.K.n.a.X.L W E ' ' _ _ _ E U O.a.s.v.N.C.v.V.C.C.C.C.B.B.C.h.C.H.H.f.=.=.l.x.l.] U ] E W d.n.K.l.Y } } } E >.L.N.C.v.K.n.U U _ ' Y E &.x.F././.K.K.K.J.K.Z.B.B.B.B.B.B.B.B.Z.K.Z.c.b.K.K.K.Z.m.Z.K.J.Z.B.A.v.J.c.X.W W l.K.B.V.V.B.B.B.B.B.B.B.H.J.z.s.J.b.H.C.Z.Z.B.J.H.h.H.n.K.y.R X.O.X.@.t.c.B.B.n.n.m.l.W J k e e g f f f 1 Z iXxXuXcXjXjXjXgXzXzXVXVXzXgX",
"dX9Xw.5 1 b f p 8 i ~ 5. . . .5.5.! h s l D P ^ G d s G  . .] Y Y _ _ _ ' Y Y I ' l.F.G.F.F.0.} [ _ ' ' Y T Q  .l D  . . .Q } /.Z.m.n.R R E Y } ' Y Y E o.>.n.K.F.n.c.s.f.N.B.v.J.B.B.K./.K.m.x.8.#.Y I U ] 8.G.K.G.n.n.v.v.H.H.C.B.B.B.C.C.C.C.J.V.B.J.K.K.m.n.-.x.Z.b.c.b.H.B.B.v.b.B.b.b.Z.z.Z.Z.B.C.N.N.C.C.L.J.B.B.Z.b.=.E E Y I Y E ' ' ] ' ' } ' } Y I #.8.l.n.l.*.W R R ] ] ] { o.o.o.#.d.z.b.b.v.v.v.h.B.B.B.C.C.N.N.N.h.N.B.B.b.c.n.F.K./.x.&.] R -./.K.K.F.U Y ;.Q U >.K.h.n.v.K.M.U Y ' [ { :.l.F.F.n.n.c.v.b.Z.J.J.B.C.C.C.B.B.B.B.v.b.b.b.B.K.Z.b.Z.c.c.Z.B.v.v.V.v.J.a.( $.*.n.Z.B.B.B.B.B.B.B.B.v.J.b.K.y.@./.c.H.N.Z.B.z.b.H.h.H.B.K.y.R >.c.j.C.C.H.H.C.h.n.K.'.~.T a a e e g e v r V iXvXPXhXjXjXjXjXgXzXVXVXzXgX",
"xXxXrXA y 2 7 c g 8 l 3.^ } }  .3.<.p 6 8 8 9 8 i 9 p G 3. .E I I I _ } } Y Y Y 8.m.m.x.F.F.>.Y _ _ _ _ I T ^ ^ k i j D J z U /./.m.>.W X.] E E Y Y E &.l.m.K.K.K.K.K.b.h.h.N.C.V.N.c.c.n.n.n.n.G.8.E Y E { x._.F.x.c.n.h.j.h.C.N.N.N.N.C.C.C.N.J.B.b.n.n.l.>.+.W >.c.m.m.b.b.b.v.c.c.B.B.B.A.z.B.B.B.N.N.N.N.C.C.N.b.B.Z.m.l.>.>.:.{ E E ' ' Y } ' Y Y } ' I ' o.X.o.X.E U E o.>.>.8.d.s.c.c.n.H.K.H.B.B.N.N.N.C.N.C.N.N.v.v.v.N.N.N.v.b.b.n.n.K.n.K.n.] X.n.K.H.c./.D l  .T L >.K.v.H.m.F.l.E } ' ' ] 8.F.F.n.n.n.Z.B.v.c.v.N.N.C.N.N.N.N.N.N.N.b.v.v.b.B.B.b.J.B.b.B.B.v.v.V.B.B.@.( z.b.K.c.b.B.N.b.B.b.b.b.c.K.n.m.O.W m.n.C.v.Z.b.y.s.B.v.h.v.K.y.X.z.K.H.C.N.k.h.h.C.H./._.i.M e g a w a e f r y W.iXvXSXjXjXjXjXjXmXmXmXmXgX",
"SXSXSXeXW.n 5 q c 4 e k l D P D h d 8 9 d k s p p 6 8 h ! ~ U U I I T } } Q Y Y m.F.x.x.F.x.} I Y Y _ Y I  .1.! s 8 6 9 p d L M.l.l.O.>.M.l.:.+.E E E *.m./.K.c.z.c.v.N.v.k.C.V.H.V.v.c.b.m.m.m.F.8.] ' ] W 0.m.m.n.m.m.f.j.h.N.N.N.N.N.N.N.N.N.B.f.=.-.+.o.E U U W >.x.K.m.n.v.v.v.c.N.g.g.V.v.b.b.b.N.B.B.N.N.g.f.c.b.m.m.m.m.m.m.x.&.' E Y K ' ' I I } _ I _ E U U U U E +.d.n.n.n.m.H.J.J.P.m.n.n.b.B.B.B.B.N.N.N.N.v.v.v.v.N.C.N.N.b.b.n.n.K.d.m.n.X.=.H.s.n.s./.l p ~ ^ L +.n.v.H.F.m.:.Y ' ' Y U +.x.F.n.n.n.B.B.v.v.N.N.N.N.N.N.N.N.N.N.B.B.B.B.B.v.B.Z.B.b.c.v.v.f.h.h.V.N.( -.J.K.K.c.b.b.b.b.b.b.n.n.n.m.m.l.W E l.m.n.h.K.z.+.>.b.n.f.c.K.>.+.m.J.h.C.N.N.B.K././.~.^ M e e a a e e f e y 2 w.iXvXKXjXjXjXjXjXNXNXNXmXgX",
"GXGXLXKXAX6Xe.t q 2 w 7 3 6 p 6 6 x G G ~ ~ ! ~ 3.! k d s p s s F I T ^  .Q Y Y x.F.F.F.l.] K E ' _ _ _ ^ 3.1.h 6 d s 9 s D Q +.( O.X.m././.M.x.>.] R X.l.m.m.z.c.c.N.V.V.C.C.V.N.C.B.b.B.Z.m.n.n.8.' ] E U ;.4.l.l.d.-.X.-.h.v.b.b.v.v.v.v.v.b.J.d.X.L L U E E ] U R &.z.n.n.m.v.v.v.v.t.@.g.g.v.v.v.B.B.B.N.v.B.B.Z.Z.b.c.n.m.M./.F.8.] ] ] Y E ' I I _ Y I _ _ Y Y E E ] >.m.m.m.b.v.v.h.h.f.K.m.m.m.Z.b.c.v.v.v.v.v.v.n.n.v.h.C.V.B.B.B.Z.m.n.m.K.z.O.*.n.c.C.c./.k 6 G 5./ W s.h.G.G.x.Y T I } } U E *.x.x./.Z.c.c.v.N.N.v.N.v.N.N.N.N.N.N.h.h.N.B.v.h.c.N.v.v.N.N.B.N.N.C.C.v.+.c.K.m.n.n.n.n.n.b.b.n.n.n.n.x.K.>.U E >.F.n.c.K.M.( ,.m.Z.m.m.m.,.( z.H.f.c.l.y.,.,.;.P k k 7 7 a e a g e 7 r y * 8XAXPXSXkXkXjXjXjXjXNXNXmXgX",
"LXJXJXJXGXZXuX0XW.e.V u e e a 8 d ~ 5. .R } ;.;.Q 3.5.~ d 9 s l ^ ~ 3.3.J l I E :.x.0.{ E E R Q Y Y I T ^ 1.x 9 8 8 s i P L Q Q J R +.M.m.M.m.M./.l.X.R X.y.c.b.v.v.v.h.g.g.g.h.N.C.N.v.v.B.Z.m.n.o.U E ;.Q L R R R L W J c.K.n.c.f.b.B.z.z.c.c.b.m.l.U K E I U U E U ] c.m.c.c.c.h.h.h.h.h.g.v.v.Z.B.c.c.B.N.h.h.v.B.B.m.n.n.c.l.F.F.8.+.] E U ' ' ' Y _ _ _ _ I } I Y E ' M.m.m.c.b.b.c.c.f.B.c.x.>.>.c.b.c.B.v.h.h.v.c.s.f.n.g.V.J.N.h.b.Z.K.n.n.l.o.E a.K.c.f.K.M.z 8 9 ! 3.Q W $.a.8.' T  .U Y Y E E W W ] n.c.z.v.N.v.N.N.h.f.h.N.v.c.h.v.p.v.V.v.f.h.N.N.B.f.c.B.N.N.C.g.h.N.g.a.B.c.m.n.c.K.c.a.s.c.n.n.l.m.8.] E U +./.K.a.Z./.M k >.m.n.M.l.+.;.m.n.c.M.i.k e e 3 8 8 6 i d d e e r 7 b q 5 C uXAXzXzXkXjXjXjXjXNXNXNXNXZX",
"BXBXBXBXBXNXAXAXvX0Xw.m r 4 e k z ^ ;.} E ] +.} ;.Q T k p 8 d v 5.~ P z s s k I E ] ] E Y U T ^  .I l j k k d p 8 9 p d 1. .^ R E X.+.M./.m.m.m.F.*.L L X.-.z.Z.v.v.v.h.h.g.h.h.h.h.h.f.f.s.d.8.>.] U R Q / ~ ^  .Q J R L l.K.m.c.c.b.z.-.d.m.z.m.m.M.&.U ' U E K E W +.x.m.c.n.c.h.h.h.h.h.g.v.z.b.v.f.f.v.v.f.f.h.c.c.c.x.z.x.M.m.M.>.X.E R K Y Y Y Y _ _ Y Y I } I Y Y Y >.0.m.n.m.n.c.b.s.z.&.+.W W X.@.a.v.B.h.h.n.n.c.c.c.g.h.N.f.d.a.=.=.>.>.+.R R d.K.c.z.z.,.d 9 8 x ~ ;.W U U Y Y I I Y Y Y E E E W W X.O.y.f.c.h.f.f.c.c.c.v.v.c.c.h.h.h.v.v.h.f.h.v.v.f.h.v.f.h.N.h.g.N.f.s.H.c.m.n.m.x.O.X.d.F.m.x.n.x.o.U E E E +.n.x._.M.p 8 ;.i.i.4.,.L +.M.n.c.M.4.a 7 e 6 8 8 s ! 3.! s 8 r r m y & 5XaXvXKXZXLXLXZXZXZXLXLXLXZXZX",
"MXMXMXmXgXgXvXAX9Xe.m y r e 6 6 p D ^  . .;.} U R J d 9 6 8 b c <.z s s s 9 9 k Y K U Q T J P ^ ~ k i 9 6 6 8 d p 8 9 9 G K T U L L U &.l.M.M.l.X.W X.>.n.n.c.f.b.z.z.f.f.h.h.h.d.d.s.f.d.-.X.] E Y Y U J G ! ~ ! z d k J ;.0.8.l.d.>.O.R O.m.x.c.m.M.0.U Y I } :.>.>.l.n.n.c.c.h.h.h.h.h.h.h.h.s.c.c.s.f.c.h.f.f.f.z.c.c.n.n.n.n.x.>.+.W E E E I U Y Y _ Y Y I Y _ Y Y I U ' ;.0.>.x.l.l.y.( W E L U U U ( a.b.b.f.s.c.n.n.x.c.f.g.f.f.=.O.W E W E U J R l./.m./.M./ d 8 p p d ^ W E E E ' _ _ Y Y Y E E E E E L X.y.c.v.h.f.f.v.v.c.c.c.c.c.h.B.f.f.c.v.f.g.h.v.f.h.f.j.f.v.v.g.v.c.f.m.>.d.>.*.+.E U o.d.x.n.>.O.E E +.&.X.E &.>.M.^ 3 p / J M / ^ k J M.K.c.M.5.s 6 8 9 f h ^ 3. .~ h 8 7 r t t Z iXAXAXGXJXKXJXSXSXKXJXJXJXGXGX",
"CXVXmXVXCXVXhXiX- * t 4 7 f 6 i 3 s z P T T J k d p 9 6 7 9 r 7 p i 9 s d 9 9 k Q K T  .J h l v d i 6 6 6 6 8 s 8 h x G ~ I K U E U U W +.+.X.W R -.z.c.n.m.n.d.c.s.f.z.s.f.c.s.a.a.d.z.d.O.W U I I Y T G d s k a 7 6 8 D J E E +.+.U U J U l.m.x.x.x.M.K U I :.x.l.x.x.x.x.s.s.f.f.h.f.f.f.f.f.s.s.s.s.f.h.h.f.v.v.c.c.x.l.8.>.*.o.W U U U Y E K I U Y Y Y T I T Y } Y I U I E E E ;.W W +.L J L L E E R O.z.c.c.s.s.c.x.d.d.x.v.j.f.c.d.o.U K K U U L R :.M.~.~.5.k a 6 9 , 9 d k J ] ] Y I _ Y Y Y Y Y Y U R W *.z.b.c.f.f.f.c.n.c.x.z.c.c.f.v.h.h.c.c.f.f.h.f.c.c.f.d.f.v.v.d.v.v.l.l.X.W E K U Y U U E o.-.U E &.d.d.l.l.-.R Q ^ z 6 k M 9 a ^ ^ e k i.m.>.m.;.d 9 i s ! ^  .:.} D i 6 7 y & C 0XvXFXJXGXJXGXGXKXKXKXKXGXGXGXGX",
"zXhXhXhXzXzXxXaXn * + @ 3 8 6 p p a p e p a p 8 6 7 9 8 7 9 y 0 7 8 9 8 e 9 d ^ ~ T ^ T d 9 8 p 3 e e e 8 e e 8 s ! ~ ^  .Q I Q U U Y U U U L L :.l.n.d.8.s.s.a.z.d.l.c.c.n.n.d.-.8.l.M.l.>.X.U U F I  .~ s 6 7 p 6 p d ~ K U U U E F E &.U W x.m.x.M.M.U E ' q.M.l.d.d.s.c.c.s.f.f.f.f.f.f.f.z.s.s.s.f.h.f.f.h.v.c.c.s.d.*.W L L L U E E R U K I U U Y Y T T I Y I } Y U E I E U J J k l / ^ ;.U U Q R R >.x.d.d.z.c.x.a.*.8.n.v.j.f.n.c.*.E K U E R U R  .;.4.;.M e a 7 p 9 p p p d J E Y I F Y T Y Y Y U U U >.l.n.z.d.s.f.c.d.x.c.l.z.c.z.d.a.c.b.v.f.f.h.c.d.c.c.s.s.c.c.f.d.c.c.l.l.E U K Y U ' o.o.] U J E $.n.m.z.c.n.l.R T ~ d 6 a k 7 x <.N e g 5.~.M.~.;.s 9 d P 3.;. .} J s 8 a e 4 V 5XAXAXJXGXGXGXGXGXKXKXKXKXGXGXGXGX",
"hXlXzXlXhXhXlXvXuX5Xe.e.r.m 7 f p e 8 7 7 7 7 7 7 e f r 8 7 y b 8 p p 9 7 8 x 3.~ ^ ^ G p 9 8 8 w r f e 7 e 8 6 ~ ^ ~ ~ T T F Y K U ] E E E R U l.l.l.s.x.c.s.s.d.=.d.n.c.n.n.*.+.8.x.x.x.l.:.E Y F I  .^ d 7 8 p 8 x !  .T Y I I Y ' 0.m.X.D &.l.8.>.>.U Y Y 0.m.n.l.d.c.c.z.s.s.s.f.f.f.f.f.f.c.s.s.c.f.d.j.f.d.d.s.x.z.=.] K J W *.8.0.>.] U E Y Y U U U T U U I Y Y Y ' U Q U U K s i z P ~ T T T K U :.l.l.s.c.n.l.-.o.>.m.s.d.d.c.n.8.] I Q R K U ~ L D J k e 7 e 7 9 9 8 8 z P L U E Y F T T T T Y Y Y Y 0.M.m.z.d.z.b.c.-.d.x.l.l.c.l.=.X.a.c.c.s.f.h.c.s.c.s.=.d.c.c.d.d.z.z.z.n.] E U Y Y ;.l.x.8.$.E *.a.c.c.d.c.b.l.R z s 7 6 e e 7 a a e w e z 4.^.~./ 7 7 k T  .^ L d 7 e e 4 r V 0XAXlXJXJXJXGXGXGXGXKXSXKXKXKXGXGXGX",
"hXcXAXZXcXgXhXzXSXAXsX0Xr.y 4 r 7 7 8 e r 9 9 r r e e e 8 8 e f 8 e f 8 7 f ! ^ ^ ~ G d s f p r y y r 7 7 7 7 9 G ~ P T I Y F _ >.8.x.0.8.>.] U x.l.d.a.s.n.n.s.+.W >.l.l.l.8.] { 8.x.x.l.x.>.Y _ F I ~ P d 8 p e 8 P ^ ~ I _ I Y Y 4.M.F.0.K U ] ] ] E I U K } l.M.l.d.c.s.=.d.s.s.s.s.s.s.s.s.c.s.d.s.s.a.t.a.d.d.s.c.n.s.&.E U %.x.m.M.x.l.:.} } E U U U T T U I U U U Y U Y I Q ^ j 9 i i i D J J L R ] >.z.l.z.l.>.] R +.l.s.j.d.s.x.l.;.I Q Y K T T l i p 7 1 7 e 8 9 8 6 , x ^ / J I Y I I I I T Y Y Y Y 0.M.m.z.s.c.s.=.X.>.l.l.l.n.d.$.R X.=.d.f.f.s.d.x.c.*.X.=.c.s.d.z.z.d.l.m.] E Y K I :.m.x.x.x.d.d.s.s.a.d.v.z.-.J k p 8 r 8 7 7 e w 4 e w 4 M 5.6.c 4 7 e k z k 7 3 r b 5 * Z 0XxXJXhXGXGXDXGXGXGXGXKXKXKXKXGXGXGXGX",
"ZXjXgXjXZXLXcXlXxXsX6XZ t q c r e e 8 7 7 3 7 b r w 8 8 8 8 7 6 7 7 8 6 7 x 1.~ ~ P p 6 p p 6 6 r 4 3 7 7 7 7 8 6 s i s i G Y q.l.l.m.x.x.x.o.K >.M.m.l.8.x.8.] R J X.4.>.>.;.D ] 0.x.l.8.l.>.U Y I I D d 8 8 e e e ! ^ K I _ I Y I q.l.q.x.{ K E E E K Y Y F Y U :.>.>.d.*.O.=.s.s.s.s.s.s.s.s.c.d.d.s.d.-.*.=.n.z.l.l.l.8.o.U L &.0.8.8.x.m.M.+.} E U I I T T U U I I I U U U J ^ 1.k 6 8 8 i 9 s l U E K E l.l.0.>.] L J E :.l.s.d.d.x.x.:.U I T T ^ ~ s 6 8 e 7 k x ~ ! <.v 6 d P T U U Y ' I I I I Y Y Y E :.l.x.l.d.d.O.U E *.d.d.l.n.d.$.J U X.a.c.s.d.a.n.x.o.U O.s.s.d.c.s.8.l.x.] U K U I :.l.l.l.l.s.x.c.f.d.s.c.=.R D T 1.<.v 7 3 8 e 7 3 a x z z p c w w e 3 3 7 6 e r q * n e.IXxXlXPXDXJXGXLXLXGXGXGXGXKXKXKXGXGXGXGX",
"LXgXgXgXzXlXxXvXsXw.5 % 4 b r 7 8 p 8 7 r r 3 r r 7 r b 8 6 8 7 0 9 7 7 e g ! 6.! e 7 f p 7 9 6 7 f N ! x d 8 9 6 6 6 z l F M.x.l.x.9.s.x.$.U J U } :.:.;.' Y J / ! 1. .L J M P J ;.l.d.8.8.:.E K I D s 7 r e w e 3 e d k j I Y F :.x.0.l.x.{ K U ' Y Y I F Y Y Y J J Y U U o.l.>.s.x.x.s.8.=.s.c.d.7.d.x.+.L R l.l.M.M.x.>.] U U E >.l.>.>.l.x.l.>.' I Y I } I D Q Q U I U Q D 1.1.v 8 e e 7 e s D E Y U U E U U U T T I I I I :.l.x.n.G.8.' Y Y K T 3.^ h i d J Q +.E E Q T 5.h 9 9 D Q Y F I _ I Y ' I I Y F U ' } ;.;.} T U L >.M.l.d.l.>.E K K o.l.l.d.x.l.0.:.J L =.d.7.s.d.c.*.x.x.W U I ' Y U >.x.d.d.a.a.s.s.s.a.] J U E T ^ ^ ! e 7 e e k J R }  .T l 7 e e e e d J ^ ~ a w 2.9XsXCXFXVXhXgXJXGXGXJXGXGXGXGXGXGXGXGXGXGXGX",
"hXNXLXZXhXlXvXiXw.t q y 7 7 7 f 8 f e f b r r r y 4 r 7 6 9 7 9 y y r e e e g N B r 7 7 3 6 p z 1.^ ^ 3.3.P d 6 6 p k ^ L R x.8.8.s.7.8.8.] Y Y K U Q T U K K K g e M z e p x 1./  .*.d.c.x.:.U U U P g 7 0 r 7 g 7 7 8 s l Y U K 4.l.>.d.x.{ I Y Y I I I I I I I K I U U ] >.l.8.8.d.l.8.] o.c.s.d.8.s.x.&.R Q Q ;.4.0.>.o.U J K K ] l.x.l.s.d.n.d.E Y F Y Y T T Q I U Y U L s ! N e > 7 r e a ~ U U Y I D K T T T T T I I I I I [ &.%.8.#.Y Y Y K P P l h G  .Q +.o.E ] +.^ 3.6 s G T Y I I _ Y I I I T T I F I I U Y Y U I J L +.l.l.l.M.0.{ Y U ] 8.x.x.l.>.] ] J D o.8.8.a.7.d.7.x.l.E R K E I U >.x.8.a.a.a.d.d.d.8.o.R U U K U ^ P 6 3 f k L ] o.{ } ~ ! 7 > 6 z ^ ~ Q ;.^ a 2 c w.8X0XVXVXgXgXJXGXGXGXGXGXGXGXGXGXGXGXGXGXGX",
"mXZXJXJXhXvXvX6Xt n n t 2 7 1 # > 6 3 7 3 3 b y 4 0 y y r b 7 7 0 r r e e w w w e e 7 3 8 k ! 3.U '  . . .1.G 8 i l P Q U ] x.8.x.x.8.*.o.K K E I U U U I K K T g 3 7 7 3 8 g 1.P J E $.8.8. .F E U ~ v 7 0 b e 4 3 6 f h ~ _ _ U 4.0.%.x.x.' F Y I F F I I I F I I U K K ;.l.0.>.8.d.d.&.L W x.*.8.d.x.l.] J K L U E } E U U E } U J ] l.l.l.x.M.0.E U F I T Y I I K R R Y K 8 , 9 8 7 e r a d ^ ~ T Q Q I K T I I I I I I I I F I Y Y ' Y I I U T P k i p ~ 5.~ Q  .Q ;.5.~ ~ l G T I I I I T I T F F  .^ F I I I I I I I U U L ;.4.l.M.q.} D U I K ' :.:.+.+.>.0.%.] $.s.x.8.d.d.8.x.>.E ] E I K U :.l.8.d.a.a.a.d.a.=.-.o.U U I E T k 6 7 v 3. .] E ' } T P 7 7 d ! 1.3.3.3.a e a u - = A uXVXhXgXJXGXGXGXGXGXGXGXGXGXGXGXGXGXGX",
"NXNXNXZXhXAXuXn = O * * 5 y w.9XqX2.7 7 y q 5 5 @ 2 2 3 4 6 6 3 3 3 7 e e e w w 4 w 3 7 v 1.1. .' Y I Y  .^ s # z P T ' I Y 8.>.l.l.>.] U D J U U T T T Q I K T d > 7 a p 8 3 9 z D J U Y U K L K D ! N 9 7 b e 7 e f 2.2.1.F F D :.l.l.x.8.I F Y I I I I T I I K L U L K :.M.0.0.l.8.] U J W l.8.8.l.0.:.U D K U K L U K J E :.0.} D D ] :.>.l.4.;.Q J I F T I I I K I J T ^ h 6 s d e 6 6 8 p k z J J I Q Y I I I I I I I I I I I I I I I I I K ^ ~ h 6 9 h P ~ ~ ^ ~ 1.! k G ^ J D I I I I T I T I K ~ ~ K I Y Y Y Y Y Y Y Q J M M L / Q Q T K Y U U E U E >.l.x.d.$.$.8.d.*.8.8.8.l.;.J R U K I E >.l.d.d.d.a.7.a.a.=.8.>.] I U T d , 6 e v 1. .] { &.} F p > a ! 3.5.1.z a 3 4 w 5 o = e.PXZXhXgXJXGXGXGXGXGXGXGXGXGXGXGXGXGXGX",
"mXgXmXLXgXzX7X. = : Z 5XeXiXiXpX9Xr # y y % * w.5Xr.c r 7 7 c 8 7 7 7 7 e e e e 7 e 4 8 ! 3.^ U { ' '  .~ p 6 i T T Y ' I F Y Y ;.Q E U K U U L P ~ P G T K D K k 7 e e 3 , , 8 ! P T U J D P ^ k s v v 7 3 7 3 7 6 6 v G G i i j ;.l.l.8.U D E U U U I U U I U K J U U L Q ,.:.l.0.] F D D Q 4.M.l.0.:.Y U } :.U I K Y U K } 0.0.>.E D L E Q Q Q R Q J T I I I I Y K D D ~ ^ h < , 6 , , 6 3 < 6 8 p s k K Y U I I I I I I I I I I I I I U R Q ~ 1.! d 6 6 7 6 p 9 8 9 8 6 9 G P K U Y I F K ^ I I Q T D D T T Y I F I Y Q U J 8 7 7 8 p d G ^ D T Y K D D R 0.8.7.8.7.*.*.8.8.8.8.l.l. .K T J J U ;.0.l.l.d.s.a.7.d.a.8.l.l.:.J G G 8 < , 3 b g N L K D k i , 9 9 k 1.1.x 7 4 @ % & u A 7XhXFXZXgXgXJXGXGXGXGXGXGXGXGXGXGXGXGXGXGX",
"mXmXmXLXZXJXPXS 8XuXAXxXsXvXvXiXZ 5 y t * t A rXsX9Xm r 4 3 f > r e 7 7 7 w w 7 7 e e p G 3.3. .U ' } G i s G 3.T K F I K D K T L z J J L Q J h ~ ^ G h J T K ~ k 6 6 6 7 k ! <.! ~ T K D D P ~ v p p 8 , , 9 9 8 9 , , , 6 i G J } } ;.] K J U U T D P ~ P ~ J J L / / L J J Q ;.E K Y ] K D } 4.:.} Y F Y >.x.{ U J I K J  .q.>.0.>.U D J J J J J J T J T F I F T J T 1.^ G 6 6 i l P ! ! <.v 9 9 s z J F K Y K K K I I I I I T P T T K K U J ~ ~ v s 9 8 9 3 6 6 7 0 9 6 9 ! P  .Q D j D ~ T I K Q I s s P ~  .D h k ~ 1.G s 3 3 7 8 6 6 i h J K I I K J E >.8.7.7.d.d.7.*.x.d.8.:.;.L J L U J Y :.0.0.l.8.d.a.8.a.a.8.d.l.0.^ l G z g r 3 y 7 e p 8 6 6 6 , 9 7 8 p e 7 w b Q.9XeXuXaXSXGXhXZXgXgXJXGXGXGXGXGXGXGXGXGXGXGXGXGXGX",
"DXmXmXNXZXJXGXhXAXAXcXvXhXlXxXeXt t + X n 5XiXxX0XV q q 4 r r 3 r e 7 4 7 7 7 3 4 7 e p d G ^ ^ I F s 6 h 1.3.T Q I D D P ! <.! d a J P / ~ k , k ! z p z ^ T T i 6 d P 1.5.1.k P P D j j D ! ! v i 6 6 6 i l P ! 2.v 6 6 i G T U T J K K K T D T P s x ~ ! ~ d z / / ! M d p z J J U >.q.} D F Y I I I F ' 8.8.8.' F F F D  .q.0.0.8.] J D L J J J K T F T F I D K l P 1.G s i ~ T  .^ T ^ 1.1.8 s G ^ ^ K J I K K K K K K K K P G T ~ J J D k k g f 7 7 8 e 8 8 p b 0 0 6 , 9 K K k i i G ! G P P P h 9 8 x <.1.x 9 8 c v b 9 7 7 4 3 6 p l G T U } :.:.:.>.>.8.8.7.7.8.o.E $.&.&.] U J J J K J Q 4.0.8.8.>.8.7.8.7.8.8.7.8.l.4.D J ^ 1.! 7 e 3 p z D J D h 8 , 8 p 8 7 7 r y w.0XvXbXlXhXZXJXZXgXgXJXGXGXGXGXGXGXGXGXGXGXGXGXGXGX",
"NXmXmXmXmXhXhXLXhXZXZXSXhXgXcX7X  - O Z 0XxXvXiXe.X * t % r 4 4 w 4 4 4 w r 4 3 7 3 6 7 , 9 s i i 6 i ! 3.^ T Q  . .~ ~ 1.2.v 8 3 7 N ! ! ^ k < , g a 6 k ~ J l s k ^ 1.1.1.l , P T D i i l ^ 1.f 9 6 s D K T  .1.1.G 6 G 1. .F k P T J j D ^ z ! ! 3 g 2.! ~ 8 g 1.1.! x 8 , s l U { 8.l.:.Y K U K K K F ' 8.8.8.{ I U T K Q 0.8.8.8.:.U K T P ~ J ^ D K K J I I I i s x 8 s 1.^ T Q  .^ ^ ~ d 9 h P J D J K F K K J P P P P P k j P ~ P P ! x 6 7 7 3 3 7 e e , 8 9 < , p 9 6 i 6 , 6 p v ! ! ! ! k 9 6 6 p <.g i , < < , , , r w 7 8 g ! ~ T J K ;.q.0.8.8.*.*.8.*.$.7.' F ' { %.>.%.>.:.U U F T 0.0.>.8.%.=.*.=.*.*.8.%.%.x.4.F F J ^ ! 7 3 7 x  .;.Q Q ~ ~ x e 3 w r q 5 t O S 0XvXSXhXhXhXZXgXgXJXGXGXGXGXGXGXGXGXGXGXGXGXGXGX",
"GXGXGXGXGXGXGXGXJXGXGXJXGXGXLXhX  - e.iXlXvXxX0XO = * o V w.r r w r r 4 2 4 7 4 7 e > , 6 k d 9 < 6 ! P P  .I  .T s ! 1.k i 6 , > 7 v <.! g 7 6 8 6 3 8 p s d h J K ^ 3.3.P i < k P D i p ~ 3.<.8 7 p J } ] ' } T  .l j K T Q K k 1.z p s ~ P P 2.e 3 e <.6.a 3 7 x N a 3 , 6 8 k ] 8.9.%.>.} D F K K D F :.d.7.8.7.' D D K Q :.&.8.8.:.E F D J P z K T D Q J z Q P d < , 6 2.1.~ T U U  .3.D 6 8 z ~ K D F K I D P G d s x ! ! x 8 d ! G P ! d , 7 7 3 r r 1 3 6 9 p x ! ~ T U ^ k 6 # v 1.l ! <.v a 7 8 8 6 , , i k h s i i 8 e 7 7 v 1.~ ~ J D Y &.8.8.8.8.8.8.8.8.7.$.$.$.7.8.9.8.8.8.l.8.] F T ;.:.:.&.>.8.o.8.=.=.>.>.*.Y I K K F z k e 7 e z / Q Q Q ^ 3.v 3 e 3 2 *   O : 5XAXKXZXKXKXSXGXGXJXZXgXZXZXhXzXzXgXjXgXgXgXgXgXgX",
"GXGXGXGXGXGXGXGXJXGXGXJXGXGXLXhXeX0XaXAXAXxXhX0Xn - Z 0XpXe.2 r 2 @ 2 t 5 q y 4 7 # > s 1.5.z 9 6 d ^ 3.Q K U  .s , 6 6 # s ! d 7 7 e e e 7 7 e 3 7 e 8 , , d P  .R T ~ G s 9 9 D ^ ~ p 9 k x d 6 g ~ Q E Y Y E } F l I T Q Q J x v 8 6 6 ! 1.<.f 7 3 3 w e 7 7 7 7 3 4 4 7 a z J &.8.9.%.8.;.K U K J F T :.8.{ #.9.;.I J D F } &.8.8.:.E I I T J T T D J T L J L P x 6 , , <.1.! ~ Q Q ^ K s , s J Q  .Q Q U D T ~ G 8 9 v 2.<.9 7 g ! ! ~ ! p 3 3 7 4 r r 3 e 6 z 1.^ ~ ^ Q U  .p 8 r 7 2.1.! v a w 7 7 6 8 d P ~ ^ ^  .3.^ G 3 7 7 x ! P P D I ' &.9.8.9.*.%.$.%.9.9.%.*.8.8.%.%.7.%.#.%.8.&.F F K U K K ] 8.$.8.*.*.7.*.*.' K F G h 8 6 3 3 3 N 3.^ ^ ;.1.! f 3 7 y m A 8XuXPXFXGXZXLXGXGXKXGXGXJXZXgXZXZXhXgXzXgXjXgXgXzXgXgXgX",
"GXGXGXGXGXGXGXGXJXGXGXJXJXJXJXgXKXvXAXAXzXzXzXPXPXxXsXvX6Xt & t q y t * * % @ 3 3 e 2.2.6.v 6 6 s ^ T Q T I  .G , 8 < < d ~ T ~ 3 4 7 4 3 4 4 4 3 7 w 7 3 3 k 1.T Q  .^ d , 6 l T 3.^ d 3 9 e 6 3 N 3.Q K Y ' } I s F  .Y Q Q l s 7 3 7 > f v e > 7 3 3 3 3 e e 7 3 3 7 3 3 v 3.Q >.8.%.*.8.;.K D D J G K ;.8.$.9.8.} D P J F ] >.8.8.+.Y F F K D T P z / k z T P P ! 8 3 6 v <.<.^ ~ J k s d k D T Q Y I K J D ~ h 8 7 , , e s 3 6 8 p d x g 7 7 4 7 4 4 4 4 v 1.^ ~ L T Q Q Q ~ 6 7 e > e N p 7 3 3 7 3 6 g ~ 1.^ T T ^  .~ l , e p k G D K F D I ' #.&.%.%.%.&.%.9.9.%.&.%.*.8.*.9.%.%.8.8.%.U F D D l l E d.*.=.*.*.7.*.*.;.F P T T P k e 1 4 w a x M x e > 3 4 2 % C 0XAXJXJXGXGXGXGXGXJXSXGXGXGXZXgXZXZXhXgXgXNXNXgXgXgXzXgXgX",
"GXGXGXGXGXGXGXGXJXGXGXJXGXGXJXgXcXzXgXgXgXZXZXZXPXlXvXxXe.o * q $ 9XQ.o * Z y 5 7 2.r.<.v e 3 7 J  .K U Q ^ ~ 6 , p , a 3. .U Q @ 4 r w 4 w 4 1 4 3 4 7 7 e N 3.Q } ~ h < # p ^ ^ ^ ! e , 6 7 3 e ! 1.Q U }  .I i i ' ' K } K 8 3 3 4 r 1 3 1 > 1 r 3 4 7 7 e , 7 , > > 3 b <.P Q >.8.%.>.:.Q D l K ~ x z  .>.%.$.>. .~ 1.~ D K ;.+.+.E F l l D J D l ~ P 3 e M 6.! N w 3 7 3 6 8 i 6 , < 9 z ^  .Q U U Y Q ~ P x 6 3 8 6 > , 3 8 6 > > 6 9 7 7 w 4 4 4 4 3 4 N 1.Q Q Q Q R Q 3.d 3 , > f 3 6 6 w 4 4 7 3 > w v <.1.3.1.! x i , 8 g P x z D K F F I ' | $.%.%.%.o.&.%.%.%.%.%.%.9.%.%.%.%.$.{ I I K K K F K o.d.8.*.$.*.7.*.%.:.F G G K ~ ! f 1 1 @ @ 3 3 3 3 w c q 5 n O = 8XJXGXGXGXGXLXNXLXGXGXGXGXZXgXZXZXhXgXgXNXmXmXgXgXjXgXgX",
"GXGXGXGXGXGXGXGXJXGXGXGXGXGXJXgXgXcXgXgXmXgXmXgXgXzXvX0XC X = O 0XvX6Xt e.0XV @ <.r.2.x 3 > > , ^ R R  .^ z 8 , 7 # 3 ! ~ T } z 1 q r 4 4 4 4 3 1 4 r r 4 7 g !  .T k 6 , p ! ^ 1.~ k 7 3 7 7 6 e v ^ ^ ^ ~ k 8 , j } I U  .k 3 3 r 4 r w 7 3 b 1 r 3 3 , > 6 < s z <.v 3 3 d k Q >.8.>.>.;.P k J T P d v 5.4.:.:.4.^ x v k k L J L K F G G F I K l l 1.k > 3 a <.c a 4 4 e > # 3 9 7 6 9 z ~ ^  .U K Q ;. .G i , , > > , a a 3 7 3 6 g N d 7 > w 4 4 4 4 4 4 N P T U K U ^ ^ x 3 3 > f 6.g > e w w w 4 4 3 4 4 V 2.2.v p 6 , < f N ~ P D D K I :.%.%.9.9.9.%.&.$.&.%.%.%.&.{ ' :.8.0.>.} Y K I l F K F K ' %.8.8.*.$.$.*.*.%.>.Y I F I Q T g w 7 r w 4 7 e 7 @ % $     O S uXAXGXGXGXJXJXGXGXGXGXGXJXZXgXZXZXgXgXgXmXmXgXgXgXgXgXgX",
"GXGXGXGXGXGXGXGXJXGXGXGXGXGXLXgXhXgXgXgXgXgXmXBXZXPXAXuXn   Z uXvXvXvXvXvX6X* @ e w > 7 1 r q r ^ Q 3.! d 7 > e 3 3 v 6.1.^ / e 2 5 4 4 2 2 4 4 0 4 2 4 4 3 3 8 8 i 6 # < f ! ! ^ M e 3 3 7 7 4 1 7 a k k p 6 < 8 G T U  .~ e 3 4 r % 2 w r 4 b @ 4 7 3 > 6 d l  .Q 1.<.8 , 3 < Q >.8.>.4.^ k d J ~ x 6 f <.5.q.0.;.k , > 9 k L D D J F D D F T J P ! 1.8 4 7 4 2 4 4 4 4 a e w 3 7 7 7 d ~ ^ K T T Q ^ J s 6 , v c 8 6 f ! ^ ! 7 # 7 2.6.! a , 7 4 4 3 4 4 4 v 3. .I J T ! k 3 3 3 3 1.1.! > 7 2 2 2 4 q y 0 3 # < < # < < , , 6 a P G D I Y | 8.9.%.9.9.9.%.$.9.9.>.%.&.{ U D K I K K J G l K G F F G K &.8.8.*.$.%.$.%.8.%.:.F F F D k s 7 1 4 4 4 4 3 1 3 q t n A 0XaXlXSXKXLXJXJXGXGXGXGXLXGXGXJXZXgXZXZXgXgXgXNXNXgXgXmXmXgXgX",
"KXKXKXKXKXGXGXGXJXGXGXGXGXGXJXgXjXNXLXLXNXNXLXLXDXVXAXlXlXxXxXxXAXAXFXAXxX8X* y w # 4 7 4 u * + x M N 7 # 3 7 r > a 2.1.1.! p 3 2 5 q q 4 2 2 4 y 5 > 2 4 4 3 3 k G v 7 > e <.6.k a 7 4 5 4 4 4 @ % > > > , , , p ! ~ Q ^ d 3 7 2 q 2 q 2 4 1 3 4 1 3 7 a v ~  .F K ^ x , , p 8 J ;.:.X.Q z w e z J f 3 > 6 k Q L d 3 > 3 f z l J P P K F D D F D P ! d 3 7 4 w @ q 4 w 2 w w 7 4 4 4 e v 1.3. .T ~ ~ D i < 6 g 6.<.8 6 k / / ^ g > 3 ! 6.1.v 7 3 3 4 4 w w 2 e ~ Q ;.3.! p 3 3 6 3 z 3.^ M > @ w 4 4 q w 4 3 3 6 s l J ~ ^ T D 6 8 z D J I Y :.&.| { | &.%.%.&.$.$.&.%.:.} U D D D k z P G l P F F F F Q :.8.*.$.$.*.o.$.8.%.&.T H D h 8 6 3 5 t t y y 2 2 V 6XsXvXxXvXSXvXlXKXGXGXGXGXJXGXGXGXGXGXJXZXgXZXZXgXgXgXNXjXgXgXgXgXgXgX",
"GXKXGXKXGXGXGXGXKXGXGXGXGXGXJXgXhXgXLXJXNXmXDXNXmXZXgXhXAXAXAXAXvXJXJXFXvXe.  q o % Q.V % 5 % y 2 > # @ 3 y 0 > 3 > g g 3 3 3 4 q 4 q r q 2 q y t q q 7 4 3 7 a ^ 1.2.v 3 @ 3 e 4 3 3 r r 4 4 w y r 4 3 3 9 3 > 6 2.3.1.z > 1 r 2 q r r + 2 w 4 c > > 8 ! 5.~ K Y Q ^ h 6 G 1.z z  .Q L z 8 < 7 6 6 > 3 7 # # 6 8 > > 3 3 f ! ~ z z P P P G G G z z v 3 7 1 2 y % r 4 w 2 4 w 4 r 4 1 7 f v P J l s 9 , , 6 h 1.1.2.p < k ^ Q ^ <.7 7 v <.1.<.e 1 3 w 4 w r 1 3 p j k 8 , 6 6 , , 7 1.T 5.M 3 3 w 2 2 w w 3 4 p ^  .Q R R Q Q T z z ! ~ J D G Y :.&.| | &.:.&.#.&.#.%.:.:.} K k D ~ ~ ! ! s 9 h P D G K } :.&.{ o.#.*.{ #.8.:.} G G P P G f 7 @ y t 1 5 q 0 5 $ 5XxXvXiXaXJXKXKXGXLXZXJXGXGXJXDXGXGXJXZXgXZXZXgXgXzXzXgXgXgXgXgXgXgX",
"GXGXGXGXGXGXGXGXGXGXGXGXGXGXZXZXNXNXNXZXZXZXZXZXZXgXgXgXzXAXKXJXvXSXJXJXAX8X    O 0XdXw.% + % 4 1 w w 3 7 4 > 1 y 7 # r 3 @ r @ 4 r % 2 q q u $ & y 2 r 3 6 k ^ ^ ! <.f 7 r 7 > 3 w 7 > 4 r 4 2 3 r r @ y 3 # 1 4 y 2.w 1 > 1 4 1 r b 2 q % 4 w 1 > a <.! P T T  .I j j J ~ T D J J D P h 6 x 3.x 3 6 3 7 e 3 3 4 4 4 4 4 4 4 4 6 8 d v ! ! ! N N g e 3 3 4 4 4 4 r 1 4 w @ 4 r 2 2 4 w 1 > 3 3 # < > 7 6 s ~ ^ ^ ! i 6 z K F E 1.f > 7 N 6.v > 4 4 4 4 4 4 4 4 > 3 > 6 6 , , , 6 ! ! G ! 9 6 # 2 y 2 w w 3 M ^ ^ ~ L / ^ ^ k 9 P P M P P G G D I } 8.0...Y ' &.| [ | :.:.I F L z ~ 8 3 e # # x z z J h Q :.:.&.E 8.8.G F T  .I k P P z x N f # 7 4 4 4 2 2 2 % + w.iXvXlXzXGXGXGXGXGXGXGXGXGXGXGXKXSXZXZXZXZXZXZXZXZXZXZXZXZXZXZXZX",
"GXGXGXGXGXGXGXGXGXGXGXGXGXGXZXgXgXgXgXgXgXgXgXgXZXZXgXgXgXZXGXGXSXSXJXJXAX7XZ Z aXvXiXC $ 5 q q y 2 4 2 2 4 y 3 3 3 0 + 5 @ + u % % & u 0XQ.  ; u & % 2 , 9 P ^ 1.6.<.1 @ V m 1 0 3 > 3 7 4 1 1 7 1 @ b 2 1 V u 5 2 4 2 4 @ @ r 3 4 w 2 y 1 2 r 2 7 N 1.1.^ ^ K F l G I } Q J z s z x k i i H 3.G 3 > 8 g N c 7 4 4 4 4 4 4 4 4 > > 3 a v N N c a w 3 1 3 4 w w 4 # r 4 w % 2 q 2 2 w 4 2 4 4 1 3 e 8 3 7 z ~ D ^ P 8 6 x T I Q M e > 1 e r w 1 4 4 4 4 4 4 4 4 3 3 > 7 s <.1.6 9 ! 1.6.p 6 8 7 % t 2 2 e > k 3.P P ^ ^ z 8 6 6 k z x x G G G D l F I I F D U :.9.9.&.:.} I F J / k 7 7 > # s 1.~ Q J D } 0.:.} :.:.} j D G D j D J ! ! ! <.f 3 > 7 e w 4 q q q + * C 6XAXJXVXGXGXGXKXKXGXGXGXGXGXGXJXZXZXgXgXgXgXgXgXgXgXgXgXgXgXgX",
"GXGXGXGXGXGXGXGXGXGXGXGXGXGXZXgXgXgXgXgXgXgXgXgXZXZXgXgXZXZXGXGXJXSXSXJXKXJXAXJXAXvXsXZ X q y 4 % 2 % + y 1 4 r 2 0 o y @ 2 u t t 2 q 5XsXiXC w.w.q q 4 7 9 ! 1.<.g 4 # y w.u 1 5 1 1 4 7 4 4 0 1 4 4 q o r.rXV % % % 5 y r 1 1 3 2 2 1 r 4 4 4 2 e v ! ! P D j j G I T K J P ! x ! d 6 8 G ^ ~ ! 7 > a <.6.<.e 4 3 4 4 4 4 4 4 w 7 3 7 w w 3 > 3 1 > 1 3 4 7 7 > > r 4 2 q q % q w 4 2 4 4 3 7 v ! v 6 s ^ ^ J ~ h 6 6 h P Y T ! f 3 2 2 1 2 7 4 4 4 4 4 4 4 4 w > e ! ! 3.5.6 s 1.1.<.# 7 4 3 q y 2 q 4 > 3 8 P ! ! k 6 < > 6 , 7 p k l z D G j G F F D l K ..&.:.:. .T K J J M p 3 3 , d 1.3.:.:.I l U  .5.3.4.3.I j F G F K D z z v N v f 7 4 4 4 2 4 q q 5 t X   S uXFXZXJXGXGXKXKXGXGXGXGXGXGXJXZXZXgXgXgXgXgXgXgXgXgXgXgXgXgX",
"KXKXKXKXKXKXKXKXGXGXGXGXGXGXJXZXZXZXZXZXZXZXZXZXNXgXgXgXZXJXGXGXJXJXJXAXJXGXGXJXJXAXvXe.X * y q t % X V Q.m @ 2 q @ 5 t X m 0XX X O w.xXsXxXxXiXn o 5 q 7 1 > 3 @ @ 2 % Z 5XZ @ 1 4 r 4 3 4 r r r % t + + 0XxXQ.t + t 2 2 q 4 4 2 4 4 @ 2 4 4 1 @ 1 3 6 , , 6 i F T } I J ~ ~ ! P x 9 , h ~ Q I P e , g <.2.<.w 4 3 4 4 4 4 4 4 4 4 4 3 1 > > 1 3 1 1 1 3 3 1 1 1 y 1 4 4 4 u % r 4 2 4 7 3 4 f 2.1.! e k 1.~ ~ ! s , 6 d ! Q T <.r 2 4 4 4 3 w 4 4 4 4 4 4 4 4 3 9 P 3.! ~ ^ 6 6 x f 7 > 4 1 q 2 % 2 u @ r 4 > > , < < p ! ^ P # 3 e d l l l G F I _ ' Y F D T I T T T G k k k 7 7 , 6 P 5.5.;.:.:.E j J j  .^ G P k j D j G K G d 8 e e 7 3 3 4 2 2 4 q q t t * n 8XiXAXJXJXDXJXJXJXKXKXKXJXJXGXJXZXZXZXZXZXZXZXZXZXZXZXZXZXZXZXZX",
"GXGXGXGXGXGXGXGXGXGXGXGXGXGXGXZXZXZXZXZXZXZXZXZXhXhXgXZXZXGXGXGXJXJXKXJXJXGXGXGXJXlXvX6Xn ; * t ; * Z eX9Xt $ % 2 2 q * X 0XsXw.= n xXvXvXvXvXe.o % t t 5 q @ y V %   + e.iXe.+ t t q 4 3 3 3 2 q 2 *   C eXvX0Xt . Z u 2 @ 2 e 4 4 4 4 1 2 2 2 r 4 3 3 , , i G I I K U ~ ~ k 6 3 3 , 9 G T F I M e 1 f <.2.<.e 4 4 4 4 4 4 4 2 % 2 5 2 2 2 4 r 4 4 4 4 4 2 1 1 0 y 1 2 q % q 2 2 2 4 4 3 7 g <.! 2.<.e d ! P ~ P e 6 7 f ! ^ ! c 4 @ 2 r 4 2 4 5 2 2 2 5 5 5 3 6 J ~ T J ~ ~ 9 , 3 1 3 5 u 5 * q q q q % 5 0 4 3 > 3 d ^ 1.J s d k x P G l l G I [ | :.;.K k l k j l x k 8 3 7 3 < 6 K 4.:.} #.] { E l I h J G d G k G ~ D D l ! a 3 3 1 > > 2 4 1 % 2 5 m e.eXxXxXvXAXzXCXGXJXGXGXGXKXGXJXJXJXGXGXJXZXZXZXZXZXZXZXZXZXZXZXZXZXZXZX",
"GXGXGXGXGXGXGXGXGXGXJXGXGXGXGXZXhXhXgXgXgXgXgXgXgXgXgXZXZXJXGXGXGXGXGXGXZXZXGXGXAXvXSXvX0X5XC * . W.sXnXQ.X $ q 2 & X * 9XxXAXlXS 8XSXvXAXvXiX* * 5 + * + X 5 Q.pXw.t A eXxX8XX * 5 % % r 4 1 5 & t o t 0XxXAXuXS n 0XZ t 2 2 @ 4 2 2 r 2 2 2 4 2 2 > 3 7 6 s 1.T D K ^ P d 9 p e 7 , 8 P T D K v 7 > a N 2.V e 4 4 4 4 4 4 2 2 q q 5 2 2 4 4 4 2 4 5 0 5 5 0 5 5 @ Z 5 % 2 % % % 2 w 1 > c 2.<.<.1.! , 6 ! 1.^ a 3 1 3 4 f g a w 2 2 4 4 2 2 4 5 5 5 5 5 5 5 3 z ^ T J ~ ~ k , 7 3 1 y X e.e.  & $ & & V % % @ 2 4 c 2.6.P k k x N ! ! D l F I ' &...;.:.T k x v x v ! v 7 > 3 7 > P :.} { | ' { } G F D K k l h z 9 s z P P z <.f 7 3 3 1 5 q 1 2 q y 5 + 5 n 0XxXAXhXFXJXGXGXGXGXGXKXJXJXJXJXGXGXGXZXZXgXgXhXgXgXgXhXgXgXgXgXgXgX",
"JXJXJXJXJXJXJXJXZXZXZXJXGXGXZXZXZXZXZXZXZXZXZXZXZXZXZXZXZXZXZXZXhXJXJXGXGXJXGXGXGXSXcXlXvXxXA   S AXvXvXe.t t & & u t 5XvXAXAXJXVXGXAXSXxXsXQ.  t 5 @ t t o Z eXnXsXsXlXxXAX0X- X V m % 2 r 5 5 t O ; 6XSXAXJXFXuX0XvXZ & q w 2 2 2 2 q % y y 2 2 4 4 4 7 8 f 1.^ ^ ^ P h i k 1.2.! s , z ^ K P g 3 1 7 f c b w 4 2 2 2 2 2 2 2 2 2 5 5 q 4 q 4 2 2 5 4 2 2 5 t 5 o Q.e.* t * 2 u 2 2 3 > c 6.! <.! f < > g <.x 3 > > 1 % 2 4 4 2 5 5 5 4 2 4 q 2 2 2 2 5 5 5 3 ! ~ J P P s 6 > 3 4 2 *   5XaXZ t X t w.w.t y 5 r m 2.2.x 8 a M x v x k k l U } { &.| } ;.P d g N N N N c w 2 5 @ e 5.:.Y [ | ' .. .j l j T j D J P , 9 a x ! N v e 3 3 5 0 5 5 0 5 2 5 5 t 5 * O 5XvXJXJXDXDXGXJXJXJXAXAXFXFXFXGXGXJXZXZXZXZXZXZXZXZXZXZXZXZXZXZXZX",
"cXZXcXcXmXmXmXZXZXgXgXZXZXZXZXgXGXGXGXGXGXGXGXGXGXGXJXJXZXZXZXgXmXJXhXgXgXPXgXLXZXZXlXzXvXaXA C PXJXlXbXZ O t & O ; 0XvXsXAXCXmXNXLXgXPXsXiXt # 5 5 5 * * : 6XvXbXvXvXFXzXCXuXS O W.e.% X 5 1 $ O - W.aXcXAXgXCXJXAXvXZ * t q q + q 2 % + V V % % q 4 @ > 3 r <.! ! z 6 , d P ~ ! 1.x > p ~ P ~ a > 4 3 > 1 1 2 2 2 2 2 2 2 2 2 + & q q 2 % 2 q 2 4 5 5 % % 5 t t o Q.xXn * $ n w.2 % r 4 f V v d 6 # , 3 7 e # 3 4 q 5 5 2 2 2 2 2 2 2 1 2 2 2 2 2 2 2 2 2 2 4 e x P d , # 7 7 2 y n O   A AXiX8XZ W.vXZ o t 5 y 2.2.c 3 3 a v ! ! G k j G Q :.' #.' R  .z 6 7 b c f e 7 2 1 1 # c 3.;.&.| Y :.T P j j k K d J k z > 6 3 > 1 1 7 3 > 1 5 5 1 @ 2 5 2 % y w.Q.5XS W.uXJXFXmXDXJXCXVXzXzXzXzXVXVXzXgXZXZXZXGXGXGXGXGXGXGXGXGXGXGXGXGX",
"jXzXgXgXgXgXgXgXZXgXgXZXNXgXZXGXGXGXGXGXGXGXGXGXGXGXGXGXJXZXZXgXNXNXNXNXNXNXNXNXjXZXgXhXvXlXiXPXAXGXJXSXA O n   n 0XvXxXhXgXmXmXJXNXhXvXvX0Xo 5 5 5 5 * - W.lXSXSXAXZXJXJXJXPX0XA 0XQ.X * 5 + * Z 7XnXvXgXgXmXFXJXAXPXC ; X Q.V % 5 q X n dXe.o * & y @ @ 3 4 # 3 > > # 6 J J z J ~ d < 6 v ! ! 3 3 3 3 3 3 3 2 2 2 2 2 2 2 2 2 2 2 2 2 q 2 q q % 2 2 2 5 t 5 t * o 5XxXiXW.W.eXQ.o % 4 4 @ 3 > , > 3 # 3 > 4 4 4 2 q t * % q 4 4 r 2 2 q 2 @ 4 r 2 q q % q 2 4 # > 3 > 3 @ > r @ t 0XZ C 0XAXJXJXAXAXuXO $ t r 4 4 3 3 > @ 4 f v e p k k D Q } } E ' ;.^ s , > 4 2 4 4 3 2 5 5 2 w 1.;.' { | ;.l G k k P J k z ~ ! 3 3 > w 7 @ 3 > 4 3 @ 2 q 1 5 2 2 2 2 q w.9XsXSXlXJXGXhXBXMXmXmXzXlXlXzXzXVXZXgXgXJXGXGXGXGXGXGXGXGXGXGXGXGXGXGX",
"zXjXgXgXgXgXgXgXzXgXgXZXZXgXZXGXGXGXGXGXGXGXGXGXGXGXGXGXJXZXZXgXNXNXNXNXNXNXNXNXgXZXgXzXSXAXlXzXLXGXJXvXW.; O - eXbXbXaXhXCXmXDXDXjXhXsXxX5Xo $ y 5 X t 5XaXvXSXKXGXLXJXGXJXFXlXxXvX5X$ X * C W.iXSXSXcXgXmXBXLXGXJXuX: O A iXA o t o e.dXdXZ $ $ * + m t 1 5 5 0 3 3 , d ~ U U L ~ k , , e f f 3 3 3 3 3 2 2 2 2 2 2 2 2 2 2 2 2 2 2 2 2 q q q 2 2 2 5 + w.X * n o 0XvXvXxXxXxXw.X 5 % 2 4 # @ 3 4 4 0 5 0 y % 1 2 5 t 5 * 2 2 2 2 2 @ % 2 4 q 4 2 2 2 2 2 w 4 2 3 2 r > 5 y + X o eXvXiXSXaXZXVXhXAXiX  X V B 4 4 7 4 4 4 4 4 > 6 d z z D Q } E } ;.^ z p 3 3 3 2 4 4 2 2 5 5 @ 3 ! 3. .} T D D k z P k s k ! v 7 > 7 c N <.a 3 # > 4 2 2 q 5 2 2 2 2 2 % X o A iXSXAXDXDXMXMXmXmXgXzXlXzXzXVXZXgXgXJXGXGXGXGXGXGXGXGXGXGXGXGXGXGX",
"jXgXgXgXgXgXgXgXZXgXgXZXZXgXZXGXGXGXGXGXGXGXGXGXGXGXGXGXJXZXZXgXmXmXNXNXNXNXNXNXgXZXgXZXKXJXJXJXJXGXGXcX5X=   6XbXbXvXhXVXDXmXDXgXhXcXvXsXC o ; t * n 5XxXSXSXKXGXGXGXGXGXGXGXJXSXbX5XO - A 0XxXAXSXzXhXgXNXNXGXGXGXuXn C eXnXn O o e.vXvXvXe.  - * t 6Xm 5 5 * 5 5 1 3 z T J L L P k 6 > 1 > 1 2 2 2 2 2 2 2 2 2 2 2 2 2 2 2 2 2 2 2 2 2 2 2 2 q q & & o iXe.*   - xXxXlXaXxXvXZ * t $ % V % 1 3 4 2 t * 5 q 1 4 4 2 % 5 5 2 2 q 2 2 4 q r w % 4 2 2 % 4 % 2 2 q % @ y y * t t t O A AXvXlXAXhXmXMXVXlXw.Q.Q.u w w 4 1 1 4 4 1 # 8 k k z J ^  . . .Q P k e 7 1 2 2 4 2 2 2 5 5 5 @ 6 d p j P j G G ! x 3 7 v v r > 3 e 2.2.<.! g 3 > 7 4 1 2 4 % 2 2 r q 2 2 *   A iXAXDXCXhXCXmXgXgXzXzXzXzXVXZXgXgXJXGXGXGXGXGXGXGXGXGXGXGXGXGXGX",
"gXgXgXmXgXgXgXgXZXgXgXZXZXgXZXGXGXGXGXGXGXGXGXGXGXGXGXGXJXZXZXgXmXmXNXNXNXjXNXjXgXZXgXcXGXJXJXJXGXGXGXSX7X: = lXvXSXvXgXDXmXhXmXgXjXSXSXsX- O ; $ Z 0XvXSXAXKXKXJXGXGXGXGXJXGXKXlXbXeXA W.uXAXAXhXcXVXZXDXmXNXGXGXGXhX7X7XSXSXA C e.AXvXlXvXe.  - = 5XsXt $ * 5 5 t 2 7 ! T z L L z e 3 > > @ @ 2 2 2 2 2 2 2 2 2 2 2 2 2 2 2 2 2 2 2 2 2 2 & & $ & & t   sXxXW.A 5XFXPXvXlXiXxXA O * * A e.% 2 2 q % * = n 5 2 4 w 2 % t t 2 5 2 q q 2 % % 2 q 2 2 q 2 q 2 2 2 5 * + 5 Z n X t t O n lXhXaXKXgXLXFXhXAXvXpXZ + q 4 4 > @ 1 2 3 3 k x k G G l D  .T J z a 3 1 4 2 2 2 2 2 2 2 2 4 > > 3 # 6 ! ! P P x 7 > 7 y 1 3 1 1 3 <.^ z ^ <.a 3 4 4 1 % 5 4 2 + 2 q q t $ * = 8XSXDXPXCXZXmXgXgXgXzXzXVXVXZXgXgXJXGXGXGXGXGXGXGXGXGXGXGXGXGXGX",
"gXmXmXmXgXgXgXgXZXgXgXZXcXgXZXGXGXGXGXGXGXGXGXGXGXGXGXGXJXZXZXgXzXzXzXgXjXjXjXjXgXZXgXgXGXJXFXJXGXGXJXKXcX8XW.AXSXJXKXVXVXmXmXmXmXZXZXhXiXO = O Z eXvXvXSXKXSXGXGXGXGXGXGXJXLXZXKXvXlXiXvXvXAXhXgXZXZXDXJXgXgXGXKXGXKXKXSXSXSXlX7XFXJXvXSXvX7XO O S sXvX- o n Z $ 5 1 e ! ~ J P P d 3 > 1 2 5 % 2 2 2 2 2 2 2 2 2 2 2 2 2 2 2 2 2 2 2 2 2 2 & $ n n O O . uXAXAXAXJXzXPXAXAXaXAXe.  O Z iX5Xo q 2 q $ = Z e.t 2 2 2 % 2 t t % % % 5 % % y 2 + 2 % + 4 2 2 r % 2 5 u * X V 5Xn o =   8XAXAXKXaXGXLXmXhXvXvX0X  X $ % 4 4 2 @ 1 7 k ! ! G G s 6 , l D P z 7 # 1 r 2 2 2 2 2 2 2 2 4 r c v 6 , v v k a 3 > 4 4 @ @ > > > 3 e ! J / 1.N 7 > 1 4 5 q 4 y % $ $ $ t $ t O Z aXAXPXJXgXmXjXjXkXgXmXmXmXZXhXgXJXGXGXGXGXGXGXGXGXGXGXGXGXGXGX",
"mXmXmXmXgXgXgXgXZXgXgXZXZXgXZXGXGXGXGXGXGXGXGXGXGXGXGXGXJXZXZXgXzXzXzXzXgXjXjXjXjXZXgXgXLXJXDXJXGXGXGXGXGXAXJXJXFXJXJXgXgXDXZXmXmXhXgXAXuX. = Z uXAXSXAXAXGXGXGXGXGXJXJXGXGXGXJXSXaXlXvXSXhXgXFXhXgXhXmXZXgXhXSXSXKXZXKXGXGXFXJXLXJXzXJXKXcXlX: n 0XvXsX8XZ 5XA o % @ 7 ! ~ ! P ! p > > @ 2 5 % 2 2 2 2 2 2 2 2 2 2 2 2 2 2 2 2 % 2 2 2 2 & % $ w.0XS   O JXlXJXJXZXPXLXhXPXzXSX7X. Z 0XsXw.o u q o X Z 0X6X* % 2 2 % + % % % 2 % y t 5 t % + 2 t % q 2 + 2 % % & t & $ X 0X6XZ Z A vXAXhXzXhXZXZXhXgXlXxXeXn n $ % 2 4 2 > 7 g ! ~ ! k i 6 < < 9 k z a w w w 2 2 2 2 1 2 2 2 2 B V 2.V 7 # 6 e 3 w 1 # 4 4 @ 2 > 1 c v # p P P ~ <.a @ @ 5 5 5 % 1 % m C $ * n $ X O 5XAXzXCXgXgXjXkXkXjXNXNXmXZXhXgXJXGXGXGXGXGXGXGXGXGXGXGXGXGXGX",
"cXcXmXmXgXgXgXgXZXgXgXZXmXgXZXGXGXGXGXGXGXGXGXGXGXGXGXGXJXZXZXgXzXzXzXzXgXzXkXkXgXcXhXhXFXJXFXJXKXKXKXgXJXGXJXJXCXFXLXzXgXZXZXgXmXhXgXGXPXn S eXJXhXJXJXZXVXGXGXKXKXJXJXGXGXGXGXSXcXcXaXcXhXZXJXCXCXmXCXJXcXhXkXSXKXcXGXGXGXJXJXJXJXJXGXJXGXhX6X6XSXvXxXsXuXiXn + 4 2 w N ! <.x a 6 3 1 @ % 5 % 1 1 2 2 2 2 2 2 2 2 & & & 2 & 2 % 2 5 2 2 % $ X Z vXsXA S JXDXGXGXgXhXJXZXJXGXZXiXA 0XvXiXw.= t q $ Z 0XPXA X % 2 2 2 2 % 1 4 4 + Z e.Z X X V w.m 5 t % % X m q & & & q . Q.sXiX7XxXFXJXlXhXJXhXjXkXzXvXvXiXA n - 5 % % 2 w c ! ~ ~ z i 6 8 p 8 6 9 8 e v V r o 2 1 5 5 5 2 2 2 N N c 7 1 3 6 f 1 2 2 + @ 2 3 1 > f 6.2.3 # p d v N f > @ 1 @ + 5 + o w.9XZ = o * $ O e.lXAXhXZXgXjXkXkXjXNXNXmXZXgXgXJXGXGXGXGXGXGXGXGXGXGXGXGXGXGX",
"cXzXgXgXgXgXgXgXZXgXgXZXmXhXZXGXGXGXGXGXGXGXGXGXGXGXGXGXJXZXZXgXzXzXzXzXgXzXgXgXgXcXhXgXJXJXJXJXKXZXKXZXGXGXDXDXJXJXJXZXhXgXZXJXgXJXZXhXgX7X0XKXhXZXJXLXJXGXGXJXJXKXGXGXGXJXJXJXKXcXlXaXLXgXmXmXmXCXmXhXcXcXcXSXSXSXKXGXZXGXGXFXGXJXGXGXJXJXLXKXKXSXSXvXlXAXvXo $ 4 % 3 e v v 7 > > 4 4 + % q 5 1 1 2 2 2 2 2 2 2 2 & & & 2 2 2 % 2 2 5 5 & $ O A sXSXSXFXZXGXJXJXGXDXuXNXZXhXKXaXSXAXaXAX0X    * Z 0XFXIX: = t $ & u V u y 5 % X A uX0Xe.e.0X6Xm 5 5 + u X W.V & q & & X A vXvXAXAXAXZXAXZXgXgXcXcXaXSXiXe.= X * 5 2 2 w c ! ! ! P k 8 8 ! <.d , > 6 k 2.2.r # 2 2 5 5 * 2 2 2 w 2 1 > b <.v 2.b @ @ 4 1 @ 1 1 > N ! N <., # 3 3 f r 1 5 5 $ $ 5 m n e.sXuX8XS C C A 8XuXzXZXJXgXjXjXjXNXNXNXNXZXgXgXJXGXGXGXGXGXGXGXGXGXGXGXGXGXGX",
"gXgXgXgXgXgXgXgXgXZXZXZXhXgXZXGXGXGXGXGXGXGXGXGXGXGXGXGXGXJXZXgXgXgXgXgXgXgXgXgXZXgXgXZXJXGXGXJXGXGXGXGXGXGXGXGXGXJXDXZXgXgXgXZXZXZXZXZXZXZXZXZXcXJXGXGXJXDXJXGXGXGXGXGXGXGXGXGXcXcXcXcXjXgXNXmXmXmXgXgXgXZXZXSXGXGXGXGXGXGXGXGXGXGXGXGXJXZXZXgXZXgXgXcXzXKXaXO * % % % 2 q 2 @ + 2 2 % % & % 2 + 2 2 @ 2 q 2 + + 1 % 5 1 % 5 % % 2 q & X t =   W.xXSXAXKXSXGXSXGXZXgXgXZXZXZXgXgXgXgXZXAXuX6Xe.5XuXAXAXuX= = : t o e.rXw.X * * O Z uXAXFXCXsXQ.+ 2 % & ; ; uX5X& $ & & X A vXvXFXJXGXJXZXjXjXcXvXaXsXiXC   * + @ q @ 1 w 2.2.N 2.v 3 p L P N N # 3 k J ! ! r 1 2 2 2 2 % % % 2 @ @ e N ! ! ! ! 7 > e g v 3 @ > 3 v N ! M 3 # 4 + o 2 2 5 5 % 5 t W.0XeXsXSXAXPXeXuXaXhXzXzXZXDXgXgXgXgXgXgXmXmXgXZXZXJXGXGXGXGXGXGXGXGXGXGXGXGXGXGX",
"gXgXgXgXgXgXgXgXgXZXZXgXgXgXZXGXGXGXGXGXGXGXGXGXGXGXGXGXGXJXZXgXgXgXgXgXgXgXgXgXZXgXgXZXJXGXGXJXGXGXGXGXGXGXGXGXGXGXZXZXgXgXgXgXgXgXZXVXZXZXZXZXgXZXGXGXGXJXGXGXGXGXGXGXGXGXGXGXZXZXZXgXgXgXgXgXgXgXgXgXgXZXZXDXGXGXGXGXGXGXGXGXGXGXGXGXGXZXZXgXZXgXhXZXgXJXhX. X % 5 & % 2 2 2 $ 2 & q q & & & t # + 4 % % 2 1 t * % n y @ % 2 q % $ Z C ; o = 5XvXJXAXKXKXKXSXGXZXgXgXgXZXgXgXZXgXhXZXGXGXGXzXJXJXJXAX0X. = = O t 6XsX5X= X t O e.lXFXCXCX0XZ * $ $ q o A zXuXn & q $ * e.lXFXJXJXGXJXZXjXjXcXiXdXsXe.* * t 5 t @ @ # 4 c B B b e 3 k L M N m 1 3 k J P M w 3 2 2 2 2 % % & % + e N M z ! G i 6 s z ! <.x > # 4 V M P ! 3 # 4 5 2 5 % % 5 % + - e.iXAXSXKXGXGXZXGXGXGXJXZXgXgXgXgXgXgXgXgXgXgXgXgXZXJXGXGXGXGXGXGXGXGXGXGXGXGXGXGX",
"gXgXgXgXgXgXgXgXhXgXgXgXgXZXZXGXGXGXGXGXGXGXGXGXGXGXGXGXGXZXZXhXgXgXgXgXgXgXgXgXgXgXgXZXJXGXGXGXGXGXGXGXGXGXGXGXGXGXJXZXZXgXgXgXgXgXgXgXgXgXgXgXgXZXGXGXGXGXGXGXGXGXGXGXGXGXGXGXgXgXgXgXgXgXgXgXgXgXgXgXgXZXZXZXGXGXGXGXGXGXGXGXGXGXGXGXGXJXZXhXZXZXhXZXhXZXhX. O * 5 2 % % & % $ & % 2 q % & X u 5 % 2 + % & + 5 o n Q.Z + 5 % q X o 6X5Xn .   0XSXJXAXKXGXGXSXJXZXgXgXgXZXgXgXZXgXhXhXZXLXJXSXGXJXJXJXuXO : :   A iXvX0XC o O = 6XzXVXVXFX6Xt $ % $ $ O 0XAXvXw.X u *   8XlXJXJXGXGXJXZXgXkXlXnXnX8X= X t $ + @ # 4 @ 4 2 2 2 1 1 e M J z v c @ > a P ! g 2 @ 2 2 % % % % % % e B ! ! ! x 8 < p ! P ~ ! ! 3 # w 2.x P ! 7 @ 2 % q & % 2 q * + o n 6XAXJXZXGXJXGXGXGXGXJXmXhXhXgXgXgXgXgXgXgXgXgXgXZXZXGXGXGXGXGXGXGXGXGXGXGXGXGXGX",
"gXgXgXgXgXgXgXgXhXhXgXgXZXZXZXJXGXGXGXGXGXGXGXGXGXGXGXGXJXZXZXgXgXgXgXgXgXgXgXgXgXgXgXZXJXGXGXGXGXGXGXGXGXGXGXGXGXGXJXZXZXZXgXgXhXhXgXgXgXgXgXgXgXZXGXGXGXGXGXGXGXGXGXGXGXGXGXGXgXZXZXgXgXgXgXgXgXgXgXgXgXVXZXZXGXGXGXGXGXGXGXGXGXGXGXGXGXJXZXhXZXZXhXgXhXgXgX= ; 5 % % % 2 % X & q 2 + $ & $ $ $ * % + % 2 % & $ o e.iXw.o 5 X $ X   eXsXW.n - uXKXJXZXGXGXGXJXZXZXgXZXZXgXZXgXgXgXgXgXgXhXhXhXGXJXKXJXiXC . O n 0XAXvXsX6XZ : A iXAXhXVXFX8X= - t X   A lXZXKX0Xu ;   O eXAXJXGXGXGXJXZXcXkXlXbXiX- O = - * t o n m 2 4 2 2 # @ 1 a M M M N b @ > e z x w @ + 1 % * * * * % % c V <.N v 9 < , v ~ z z P x > > 7 2.M ! N 3 > 2 + 2 % & 2 % $ $ * o A aXJXGXGXLXDXJXJXJXZXgXhXhXgXgXgXgXgXgXgXgXgXgXZXZXJXGXGXGXGXGXGXGXGXGXGXGXGXGX",
"ZXZXZXZXZXZXZXZXgXgXgXZXZXJXJXZXJXJXJXJXJXJXJXJXJXGXGXJXJXZXZXZXZXZXZXZXZXZXZXZXgXZXZXZXZXJXGXGXJXJXJXJXJXJXJXJXJXJXJXJXZXZXZXZXgXgXgXgXgXZXZXZXgXZXJXGXGXGXGXJXJXJXJXJXJXJXJXJXZXZXZXZXZXZXZXZXZXZXZXZXZXZXZXZXJXJXJXJXJXJXJXJXJXGXGXGXGXJXZXgXZXJXgXZXhXgXZXC * % % % % 2 & + & & q $ * 5 $ m t O t n * & & t   n 0XvXe.X * ; $ * X iXvXiX0X6XlXJXAXAXGXGXGXLXZXZXZXZXZXZXZXZXZXZXZXgXhXhXZXZXKXKXSXKXcX7X: = 8XaXAXAXAXvX0X5XuXSXVXVXDXCXUXO t ; O t 0XSXLXKXvX6Xn O A SXAXGXJXJXJXLXZXZXcXcXSX6XO = = O o * e.5Xm 2 2 2 2 % % w N P M ! B 4 4 1 1 7 7 @ @ 5 * * * * * * * % w c N e 3 # 3 g ! P z z ~ e # > 1 <.! ! k @ 1 4 + & & 2 & $ * C Z - S uXVXJXGXDXGXGXGXGXJXZXgXhXZXZXZXZXZXZXZXZXZXZXZXZXZXJXGXGXJXJXJXJXJXJXJXJXJXJX",
"ZXZXZXZXZXZXZXZXZXZXZXJXJXGXJXZXZXZXZXZXZXZXZXZXZXZXZXZXZXZXZXZXZXZXZXZXZXZXZXZXZXZXJXZXZXZXZXJXZXZXZXZXZXZXZXZXZXZXJXJXJXJXZXZXZXZXZXZXZXZXZXZXZXZXZXZXJXGXLXZXZXZXZXZXZXZXZXZXJXJXZXZXZXZXZXZXZXZXJXJXJXZXZXZXZXZXZXZXZXZXZXZXZXZXJXJXJXJXZXZXZXGXZXZXZXZXGXe.o + % % % 2 2 2 + + & $ t $ $ e.6Xe.5Xw.X $ - o O 5XsXxX0Xn X ; * * t iXvXxXvXAXZXAXZXZXJXDXLXDXZXZXJXJXZXZXZXJXJXJXZXZXgXgXZXSXZXSXgXhXSXAX8X5XaXAXAXxXxXAXAXAXSXSXVXDXJXCX8XO O   ; 5XnXSXLXNXbXsX7X8XuXKXSXLXJXDXZXZXJXSXAXcXlXC O   n Z 8X0XsX9X5 + % + + 2 @ r <.! N N r @ 2 % @ 1 > # @ 5 * * * * * * * % 2 1 1 > # # 8 <.! M M M ! 3 # 1 @ c <.N w # 1 2 % % & % & * u e.uX7XuXAXLXZXGXGXGXJXZXLXJXJXZXZXZXZXZXZXZXZXZXZXJXJXZXZXZXZXZXJXZXZXZXZXZXZXZXZXZXZX",
"GXGXGXGXGXGXGXGXGXJXJXGXGXGXZXZXZXZXZXZXZXZXZXZXgXZXZXZXZXJXJXGXGXGXGXGXGXGXGXGXJXGXGXJXZXgXZXZXZXZXZXZXZXZXZXZXgXZXZXJXGXGXJXJXGXGXGXGXGXGXGXGXGXZXzXgXZXZXZXgXZXZXZXZXZXZXZXZXGXGXGXGXJXJXJXJXJXJXGXGXGXJXZXZXZXZXZXZXZXZXZXZXZXZXgXZXZXZXJXGXJXGXGXLXGXGXGX0Xo $ & % % & 2 & & m t $ ; o n 0XvXsXiXw.o O ; O e.xXAXvXaXW.-   = O Z aXxXlXhXAXVXmXVXDXZXmXNXZXZXJXGXGXGXJXJXGXJXJXGXGXGXGXGXGXhXcXcXhXcXSXhXzXSXSXzXhXhXhXAXJXKXKXGXJXGXCX6X=   n W.nXSXcXZXhXhXkXSXKXSXgXDXmXDXZXVXZXJXGXKXAXzXS 8X6XuXuXlXvXuXZ   $ * $ % 2 + r <.N M a % @ + % % 2 1 # $ $ * % * $ * * % % 2 # # 3 > @ r <.! ! M g e @ @ 4 @ w N c 2 @ 2 % q 2 q $ $ * * e.vXAXJXFXgXhXhXmXgXhXhXgXJXGXGXGXGXGXGXGXGXGXGXGXGXGXJXZXZXZXZXZXZXZXZXZXZXZXZXZXZXZX",
"GXGXGXGXGXGXGXGXGXGXGXGXGXGXZXgXgXgXgXgXgXgXgXgXgXgXgXZXZXJXGXGXGXGXGXGXGXGXGXGXJXGXGXJXZXgXgXZXgXgXgXgXgXgXgXgXhXgXZXJXGXGXGXGXGXGXGXGXGXGXGXGXGXZXgXhXgXZXgXhXgXgXgXgXgXgXgXgXGXGXGXGXGXGXGXGXGXGXGXGXGXGXJXZXgXgXgXgXgXgXgXgXgXhXhXhXgXZXGXGXGXGXGXJXGXGXGXaX* & & $ % & $ o C Q.C O * O A iXxXSXeXC O O O S uXSXAXvXAXiXe.- =   A aXlXAXzXhXmXhXmXDXmXgXgXZXZXJXGXGXGXGXGXGXGXGXGXGXGXGXGXJXZXhXcXhXgXaXKXhXhXZXhXPXDXJXCXLXGXZXGXLXLXGXuXC : 5XbXSXSXkXJXLXjXkXjXjXGXgXhXDXZXmXgXZXKXGXKXSXJXuXlXJXAXlXAXxX0Xo O t * + $ $ + w B N a 2 o 5 + 5 % % @ + 5 5 % % % $ * * % % + w c e # # b V N ! N a @ % @ 1 @ % B c + % % + % $ q X $ - X Z iXvXzXPXmXDXmXmXZXgXhXZXGXGXGXGXGXGXGXGXGXGXGXGXGXGXJXZXZXgXgXZXgXgXgXgXgXgXgXgXgXgX",
"GXGXGXGXGXGXGXGXGXGXGXGXGXGXJXgXgXgXgXgXgXgXgXgXgXgXgXgXZXZXGXGXGXGXGXGXGXGXGXGXGXGXGXJXZXgXgXZXgXgXgXgXgXgXgXgXgXgXZXGXGXGXGXGXGXGXGXGXGXGXGXGXGXJXZXgXgXZXZXgXgXgXgXgXgXgXgXgXJXJXGXGXGXGXGXGXGXGXGXJXGXGXGXZXgXgXgXgXmXmXmXzXgXVXZXgXgXZXJXGXGXGXGXGXGXGXGXSX6Xo $ & X $   X e.iXe.  o S 0XAXlXSX7X= . ; e.eXzXJXJXAXJXSXuXW.= . e.lXlXzXAXgXVXmXmXmXNXNXNXNXZXGXGXGXJXGXGXGXGXGXGXGXGXGXGXGXcXkXjXjXjXjXjXgXgXmXZXVXmXCXDXGXGXGXGXGXGXDXhXuXuXaXSXSXKXZXNXNXjXjXjXjXNXNXNXNXNXmXgXZXJXGXKXKXJXJXJXJXJXJXJXAX8XO = * = n X * q % % % + % 2 % $ % % % % % * * 2 % % % + @ + o r g N c 4 + w V N g 2 1 # % @ % @ % + + & % $ 5 % + t X o - ; C 0XSXgXgXLXmXDXmXZXgXgXgXZXGXGXGXGXGXGXGXGXGXGXGXGXGXJXZXgXZXZXgXgXgXgXgXgXgXgXgXgXgX",
"GXGXGXGXGXGXGXGXGXGXGXGXGXGXJXgXgXgXgXgXgXgXgXgXgXgXgXgXZXZXGXGXGXGXGXGXGXGXGXGXGXGXGXJXZXgXgXZXgXgXgXgXgXgXgXgXgXgXZXGXGXJXJXGXGXGXGXGXGXGXGXGXGXJXZXgXgXZXZXgXgXgXgXgXgXgXgXgXJXJXGXGXGXGXGXGXGXGXGXJXGXGXGXZXgXgXgXgXgXgXNXNXgXZXZXgXgXZXJXGXGXGXGXGXGXGXGXSXiX* $ * t X - * 6XnX6X- n 7XzXzXzXSX6X= C 5XaXSXcXGXGXLXGXKXSXuXe.S 7XAXZXzXCXgXmXmXmXmXNXNXNXNXZXGXGXGXJXGXGXGXGXGXGXGXGXGXGXGXcXjXjXjXjXjXjXjXgXmXZXmXmXNXLXGXGXJXGXGXGXGXZXhXhXAXKXKXJXjXgXgXNXNXNXNXNXNXNXNXNXmXgXZXJXGXKXKXGXJXGXJXGXGXJXJX7X= . - A W.- X $ % & % $ + $ $ $ $ % % % % & * % 2 % % % + + % f B N g 2 + 2 r w 4 @ % + * % % 2 2 % % * * $ $ X q X * *     C 0XSXgXgXLXmXDXmXZXgXgXgXZXGXGXGXGXGXGXGXGXGXGXGXGXGXJXZXgXZXZXgXgXgXgXgXgXgXgXgXgXgX",
"GXGXGXGXGXGXGXGXGXGXGXGXGXGXGXZXgXgXgXgXgXgXcXmXgXgXgXgXZXZXGXGXGXGXGXGXGXGXGXGXGXGXGXJXZXgXgXZXgXgXgXgXgXgXcXmXgXgXZXGXGXJXGXGXGXGXGXGXGXGXGXGXGXJXZXgXgXZXZXgXgXgXgXgXgXgXcXmXJXJXGXGXGXGXGXGXGXGXGXJXGXGXGXZXgXgXgXgXgXgXgXgXgXZXZXgXhXZXJXGXGXGXGXGXGXGXGXKXsXQ.. * o - o A eXvXiX6X0XAXAXPXzXKXaX7XeXsXSXSXGXGXGXGXGXKXKXSXPXuXhXKXZXgXmXgXmXmXmXmXNXmXNXjXZXJXGXGXGXGXGXGXGXGXGXGXGXGXGXGXgXgXgXgXgXmXmXmXmXmXZXmXmXNXLXGXGXGXGXGXGXGXGXGXGXGXGXGXZXgXgXZXNXNXNXNXNXNXNXNXNXgXgXZXJXGXGXGXGXGXGXGXGXGXGXKXPXA C e.uXeX= o & & & + X % & $ $ $ $ % % % & & % % % % 2 + @ r c <.N e @ @ % % @ + + + * * * $ & $ $ $ * - * $ + $ & n O - - n uXSXgXgXDXmXNXmXZXmXgXgXZXGXGXGXGXGXGXGXGXGXGXGXGXGXJXZXgXZXZXgXgXgXgXgXmXmXgXgXgXgX",
"GXGXGXGXGXGXGXGXGXGXGXGXGXGXGXZXgXgXgXgXgXjXcXmXgXgXgXgXZXZXGXGXGXGXGXGXGXGXGXGXGXGXGXJXZXgXgXZXgXgXgXgXgXjXcXmXgXgXZXGXGXGXGXGXGXGXGXGXGXGXGXGXGXJXZXgXgXZXZXgXgXgXgXgXgXjXcXmXJXJXGXGXGXGXGXGXGXGXGXJXGXGXGXZXgXgXgXgXgXgXgXgXgXNXZXgXhXZXJXGXGXGXGXGXGXGXGXKXAXeXZ - = O C 6XvXsXlXlXAXJXVXFXhXgXSXSXSXlXkXKXGXGXGXGXGXZXZXKXSXAXSXZXgXmXmXmXmXmXmXmXmXmXjXjXZXJXGXGXGXGXGXGXGXGXGXGXGXGXGXGXgXgXgXgXmXmXmXmXmXmXZXmXmXNXDXGXGXGXGXGXGXGXGXGXGXGXGXGXJXZXZXJXNXNXNXNXNXjXNXgXZXgXgXZXJXGXGXGXGXGXGXGXGXGXGXGXJXuXeXiXvXuXo X $ $ $ o X m Z t $ $ $ $ $ $ & & + % + % 2 + @ c B <.B 4 + & & + + + * + - O $ X + X $ X O - * $ $ * * e.A   = C uXZXgXmXZXmXNXgXZXgXgXgXDXGXGXGXGXGXGXGXGXGXGXGXGXGXJXZXgXZXZXgXgXgXgXgXgXgXgXgXgXgX",
"GXGXGXGXGXGXGXGXGXGXGXGXGXGXGXZXgXgXmXgXgXcXgXmXgXgXgXgXZXZXGXGXGXGXGXGXGXGXGXGXGXGXGXJXZXgXgXZXgXgXmXgXgXcXgXmXgXgXZXGXGXGXJXGXGXGXGXGXGXGXGXGXGXJXZXgXgXgXZXgXgXgXmXgXgXcXgXmXJXJXGXGXGXGXGXGXGXGXGXJXGXGXGXZXgXgXgXgXgXgXzXgXgXjXZXgXgXZXJXGXGXGXGXGXGXGXGXKXAXSXeXO - O W.vXSXhXcXhXhXZXmXZXZXgXgXcXkXSXSXKXZXLXJXGXGXGXKXSXKXKXSXhXgXmXNXNXNXNXNXNXgXgXgXkXcXGXGXGXGXGXGXGXGXGXGXGXGXGXGXGXmXmXmXmXmXmXmXmXgXmXZXZXmXNXDXGXGXGXGXKXKXKXGXGXJXGXGXGXJXZXZXZXgXmXmXgXgXgXgXzXzXgXgXZXJXGXGXGXGXGXGXGXGXGXGXGXKXJXzXlXvXiX- $ X X q X X w.5XC $ $ $ $ $ $ $ & + % + @ 2 + @ c <.N f 2 + % & $ 2 % * O = X $ X & $ * O O * X & u X ; A iX7X: S PXZXgXNXZXgXjXgXZXgXgXgXZXGXGXGXGXGXGXGXGXGXGXGXGXGXJXZXgXZXZXgXgXgXgXgXgXgXgXgXgXgX",
"GXGXGXGXGXGXGXGXGXGXGXGXGXGXGXVXgXgXmXgXgXgXgXgXgXgXgXgXZXZXGXGXGXGXGXGXGXGXGXGXGXGXGXJXZXgXgXZXgXgXmXgXgXgXgXgXgXhXZXGXGXGXJXGXGXGXGXGXGXGXGXGXGXJXgXhXgXZXZXgXgXgXmXgXgXgXgXgXJXJXGXGXGXGXGXGXGXGXGXJXGXGXGXZXgXgXgXgXgXgXgXcXgXgXZXgXgXZXJXGXGXGXGXGXGXGXGXGXKXSXcX8X. Z uXSXcXhXZXjXgXJXmXhXmXZXcXSXvXSXKXSXGXGXJXLXGXGXKXKXSXKXZXhXmXmXZXmXNXNXNXNXgXgXgXkXcXGXGXGXGXGXGXGXGXGXGXGXGXGXGXGXmXmXmXmXmXmXmXmXgXmXZXZXgXZXZXGXGXGXGXKXSXSXSXGXJXGXGXGXGXZXgXhXzXzXzXzXzXzXzXzXzXgXgXZXJXGXGXGXGXGXGXGXGXGXGXGXZXKXAXlXxXiXZ X $ X t X * 5XiXe.$ $ $ $ $ $ $ & + % + + 2 @ @ y V c w % + + $ $ % % * = = O * & & $ ; $ * * $ m o * O Z vXxXuXuXhXgXjXNXZXjXgXgXZXgXgXgXZXGXGXGXGXGXGXGXGXGXGXGXGXGXGXZXgXZXZXgXgXgXgXjXcXgXgXgXgXgX",
"GXGXGXGXGXGXGXGXGXGXGXGXGXGXJXgXgXgXgXgXgXgXgXgXgXgXgXgXZXZXGXGXGXGXGXGXGXGXGXGXGXGXGXJXZXgXgXZXgXgXgXgXgXgXgXgXgXgXZXGXGXJXJXGXGXGXGXGXGXGXGXGXGXJXgXhXgXZXZXgXgXgXgXgXgXgXgXgXJXJXGXGXGXGXGXGXGXGXGXJXGXGXGXZXgXgXgXgXgXgXgXjXgXgXzXgXgXZXJXGXGXGXGXGXGXGXGXGXSXSXKXhX8XeXlXlXKXgXjXZXZXDXBXBXhXhXhXSXcXSXSXKXGXGXGXGXGXGXGXSXSXKXZXgXmXgXZXmXNXNXNXjXgXgXkXkXcXGXGXGXJXGXGXGXGXGXGXGXGXGXGXGXVXVXVXVXVXVXVXVXgXzXZXzXgXcXZXKXLXJXKXKXSXSXKXGXGXGXGXGXJXZXgXhXzXzXzXzXzXzXzXzXzXgXgXZXJXGXGXGXGXGXGXGXGXGXGXGXSXKXKXvXvXsXe.  X o X O Z iXdX5X$ $ $ $ $ $ $ $ $ $ $ $ $ @ @ 2 r w 2 + $ $ * $ $ % * = O O $ & $ $ & X * & & w.e.X . Z aXAXzXZXjXgXjXZXZXjXgXgXZXgXgXgXSXGXGXGXGXGXGXGXGXGXGXGXGXGXGXZXgXZXZXgXgXgXcXcXgXgXgXgXgXgX",
"GXGXGXGXGXGXGXGXGXGXGXGXGXGXJXgXgXgXgXgXgXgXgXgXgXgXgXgXZXZXGXGXGXGXGXGXGXGXGXGXGXGXGXJXZXgXgXZXgXgXgXgXgXgXgXgXgXhXZXGXGXJXJXGXGXGXGXGXGXGXGXGXGXJXgXhXgXZXZXNXgXgXgXgXgXgXgXgXJXJXGXGXGXGXGXGXGXGXGXJXGXGXGXZXgXgXgXgXmXgXmXgXgXgXZXgXgXZXJXGXGXGXGXGXGXGXGXGXGXZXZXZXgXLXKXhXhXhXNXZXgXmXmXmXNXJXgXKXKXKXSXJXJXJXGXGXGXGXSXSXJXGXcXgXgXhXZXmXNXNXjXjXgXgXgXkXcXJXGXGXJXGXGXGXGXGXGXGXGXGXGXGXVXVXVXVXmXVXmXmXgXzXcXzXgXcXZXKXZXJXKXKXKXKXKXGXGXGXGXJXJXLXcXzXzXzXzXzXzXzXzXzXzXgXgXZXJXGXGXGXGXGXGXGXGXGXGXGXGXSXzXlXlXlX5X  - * O n 5XxXeXZ O $ $ $ $ $ $ % $ $ $ $ $ % @ + + + + + $ * * $ X % $ - o O X $ $ $ * X * X X w.iXe.= e.SXSXZXhXZXgXjXZXZXcXgXgXZXgXgXgXSXGXGXGXGXGXGXGXGXGXGXGXGXGXJXZXgXZXZXgXgXgXmXmXmXgXgXgXgXgX",
"GXGXGXGXGXGXGXGXGXGXJXGXGXGXZXgXgXgXgXgXgXgXgXgXZXZXgXgXgXZXJXJXGXGXGXGXGXGXGXGXGXGXGXGXZXgXgXZXgXgXgXgXgXgXgXgXZXhXZXGXGXGXGXGXGXGXGXGXGXGXGXGXGXJXZXgXgXZXgXhXgXgXgXgXgXgXgXgXGXGXGXGXGXGXGXGXGXGXJXGXGXGXJXZXgXgXgXgXgXgXgXgXhXZXgXZXgXhXJXGXGXGXGXGXGXGXGXGXGXGXGXGXKXZXcXgXgXgXgXgXmXmXNXmXmXgXgXSXGXGXGXJXGXGXGXGXGXGXGXKXJXJXZXgXgXgXZXZXgXgXgXgXgXgXgXgXhXGXGXGXJXGXGXGXGXGXGXGXGXGXGXGXmXmXmXzXmXzXgXgXgXZXZXZXgXgXZXGXGXGXGXGXGXGXKXGXJXGXGXGXGXJXZXcXzXzXzXzXzXzXzXgXZXgXgXZXGXGXGXJXGXGXGXGXGXGXGXGXLXGXGXzXhXJXuXS     O W.sXvXW.X o - X X % % + + % 5 $ X t X X X + 2 % $ * X $ & & o ; * $ Z   Z X   * * * t Q.6XvXzXlXzXZXAXZXgXgXjXjXjXgXgXgXgXZXgXhXgXZXGXGXGXGXGXGXGXGXGXGXGXGXGXJXZXgXgXgXZXgXgXgXgXgXgXgXgXgXgX",
"GXGXGXGXGXGXGXGXGXGXGXGXGXGXJXZXgXgXgXgXgXgXgXgXgXgXgXgXZXZXGXGXGXGXGXGXGXGXGXGXGXGXGXGXZXgXgXgXgXgXgXgXgXgXgXgXgXhXgXGXGXGXGXGXGXGXGXGXGXGXGXGXGXZXgXgXgXgXhXhXgXgXgXgXgXgXgXgXGXGXGXGXGXGXGXGXGXGXGXGXGXGXJXZXgXgXgXgXgXgXgXgXhXZXgXZXZXgXGXGXGXGXGXGXGXGXGXGXGXGXGXGXJXZXgXhXgXgXgXgXgXgXgXgXhXhXgXZXGXGXGXGXGXGXGXGXGXGXGXGXGXGXZXZXgXgXgXgXgXgXgXgXgXgXgXgXgXGXGXGXGXGXGXGXGXGXGXGXGXGXGXGXgXgXgXgXgXgXgXgXgXgXZXgXhXgXZXJXGXGXGXGXGXGXGXGXGXGXGXGXJXZXZXgXgXgXgXgXgXgXgXgXgXgXgXZXGXGXGXGXGXGXGXGXGXGXGXGXJXGXGXZXhXGXGXuXW.A 5XxXvX0Xn X * * $ *   X 5 + $ $ X X $ o $ $ $ & $ X $ + % $ $ X $ $ O 0X5XiXo - O O = - sXvXJXJXJXJXGXJXZXhXgXgXgXgXgXgXgXgXZXgXhXgXJXGXGXGXGXGXGXGXGXGXGXGXGXGXJXZXgXgXgXgXgXgXgXgXgXgXgXgXgXgX",
"GXGXGXGXGXGXGXGXGXGXGXGXGXGXGXZXgXgXgXgXgXgXgXgXgXhXgXZXZXJXGXGXGXGXGXGXGXGXGXGXGXGXGXGXZXgXgXgXgXgXgXgXgXgXgXgXhXhXgXJXGXGXGXGXGXGXGXGXGXGXGXGXJXZXgXgXgXgXgXhXgXgXgXgXgXgXgXgXGXGXGXGXGXGXGXGXGXGXGXGXGXGXGXJXgXgXgXgXgXgXgXgXhXgXgXZXZXZXGXGXGXGXGXGXGXGXGXGXGXGXGXGXJXZXgXhXgXgXgXgXgXgXgXgXhXhXgXZXGXGXGXGXGXGXGXGXGXGXGXGXGXGXJXZXgXgXgXgXgXgXgXgXgXgXgXgXZXGXGXGXGXGXGXGXGXGXGXGXGXGXGXGXgXgXgXgXgXgXgXgXgXgXZXgXgXgXZXZXGXGXGXGXGXGXGXGXGXGXGXGXJXZXgXgXgXgXgXgXgXgXgXgXgXgXgXZXKXGXGXGXGXGXGXGXGXGXGXGXGXGXGXgXhXhXJXKXxXuXxXvXxX8XO O O X X $ $ $ 5   * $ X & $ & $ $ $ X X $ $ $ X $ * $ o * X 5XsXnX9X. = O O n 6XaXKXGXGXGXGXJXzXhXgXgXgXgXgXgXgXgXgXgXhXZXJXGXGXGXGXGXGXGXGXGXGXGXGXGXGXZXZXgXgXhXgXgXgXgXgXgXgXgXgXgX",
"JXJXJXJXJXJXJXJXJXJXJXJXGXJXJXJXZXZXZXZXZXZXZXZXZXZXZXZXZXJXJXJXJXJXJXJXJXJXJXJXJXGXGXJXZXZXZXZXZXZXZXZXZXZXZXZXZXZXZXJXJXJXGXGXJXJXJXJXJXJXJXJXZXZXZXZXZXZXZXZXZXZXZXZXZXZXZXZXJXJXJXJXJXJXJXJXJXJXJXJXJXGXJXJXZXZXZXZXZXZXZXZXZXZXZXZXZXZXJXJXJXJXJXJXJXJXJXJXGXJXJXJXZXZXZXZXZXZXZXZXZXZXZXZXZXZXZXZXJXGXGXGXJXJXJXJXJXJXJXJXGXJXJXZXZXZXZXZXZXZXZXZXZXZXZXZXZXJXGXJXJXJXGXJXJXJXJXJXJXJXJXJXZXZXZXZXZXZXZXZXZXZXZXZXZXZXZXZXJXJXJXJXJXJXJXJXJXJXJXJXJXZXZXZXZXZXZXZXZXZXZXZXZXZXZXZXJXJXGXKXJXJXJXJXJXJXJXJXGXGXgXhXgXhXhXAXvXlXxXxXiXe.O O - Z C o ; o * * o * $ * X * X X $ o $ t * X o * $ $ X * O - nXxXxX5X. O O - 6XAXKXGXGXGXGXJXZXgXZXZXZXZXZXZXZXZXZXZXZXZXJXJXGXGXJXJXJXJXJXJXJXJXGXGXJXZXZXZXZXZXZXZXZXZXZXZXZXZXZXZX",
"ZXZXZXZXZXZXZXZXZXZXZXZXZXZXZXZXJXJXJXJXJXJXJXJXJXJXJXJXZXZXZXZXZXZXZXZXZXZXZXZXZXZXZXZXJXJXJXJXJXJXJXJXJXJXJXJXJXGXJXZXZXZXZXZXZXZXZXZXZXZXZXZXZXJXJXJXJXJXJXJXJXJXJXJXJXJXJXJXZXZXZXZXZXZXZXZXZXZXZXZXZXZXZXZXJXJXJXJXJXJXJXJXGXJXJXJXZXZXZXZXZXZXZXZXZXZXZXZXZXZXZXZXZXJXGXGXJXJXJXJXJXJXJXJXGXGXJXJXZXZXZXZXZXZXZXZXZXZXZXZXZXZXZXJXJXJXGXGXJXJXJXJXJXJXJXJXZXZXZXZXZXZXZXZXZXZXZXZXZXZXZXZXJXJXJXJXJXJXJXJXJXJXJXJXJXJXJXZXZXZXZXZXZXZXZXZXZXZXZXZXZXJXJXGXJXJXJXJXJXJXJXJXGXGXJXJXZXZXZXZXZXZXZXZXZXZXZXZXZXZXgXZXGXGXZXSXhXSXSXSXuXn . O 8X7XA O X O X   ; V t * X X X t X X $ $ X X X $ X X ; $ X   iXvXvXsXeX= O = 7XAXAXZXZXZXZXZXJXGXJXJXJXJXJXJXJXJXGXGXGXJXZXZXZXZXZXZXZXZXZXZXZXZXZXZXZXZXJXJXGXGXJXJXJXJXJXJXJXJXJXJX",
"gXgXgXgXgXgXgXgXgXgXZXgXgXgXZXZXGXGXGXGXGXGXGXGXGXGXGXGXJXZXgXhXgXgXgXgXgXgXgXgXgXhXgXZXJXGXGXGXGXGXGXGXGXGXGXGXGXGXGXZXmXZXgXhXgXgXgXgXgXgXgXgXZXJXGXGXGXGXGXGXGXGXGXGXGXGXGXGXgXgXgXgXgXgXgXgXgXgXZXgXgXgXZXZXGXGXGXGXGXGXGXGXGXGXGXJXJXJXgXhXgXgXgXgXgXgXgXgXhXgXgXZXZXGXGXGXGXGXGXGXGXGXGXGXGXGXGXJXZXgXgXgXgXgXgXgXgXgXgXgXgXzXZXJXGXGXGXGXGXGXGXGXGXGXGXGXJXZXhXgXZXgXgXZXgXgXgXgXgXgXgXgXGXGXGXGXGXGXGXGXGXGXJXGXGXGXJXZXgXgXgXgXgXgXgXgXgXgXgXZXZXJXGXGXGXGXGXGXGXGXGXGXGXGXGXJXZXgXgXgXgXgXgXgXgXgXgXgXhXZXZXZXGXGXJXGXGXKXKXSX0X= : 8XaX0Xn     A S n 6XQ.t * * $ n C * * O X t O * X *   X $ O o W.vXiXiXvXsXe.7XAXAXgXgXgXhXhXZXGXGXGXGXGXGXGXGXGXGXGXGXGXGXZXgXhXhXgXgXgXgXgXgXgXgXhXgXZXJXGXGXGXGXGXGXGXGXGXGXGXGXGXGX",
"gXgXgXgXgXgXgXgXgXgXZXgXhXgXZXJXGXGXGXGXGXGXGXGXGXGXGXGXJXZXZXgXgXgXgXgXgXgXgXgXgXgXgXZXGXGXGXGXGXGXGXGXGXGXGXGXGXGXGXZXhXZXZXhXgXgXgXgXgXgXgXgXgXZXGXGXGXGXGXGXGXGXGXGXGXGXGXGXgXgXgXgXgXgXgXgXhXgXZXgXhXgXZXJXGXGXGXGXGXGXGXGXGXJXGXJXGXGXgXgXgXgXgXgXgXgXgXgXgXgXgXgXZXJXGXGXGXGXGXGXGXGXGXGXGXGXGXJXgXhXgXZXgXgXgXgXgXgXgXgXgXZXJXGXGXGXGXGXGXGXGXGXGXGXGXGXGXZXhXgXZXgXhXgXgXgXgXgXgXgXgXgXGXGXGXGXGXGXGXGXGXGXJXGXGXGXJXZXgXgXgXgXgXgXgXgXZXgXgXZXZXJXGXGXGXGXGXGXGXGXGXGXGXGXGXGXZXgXgXgXgXgXgXgXgXgXgXgXZXZXZXJXJXZXZXGXGXJXJXKXuXA 7XSXvX7X:   C 0XxXiXvX5Xo O = o e.W.n = o n W.t = X n t   * O O C vXxXaXuXSXKXcXgXgXhXhXgXgXgXZXGXGXGXGXGXGXGXGXGXGXGXGXGXGXZXgXhXgXgXgXgXgXgXgXgXgXhXgXZXJXGXGXGXGXGXGXGXGXGXGXGXGXGXGX",
"ZXZXZXZXZXZXZXZXgXZXZXZXgXgXZXGXGXGXGXGXGXGXGXGXJXGXGXGXGXJXZXZXZXZXZXZXZXZXZXZXZXgXgXZXGXGXGXJXGXGXGXGXGXGXGXGXGXGXGXgXhXZXZXgXZXZXZXZXZXVXgXZXhXZXJXGXGXJXGXGXGXGXGXGXGXGXGXGXZXZXZXZXZXZXZXZXgXZXZXZXhXgXZXGXGXGXGXGXGXGXGXGXGXZXGXJXGXGXZXZXZXZXZXZXZXZXZXZXZXgXgXgXZXJXGXGXGXGXGXGXGXGXGXGXGXGXGXZXgXhXZXZXZXZXZXZXZXZXZXZXZXZXJXGXGXGXGXGXGXGXGXGXGXGXGXGXGXZXhXZXZXgXgXZXZXZXZXZXZXZXgXgXGXGXGXGXGXGXGXGXGXJXJXJXGXGXZXgXZXZXZXZXZXZXZXZXZXZXgXgXZXZXJXGXGXGXGXGXGXGXGXGXGXGXGXGXZXgXgXZXZXZXZXzXNXZXZXZXJXgXgXGXGXGXJXGXGXJXGXZXGXZXKXSXKXeXZ : eXvXSXsXvXe.  - O   0XaXC O   e.sXn O O e.9X; O O O Z vXxXlXSXAXSXZXhXhXhXgXZXZXZXZXJXGXGXGXGXGXGXGXGXGXJXGXGXGXJXZXgXZXZXZXZXZXZXZXZXZXgXZXZXGXGXGXGXGXGXGXGXGXGXGXGXGXGXGX",
"gXgXgXgXgXgXgXgXZXgXgXZXZXgXZXGXGXGXGXGXGXGXGXGXGXGXGXGXJXZXZXgXgXgXgXgXgXgXgXgXgXgXgXZXJXGXGXGXGXGXGXGXGXGXGXGXGXGXJXZXgXZXZXhXgXgXgXgXgXgXgXgXgXZXGXGXGXGXGXGXGXGXGXGXGXGXGXGXZXZXgXgXgXgXgXZXZXgXgXZXgXhXZXGXGXGXGXGXGXGXGXGXGXGXGXGXGXGXZXhXgXgXgXmXmXjXgXgXgXZXZXgXZXGXGXGXGXGXGXGXGXGXGXGXGXGXGXZXgXgXgXZXgXgXgXgXgXgXgXgXgXZXJXGXGXGXGXGXGXGXGXGXGXGXGXGXGXZXhXgXZXgXgXZXgXgXgXgXgXgXgXgXGXGXGXGXGXGXGXGXGXGXJXGXGXGXZXZXgXgXgXgXmXgXgXgXgXZXZXgXZXJXGXGXGXGXGXGXGXGXGXGXGXGXGXJXZXgXgXZXgXgXgXgXgXgXgXgXZXgXZXGXGXGXGXGXGXGXGXGXGXGXGXGXKXhXPXhXAXSXzXhXvXW.O O . 8XsXvXe.O   0XvX6XO . 0XvXC O O O - vXlXlXzXzXgXgXjXgXZXmXgXgXgXZXGXGXGXGXGXGXGXGXGXGXGXGXGXGXZXZXgXgXgXgXgXZXcXmXmXgXZXgXgXJXGXGXGXGXGXGXGXGXGXGXGXGXGXGX",
"gXgXgXgXgXgXgXgXZXgXgXZXZXgXZXGXGXGXGXGXGXGXGXGXGXGXGXGXJXZXZXgXgXgXgXgXgXgXgXgXgXgXgXZXJXGXGXGXGXGXGXGXGXGXGXGXGXGXJXZXgXZXZXhXgXgXgXgXgXgXgXgXgXZXGXGXGXGXGXGXGXGXGXGXGXGXGXGXZXZXgXgXgXgXgXZXZXgXgXZXgXhXZXGXGXGXGXGXGXGXGXGXGXGXGXGXGXGXZXhXgXgXmXmXgXjXgXgXgXZXZXgXZXJXGXGXGXGXGXGXGXGXGXGXGXGXGXZXgXgXgXZXgXgXgXgXgXgXgXgXgXZXJXGXGXGXGXJXGXGXGXGXGXGXGXGXGXZXhXgXZXgXgXZXgXgXgXgXgXgXgXgXGXGXGXGXGXGXGXGXGXGXJXGXGXGXZXZXgXgXgXgXgXgXgXzXgXZXZXgXZXJXGXGXGXGXGXGXGXGXGXGXGXGXGXJXZXgXgXZXgXgXgXgXgXgXgXgXZXgXZXGXGXGXGXGXGXGXGXGXGXGXGXGXGXzXaXhXZXAXzXhXSX6X- . Z uXvXaXvXiXeXAXSXSXuXuXvXxXxXC o . S SXlXzXzXgXjXjXNXNXZXZXgXgXgXZXGXGXGXGXGXGXGXGXGXGXGXGXGXGXZXZXgXgXgXgXgXcXcXgXmXmXZXgXgXJXGXGXGXGXGXGXGXGXGXGXGXGXGXGX",
"gXgXgXgXgXgXgXgXgXgXgXZXZXgXZXGXGXGXGXGXGXGXGXGXGXGXGXGXJXZXZXgXgXgXgXgXgXgXgXgXgXgXgXZXJXGXGXGXGXGXGXGXGXGXGXGXGXGXGXZXgXZXZXhXgXgXgXgXgXgXgXgXgXZXGXGXGXGXGXGXGXGXGXGXGXGXGXGXZXZXgXgXgXgXgXZXZXgXgXZXgXhXZXGXGXGXGXGXGXGXGXGXGXGXGXGXGXGXZXhXgXgXzXzXgXgXgXgXgXZXZXgXZXJXGXGXGXGXGXGXGXGXGXGXGXGXGXZXgXgXgXZXgXgXgXgXgXgXgXgXgXZXJXGXGXGXGXJXGXGXGXGXGXGXGXGXGXZXhXgXZXgXgXZXgXgXgXgXZXgXZXZXGXGXGXGXGXGXGXGXGXGXJXGXGXGXZXZXgXgXgXgXgXjXzXgXgXZXZXgXZXJXGXGXGXGXGXGXGXGXGXGXGXGXGXJXZXgXgXZXmXgXgXgXgXgXgXgXZXgXZXGXGXGXGXGXGXGXGXGXGXGXGXGXGXZXgXcXZXgXgXgXSXuXC . 7XJXAXPXJXJXSXSXAXSXAXAXAXAXAXxX7Xe.JXzXzXzXzXgXjXjXNXNXZXZXgXgXgXZXGXGXGXGXGXGXGXGXGXGXJXGXGXGXZXZXgXgXgXgXgXZXgXgXgXgXZXgXgXJXGXGXGXGXGXGXGXGXGXGXGXGXGXGX",
"gXgXgXgXgXgXgXgXgXgXgXZXZXgXZXGXGXGXGXGXGXGXGXGXGXGXGXGXJXZXZXgXgXgXgXgXgXgXgXgXgXgXgXZXJXGXGXGXGXGXGXGXGXGXGXGXGXGXGXZXgXZXZXhXgXgXgXgXgXgXgXgXgXZXGXGXGXGXGXGXGXGXGXGXGXGXGXGXZXZXgXgXgXgXgXZXZXgXgXZXgXhXZXGXGXGXGXGXGXGXGXGXGXGXGXGXGXGXZXhXgXgXgXcXgXgXgXgXhXZXZXgXZXJXGXGXGXGXGXGXGXGXGXGXGXGXGXZXgXgXgXZXgXgXgXgXgXgXgXgXgXZXJXGXGXGXGXJXGXGXGXGXGXGXGXGXGXZXhXgXZXgXgXcXgXgXgXgXZXZXZXZXGXGXGXGXGXGXGXGXGXGXJXGXGXGXZXZXgXgXgXgXgXgXjXgXgXZXZXgXZXJXGXGXGXGXGXGXGXGXGXGXGXGXGXJXZXgXgXZXgXgXgXgXgXgXgXgXZXgXZXGXGXGXGXGXGXGXGXGXGXGXGXGXGXDXZXZXgXhXhXgXzXhX8X: PXKXgXzXGXAXJXSXKXZXSXJXJXhXJXJXzXJXAXhXzXzXgXgXjXjXjXjXZXZXgXgXgXZXGXGXGXGXGXGXGXGXGXGXJXGXGXGXZXZXgXgXgXgXgXgXgXgXgXgXZXgXgXJXGXGXGXGXGXGXGXGXGXGXGXGXGXGX",
"gXzXgXcXmXgXgXgXZXgXgXZXZXgXZXGXGXGXGXGXGXGXGXGXGXGXGXGXJXZXZXgXgXzXgXcXmXgXgXgXgXgXgXZXJXGXGXGXGXGXGXGXGXGXGXGXGXGXGXZXgXZXZXgXgXzXgXcXmXgXgXgXgXZXGXGXGXGXGXGXGXGXGXGXGXGXGXGXZXZXgXgXgXgXgXZXZXgXgXZXgXhXZXGXGXGXGXGXGXGXGXGXGXGXGXGXGXGXZXhXmXmXmXcXmXmXgXgXhXZXZXgXZXJXGXGXGXGXGXGXGXGXGXGXGXGXGXZXmXgXmXZXgXgXgXjXmXgXgXgXgXZXJXGXGXGXGXGXGXGXGXGXGXGXGXGXGXZXgXmXZXgXgXgXgXgXgXgXZXZXZXZXGXGXGXGXGXGXGXGXGXGXGXGXGXGXZXZXgXgXgXgXgXgXgXgXgXZXZXgXZXJXGXGXGXGXGXGXGXGXGXGXGXGXGXJXZXgXgXZXgXgXzXjXgXgXgXgXZXgXZXGXGXGXGXGXGXGXGXGXGXGXGXGXGXJXZXZXmXhXhXZXhXJXuX8XhXzXhXKXJXGXGXAXGXAXGXGXJXJXJXlXJXVXJXhXzXzXgXgXgXgXgXgXZXZXgXgXgXZXGXGXGXGXGXGXGXGXGXGXJXGXGXGXZXZXgXgXgXgXgXgXgXgXgXgXZXhXgXJXGXGXGXGXGXGXGXGXGXGXGXGXGXGX",
"gXgXjXgXgXgXgXgXZXgXgXZXZXgXZXGXGXGXGXGXGXGXGXGXGXGXGXGXJXZXZXgXgXgXjXgXgXgXgXgXgXgXgXZXJXGXGXGXGXGXGXGXGXGXGXGXGXGXGXZXgXZXZXgXgXgXjXgXgXgXgXgXgXZXGXGXGXGXGXGXGXGXGXGXGXGXGXGXZXZXgXgXgXgXgXZXZXgXgXZXgXhXZXGXGXGXGXGXGXGXGXGXGXGXGXGXGXGXZXhXmXmXgXjXmXgXgXgXgXZXZXgXZXJXGXGXGXGXGXGXGXGXGXGXGXGXGXZXgXgXmXZXgXgXzXzXmXgXjXgXgXZXJXGXGXGXGXGXGXGXGXGXGXGXGXGXGXZXgXNXZXgXgXgXgXgXgXgXZXZXZXZXGXGXGXGXGXGXGXGXGXGXGXGXGXGXZXZXgXgXgXgXgXgXgXgXgXZXZXgXZXJXGXGXGXGXGXGXGXGXGXGXGXGXGXJXZXgXgXZXgXjXgXzXgXgXgXgXZXgXZXGXGXGXGXGXGXGXGXGXGXGXGXGXGXZXZXZXZXhXgXZXhXJXhXhXZXZXhXZXZXJXGXGXGXGXGXSXGXGXGXJXGXGXGXZXzXzXgXgXgXgXgXgXZXZXgXgXgXZXGXGXGXGXGXGXGXGXGXGXGXGXGXGXZXZXgXgXgXgXgXgXgXmXgXgXZXhXgXJXGXGXGXGXGXGXGXGXGXGXGXGXGXGX"
};
