/* XPM */
static char * donut2_xpm[] = {
"64 64 3141 2",
"  	c #62A703",
". 	c #5DA305",
"+ 	c #66AB06",
"@ 	c #5DA20A",
"# 	c #60A602",
"$ 	c #65AA02",
"% 	c #61A612",
"& 	c #67AC02",
"* 	c #5AA106",
"= 	c #61A607",
"- 	c #60A50E",
"; 	c #61A608",
"> 	c #63A903",
", 	c #63A616",
"' 	c #64A906",
") 	c #58A003",
"! 	c #5DA304",
"~ 	c #61A610",
"{ 	c #579E06",
"] 	c #569E03",
"^ 	c #5BA107",
"/ 	c #599E15",
"( 	c #61A60E",
"_ 	c #63A522",
": 	c #5EA40A",
"< 	c #5DA30C",
"[ 	c #529915",
"} 	c #579E0F",
"| 	c #67AC07",
"1 	c #6AAD09",
"2 	c #62A712",
"3 	c #5CA205",
"4 	c #68AD03",
"5 	c #5FA50C",
"6 	c #6CB105",
"7 	c #63A802",
"8 	c #589E10",
"9 	c #5FA512",
"0 	c #61A703",
"a 	c #519A03",
"b 	c #569E02",
"c 	c #5EA403",
"d 	c #569E05",
"e 	c #65A824",
"f 	c #5FA508",
"g 	c #5EA31F",
"h 	c #65AA0D",
"i 	c #5AA108",
"j 	c #60A613",
"k 	c #62A619",
"l 	c #63A90C",
"m 	c #60A605",
"n 	c #5AA203",
"o 	c #5CA402",
"p 	c #579E04",
"q 	c #569F02",
"r 	c #549B08",
"s 	c #61A60B",
"t 	c #5EA504",
"u 	c #579F02",
"v 	c #5CA306",
"w 	c #65A912",
"x 	c #479203",
"y 	c #61A604",
"z 	c #569D06",
"A 	c #5BA20C",
"B 	c #60A511",
"C 	c #66A910",
"D 	c #5EA21C",
"E 	c #61A60C",
"F 	c #63A80A",
"G 	c #5EA407",
"H 	c #5CA114",
"I 	c #69AC1B",
"J 	c #60A40E",
"K 	c #69AC1C",
"L 	c #68AC04",
"M 	c #549B0B",
"N 	c #579D0C",
"O 	c #5CA115",
"P 	c #5CA203",
"Q 	c #65A814",
"R 	c #509712",
"S 	c #60A505",
"T 	c #549B09",
"U 	c #61A706",
"V 	c #62A806",
"W 	c #529A09",
"X 	c #5A9E23",
"Y 	c #5FA504",
"Z 	c #509611",
"` 	c #60A506",
" .	c #5CA116",
"..	c #61A705",
"+.	c #61A708",
"@.	c #5CA305",
"#.	c #60A509",
"$.	c #63A80B",
"%.	c #5EA503",
"&.	c #5BA203",
"*.	c #539B03",
"=.	c #4F9802",
"-.	c #589F05",
";.	c #63A713",
">.	c #5FA418",
",.	c #5FA506",
"'.	c #489204",
").	c #5FA31E",
"!.	c #5CA30F",
"~.	c #559D04",
"{.	c #62A80D",
"].	c #5EA505",
"^.	c #67AA17",
"/.	c #62A809",
"(.	c #5AA10F",
"_.	c #5AA202",
":.	c #62A61C",
"<.	c #64AA0F",
"[.	c #5DA402",
"}.	c #62A61B",
"|.	c #60A514",
"1.	c #569E0A",
"2.	c #5AA10C",
"3.	c #63A803",
"4.	c #569D03",
"5.	c #5FA406",
"6.	c #62A429",
"7.	c #569D0A",
"8.	c #5A9F16",
"9.	c #539B04",
"0.	c #5EA405",
"a.	c #5FA507",
"b.	c #69AB1C",
"c.	c #64A805",
"d.	c #5DA216",
"e.	c #67AC03",
"f.	c #62A802",
"g.	c #62A711",
"h.	c #5A9F1D",
"i.	c #599F06",
"j.	c #67AB10",
"k.	c #63A80E",
"l.	c #63A525",
"m.	c #63A906",
"n.	c #59A003",
"o.	c #62A51C",
"p.	c #62A70A",
"q.	c #5BA016",
"r.	c #569C08",
"s.	c #5DA217",
"t.	c #599F0A",
"u.	c #60A608",
"v.	c #64A904",
"w.	c #5CA304",
"x.	c #5FA503",
"y.	c #63A712",
"z.	c #5DA308",
"A.	c #559D03",
"B.	c #5FA505",
"C.	c #5DA404",
"D.	c #5BA015",
"E.	c #5DA30F",
"F.	c #5FA41B",
"G.	c #4B9404",
"H.	c #519910",
"I.	c #62A807",
"J.	c #559C06",
"K.	c #68AB1F",
"L.	c #5AA00E",
"M.	c #65A916",
"N.	c #4E960C",
"O.	c #5FA502",
"P.	c #62A70E",
"Q.	c #64AA05",
"R.	c #5EA409",
"S.	c #59A103",
"T.	c #65A90B",
"U.	c #5EA305",
"V.	c #4E9504",
"W.	c #5FA31B",
"X.	c #61A707",
"Y.	c #5BA019",
"Z.	c #64A80C",
"`.	c #549C0E",
" +	c #60A50A",
".+	c #60A510",
"++	c #569D05",
"@+	c #64AA02",
"#+	c #5BA10E",
"$+	c #4D9603",
"%+	c #58A004",
"&+	c #5AA00F",
"*+	c #66AB03",
"=+	c #539B02",
"-+	c #63A719",
";+	c #5EA404",
">+	c #5BA109",
",+	c #62A704",
"'+	c #559C0C",
")+	c #67AB08",
"!+	c #60A604",
"~+	c #63A804",
"{+	c #59A00C",
"]+	c #62A616",
"^+	c #559C0E",
"/+	c #65A811",
"(+	c #68AA22",
"_+	c #5AA102",
":+	c #60A704",
"<+	c #65A821",
"[+	c #549A0D",
"}+	c #5AA019",
"|+	c #5EA40E",
"1+	c #64A913",
"2+	c #64A908",
"3+	c #5FA412",
"4+	c #65A925",
"5+	c #59A004",
"6+	c #5EA411",
"7+	c #599E20",
"8+	c #61A516",
"9+	c #62A70D",
"0+	c #61A519",
"a+	c #69AE02",
"b+	c #63A71E",
"c+	c #549D06",
"d+	c #63A813",
"e+	c #599F17",
"f+	c #65A72A",
"g+	c #5BA305",
"h+	c #61A602",
"i+	c #5FA40E",
"j+	c #62A615",
"k+	c #5EA318",
"l+	c #61A702",
"m+	c #5A9F11",
"n+	c #5EA502",
"o+	c #589F0A",
"p+	c #63A70A",
"q+	c #579E05",
"r+	c #66AB04",
"s+	c #62A609",
"t+	c #63A523",
"u+	c #63A808",
"v+	c #61A51A",
"w+	c #539A06",
"x+	c #569D13",
"y+	c #63A904",
"z+	c #5DA303",
"A+	c #5DA407",
"B+	c #62A803",
"C+	c #66AB02",
"D+	c #65A908",
"E+	c #569D04",
"F+	c #5FA602",
"G+	c #66A821",
"H+	c #5AA00D",
"I+	c #5DA315",
"J+	c #61A70D",
"K+	c #64A80E",
"L+	c #5CA212",
"M+	c #5BA202",
"N+	c #5CA207",
"O+	c #67AD02",
"P+	c #64A80F",
"Q+	c #5BA108",
"R+	c #64AA04",
"S+	c #549A13",
"T+	c #63A809",
"U+	c #62A804",
"V+	c #5BA303",
"W+	c #59A00A",
"X+	c #60A31C",
"Y+	c #6CB004",
"Z+	c #61A613",
"`+	c #61A60D",
" @	c #61A615",
".@	c #64A732",
"+@	c #5DA223",
"@@	c #5FA327",
"#@	c #65AB04",
"$@	c #64A903",
"%@	c #65A72F",
"&@	c #62A614",
"*@	c #5BA017",
"=@	c #5FA407",
"-@	c #60A50C",
";@	c #5DA30E",
">@	c #63A70F",
",@	c #65A727",
"'@	c #5DA309",
")@	c #5CA20D",
"!@	c #599F07",
"~@	c #67AD04",
"{@	c #68AE03",
"]@	c #65A81F",
"^@	c #589F03",
"/@	c #60A322",
"(@	c #579E0A",
"_@	c #5EA408",
":@	c #549C07",
"<@	c #66AA0B",
"[@	c #61A51C",
"}@	c #5FA515",
"|@	c #589E0D",
"1@	c #4F9514",
"2@	c #68AD02",
"3@	c #549A14",
"4@	c #519805",
"5@	c #65A907",
"6@	c #589E14",
"7@	c #66A91D",
"8@	c #5CA204",
"9@	c #529A10",
"0@	c #5AA10B",
"a@	c #569D14",
"b@	c #60A609",
"c@	c #579F04",
"d@	c #61A70E",
"e@	c #68AC0C",
"f@	c #5DA30B",
"g@	c #64A811",
"h@	c #6AAC23",
"i@	c #62A817",
"j@	c #64A71F",
"k@	c #5FA41A",
"l@	c #5CA020",
"m@	c #5BA01A",
"n@	c #61A60A",
"o@	c #5DA406",
"p@	c #5DA20D",
"q@	c #69AC14",
"r@	c #5EA30C",
"s@	c #5EA412",
"t@	c #61A704",
"u@	c #5FA405",
"v@	c #599F13",
"w@	c #62A713",
"x@	c #549B05",
"y@	c #66A921",
"z@	c #599F14",
"A@	c #579F06",
"B@	c #5BA10B",
"C@	c #5EA40B",
"D@	c #61A616",
"E@	c #5EA20A",
"F@	c #519904",
"G@	c #4F950F",
"H@	c #4F9704",
"I@	c #529910",
"J@	c #4D9611",
"K@	c #59A013",
"L@	c #63A816",
"M@	c #5DA215",
"N@	c #65AA08",
"O@	c #549C0B",
"P@	c #559D06",
"Q@	c #5DA118",
"R@	c #60A228",
"S@	c #5A9F15",
"T@	c #5FA50F",
"U@	c #5BA01B",
"V@	c #6AAD1A",
"W@	c #569E04",
"X@	c #64A907",
"Y@	c #66A72C",
"Z@	c #599F09",
"`@	c #65A914",
" #	c #53980E",
".#	c #5BA104",
"+#	c #579D0D",
"@#	c #63A902",
"##	c #5DA405",
"$#	c #5CA302",
"%#	c #6AAB2A",
"&#	c #579C0A",
"*#	c #61A517",
"=#	c #599E1B",
"-#	c #5FA604",
";#	c #65A72C",
">#	c #5CA10B",
",#	c #5DA403",
"'#	c #579E09",
")#	c #569C13",
"!#	c #5BA014",
"~#	c #63A71C",
"{#	c #589F06",
"]#	c #60A517",
"^#	c #519906",
"/#	c #4D930C",
"(#	c #5AA00C",
"_#	c #5CA208",
":#	c #458F03",
"<#	c #52990E",
"[#	c #509906",
"}#	c #5FA40D",
"|#	c #559C11",
"1#	c #599D19",
"2#	c #5FA50A",
"3#	c #599F08",
"4#	c #559A11",
"5#	c #559B12",
"6#	c #5CA303",
"7#	c #5A9E2D",
"8#	c #589D1A",
"9#	c #5CA211",
"0#	c #4F9709",
"a#	c #63A80D",
"b#	c #5CA10F",
"c#	c #64A909",
"d#	c #63A80C",
"e#	c #5A9E0D",
"f#	c #569D10",
"g#	c #64A808",
"h#	c #5A9E1D",
"i#	c #61A51B",
"j#	c #599F02",
"k#	c #62A618",
"l#	c #60A607",
"m#	c #589D1E",
"n#	c #66AA0C",
"o#	c #589E12",
"p#	c #6EB11B",
"q#	c #559C0A",
"r#	c #5CA113",
"s#	c #469003",
"t#	c #5EA30F",
"u#	c #4C8E05",
"v#	c #4E8D14",
"w#	c #4E890A",
"x#	c #59920D",
"y#	c #4C8D0A",
"z#	c #4A8A14",
"A#	c #5C9F18",
"B#	c #64A810",
"C#	c #559924",
"D#	c #579C1A",
"E#	c #51990A",
"F#	c #559D07",
"G#	c #569D0B",
"H#	c #539A10",
"I#	c #519905",
"J#	c #63A432",
"K#	c #4D9511",
"L#	c #459004",
"M#	c #5CA20C",
"N#	c #589D12",
"O#	c #65A62C",
"P#	c #5FA322",
"Q#	c #59A009",
"R#	c #5DA027",
"S#	c #5EA506",
"T#	c #599F05",
"U#	c #6AAE0C",
"V#	c #5A9F1B",
"W#	c #62A903",
"X#	c #6AAD19",
"Y#	c #589F02",
"Z#	c #5BA003",
"`#	c #569C14",
" $	c #5EA315",
".$	c #589E0B",
"+$	c #5FA319",
"@$	c #589B26",
"#$	c #6AAF03",
"$$	c #559B0D",
"%$	c #5BA204",
"&$	c #529816",
"*$	c #559C10",
"=$	c #599F0E",
"-$	c #5EA40D",
";$	c #5EA319",
">$	c #5DA11C",
",$	c #61A415",
"'$	c #5CA210",
")$	c #55960F",
"!$	c #407705",
"~$	c #366107",
"{$	c #5C5826",
"]$	c #594121",
"^$	c #37281A",
"/$	c #5C273C",
"($	c #882E4E",
"_$	c #A33E63",
":$	c #A43D62",
"<$	c #8F3657",
"[$	c #6C2A42",
"}$	c #0B1703",
"|$	c #274B0C",
"1$	c #376708",
"2$	c #528822",
"3$	c #539519",
"4$	c #5AA010",
"5$	c #559C02",
"6$	c #61A70A",
"7$	c #559B19",
"8$	c #539723",
"9$	c #539A17",
"0$	c #5DA122",
"a$	c #579D10",
"b$	c #50980F",
"c$	c #5BA008",
"d$	c #59A002",
"e$	c #549A1C",
"f$	c #63A908",
"g$	c #53981F",
"h$	c #65A729",
"i$	c #509904",
"j$	c #66AA1B",
"k$	c #589F0C",
"l$	c #65A915",
"m$	c #6BB002",
"n$	c #569C0F",
"o$	c #62A517",
"p$	c #64A818",
"q$	c #599E1D",
"r$	c #65A81D",
"s$	c #5BA00D",
"t$	c #70B02D",
"u$	c #4E9508",
"v$	c #68AA2E",
"w$	c #5EA302",
"x$	c #5A9F17",
"y$	c #65AB03",
"z$	c #3C790F",
"A$	c #264B05",
"B$	c #4D2030",
"C$	c #8A3251",
"D$	c #A43E64",
"E$	c #A83960",
"F$	c #C74F78",
"G$	c #EB729A",
"H$	c #FB89AF",
"I$	c #FC94B9",
"J$	c #FC91B4",
"K$	c #FB91B4",
"L$	c #FC93B6",
"M$	c #FB8AAF",
"N$	c #F47CA4",
"O$	c #CC5980",
"P$	c #773645",
"Q$	c #7A5E32",
"R$	c #7F602F",
"S$	c #455B18",
"T$	c #377207",
"U$	c #60A504",
"V$	c #589D24",
"W$	c #61A611",
"X$	c #5FA410",
"Y$	c #51980D",
"Z$	c #5AA10A",
"`$	c #5BA10C",
" %	c #5A9F13",
".%	c #65A921",
"+%	c #499015",
"@%	c #509709",
"#%	c #65AB02",
"$%	c #569B15",
"%%	c #589D16",
"&%	c #5EA11C",
"*%	c #5FA31A",
"=%	c #6DAC40",
"-%	c #60A31E",
";%	c #61A70C",
">%	c #5AA006",
",%	c #67AB17",
"'%	c #65AA0B",
")%	c #6AAE07",
"!%	c #599E0B",
"~%	c #5EA313",
"{%	c #63A724",
"]%	c #569B0B",
"^%	c #3E680A",
"/%	c #0F0404",
"(%	c #BB446E",
"_%	c #F9729F",
":%	c #FC8EB3",
"<%	c #FC94B7",
"[%	c #FD9BBD",
"}%	c #FEA0C0",
"|%	c #B58183",
"1%	c #C2BD11",
"2%	c #BF9E63",
"3%	c #C67B8D",
"4%	c #F88BAF",
"5%	c #FD8EB3",
"6%	c #FD98BA",
"7%	c #FD9CBD",
"8%	c #FC86AE",
"9%	c #D45E87",
"0%	c #AA5E62",
"a%	c #A77A48",
"b%	c #A17B3F",
"c%	c #595821",
"d%	c #5B9412",
"e%	c #5CA01D",
"f%	c #4C9702",
"g%	c #6AAF02",
"h%	c #4F941E",
"i%	c #539A09",
"j%	c #5EA406",
"k%	c #458E06",
"l%	c #579F07",
"m%	c #60A503",
"n%	c #6AAE03",
"o%	c #5C9D30",
"p%	c #5EA512",
"q%	c #5FA510",
"r%	c #60A60C",
"s%	c #5BA205",
"t%	c #4C9214",
"u%	c #5DA21A",
"v%	c #5DA312",
"w%	c #569712",
"x%	c #3C4C17",
"y%	c #876A39",
"z%	c #BE5573",
"A%	c #FC8CB1",
"B%	c #FDA2C1",
"C%	c #DC8DA9",
"D%	c #FD9EBF",
"E%	c #FD94B8",
"F%	c #FE8EB4",
"G%	c #FD87AE",
"H%	c #E47199",
"I%	c #B6865D",
"J%	c #C1BC0E",
"K%	c #CCC71B",
"L%	c #C75F83",
"M%	c #FE72A2",
"N%	c #FD71A1",
"O%	c #FE71A1",
"P%	c #FB6F9F",
"Q%	c #CD5881",
"R%	c #966A43",
"S%	c #7A5D30",
"T%	c #45750C",
"U%	c #539A05",
"V%	c #61A521",
"W%	c #62A805",
"X%	c #61A803",
"Y%	c #5DA30D",
"Z%	c #5CA11B",
"`%	c #60A41D",
" &	c #569E08",
".&	c #539804",
"+&	c #67AA1C",
"@&	c #61A42B",
"#&	c #58A00B",
"$&	c #64A817",
"%&	c #5BA00B",
"&&	c #65A625",
"*&	c #5A9F02",
"=&	c #529811",
"-&	c #5DA503",
";&	c #509711",
">&	c #5FA606",
",&	c #599E19",
"'&	c #6AB002",
")&	c #5FA40A",
"!&	c #5A9F12",
"~&	c #65A920",
"{&	c #478E0F",
"]&	c #63A70D",
"^&	c #3A710C",
"/&	c #695729",
"(&	c #B88B46",
"_&	c #9E485D",
":&	c #FC92B5",
"<&	c #C97695",
"[&	c #0D8ABA",
"}&	c #E56994",
"|&	c #FE71A2",
"1&	c #F76F9E",
"2&	c #E66893",
"3&	c #FA70A0",
"4&	c #E66A95",
"5&	c #BF5679",
"6&	c #F26C9B",
"7&	c #FD70A0",
"8&	c #E86593",
"9&	c #89613A",
"0&	c #936D34",
"a&	c #295206",
"b&	c #5EA11B",
"c&	c #60A507",
"d&	c #66A829",
"e&	c #5FA413",
"f&	c #539A13",
"g&	c #61A52B",
"h&	c #68AC1F",
"i&	c #5DA20B",
"j&	c #4E9309",
"k&	c #6EAF2E",
"l&	c #64A80D",
"m&	c #569E07",
"n&	c #579D0A",
"o&	c #65A823",
"p&	c #60A603",
"q&	c #5DA102",
"r&	c #4F9606",
"s&	c #4F9603",
"t&	c #4C9404",
"u&	c #529A05",
"v&	c #4A9204",
"w&	c #549D04",
"x&	c #549D03",
"y&	c #4E9608",
"z&	c #5DA218",
"A&	c #499209",
"B&	c #56960F",
"C&	c #3B5C09",
"D&	c #9F793C",
"E&	c #D19D4D",
"F&	c #854E41",
"G&	c #F58BAF",
"H&	c #FD7DA9",
"I&	c #8C76A3",
"J&	c #3484B9",
"K&	c #F96F9F",
"L&	c #C95B81",
"M&	c #18C480",
"N&	c #2EB977",
"O&	c #A87176",
"P&	c #F9719F",
"Q&	c #DE5B88",
"R&	c #82533B",
"S&	c #7D6132",
"T&	c #355B07",
"U&	c #54970A",
"V&	c #549B0E",
"W&	c #62A808",
"X&	c #61A22A",
"Y&	c #5FA603",
"Z&	c #4E9603",
"`&	c #579C14",
" *	c #5EA507",
".*	c #5BA018",
"+*	c #589E04",
"@*	c #4E9510",
"#*	c #559C07",
"$*	c #61A32C",
"%*	c #5EA508",
"&*	c #5EA304",
"**	c #579B1B",
"=*	c #66A536",
"-*	c #539903",
";*	c #549B07",
">*	c #59A00D",
",*	c #69AE0F",
"'*	c #549C03",
")*	c #5BA20B",
"!*	c #579C02",
"~*	c #569C0D",
"{*	c #487B09",
"]*	c #75592B",
"^*	c #B98D49",
"/*	c #BD8F48",
"(*	c #A06053",
"_*	c #EE84A8",
":*	c #FE9FC0",
"<*	c #FD7EAA",
"[*	c #FD71A2",
"}*	c #3B80B2",
"|*	c #8D719C",
"1*	c #DA5F8B",
"2*	c #6E8667",
"3*	c #18C680",
"4*	c #B25272",
"5*	c #F66596",
"6*	c #CB4876",
"7*	c #8D2F50",
"8*	c #1E3A05",
"9*	c #4D8B11",
"0*	c #4E9318",
"a*	c #589D1C",
"b*	c #5BA304",
"c*	c #67AC0E",
"d*	c #5EA212",
"e*	c #579D07",
"f*	c #499302",
"g*	c #599C24",
"h*	c #579D0E",
"i*	c #5FA416",
"j*	c #5AA105",
"k*	c #60A50B",
"l*	c #61A411",
"m*	c #6BAD22",
"n*	c #59A105",
"o*	c #4E9308",
"p*	c #5BA106",
"q*	c #589D0E",
"r*	c #6FAE38",
"s*	c #479003",
"t*	c #499104",
"u*	c #3D6A08",
"v*	c #5D4828",
"w*	c #A15B58",
"x*	c #BE5276",
"y*	c #DE7196",
"z*	c #FE7AA7",
"A*	c #FD75A4",
"B*	c #3A6B92",
"C*	c #C7577E",
"D*	c #FC699B",
"E*	c #FB6195",
"F*	c #F95C92",
"G*	c #F85B90",
"H*	c #F95E93",
"I*	c #FA5F93",
"J*	c #F95F93",
"K*	c #FB6397",
"L*	c #FB6699",
"M*	c #FD6E9F",
"N*	c #FC70A1",
"O*	c #D95F89",
"P*	c #F26A99",
"Q*	c #FE74A4",
"R*	c #FB6C9E",
"S*	c #DF5282",
"T*	c #5A202C",
"U*	c #497E2C",
"V*	c #67AD05",
"W*	c #539A0D",
"X*	c #65A904",
"Y*	c #6EAF33",
"Z*	c #5BA110",
"`*	c #579C07",
" =	c #5EA219",
".=	c #579A14",
"+=	c #62A707",
"@=	c #6AB003",
"#=	c #68AB03",
"$=	c #59A203",
"%=	c #4E9506",
"&=	c #5C9A34",
"*=	c #539A0E",
"==	c #5CA30D",
"-=	c #63A807",
";=	c #579D03",
">=	c #4E8106",
",=	c #3F1421",
"'=	c #D26188",
")=	c #FC90B3",
"!=	c #FD9CBC",
"~=	c #FD95B7",
"{=	c #F57EA7",
"]=	c #94746C",
"^=	c #E1658F",
"/=	c #F66E9D",
"(=	c #F95A90",
"_=	c #DD477B",
":=	c #B52C2A",
"<=	c #C13F6B",
"[=	c #F64F88",
"}=	c #F54D87",
"|=	c #F64D87",
"1=	c #D14374",
"2=	c #C24180",
"3=	c #C14183",
"4=	c #C3417F",
"5=	c #DC487B",
"6=	c #F95B90",
"7=	c #FD6C9D",
"8=	c #FD6D9E",
"9=	c #FA5C91",
"0=	c #B54971",
"a=	c #66729F",
"b=	c #F76C9D",
"c=	c #FA75A5",
"d=	c #DB3E75",
"e=	c #501527",
"f=	c #518F09",
"g=	c #5FA31D",
"h=	c #529A11",
"i=	c #66AC04",
"j=	c #63A720",
"k=	c #529A04",
"l=	c #62A705",
"m=	c #559A07",
"n=	c #5DA015",
"o=	c #5FA315",
"p=	c #51971A",
"q=	c #559D05",
"r=	c #65AA0A",
"s=	c #59A006",
"t=	c #549604",
"u=	c #381D1E",
"v=	c #E57096",
"w=	c #FD9BBB",
"x=	c #FD8AB1",
"y=	c #FE79A6",
"z=	c #F46F9D",
"A=	c #3AA95B",
"B=	c #53A761",
"C=	c #F66F9E",
"D=	c #FC6B9D",
"E=	c #F8538B",
"F=	c #EA4E84",
"G=	c #BF282B",
"H=	c #D02719",
"I=	c #DB4679",
"J=	c #F54D86",
"K=	c #AF3D78",
"L=	c #C92B97",
"M=	c #C92696",
"N=	c #C42893",
"O=	c #BD3A67",
"P=	c #F74F89",
"Q=	c #F8518A",
"R=	c #FA5D92",
"S=	c #FC689A",
"T=	c #FB6598",
"U=	c #F9558C",
"V=	c #FA538C",
"W=	c #CF4876",
"X=	c #09A1DF",
"Y=	c #CB4574",
"Z=	c #FA6095",
"`=	c #F45289",
" -	c #B3295B",
".-	c #1E3709",
"+-	c #539709",
"@-	c #519809",
"#-	c #59A005",
"$-	c #4F970E",
"%-	c #61A902",
"&-	c #5DA120",
"*-	c #569B21",
"=-	c #60A403",
"--	c #5DA010",
";-	c #559B04",
">-	c #61A402",
",-	c #5BA105",
"'-	c #569919",
")-	c #59A10C",
"!-	c #66AB08",
"~-	c #599E14",
"{-	c #4D9303",
"]-	c #3B6807",
"^-	c #BB4870",
"/-	c #FD97B9",
"(-	c #FD83AC",
"_-	c #FE72A1",
":-	c #CC5D81",
"<-	c #07C963",
"[-	c #A97275",
"}-	c #F9548C",
"|-	c #F9528B",
"1-	c #BB3755",
"2-	c #DA2806",
"3-	c #C23867",
"4-	c #F44C86",
"5-	c #F44C85",
"6-	c #F34C85",
"7-	c #EF4F86",
"8-	c #E0457B",
"9-	c #EA4A81",
"0-	c #F64E88",
"a-	c #F75089",
"b-	c #CB4674",
"c-	c #F9538B",
"d-	c #F6538A",
"e-	c #4C85B8",
"f-	c #8C6F9B",
"g-	c #F9518B",
"h-	c #E23C77",
"i-	c #411324",
"j-	c #2C5F06",
"k-	c #589E15",
"l-	c #519909",
"m-	c #5EA222",
"n-	c #6BA839",
"o-	c #6FB213",
"p-	c #5C9F1A",
"q-	c #499108",
"r-	c #61A40E",
"s-	c #61A32B",
"t-	c #5CA109",
"u-	c #559907",
"v-	c #63A516",
"w-	c #589D10",
"x-	c #67AA26",
"y-	c #54971B",
"z-	c #142705",
"A-	c #EB6F98",
"B-	c #F06D9A",
"C-	c #D66188",
"D-	c #D8618B",
"E-	c #FD70A1",
"F-	c #A86D70",
"G-	c #987169",
"H-	c #CB426F",
"I-	c #C43C6B",
"J-	c #F24A84",
"K-	c #F54C86",
"L-	c #EE4781",
"M-	c #ED4680",
"N-	c #EA437D",
"O-	c #EC457F",
"P-	c #F04881",
"Q-	c #F04982",
"R-	c #F5548A",
"S-	c #B7B11F",
"T-	c #B79743",
"U-	c #F5538A",
"V-	c #F9538C",
"W-	c #BB4E7B",
"X-	c #79557D",
"Y-	c #F9518A",
"Z-	c #E8417C",
"`-	c #76243A",
" ;	c #563817",
".;	c #488919",
"+;	c #4F9803",
"@;	c #4C920E",
"#;	c #5CA206",
"$;	c #56991B",
"%;	c #65A911",
"&;	c #529709",
"*;	c #529623",
"=;	c #579B14",
"-;	c #559C09",
";;	c #5DA214",
">;	c #5D9F05",
",;	c #468F0C",
"';	c #519715",
");	c #68AD05",
"!;	c #67A90B",
"~;	c #61A312",
"{;	c #509705",
"];	c #5CA10D",
"^;	c #509717",
"/;	c #427408",
"(;	c #47361E",
"_;	c #F97AA4",
":;	c #A67799",
"<;	c #0990C8",
"[;	c #0D9EDA",
"};	c #3B6D94",
"|;	c #FB6B9D",
"1;	c #F9568D",
"2;	c #F8508A",
"3;	c #F04882",
"4;	c #E63F7A",
"5;	c #DF3773",
"6;	c #D82E6D",
"7;	c #D92E6D",
"8;	c #D62C6A",
"9;	c #D62C6B",
"0;	c #C32B63",
"a;	c #9F2250",
"b;	c #91244B",
"c;	c #98234E",
"d;	c #CB3169",
"e;	c #BE5267",
"f;	c #E9E315",
"g;	c #BE7061",
"h;	c #94224B",
"i;	c #91602D",
"j;	c #2E5707",
"k;	c #6FB305",
"l;	c #4E9507",
"m;	c #478C12",
"n;	c #5A9C22",
"o;	c #64A713",
"p;	c #4E940B",
"q;	c #4C9110",
"r;	c #579B22",
"s;	c #6BAA39",
"t;	c #589D0F",
"u;	c #64A705",
"v;	c #77BA07",
"w;	c #5CA007",
"x;	c #599C0A",
"y;	c #599C1F",
"z;	c #5B9A2F",
"A;	c #483B1B",
"B;	c #93713D",
"C;	c #F87CA4",
"D;	c #9F6685",
"E;	c #85587F",
"F;	c #B23F66",
"G;	c #E95F8E",
"H;	c #FA568E",
"I;	c #F64F89",
"J;	c #E13A75",
"K;	c #B82A5D",
"L;	c #781F3E",
"M;	c #5B3717",
"N;	c #633D1E",
"O;	c #5E341D",
"P;	c #5A3418",
"Q;	c #744A20",
"R;	c #96612D",
"S;	c #9A6A33",
"T;	c #BB883F",
"U;	c #825D31",
"V;	c #BF2F63",
"W;	c #F34C86",
"X;	c #F7528A",
"Y;	c #AE7B4A",
"Z;	c #C3BE1B",
"`;	c #EB5185",
" >	c #C83067",
".>	c #6E471E",
"+>	c #6E4920",
"@>	c #599417",
"#>	c #529510",
"$>	c #5A9C29",
"%>	c #4B930B",
"&>	c #488D0C",
"*>	c #58A104",
"=>	c #70B310",
"->	c #5AA005",
";>	c #559C0D",
">>	c #569915",
",>	c #66A82B",
"'>	c #74AA4A",
")>	c #5DA10F",
"!>	c #4B8E08",
"~>	c #63A607",
"{>	c #64A60D",
"]>	c #63A805",
"^>	c #448807",
"/>	c #3A7807",
"(>	c #9E773A",
"_>	c #946F37",
":>	c #F97EA6",
"<>	c #FD86AE",
"[>	c #FC6E9E",
"}>	c #FD6FA0",
"|>	c #F8518B",
"1>	c #E13976",
"2>	c #BC2A60",
"3>	c #742538",
"4>	c #754A1F",
"5>	c #9A642B",
"6>	c #754C23",
"7>	c #613D1A",
"8>	c #452E15",
"9>	c #131506",
"0>	c #4D381C",
"a>	c #593816",
"b>	c #784F22",
"c>	c #AA7739",
"d>	c #CB9443",
"e>	c #794A34",
"f>	c #E4407A",
"g>	c #F4528A",
"h>	c #C5436F",
"i>	c #F6548B",
"j>	c #FA548C",
"k>	c #C64270",
"l>	c #E84C82",
"m>	c #EC4680",
"n>	c #AF295A",
"o>	c #583A18",
"p>	c #215009",
"q>	c #52921D",
"r>	c #4D8F12",
"s>	c #569D15",
"t>	c #569A0D",
"u>	c #549A07",
"v>	c #5DA10A",
"w>	c #5CA20A",
"x>	c #5AA207",
"y>	c #5EA10A",
"z>	c #53990F",
"A>	c #6EAE2E",
"B>	c #69AC1D",
"C>	c #51950B",
"D>	c #5FA21D",
"E>	c #53980C",
"F>	c #74B804",
"G>	c #5EA317",
"H>	c #69A635",
"I>	c #2F5D06",
"J>	c #C7974E",
"K>	c #906D38",
"L>	c #FB84AB",
"M>	c #FD88B0",
"N>	c #C35276",
"O>	c #C6557A",
"P>	c #FA6497",
"Q>	c #EB457F",
"R>	c #B52B5D",
"S>	c #6F481F",
"T>	c #A76B2E",
"U>	c #764B20",
"V>	c #2D4A0D",
"W>	c #4A7E0F",
"X>	c #4F8F0F",
"Y>	c #539409",
"Z>	c #5A9C04",
"`>	c #488808",
" ,	c #5E9B20",
".,	c #497E0B",
"+,	c #344814",
"@,	c #8D6029",
"#,	c #B7843D",
"$,	c #92384B",
"%,	c #F44E87",
"&,	c #FA558C",
"*,	c #C94671",
"=,	c #DA2907",
"-,	c #C74170",
";,	c #E13975",
">,	c #8A1E45",
",,	c #122704",
"',	c #5A9F14",
"),	c #468E0E",
"!,	c #66A626",
"~,	c #5CA404",
"{,	c #64A51D",
"],	c #579C09",
"^,	c #6DAD19",
"/,	c #66A91B",
"(,	c #64A723",
"_,	c #5D9E21",
":,	c #4E901D",
"<,	c #5EA308",
"[,	c #64A915",
"},	c #60A412",
"|,	c #605F27",
"1,	c #BC8F48",
"2,	c #9A6455",
"3,	c #FC8BB1",
"4,	c #FD7FAA",
"5,	c #B94D6E",
"6,	c #DE0530",
"7,	c #BA3B63",
"8,	c #F65089",
"9,	c #DB3572",
"0,	c #5E2B27",
"a,	c #99652C",
"b,	c #66411B",
"c,	c #447114",
"d,	c #68AD11",
"e,	c #4D8D26",
"f,	c #62A50D",
"g,	c #66A90C",
"h,	c #519305",
"i,	c #4A8A26",
"j,	c #5CA30C",
"k,	c #559910",
"l,	c #3C6816",
"m,	c #7D5423",
"n,	c #B2823D",
"o,	c #A4355B",
"p,	c #F96697",
"q,	c #E64E82",
"r,	c #EA5184",
"s,	c #F25188",
"t,	c #BF292A",
"u,	c #BD2529",
"v,	c #ED4A82",
"w,	c #EA447E",
"x,	c #C72D65",
"y,	c #010101",
"z,	c #45840A",
"A,	c #66A916",
"B,	c #6EA642",
"C,	c #5DA409",
"D,	c #5A9C09",
"E,	c #61A511",
"F,	c #63A406",
"G,	c #589C10",
"H,	c #73B307",
"I,	c #4F920B",
"J,	c #62A31C",
"K,	c #66A531",
"L,	c #5B9F0E",
"M,	c #63A80F",
"N,	c #609F35",
"O,	c #66A728",
"P,	c #54980E",
"Q,	c #836433",
"R,	c #C9984A",
"S,	c #AB4266",
"T,	c #F96698",
"U,	c #A72A4E",
"V,	c #DD0531",
"W,	c #C6416D",
"X,	c #EB467F",
"Y,	c #C92E67",
"Z,	c #754B20",
"`,	c #82562A",
" '	c #3A680C",
".'	c #5C9C18",
"+'	c #5EA20E",
"@'	c #5B9E12",
"#'	c #69AE06",
"$'	c #5E9D27",
"%'	c #549A0A",
"&'	c #579529",
"*'	c #5D9F0F",
"='	c #4A7416",
"-'	c #B18440",
";'	c #9A7236",
">'	c #DE648E",
",'	c #FA6E9D",
"''	c #8F725F",
")'	c #67945B",
"!'	c #CD4372",
"~'	c #C42406",
"{'	c #C63F6D",
"]'	c #F8528B",
"^'	c #D72D6C",
"/'	c #060202",
"('	c #487A08",
"_'	c #589C08",
":'	c #579819",
"<'	c #63A62B",
"['	c #497C37",
"}'	c #579C1D",
"|'	c #5C9D05",
"1'	c #509604",
"2'	c #50940A",
"3'	c #62A307",
"4'	c #57942E",
"5'	c #60A021",
"6'	c #5DA10E",
"7'	c #539619",
"8'	c #61A512",
"9'	c #5C9F0C",
"0'	c #5EA215",
"a'	c #518E09",
"b'	c #957036",
"c'	c #9D773C",
"d'	c #E66E96",
"e'	c #FB86AD",
"f'	c #D15C86",
"g'	c #F46E9C",
"h'	c #FA598F",
"i'	c #F6528A",
"j'	c #C23F6A",
"k'	c #D54777",
"l'	c #E53E7A",
"m'	c #AA2857",
"n'	c #925D29",
"o'	c #32300A",
"p'	c #599D1B",
"q'	c #599A19",
"r'	c #4E900E",
"s'	c #5FA10E",
"t'	c #73B51D",
"u'	c #61A70F",
"v'	c #599D0E",
"w'	c #53941B",
"x'	c #579A12",
"y'	c #599A27",
"z'	c #6AA739",
"A'	c #69AC09",
"B'	c #65A50C",
"C'	c #443F19",
"D'	c #C69247",
"E'	c #A24363",
"F'	c #FB7BA7",
"G'	c #BC516E",
"H'	c #08CB62",
"I'	c #D84B7A",
"J'	c #F55289",
"K'	c #DB487A",
"L'	c #EA437E",
"M'	c #D42F6B",
"N'	c #5E4020",
"O'	c #41680B",
"P'	c #6EB209",
"Q'	c #62A026",
"R'	c #498C22",
"S'	c #5D9F10",
"T'	c #519517",
"U'	c #68A522",
"V'	c #61A223",
"W'	c #6BAE0C",
"X'	c #428705",
"Y'	c #57991A",
"Z'	c #529309",
"`'	c #529424",
" )	c #488D07",
".)	c #5C9E1B",
"+)	c #60A60D",
"@)	c #4B8219",
"#)	c #A77F41",
"$)	c #9E475E",
"%)	c #FB7BA6",
"&)	c #BB736D",
"*)	c #D9D31D",
"=)	c #D25B84",
"-)	c #FD6B9C",
";)	c #E13B76",
">)	c #703034",
",)	c #8B5928",
"')	c #43750D",
"))	c #60A224",
"!)	c #4C8C0E",
"~)	c #509410",
"{)	c #5A9E11",
"])	c #57950A",
"^)	c #69AE20",
"/)	c #4E9207",
"()	c #5E9D1B",
"_)	c #5A9F06",
":)	c #5A9E1A",
"<)	c #62A60F",
"[)	c #67AA0C",
"})	c #497A07",
"|)	c #AA7E3E",
"1)	c #975750",
"2)	c #F975A2",
"3)	c #EC5388",
"4)	c #07BD5A",
"5)	c #AE676D",
"6)	c #E53E79",
"7)	c #BA295D",
"8)	c #805122",
"9)	c #46451B",
"0)	c #6BB107",
"a)	c #61A12C",
"b)	c #559623",
"c)	c #65A706",
"d)	c #5DA109",
"e)	c #569805",
"f)	c #65A724",
"g)	c #5E9839",
"h)	c #5D9E0D",
"i)	c #57971A",
"j)	c #64A807",
"k)	c #5EA206",
"l)	c #5DA205",
"m)	c #529908",
"n)	c #4F901A",
"o)	c #66A70B",
"p)	c #71AC3C",
"q)	c #477A15",
"r)	c #866737",
"s)	c #DA4B7D",
"t)	c #D45681",
"u)	c #E3DE15",
"v)	c #B18A45",
"w)	c #FA558D",
"x)	c #D43D72",
"y)	c #845524",
"z)	c #6B441D",
"A)	c #488809",
"B)	c #589A0E",
"C)	c #5A991B",
"D)	c #539704",
"E)	c #549612",
"F)	c #5A9A09",
"G)	c #589D14",
"H)	c #5EA416",
"I)	c #529318",
"J)	c #5FA205",
"K)	c #63A709",
"L)	c #6BA141",
"M)	c #509216",
"N)	c #599617",
"O)	c #7C5B2A",
"P)	c #8A6336",
"Q)	c #F277A2",
"R)	c #FA578F",
"S)	c #AD6A6E",
"T)	c #B95F72",
"U)	c #F7588E",
"V)	c #E7407B",
"W)	c #AB2957",
"X)	c #905C26",
"Y)	c #533313",
"Z)	c #55971D",
"`)	c #4C8B20",
" !	c #65A423",
".!	c #5BA10A",
"+!	c #569B0A",
"@!	c #659D3C",
"#!	c #509209",
"$!	c #5C9E09",
"%!	c #579719",
"&!	c #65A905",
"*!	c #589C0D",
"=!	c #72AB42",
"-!	c #64A41C",
";!	c #4A8D1D",
">!	c #6CAF06",
",!	c #68A734",
"'!	c #33650C",
")!	c #775D30",
"!!	c #F65A90",
"~!	c #AB7E4D",
"{!	c #B9A637",
"]!	c #E94D83",
"^!	c #DF4E80",
"/!	c #C94774",
"(!	c #F8548C",
"_!	c #C63D6C",
":!	c #8C5722",
"<!	c #593C1B",
"[!	c #579611",
"}!	c #6AAD13",
"|!	c #4D8B0D",
"1!	c #65A712",
"2!	c #4E9019",
"3!	c #5FA30A",
"4!	c #5D9E15",
"5!	c #63AA0A",
"6!	c #509415",
"7!	c #589819",
"8!	c #74A945",
"9!	c #5F9938",
"0!	c #579A04",
"a!	c #4C8D0B",
"b!	c #5C9D1A",
"c!	c #67502C",
"d!	c #B88A42",
"e!	c #B65576",
"f!	c #FB79A4",
"g!	c #F8548B",
"h!	c #E75184",
"i!	c #1879A6",
"j!	c #DA4C7C",
"k!	c #AF2658",
"l!	c #905B24",
"m!	c #5D3917",
"n!	c #579724",
"o!	c #4F8F0B",
"p!	c #619149",
"q!	c #569A12",
"r!	c #5BA00F",
"s!	c #5EA208",
"t!	c #478E12",
"u!	c #589E05",
"v!	c #64A90B",
"w!	c #6AAF0C",
"x!	c #599812",
"y!	c #72B409",
"z!	c #53950F",
"A!	c #5DA013",
"B!	c #5E9F1D",
"C!	c #3E7203",
"D!	c #836838",
"E!	c #EC5287",
"F!	c #E85084",
"G!	c #EF5187",
"H!	c #E44F81",
"I!	c #7C6F9D",
"J!	c #0899D5",
"K!	c #397DAB",
"L!	c #EB4E83",
"M!	c #D94778",
"N!	c #8C5927",
"O!	c #624A2A",
"P!	c #62A310",
"Q!	c #65A611",
"R!	c #498A1D",
"S!	c #47890A",
"T!	c #5D9E23",
"U!	c #59A00B",
"V!	c #428307",
"W!	c #61A509",
"X!	c #69AC0E",
"Y!	c #4D9019",
"Z!	c #67A615",
"`!	c #4D8D09",
" ~	c #599E07",
".~	c #5F9E0B",
"+~	c #579B10",
"@~	c #463415",
"#~	c #D59E4B",
"$~	c #83484B",
"%~	c #FB83AB",
"&~	c #497EB1",
"*~	c #6E7AA9",
"=~	c #F04B84",
"-~	c #C82E67",
";~	c #7D5023",
">~	c #613B1B",
",~	c #5D9B2F",
"'~	c #63A716",
")~	c #579B0B",
"!~	c #599B22",
"~~	c #599E08",
"{~	c #62A60D",
"]~	c #66A807",
"^~	c #347709",
"/~	c #50930D",
"(~	c #60A309",
"_~	c #69AC0B",
":~	c #6EAF0C",
"<~	c #73B505",
"[~	c #63A70C",
"}~	c #69AA28",
"|~	c #67AA15",
"1~	c #477A0B",
"2~	c #AF8848",
"3~	c #A52F5A",
"4~	c #AF446C",
"5~	c #2D83B5",
"6~	c #9B507A",
"7~	c #E34A7F",
"8~	c #F24F88",
"9~	c #825936",
"0~	c #684D24",
"a~	c #5D9D0E",
"b~	c #70B217",
"c~	c #599B17",
"d~	c #569515",
"e~	c #5EA120",
"f~	c #5FA113",
"g~	c #5A9C05",
"h~	c #62A40A",
"i~	c #60A114",
"j~	c #63A90A",
"k~	c #5CA00E",
"l~	c #61A30A",
"m~	c #55990F",
"n~	c #69AE0B",
"o~	c #629E12",
"p~	c #6D542B",
"q~	c #B88C48",
"r~	c #946253",
"s~	c #FA81AA",
"t~	c #FB558E",
"u~	c #F2558A",
"v~	c #C34770",
"w~	c #E44F82",
"x~	c #B94D78",
"y~	c #0A9AD6",
"z~	c #D14676",
"A~	c #6E392E",
"B~	c #553210",
"C~	c #65A815",
"D~	c #70AC3F",
"E~	c #549412",
"F~	c #599F0B",
"G~	c #5B9F06",
"H~	c #60A21A",
"I~	c #5B9E07",
"J~	c #55921B",
"K~	c #49880B",
"L~	c #69AA09",
"M~	c #4D901C",
"N~	c #5A9E0E",
"O~	c #6EB018",
"P~	c #6CAF1A",
"Q~	c #6FB218",
"R~	c #64A71A",
"S~	c #44760D",
"T~	c #AE813D",
"U~	c #8D6737",
"V~	c #DC4077",
"W~	c #9D2D54",
"X~	c #896A37",
"Y~	c #457C0B",
"Z~	c #68AC0D",
"`~	c #448313",
" {	c #4E8F0A",
".{	c #60A411",
"+{	c #4E9013",
"@{	c #51960E",
"#{	c #599D08",
"${	c #5F9D20",
"%{	c #6CAF18",
"&{	c #589C13",
"*{	c #5E9D0D",
"={	c #3D7F06",
"-{	c #74B70B",
";{	c #3A7112",
">{	c #99743A",
",{	c #AE8243",
"'{	c #A54767",
"){	c #FC87AE",
"!{	c #B65F6F",
"~{	c #38B259",
"{{	c #0BC561",
"]{	c #BE4D6C",
"^{	c #8E5B81",
"/{	c #D54676",
"({	c #68102F",
"_{	c #57421C",
":{	c #5E9F0C",
"<{	c #75AD3E",
"[{	c #428311",
"}{	c #63A618",
"|{	c #579813",
"1{	c #5A9C0A",
"2{	c #5E9F20",
"3{	c #589A15",
"4{	c #51960F",
"5{	c #61A307",
"6{	c #62A123",
"7{	c #79B736",
"8{	c #64A614",
"9{	c #68AB0D",
"0{	c #63A606",
"a{	c #72B31E",
"b{	c #4F950A",
"c{	c #336812",
"d{	c #C09049",
"e{	c #A02B54",
"f{	c #F7518A",
"g{	c #FA578E",
"h{	c #DD4479",
"i{	c #816333",
"j{	c #3C3C16",
"k{	c #69A90C",
"l{	c #6BAA13",
"m{	c #438613",
"n{	c #65A518",
"o{	c #428906",
"p{	c #539708",
"q{	c #5E9A36",
"r{	c #5DA00B",
"s{	c #458416",
"t{	c #5FA01A",
"u{	c #468915",
"v{	c #60A014",
"w{	c #274F0F",
"x{	c #C49248",
"y{	c #996548",
"z{	c #F080A5",
"A{	c #E8769D",
"B{	c #0C974B",
"C{	c #77875A",
"D{	c #CD4473",
"E{	c #F8538A",
"F{	c #F8528A",
"G{	c #D72E6D",
"H{	c #723038",
"I{	c #26470E",
"J{	c #498B18",
"K{	c #63A123",
"L{	c #50941B",
"M{	c #66A712",
"N{	c #5B9A28",
"O{	c #72B40A",
"P{	c #599E0E",
"Q{	c #5CA107",
"R{	c #4E9107",
"S{	c #5B9A12",
"T{	c #6FB122",
"U{	c #68AC09",
"V{	c #4B8B14",
"W{	c #3C7E07",
"X{	c #6CB007",
"Y{	c #5C9E07",
"Z{	c #5B9D18",
"`{	c #39710E",
" ]	c #765B31",
".]	c #B58742",
"+]	c #8D5048",
"@]	c #F14B84",
"#]	c #CF4675",
"$]	c #C2BC16",
"%]	c #B78B4E",
"&]	c #E54E82",
"*]	c #D34A79",
"=]	c #E84B81",
"-]	c #843445",
";]	c #AC8342",
">]	c #39640A",
",]	c #6AAC1D",
"']	c #4A8914",
")]	c #67A80B",
"!]	c #468C05",
"~]	c #529710",
"{]	c #589B0A",
"]]	c #4A8624",
"^]	c #569618",
"/]	c #5A9A10",
"(]	c #549713",
"_]	c #6AAB12",
":]	c #4A7E0D",
"<]	c #927039",
"[]	c #966C40",
"}]	c #E6759A",
"|]	c #FC8EB2",
"1]	c #FA568D",
"2]	c #F7558C",
"3]	c #E95186",
"4]	c #F45188",
"5]	c #F44E86",
"6]	c #DB3370",
"7]	c #C92D66",
"8]	c #49321A",
"9]	c #3D6C07",
"0]	c #569811",
"a]	c #5BA009",
"b]	c #549814",
"c]	c #579622",
"d]	c #508E28",
"e]	c #66AC0F",
"f]	c #569529",
"g]	c #5A9C0F",
"h]	c #509219",
"i]	c #63A706",
"j]	c #5FA20B",
"k]	c #619E2C",
"l]	c #61A319",
"m]	c #589A09",
"n]	c #69AC04",
"o]	c #519708",
"p]	c #62A70B",
"q]	c #62A406",
"r]	c #665729",
"s]	c #C69549",
"t]	c #905D48",
"u]	c #F04A83",
"v]	c #F6538B",
"w]	c #B27253",
"x]	c #DFDA0E",
"y]	c #CFC728",
"z]	c #DD4B7E",
"A]	c #E04C7F",
"B]	c #0ABE5D",
"C]	c #C5426E",
"D]	c #C94170",
"E]	c #B38644",
"F]	c #AC8445",
"G]	c #3B640D",
"H]	c #58951D",
"I]	c #67A90C",
"J]	c #5C9E0B",
"K]	c #5C9D22",
"L]	c #609F18",
"M]	c #64A70B",
"N]	c #438910",
"O]	c #5F9428",
"P]	c #765E2B",
"Q]	c #B58944",
"R]	c #C85B80",
"S]	c #FD97BA",
"T]	c #D64B7A",
"U]	c #BE240B",
"V]	c #C8416F",
"W]	c #E03976",
"X]	c #D52F6C",
"Y]	c #762338",
"Z]	c #744B21",
"`]	c #3F7513",
" ^	c #5DA016",
".^	c #50920B",
"+^	c #68A430",
"@^	c #4B812A",
"#^	c #437E1F",
"$^	c #47880E",
"%^	c #4F9508",
"&^	c #438917",
"*^	c #69AD0C",
"=^	c #4D9407",
"-^	c #68A712",
";^	c #60A214",
">^	c #589A0B",
",^	c #589D04",
"'^	c #6DAE0A",
")^	c #5FA10A",
"!^	c #456A09",
"~^	c #CC9A4B",
"{^	c #714E28",
"]^	c #D8497A",
"^^	c #A2654A",
"/^	c #DF4A7D",
"(^	c #A26A68",
"_^	c #07C05B",
":^	c #E2497E",
"<^	c #875541",
"[^	c #B38741",
"}^	c #AC8545",
"|^	c #4A471C",
"1^	c #497807",
"2^	c #50901D",
"3^	c #68AB13",
"4^	c #62A51D",
"5^	c #4F9208",
"6^	c #569719",
"7^	c #4C8307",
"8^	c #394C1B",
"9^	c #9B7438",
"0^	c #D09B4B",
"a^	c #99594F",
"b^	c #FB8BB0",
"c^	c #FC88AE",
"d^	c #EE5287",
"e^	c #C12A29",
"f^	c #BB2528",
"g^	c #E4447C",
"h^	c #D52E6C",
"i^	c #7A2239",
"j^	c #9E6429",
"k^	c #574118",
"l^	c #508D1A",
"m^	c #518F1A",
"n^	c #63A50B",
"o^	c #518E2B",
"p^	c #549411",
"q^	c #66A22F",
"r^	c #347A0A",
"s^	c #3A7E0B",
"t^	c #5C9D06",
"u^	c #60A20A",
"v^	c #6DAF14",
"w^	c #5E9F1A",
"x^	c #6DB00C",
"y^	c #60A20E",
"z^	c #539507",
"A^	c #62A812",
"B^	c #63A511",
"C^	c #6BAE0D",
"D^	c #477E0A",
"E^	c #A57C3D",
"F^	c #77582A",
"G^	c #EB4881",
"H^	c #3CAA58",
"I^	c #7B7D57",
"J^	c #F65189",
"K^	c #E14B7E",
"L^	c #9F614E",
"M^	c #B48947",
"N^	c #C49751",
"O^	c #A68044",
"P^	c #856430",
"Q^	c #6F6030",
"R^	c #45571B",
"S^	c #535A25",
"T^	c #72582F",
"U^	c #906D39",
"V^	c #A27A3F",
"W^	c #AF5B63",
"X^	c #F0769F",
"Y^	c #FD95B8",
"Z^	c #FB6B9A",
"`^	c #DC5582",
" /	c #C3657F",
"./	c #B4395B",
"+/	c #D32607",
"@/	c #CA3F6F",
"#/	c #E7417B",
"$/	c #96224C",
"%/	c #96602B",
"&/	c #A1662B",
"*/	c #35620B",
"=/	c #4D8B19",
"-/	c #529218",
";/	c #56972B",
">/	c #579A0F",
",/	c #609F29",
"'/	c #4E8D26",
")/	c #5C9E0E",
"!/	c #4E8F0C",
"~/	c #61A00B",
"{/	c #67A707",
"]/	c #5A9E0A",
"^/	c #549616",
"//	c #5FA313",
"(/	c #549809",
"_/	c #58991C",
":/	c #5EA00D",
"</	c #69AE09",
"[/	c #4B9007",
"}/	c #675528",
"|/	c #9B7538",
"1/	c #CB376C",
"2/	c #F6568D",
"3/	c #F9588E",
"4/	c #8B5654",
"5/	c #DE477B",
"6/	c #B3375E",
"7/	c #B5062A",
"8/	c #A03A5F",
"9/	c #915B4C",
"0/	c #AC813F",
"a/	c #CE9B4D",
"b/	c #CC9B4F",
"c/	c #966A40",
"d/	c #BC4D73",
"e/	c #E56B95",
"f/	c #F87AA5",
"g/	c #FC89B0",
"h/	c #FC8BB2",
"i/	c #FA6B9A",
"j/	c #BA9B9D",
"k/	c #BFA3A4",
"l/	c #F9548B",
"m/	c #C94371",
"n/	c #DB3872",
"o/	c #5D3623",
"p/	c #A86B2D",
"q/	c #794E21",
"r/	c #447E14",
"s/	c #5A9A0F",
"t/	c #5E9E17",
"u/	c #468B16",
"v/	c #66AB09",
"w/	c #50930F",
"x/	c #4C8D13",
"y/	c #34760E",
"z/	c #69AB14",
"A/	c #5B9B08",
"B/	c #67AB16",
"C/	c #4F950B",
"D/	c #71B605",
"E/	c #69AC19",
"F/	c #5A9E06",
"G/	c #61A30F",
"H/	c #315C06",
"I/	c #A8803F",
"J/	c #992650",
"K/	c #EE4882",
"L/	c #E95084",
"M/	c #A3307C",
"N/	c #CF4373",
"O/	c #C94472",
"P/	c #E40736",
"Q/	c #B7496D",
"R/	c #FA79A7",
"S/	c #DA628B",
"T/	c #C8587F",
"U/	c #CD5E84",
"V/	c #F27DA4",
"W/	c #FC8AB2",
"X/	c #FB82AA",
"Y/	c #FB77A3",
"Z/	c #FB6999",
"`/	c #F05489",
" (	c #C7C1BB",
".(	c #B2707D",
"+(	c #F14B85",
"@(	c #BE2A60",
"#(	c #7F5022",
"$(	c #83572A",
"%(	c #425D10",
"&(	c #5C9D1E",
"*(	c #549307",
"=(	c #6AAD12",
"-(	c #4D9023",
";(	c #63A90B",
">(	c #488A07",
",(	c #4F9407",
"'(	c #619F16",
")(	c #62A208",
"!(	c #68AB08",
"~(	c #508B1D",
"{(	c #5A9534",
"](	c #66A804",
"^(	c #66A708",
"/(	c #448607",
"((	c #4B9307",
"_(	c #529615",
":(	c #67A91A",
"<(	c #5E9D0B",
"[(	c #60A109",
"}(	c #37750D",
"|(	c #6A4A21",
"1(	c #7E5326",
"2(	c #C33368",
"3(	c #B2356E",
"4(	c #D233A0",
"5(	c #B81D3C",
"6(	c #B52041",
"7(	c #FA6194",
"8(	c #FB80AA",
"9(	c #FC8FB6",
"0(	c #FB89B1",
"a(	c #BB7084",
"b(	c #A36969",
"c(	c #F4548A",
"d(	c #DA507F",
"e(	c #CDC8C1",
"f(	c #E23A77",
"g(	c #95214B",
"h(	c #9A6329",
"i(	c #70471E",
"j(	c #589209",
"k(	c #579619",
"l(	c #60A40A",
"m(	c #52950D",
"n(	c #5DA207",
"o(	c #67AB15",
"p(	c #4C8E0D",
"q(	c #599E02",
"r(	c #559807",
"s(	c #6EB305",
"t(	c #5EA211",
"u(	c #60983B",
"v(	c #559805",
"w(	c #69AF08",
"x(	c #4B910C",
"y(	c #50960F",
"z(	c #438422",
"A(	c #529B04",
"B(	c #5FA208",
"C(	c #4E910C",
"D(	c #5F9C20",
"E(	c #73A551",
"F(	c #3E6913",
"G(	c #98642D",
"H(	c #7E4E2B",
"I(	c #B32D85",
"J(	c #A72E75",
"K(	c #D74A7A",
"L(	c #F15389",
"M(	c #D44877",
"N(	c #A42D50",
"O(	c #B6586C",
"P(	c #06C960",
"Q(	c #658B56",
"R(	c #EC5387",
"S(	c #F15388",
"T(	c #B53C65",
"U(	c #F45088",
"V(	c #D22E6B",
"W(	c #643525",
"X(	c #A0662C",
"Y(	c #466D0F",
"Z(	c #539806",
"`(	c #468C09",
" _	c #64A905",
"._	c #66A70F",
"+_	c #4C8C23",
"@_	c #51980A",
"#_	c #4C9408",
"$_	c #549708",
"%_	c #569D0C",
"&_	c #5E9F05",
"*_	c #599B0D",
"=_	c #54940E",
"-_	c #60A30F",
";_	c #6EAE29",
">_	c #549816",
",_	c #61A422",
"'_	c #71B11C",
")_	c #589B1A",
"!_	c #5E9A35",
"~_	c #589B16",
"{_	c #408308",
"]_	c #4A4C13",
"^_	c #A96C2D",
"/_	c #835035",
"(_	c #7E343C",
"__	c #DA3B74",
":_	c #E84D82",
"<_	c #097FB0",
"[_	c #3786BA",
"}_	c #B1537C",
"|_	c #F45389",
"1_	c #BD4F6E",
"2_	c #32AE5C",
"3_	c #836856",
"4_	c #E43D78",
"5_	c #92234A",
"6_	c #96602A",
"7_	c #553A17",
"8_	c #72B106",
"9_	c #5D9F15",
"0_	c #579A09",
"a_	c #5BA206",
"b_	c #5A9C12",
"c_	c #579A10",
"d_	c #418519",
"e_	c #63A707",
"f_	c #53970A",
"g_	c #378203",
"h_	c #569810",
"i_	c #569808",
"j_	c #79BC04",
"k_	c #528E0B",
"l_	c #5C9F1D",
"m_	c #68AA0F",
"n_	c #63A60D",
"o_	c #579C18",
"p_	c #609E29",
"q_	c #4B8C10",
"r_	c #5A9D0E",
"s_	c #498C1C",
"t_	c #5D9E0B",
"u_	c #5C9D0A",
"v_	c #619C08",
"w_	c #633F1A",
"x_	c #AB6D30",
"y_	c #A7692B",
"z_	c #723530",
"A_	c #D2326D",
"B_	c #D24878",
"C_	c #6573A0",
"D_	c #0896D2",
"E_	c #8D547A",
"F_	c #F6588F",
"G_	c #F9558D",
"H_	c #EC5185",
"I_	c #E54E81",
"J_	c #ED5488",
"K_	c #D24978",
"L_	c #EF4983",
"M_	c #DC3472",
"N_	c #D82F6D",
"O_	c #A72856",
"P_	c #7F4E23",
"Q_	c #784C1E",
"R_	c #48780F",
"S_	c #72B613",
"T_	c #6BA739",
"U_	c #5B9D19",
"V_	c #66AC07",
"W_	c #5DA006",
"X_	c #559A0E",
"Y_	c #3A8010",
"Z_	c #5CA005",
"`_	c #589D07",
" :	c #367906",
".:	c #509317",
"+:	c #78B809",
"@:	c #317205",
"#:	c #418411",
"$:	c #60A409",
"%:	c #6FB113",
"&:	c #5A9F0E",
"*:	c #4F9404",
"=:	c #468C19",
"-:	c #70B40D",
";:	c #66A90E",
">:	c #63A609",
",:	c #396C07",
"':	c #64401D",
"):	c #A26A2E",
"!:	c #A3682C",
"~:	c #852842",
"{:	c #DD3572",
"]:	c #F75189",
"^:	c #F7548B",
"/:	c #D94A7A",
"(:	c #E24A7E",
"_:	c #EC5186",
"::	c #BC4075",
"<:	c #BE378A",
"[:	c #B12987",
"}:	c #D94A7B",
"|:	c #B3334F",
"1:	c #A01E11",
"2:	c #F8568D",
"3:	c #BB3F7E",
"4:	c #CF309C",
"5:	c #A5267E",
"6:	c #EA4E83",
"7:	c #C62D65",
"8:	c #7C2C3A",
"9:	c #925D26",
"0:	c #8E5B28",
"a:	c #38640C",
"b:	c #69A823",
"c:	c #569330",
"d:	c #5F9F0B",
"e:	c #559B0B",
"f:	c #6DB304",
"g:	c #66AD02",
"h:	c #54971A",
"i:	c #488D0A",
"j:	c #4B9004",
"k:	c #539909",
"l:	c #478B03",
"m:	c #589A07",
"n:	c #468B0A",
"o:	c #78BA07",
"p:	c #3C7B0A",
"q:	c #66A717",
"r:	c #66A716",
"s:	c #4B9509",
"t:	c #68AF05",
"u:	c #397F0C",
"v:	c #74B805",
"w:	c #4D8C0B",
"x:	c #77BA14",
"y:	c #519008",
"z:	c #5E9D04",
"A:	c #5DA106",
"B:	c #356108",
"C:	c #784B1D",
"D:	c #AB6B2A",
"E:	c #885725",
"F:	c #BC2D61",
"G:	c #E9437D",
"H:	c #A13467",
"I:	c #D834A5",
"J:	c #B82F89",
"K:	c #B5386B",
"L:	c #F24F87",
"M:	c #B63A5A",
"N:	c #E82805",
"O:	c #B53458",
"P:	c #9A2A74",
"Q:	c #D532A1",
"R:	c #AB2D77",
"S:	c #D24374",
"T:	c #B82A5E",
"U:	c #704326",
"V:	c #A96B2D",
"W:	c #8D5A25",
"X:	c #416B0A",
"Y:	c #4B8F04",
"Z:	c #63A615",
"`:	c #45802D",
" <	c #65A909",
".<	c #67AC05",
"+<	c #67AE04",
"@<	c #6AA831",
"#<	c #448615",
"$<	c #488C04",
"%<	c #4F9904",
"&<	c #599E06",
"*<	c #5B9C08",
"=<	c #589B0D",
"-<	c #498C06",
";<	c #72B503",
"><	c #5E9E06",
",<	c #65A705",
"'<	c #6CAD2A",
")<	c #5DA107",
"!<	c #509A03",
"~<	c #5BA403",
"{<	c #357B0A",
"]<	c #68AC05",
"^<	c #498C0D",
"/<	c #5EA009",
"(<	c #5DA007",
"_<	c #5D9D0A",
":<	c #468611",
"<<	c #44720A",
"[<	c #75491C",
"}<	c #AB6D2D",
"|<	c #793237",
"1<	c #D9316F",
"2<	c #F7508A",
"3<	c #EB4E84",
"4<	c #DC467A",
"5<	c #F44F87",
"6<	c #DF4E7F",
"7<	c #C32507",
"8<	c #B02A46",
"9<	c #D74778",
"0<	c #D74678",
"a<	c #F34D86",
"b<	c #EF4982",
"c<	c #C62C65",
"d<	c #6D4124",
"e<	c #AF6F2E",
"f<	c #825424",
"g<	c #1C4805",
"h<	c #61A403",
"i<	c #3F8506",
"j<	c #5E9E1B",
"k<	c #52930E",
"l<	c #569C05",
"m<	c #6EB203",
"n<	c #50920E",
"o<	c #64AC03",
"p<	c #68A53F",
"q<	c #589C07",
"r<	c #539505",
"s<	c #4D9503",
"t<	c #68AA04",
"u<	c #4E9209",
"v<	c #3C8607",
"w<	c #4D8F13",
"x<	c #74B603",
"y<	c #559803",
"z<	c #589C17",
"A<	c #5C9F07",
"B<	c #549A04",
"C<	c #58A202",
"D<	c #4C8E08",
"E<	c #468703",
"F<	c #74B132",
"G<	c #56990E",
"H<	c #5EA00A",
"I<	c #4A8E12",
"J<	c #6EB10A",
"K<	c #467907",
"L<	c #5C3C19",
"M<	c #8A5A28",
"N<	c #A52452",
"O<	c #D72E6C",
"P<	c #DB3471",
"Q<	c #DE3773",
"R<	c #DE3672",
"S<	c #E03A75",
"T<	c #F24E86",
"U<	c #C83E6D",
"V<	c #ED4982",
"W<	c #F54E87",
"X<	c #F44D86",
"Y<	c #D62E6C",
"Z<	c #C82E65",
"`<	c #6C302E",
" [	c #A2682B",
".[	c #67411C",
"+[	c #47780A",
"@[	c #4A9016",
"#[	c #498C07",
"$[	c #367A10",
"%[	c #539B06",
"&[	c #357C03",
"*[	c #66AB05",
"=[	c #307807",
"-[	c #599E21",
";[	c #508F21",
">[	c #61A50B",
",[	c #4A8E04",
"'[	c #488F03",
")[	c #6FB203",
"![	c #458804",
"~[	c #438514",
"{[	c #4D8D1E",
"][	c #74B706",
"^[	c #4A8F04",
"/[	c #3C8504",
"([	c #62A304",
"_[	c #448A02",
":[	c #508F23",
"<[	c #65A624",
"[[	c #519513",
"}[	c #4D9004",
"|[	c #599913",
"1[	c #5A9E08",
"2[	c #5FA111",
"3[	c #509503",
"4[	c #408406",
"5[	c #4C8608",
"6[	c #313A0B",
"7[	c #49341A",
"8[	c #A12451",
"9[	c #D32E6B",
"0[	c #D5306D",
"a[	c #C12B62",
"b[	c #AD2355",
"c[	c #B8295D",
"d[	c #D32F6B",
"e[	c #E33B77",
"f[	c #F14A84",
"g[	c #ED4780",
"h[	c #D42E6B",
"i[	c #B1285A",
"j[	c #931D48",
"k[	c #8E1C45",
"l[	c #832F40",
"m[	c #7D4C27",
"n[	c #8D5B28",
"o[	c #433E10",
"p[	c #437908",
"q[	c #519506",
"r[	c #4B8C25",
"s[	c #428706",
"t[	c #2D7502",
"u[	c #418606",
"v[	c #488F04",
"w[	c #3D8603",
"x[	c #458921",
"y[	c #65A704",
"z[	c #458D05",
"A[	c #599B03",
"B[	c #519603",
"C[	c #408604",
"D[	c #529027",
"E[	c #367705",
"F[	c #5FA207",
"G[	c #5D9E06",
"H[	c #5AA003",
"I[	c #428704",
"J[	c #5C9C06",
"K[	c #4A8D07",
"L[	c #448905",
"M[	c #468B02",
"N[	c #4F8F15",
"O[	c #62A308",
"P[	c #69AE03",
"Q[	c #569604",
"R[	c #5F9D17",
"S[	c #468305",
"T[	c #68994B",
"U[	c #488225",
"V[	c #4F8212",
"W[	c #031501",
"X[	c #290813",
"Y[	c #691633",
"Z[	c #77323A",
"`[	c #68401B",
" }	c #835323",
".}	c #905A24",
"+}	c #8C5724",
"@}	c #6F4124",
"#}	c #99224D",
"$}	c #D22F6B",
"%}	c #E13A76",
"&}	c #C62E65",
"*}	c #6B2731",
"=}	c #855423",
"-}	c #9D652A",
";}	c #A26930",
">}	c #A3672A",
",}	c #68431A",
"'}	c #235406",
")}	c #529405",
"!}	c #519505",
"~}	c #6EA547",
"{}	c #5E953E",
"]}	c #5FA310",
"^}	c #488C02",
"/}	c #428408",
"(}	c #579D05",
"_}	c #509702",
":}	c #488A16",
"<}	c #4A8D04",
"[}	c #559905",
"}}	c #63A905",
"|}	c #60A306",
"1}	c #367F02",
"2}	c #3A7E05",
"3}	c #4F931E",
"4}	c #3B7F08",
"5}	c #67A803",
"6}	c #488707",
"7}	c #519405",
"8}	c #559205",
"9}	c #4B8A18",
"0}	c #458905",
"a}	c #5EA005",
"b}	c #5C9F0A",
"c}	c #70B302",
"d}	c #56990C",
"e}	c #468902",
"f}	c #64A126",
"g}	c #6CAB29",
"h}	c #4A8C1B",
"i}	c #478C05",
"j}	c #69AC15",
"k}	c #4C8D09",
"l}	c #396A09",
"m}	c #1A2D04",
"n}	c #69431D",
"o}	c #935E27",
"p}	c #9B632A",
"q}	c #865625",
"r}	c #9F6327",
"s}	c #AA6B29",
"t}	c #986128",
"u}	c #6C2E2D",
"v}	c #B5285B",
"w}	c #D72F6D",
"x}	c #D62F6C",
"y}	c #AF2859",
"z}	c #582E1C",
"A}	c #A4682A",
"B}	c #A56A2F",
"C}	c #66411F",
"D}	c #355F09",
"E}	c #518C0D",
"F}	c #3E8304",
"G}	c #5B9F14",
"H}	c #64A328",
"I}	c #5B9C0E",
"J}	c #4A8E0E",
"K}	c #438711",
"L}	c #60A405",
"M}	c #64A602",
"N}	c #6AA92E",
"O}	c #347903",
"P}	c #5FA402",
"Q}	c #438902",
"R}	c #4C8A12",
"S}	c #468B0D",
"T}	c #4C8C0C",
"U}	c #3B8105",
"V}	c #4A9003",
"W}	c #6CAE04",
"X}	c #5E9C39",
"Y}	c #4F9103",
"Z}	c #3A8006",
"`}	c #5A9D04",
" |	c #63A504",
".|	c #468612",
"+|	c #3A7119",
"@|	c #3F8603",
"#|	c #60A304",
"$|	c #3E840A",
"%|	c #78AF4C",
"&|	c #6BAF04",
"*|	c #4B900B",
"=|	c #41831C",
"-|	c #418603",
";|	c #75B710",
">|	c #62A604",
",|	c #4E8E1F",
"'|	c #529220",
")|	c #4F930F",
"!|	c #5B991C",
"~|	c #589A05",
"{|	c #448606",
"]|	c #3C7A08",
"^|	c #255205",
"/|	c #3E4D0F",
"(|	c #643F18",
"_|	c #7D4F21",
":|	c #8C5925",
"<|	c #92602D",
"[|	c #9B6128",
"}|	c #85592B",
"||	c #724234",
"1|	c #67102F",
"2|	c #501227",
"3|	c #291B0A",
"4|	c #6F4622",
"5|	c #492F13",
"6|	c #355014",
"7|	c #346608",
"8|	c #4C8C0A",
"9|	c #599A24",
"0|	c #60A307",
"a|	c #438607",
"b|	c #77B346",
"c|	c #488B04",
"d|	c #4D8E26",
"e|	c #579C03",
"f|	c #5B9E08",
"g|	c #6CB002",
"h|	c #519607",
"i|	c #327903",
"j|	c #68AD04",
"k|	c #43890A",
"l|	c #579B1C",
"m|	c #39801A",
"n|	c #4C8E06",
"o|	c #62A715",
"p|	c #5EA004",
"q|	c #367A1A",
"r|	c #498E05",
"s|	c #408703",
"t|	c #549404",
"u|	c #437D27",
"v|	c #23640D",
"w|	c #458C08",
"x|	c #387D02",
"y|	c #4F9105",
"z|	c #5E9F19",
"A|	c #60A203",
"B|	c #408203",
"C|	c #6AAD04",
"D|	c #7DBF04",
"E|	c #5C9D03",
"F|	c #418605",
"G|	c #3B7B22",
"H|	c #478909",
"I|	c #549704",
"J|	c #73B612",
"K|	c #609F0A",
"L|	c #206903",
"M|	c #559806",
"N|	c #4D8E0E",
"O|	c #417610",
"P|	c #417608",
"Q|	c #4D7D03",
"R|	c #3F6B09",
"S|	c #41660C",
"T|	c #2F5608",
"U|	c #315615",
"V|	c #386805",
"W|	c #3E7107",
"X|	c #538C14",
"Y|	c #5E9C0C",
"Z|	c #62A40F",
"`|	c #559903",
" 1	c #519903",
".1	c #64A522",
"+1	c #5DA105",
"@1	c #65A42F",
"#1	c #519602",
"$1	c #428412",
"%1	c #518E34",
"&1	c #67AC10",
"*1	c #65A902",
"=1	c #569B05",
"-1	c #519502",
";1	c #337B02",
">1	c #5BA308",
",1	c #3E8710",
"'1	c #448708",
")1	c #4A9402",
"!1	c #45881A",
"~1	c #448605",
"{1	c #4A9019",
"]1	c #549705",
"^1	c #5AA103",
"/1	c #58990A",
"(1	c #367702",
"_1	c #468604",
":1	c #448426",
"<1	c #2D7107",
"[1	c #428103",
"}1	c #4F9702",
"|1	c #5A9E04",
"11	c #4F9703",
"21	c #509302",
"31	c #53970E",
"41	c #62A303",
"51	c #66A803",
"61	c #5C9B0B",
"71	c #4D9404",
"81	c #3E821D",
"91	c #52980A",
"01	c #458C03",
"a1	c #64A603",
"b1	c #50940B",
"c1	c #509005",
"d1	c #569807",
"e1	c #448904",
"f1	c #569903",
"g1	c #488902",
"h1	c #5DA502",
"i1	c #6EB402",
"j1	c #519403",
"k1	c #72B602",
"l1	c #67A33C",
"m1	c #4F9412",
"n1	c #478F02",
"o1	c #4A9107",
"p1	c #4E9212",
"q1	c #589D06",
"r1	c #4F9305",
"s1	c #5FA403",
"t1	c #5A9E0C",
"u1	c #458A06",
"v1	c #61A503",
"w1	c #589A11",
"x1	c #327C03",
"y1	c #51980B",
"z1	c #6BB004",
"A1	c #4B8F02",
"B1	c #549C02",
"C1	c #2A7302",
"D1	c #3E8302",
"E1	c #46900B",
"F1	c #549702",
"G1	c #438706",
"H1	c #3F8503",
"I1	c #70AD2E",
"J1	c #4A9002",
"K1	c #377B03",
"L1	c #4E9002",
"M1	c #599F03",
"N1	c #458426",
"O1	c #2C6D03",
"P1	c #3E8102",
"Q1	c #5F9F03",
"R1	c #418B03",
"S1	c #438B04",
"T1	c #66AC02",
"U1	c #66A704",
"V1	c #4F9304",
"W1	c #61A61B",
"X1	c #468C06",
"Y1	c #458903",
"Z1	c #539812",
"`1	c #6AAD02",
" 2	c #4B9102",
".2	c #72B603",
"+2	c #4D9403",
"@2	c #68AA07",
"#2	c #428603",
"$2	c #4F9502",
"%2	c #63AA03",
"&2	c #6AAC28",
"*2	c #5C9C31",
"=2	c #5C9C0C",
"-2	c #438804",
";2	c #448A0B",
">2	c #4E9402",
",2	c #589C03",
"'2	c #4F9303",
")2	c #5BA005",
"!2	c #458910",
"~2	c #5BA102",
"{2	c #529903",
"]2	c #529902",
"^2	c #69AC1F",
"/2	c #2F7902",
"(2	c #3C8602",
"_2	c #7ABE02",
":2	c #367902",
"<2	c #418303",
"[2	c #68AE02",
"}2	c #3A8502",
"|2	c #559F02",
"12	c #53980F",
"22	c #508E2C",
"32	c #3C7F05",
"42	c #4B8F03",
"52	c #579903",
"62	c #569B03",
"72	c #397916",
"82	c #4F9024",
"92	c #408303",
"02	c #63A403",
"a2	c #4C9203",
"b2	c #367D03",
"c2	c #3A8003",
"d2	c #69AD0A",
"e2	c #5D9D09",
"f2	c #468904",
"g2	c #71B603",
"h2	c #6AAA02",
"i2	c #529515",
"j2	c #448A0C",
"k2	c #5CA002",
"l2	c #6DB203",
"m2	c #5A9D05",
"n2	c #4D8F02",
"o2	c #448802",
"p2	c #569B02",
"q2	c #468626",
"r2	c #498F04",
"s2	c #60A205",
"t2	c #226802",
"u2	c #529802",
"v2	c #5EA227",
"w2	c #5EA20C",
"x2	c #549B03",
"y2	c #509603",
"z2	c #5A9C16",
"A2	c #5DA103",
"B2	c #4C9502",
"C2	c #6CB10E",
"D2	c #4B9302",
"E2	c #5EA329",
"F2	c #69AA30",
"G2	c #448902",
"H2	c #2C7204",
"I2	c #65AC03",
"J2	c #5BA302",
"K2	c #488E03",
"L2	c #67AB04",
"M2	c #69AF03",
"N2	c #4A8D1F",
"O2	c #4F901D",
"P2	c #559A05",
"Q2	c #4D8E08",
"R2	c #559C04",
"S2	c #67AB02",
"T2	c #37790C",
"U2	c #5D9F1F",
"V2	c #6BAF03",
"W2	c #549003",
"X2	c #5A9D03",
"Y2	c #438803",
"Z2	c #418604",
"`2	c #428B02",
" 3	c #6EB20D",
".3	c #66AC03",
"+3	c #4A8903",
"@3	c #166102",
"#3	c #5FA104",
"$3	c #82C502",
"%3	c #6DAF15",
"&3	c #61A603",
"*3	c #75B903",
"=3	c #539A02",
"-3	c #559C03",
";3	c #62A702",
">3	c #55990E",
",3	c #5EA314",
"'3	c #458423",
")3	c #7DBF08",
"!3	c #559A03",
"~3	c #68A73A",
"{3	c #60A204",
"]3	c #599E03",
"^3	c #3B7A03",
"/3	c #539C02",
"(3	c #398206",
"_3	c #66A825",
":3	c #468D02",
"<3	c #559A02",
"[3	c #3F8402",
"}3	c #4C9409",
"|3	c #579B0E",
"13	c #3E8502",
"23	c #549B02",
"33	c #4A8A03",
"43	c #519902",
"53	c #539D02",
"63	c #5D9E1A",
"73	c #579E02",
"83	c #539412",
"93	c #4D9003",
"03	c #387E02",
"a3	c #62A508",
"b3	c #397A03",
"c3	c #529702",
"d3	c #5A9E02",
"e3	c #5DA002",
"f3	c #75B503",
"g3	c #52930D",
"h3	c #5A9F04",
"i3	c #387C02",
"j3	c #498E04",
"k3	c #4F9503",
"l3	c #66A929",
"m3	c #5CA003",
"n3	c #589B0C",
"o3	c #2B7002",
"p3	c #60A702",
"q3	c #67AB03",
"r3	c #569D02",
"s3	c #65A918",
"t3	c #76BA02",
"u3	c #539D03",
"v3	c #549A03",
"w3	c #68AC03",
"x3	c #61A802",
"y3	c #4A8F02",
"z3	c #498F16",
"A3	c #53961D",
"B3	c #2E7502",
"C3	c #5CA111",
"D3	c #6FB402",
"E3	c #5E9F02",
"F3	c #5CA103",
"G3	c #6BB007",
"H3	c #478B02",
"I3	c #499103",
"J3	c #569C02",
"K3	c #499002",
"L3	c #4A9302",
"M3	c #5CA202",
"N3	c #3E8202",
"O3	c #498C03",
"P3	c #59A008",
"Q3	c #539920",
"R3	c #4B8B02",
"S3	c #5C9F02",
"T3	c #327B02",
"U3	c #5EA105",
"V3	c #498C08",
"W3	c #509303",
"X3	c #4D9103",
"Y3	c #5EA303",
"Z3	c #74B802",
"`3	c #519406",
" 4	c #3C7D03",
".4	c #62A902",
"+4	c #60A22F",
"@4	c #589C02",
"#4	c #529B02",
"$4	c #5BA306",
"%4	c #5EA125",
"&4	c #4C9202",
"*4	c #5DA302",
"=4	c #509502",
"-4	c #3D8512",
";4	c #529707",
">4	c #387F02",
",4	c #76BB02",
"'4	c #4F9402",
")4	c #70B502",
"!4	c #51960C",
"~4	c #448505",
"{4	c #529703",
"]4	c #529803",
"^4	c #4A8E06",
"/4	c #4D9202",
"(4	c #509802",
"_4	c #4E9703",
":4	c #3B7D02",
"<4	c #3D8602",
"[4	c #519A02",
"}4	c #4F9604",
"|4	c #3C860D",
"14	c #478E06",
"24	c #579602",
"34	c #367B02",
"44	c #2D7701",
"54	c #539618",
"64	c #5FA302",
"74	c #67AA08",
"84	c #4D9502",
"94	c #468A02",
"04	c #488802",
"a4	c #478A05",
"b4	c #62AA02",
"c4	c #4E9616",
"d4	c #3C8402",
"e4	c #5FA204",
"f4	c #67AC0A",
"g4	c #559A0B",
"h4	c #579D02",
"i4	c #519802",
"j4	c #5CA307",
"k4	c #549902",
"l4	c #4C8F02",
"m4	c #529A02",
"n4	c #549402",
"o4	c #3F8903",
"p4	c #297202",
"q4	c #4E9303",
"r4	c #4C931B",
"s4	c #4F9507",
"t4	c #63A505",
"u4	c #368002",
"v4	c #3B8305",
"w4	c #4B9604",
"x4	c #4E9124",
"y4	c #337902",
"z4	c #539305",
"A4	c #52952A",
"B4	c #4D9602",
"C4	c #5DA40A",
"D4	c #4F8A02",
"E4	c #438A02",
"F4	c #388202",
"G4	c #408706",
"H4	c #5A9A02",
"I4	c #499102",
"J4	c #2A7401",
"K4	c #6BAF02",
"L4	c #236F01",
"M4	c #589E02",
"N4	c #5A9E03",
"O4	c #75B802",
"P4	c #509304",
"Q4	c #69AA02",
"R4	c #5DA202",
"S4	c #4A9108",
"T4	c #448909",
"U4	c #4C8D02",
"V4	c #408B02",
"W4	c #509602",
"X4	c #6AA638",
"Y4	c #64A911",
"Z4	c #549802",
"`4	c #589A02",
" 5	c #488F02",
".5	c #3F8507",
"+5	c #60A502",
"@5	c #4E9602",
"#5	c #3D8802",
"$5	c #418702",
"%5	c #468C02",
"&5	c #448702",
"*5	c #3E8702",
"=5	c #428D02",
"-5	c #2C7601",
";5	c #2B7501",
">5	c #44891B",
",5	c #2B7404",
"'5	c #5E9D28",
")5	c #4F951A",
"!5	c #4E9502",
"~5	c #509902",
"{5	c #489102",
"]5	c #599D03",
"^5	c #509112",
"/5	c #347A12",
"(5	c #6BAF18",
"_5	c #5EA202",
":5	c #3C8502",
"<5	c #589A2F",
"[5	c #589B02",
"}5	c #3B7B01",
"|5	c #257102",
"15	c #347A02",
"25	c #75B804",
"35	c #5CA104",
"45	c #4B8E02",
"55	c #428502",
"65	c #67AC06",
"75	c #4E9403",
"85	c #539902",
"95	c #6CB202",
"05	c #59A102",
"a5	c #448714",
"b5	c #4E9406",
"c5	c #458B08",
"d5	c #66AB21",
"e5	c #377F02",
"f5	c #448B15",
"g5	c #5A9D02",
"h5	c #3D830A",
"i5	c #3A820B",
"j5	c #378102",
"k5	c #3A8202",
"l5	c #4D920D",
"m5	c #51920E",
"n5	c #2A7304",
"o5	c #428D08",
"p5	c #599C19",
"q5	c #569F03",
"r5	c #529808",
"s5	c #589C18",
"t5	c #2D7602",
"u5	c #63AA02",
"v5	c #6EB302",
"w5	c #4F9202",
"x5	c #4C9021",
"y5	c #519129",
"z5	c #5EA602",
"A5	c #408202",
"B5	c #2B7301",
"C5	c #418802",
"D5	c #61A003",
"E5	c #73B602",
"F5	c #498F03",
"G5	c #317D02",
"H5	c #539A03",
"I5	c #5AA002",
"J5	c #549B04",
"K5	c #317608",
"L5	c #498D02",
"M5	c #5DA203",
"N5	c #559D02",
"O5	c #448813",
"P5	c #529316",
"Q5	c #418B02",
"R5	c #408702",
"S5	c #559B15",
"T5	c #5AA007",
"U5	c #3A8301",
"V5	c #3D810D",
"W5	c #589E03",
"X5	c #4A9009",
"Y5	c #266F01",
"Z5	c #579B02",
"`5	c #519611",
" 6	c #4C9005",
".6	c #3E820B",
"+6	c #549812",
"@6	c #3E860E",
"#6	c #4A9102",
"$6	c #3F8802",
"%6	c #519807",
"&6	c #3B8302",
"*6	c #63AB02",
"=6	c #559829",
"-6	c #3E8802",
";6	c #4F9403",
">6	c #4C9210",
"  . + @ # $ % & * = - ; > , ' ) ! ~ { ] ^ / ( _ : < [ } | 1 2 3 4 5 6 7 8 9 0 a b c d e f g h i j k l m n 4 o p q r s t u v w x ",
"y z A B f C D E F G H I J K L M N O # P Q R S T U V D W X Y Z ` m  ...+.@.#.$.%.&.*.=.-.;.>.,.'.).!.~.{.].^./.(._.:.<.&.[.}.|.1.",
"2.3.4.5.6.7.8.9.0.a.b.c.d.e.f.g.h.i.j.&.k.l.m.n.o.p.q.r.s.c : t.Y u.v.w.u x.y.z.x.A.B.C.D.E.F.G.H.I.J.K.% L.M.N.O.P.i ].Q.R.t S.",
"T.# U.V.W.X.Y.Z.`..  +m .+++@+#+$+T 3 u %+&+*+=+-+;+U >+,+$ # '+)+!+~+{+]+^+/+(+_+:+<+[+}+|+1+2+3+4+5+6+7+8+9+0+a+b+c+d+e+f+g+0 ",
"h+O.i+j+k+l+m+n+o+p+q+r+s+t+u+v+w+x+y+z+A+O.B+C+@.c.D+E+F+G+H+I+J+: K+L+M+N+O+&.n+0 L+-.P+Q+R+S+T+U+@+V+W+/.v.X+Y+Z+`+ @.@+@@@#@",
"$@%@&@4.*@P.p =@-@;@H >@&.,@'@)@,+!@~@{@]@` ^@/@N e O (@_@:@W.<@[@}@|@1@n.2@3@4@5@6@/.7@$.8@9@0@d+a@b@c@d@e@E+f@g@h@~ i@j@k@l@. ",
"q m@n@o@^.&.v+p@q@z.f@r@s@B.t@u@v@-.w@..w.x@y@z@A@^@B@C@D@B+E@E.F@(@[.G@B@H@I@N+J@K@L@M@$@N@O@P@Q@R@S@s 6+T@{+U@V@W@X@Y@= n+Z@`@",
"]. #p f..#C++#s @###Y !+$#$@%#&#*#5.=#~+u.-#;#>#,#'#)#!#{+~#{#]#^#/#(#_#B@:#I@&+<#[#}#|#1#2#|+3#4#5#6#$.7#8#(#9#0#a#b#c#d#> d@3+",
">+e#f#>+'#g#h#i#n X@j#k#l+@#_#l#m#o@n#L.o#p#|#q#i.r#s#t#u#v#w#x#y#z#A#B#C#)@D#&+o+E#F#G#H#I#J#K#L#M#N#O#P#Q#R#S#T#U#{#V#5+W#X#Y#",
"Z#`# $.$<++$@$n+#$$$%$&$O._+*$=${#-$;$>$8@,$'$)$!$~${$]$^$/$($_$:$<$[$}$|$1$2$3$4$5$6$..7${#S+8$9$0$a$b$c$d$e$f$g$h$i$j$&.,.k$l$",
"m$n$(@o$p$q$p a r$s$t$u${ T v$0.w$x$B R.y$z$A$B$C$D$E$F$G$H$I$J$K$L$M$N$O$P$Q$R$S$T$U$V$G W$X$Y$0$`+Z$(@`$!  %.%+%@%,#@##%H@$%%%",
"d ;$&%*%=%~+-%;%>%,%'%)%] 2 i !%~%{%4$]%^%/%(%_%:%<%[%}%}%|%1%2%3%4%5%6%7%8%9%0%a%b%c%d%'%I@e%j$n.b@f%P#Z@g%z |@h%i%M+z j%k% $l%",
"m%n%`+j+B+x.H+o%(@p%A+<.q%r%s%t%u%v%w%x%y%z%A%B%C%D%E%F%G%H%I%J%K%L%M%M%N%N%O%M%P%Q%R%S%T%U%V%).m W%X%f S.Y%<+Z%`% &.&+&@&#&$&%&",
"&&*&=&#@-&;&>&,&~ > '&)&!&x.~&{&]&^&/&(&_&:&D%<&[&}&O%O%O%M%|&1&2&3&M%M%4&5&6&7&O%O%8&9&0&a&b&c&d&v.e&) $#f&g&{.h&i&j&k&l&m&F n&",
"o&p&q&r&s&t&u&v&p.w&x&y&z&A&`%B&C&D&E&F&G&}%H&I&J&K&O%|&M%M%M%M%M%M%M%M%L&M&N&O&P&|&|&Q&R&S&T&U&V&W&X&Y&Z&`&j  *.*+*@*%$#*$*%*&*",
"**l+R.=*-*;*>*c@,*'*)*!*~*Z@{*]*^*/*(*_*:*<*[*}*|*O%|&M%|&M%M%M%M%M%M%M%|&1*2*3*4*O%M%M%5*6*7*8*9*0*a*b*S c*d*e*# f*g*h*i*j*b x.",
"k*l*m*T n*o*^@p*q*r*;%s*t*u*v*w*x*y*J$E%z*M%A*B*C*M%D*E*F*G*H*I*H*J*K*L*M*O%N*O*P*M%M%M%Q*A*R*S*T*U*V*W*X*Y*Z*`*O.%* =.=+=+.,#A.",
"@=]+#=$=%=&=Z@*===~#-=;=>=,='=)=!=~={=]=^=M%M%/=M*(=_=:=<=[=}=|=1=2=3=4=5=6=7=M%M%M%8=9=0=a=b=c=d=e=f=q.|+g=h=i=I@j=k=m%n Z@l=m=",
"f.n=v&{#o=p=q= *r=I.s=t=u=v=w=x=y=M%z=A=B=C=M%D=E=F=G=H=I=}=J=}=K=L=M=N=O=P=Q=R=S=T=U=V=W=X=Y=Z=`= -.-+-@-#-$-%-&-p@*-=-] %.---#",
"a.;->-,-'-!%)-j.!-~-{-]-^-/-(-_-O%O%M%:-<-[-M%}-|-1-2-3-4-J=5-4-6-7-8-9-0-P=a-b-7-c-c-V=d-e-f-c-g-h-i-j-k-l-m-_@n-o-p-Y$q-r-s-F@",
"; A.t-u-v-w-x-x@d+y-5.z-A-<%B-C-D-O%O%E-F-G-D*c-g-H-I-J-K-L-M-N-O-P-Q-Q-0-P=R-S-T-U-V-V=V=W-X-|-Y-Z-`- ;.;+;@;#;$;%;&;*;j+=;-;;;",
">;,;';);!;~;5@{;];^;/;(;_;:;<;[;};N%M%|&O%|;1;|-2;3;4;5;6;7;8;9;0;a;b;c;d;L-P=e;f;g;|-V=c-c-a-|-Q=L-h;i;j;k;l; =x$m;2.n;o;p;q;r;",
"'#%%s;t;u;v;w;x;y;z;A;B;C;D;E;F;G;M%M%M%D=H;Q=I;J;6;K;L;M;N;O;P;Q;R;S;T;U;V;W;X;Y;Z;`;V=V-V-c-|-Q=}= >.>+>@>#>$>%>&>*>=>->;>>>,>",
"_#'>)>!>~>{>]>^>B#/>(>_>:><>[>M%M%M%O%}>}-|-|>1>2>3>4>5>6>7>8>9>0>a>b>c>d>e>f>g-g>h>i>c-}-j>c-|-k>l>m>n>o>p>q>r>s>t>u>v>w>x>y>z>",
"A>B>v C>D>E>F>G>H>I>J>K>L>M>M%M%M%N>O>P>V-|-Q>R>S>T>U>V>W>X>Y>Z>`> ,.,+,@,#,$,%,c-j>j>&,j>j>c-*,=,-,0-;,>,,,',q%+$),!,~,J.N+{,],",
"^,/,*%(,_,:,<,[,},|,1,2,3,4,M%M%M%5,6,7,V-8,9,0,a,b,c,J d,e,f,g,h,i,j,k,l,m,n,o,p,j>q,r,j>j>s,t,u,v,0-w,x,y,z,A,],+#B,C,D,E,F,G,",
"H,I,J,K,L,M,N,O,P,Q,R,S,6%N%M%M%M%T,U,V,W,X,Y,Z,`, '.'+'@'m@#'}#'-$'%'&'*'='-';'>',''')'1;j>!'~'{']'a-O-^'/'('_':'<'['}'|'1'2'g,",
"3'4'5'6'7'8'9'0'a'b'c'd'e'f'g'M%O%h'i'j'k'l'm'n'o'p'q'r's't'u'v'w'x'y'z'A'B'C'D'E'F'G'H'I'&,J'K'8,]'Q=L'M'N'O'P'Q'R'S'T'U'+.V'W'",
"X'Y'Z'k*`' ).)+)@)#)$)%)&)*)=)-)h'j>j>j>c-;)>),)')))!)~){)])^)/)()'@_):)<)[)})|)1)2)3)4)5)&,&,}-j>c-]'6)7)8)9)0)a)b)c)d)e)f)g)h)",
"i)j)k)l)m)n)o)p)q)r)s)t)u)v)U-w)j>j>j>j>c-x)y)z)A)B)C)D)E)F)G)H)I)J)K)L)w M)N)O)P)Q)R)S)T)j>&,}-}-U)c-V)W)X)Y):)Z)`) !.!+!@!#!$!",
"%!&!*!=!-!;!>!,!'!)!!!~!{!]!w)&,j>j>^!/!(!_!:!<![!}!|!1!2!3!4!5!6!7!8!9!0!a!b!c!d!e!f!w)g!w)&,j>h!i!j!L'k!l!m!n!o!p!q!A r!s!t!u!",
"v!w!x!y!z!A!f+B!C!D!E!F!G!w)j>j>H!I!J!K!L!M!N!O!P!Q!R!S!T!U!V!W!X!Y!Z!`! ~.~+~@~#~$~%~w)&,&,&,j>R-&~*~=~-~;~>~,~'~)~!~~~{~]~^~/~",
"(~6!_~:~<~[~}~|~1~2~3~E=w)w)j>j>4~5~6~7~V=8~9~0~a~b~c~d~e~f~g~h~i~j~k~l~m~n~o~p~q~r~s~t~u~v~w~j>j>x~y~z~6;A~B~C~D~E~F~G~H~I~J~K~",
"L~M~N~1!O~P~Q~R~S~T~U~V~w)w)&,j>E=U-c-V=j>|-W~X~Y~Z~`~ {.{+{@{#{${%{&{*{={-{;{>{,{'{){!{~{{{]{&,j>U-^{/{6;({_{:{<{[{}{|{1{2{3{4{",
"5{6{7{8{9{0{a{b{c{>{d{e{f{g{F!j>j>j>j>j>V=|-h{i{j{k{l{m{n{o{~~p{q{r{s{t{u{v{w{x{y{z{A{B{C{D{E{&,j>c-F{m>G{H{I{J{K{L{M{N{O{P{Q{R{",
"S{T{U{V{W{X{Y{Z{`{ ].]+]@]#]$]%]&]j>V=j>V=*]=]-];]>],]'])]!]~]{]]]^]/](]_]:]<][]}]|]1]2](!&,&,j>3]4]5]6]7]8]9]0]a]b]c]d]e]f]g]h]",
"i]j]k]l]m]n]o]p]q]r]s]t]u]v]w]x]y]z]V-V=A]B]C]D]E]F]G]H]I]m=J]J,K]L]M]N]O]P]Q]R]S]I*1]1]&,&,&,T]U]V]W]X]Y]Z]`] ^.^+^@^#^+'$^%^&^",
"*^K =^-^;^>^,^'^)^!^~^{^u]j>V=]^^^/^j>V=(^_^:^R-<^[^}^|^1^2^3^4^5^6^7^8^9^0^a^b^c^w)w)w)&,j>d^e^f^g^h^i^j^k^l^m^-%n^o^p^q^r^s^t^",
"u^v^w^x^y^z^A^B^C^D^E^F^G^j>c-j>j>V-V-R)H^I^J^c-K^L^M^N^O^P^Q^R^S^T^U^#)V^W^X^Y^Z^1]`^ /&,j>./+/@/#/$/%/&/*/=/-/;/S >/,/'/)/!/~/",
"{/]/^///(/5#_/:/</[/}/|/1/|-c-2/j>V=j>3/4/5/V-}-|-V-6/7/8/9/0/a/b/c/d/e/f/g/h/i/w)w)j/k/l/j>m/_!8,n/o/p/q/r/s/t/u/v/w/x/y/z/m]|!",
"A/B/C/D/&!o+2^E/F/G/H/I/J/K/L/M/N/c-}-V=V-V-}-}-U=j>O/P/Q/R/S/T/U/V/W/X/Y/Z/1]w)1]`/ (.(j>j>V-f{+(@(#($(%(&(*(=(-(;(>(,('()(!(~(",
"{(](c ^(/(((_(:(<([(}(|(1(2(3(4(5=c-V-}-j>}-&,&,j>j>v]5(6(7(8(9(0(a(b(c(&,1]1]w)&,d(e(D]j>c-|-f{f(g(h(i(j(k(l(m(n(o(p(q(r()>s(t(",
"u(v(w(x(y(z(A(B(C(D(E(F(G(H(I(J(8,|-c-}-K(L(}-j>&,j>j>M(N(E=&,w)w)O(P(Q(R(w)w)&,&,S(T(U(j>c-F{#/V(W(X(Y(Z($.i&`( _._+_;=@_#_$_%_",
"&_*_=_-_;_>_,_'_)_!_~_{_]_^_/_(___%,]':_<_[_}_|_j>&,j>j>c-j>&,&,j>w)1_2_3_&,&,j>&,&,j>V-c-I;4_G{5_6_7_8_9_0_a_b_s!c_d_e_f_g_h_i_",
"j_k_l_m_n_o_p_q_r_s_t_u_v_w_x_y_z_A_@]F{B_C_D_E_j>}-j>j>F_}-j>}-G_H_j>`;I_&,&,J_K_1;l/c-L_M_N_O_P_Q_R_S_T_U_m V_W_X_Y_Z_`_ :.:N~",
"+:@:#:$:%:&:*:=:-:n{;:>:L ,:':):!:~:{:]:Q=^:/:(:j>_:::<:[:}:}-i'|:1:2:}-}-&]3:4:5:6:Q=m>6;7:8:9:0:a:b:c:d:e:f:g:F/h:i:j:k:l:m:n:",
"o:p:Y{q:r:s:t:u:v:w:x:y:z:A:B:C:D:E:F:G:8,f{]']'|-H:I:J:K:L:V-M:N:O:Q=]'c-P:Q:R:S:Q=Q>6;T:U:V:W:X:Y:Z:`:z+ <.<+<@<#<$<%<&<*<=<-<",
";<><,<'<)<!<~<{<]<^<A'/<(<_<:<<<[<}<|<1<M-I;8,a-2<3<4<5<Q=f{6<7<8<=~f{f{Q=9<0<a<b<4_G{c<d<e<f<g<h<i<j<k<l<m<n<o<p<q<r<s<t<u<v<w<",
"x<x<y<z<A<B<C<D<->E<F<W_G<H<I<J<K<L<M<N<O<P<Q<Q<R<S<6)w,6-a-T<U<V<[=W<8,X<#/Q<N_^'Y<Z<`< [.[+[@[S #[$[%[&[*[=[-[;[>[,['[)[![~[{[",
"t<][^[/[([5^C._[:[<[[[}[|[1[2[3[4[5[6[7[8[9[Y<Y<0[a[b[c[d[e[f[W<}=W<J=g[6]h[i[j[k[l[m[n[o[p[q[r[>;s[t[@_u[v[w[x[y[0!z[A[B[C[D[E[",
"F[G[H[I[J[K[L[M[N[O[s*P[Q[%;R[S[T[^ U[V[W[X[Y[Z[`[ }.}+}@}#}$}J;G:N-%}^'&}*}=}-};}>},}'})}!}~}{}]}.&^}i=/}(}_}:}<}[}}}|}1}2}3}4}",
"5}6}7}.#8}9}0@0}a}b}+*c}+*d}e}f}g}h}i}j}k}l}m}n}o}p}q}r}s}t}u}v}w}Y<x}y}z}A}B}+>C}D}E}F}G}H}I}J}K}L}M}N}O}P}Q}v[R}S}%.T}U}V}W}X}",
"Y}Z}`} |.|+|3#@|#|$|%|&|*|=|-|;|>|,|'|)|!|~|{|]|^|/|(|_|:|<|[|}|||1|2|3|4|5|6|7|8|9|0|a|b|| c|d|e|f|g|h|i|j|k|5$l|m|$@n|o|h+p|q|",
"r|s|t=t|u|v|w|x|j#y|z|A|~-B|C|D|E|F|G|H|I|J|K|-|L|M|N|O|P|Q|R|S|T|U|V|W|X|Y|Z|`| 1.1+1z^@1#1$1%1$=&1*1=1-1`|;1>1,1'1W#)1!1=-~1{1",
"]1^1/1(1_1:1<1[1}1|11121:+3141516171819101a1b1c1d1e1f1g1h1i1j1k1l1m1n1o1#{p1q1a1V+r1s1t1u1v1w1x1y1z1A1B1g|C1D1;+E1F1u )1G1H1I1J1",
"K1c L1M10!N1O1r<P1Q1B|R1S1T1U1V1c|w[W1X1Y1Z1`1 2.2+2@2#2$2%2q(&2*2@#s<=2-2;2>2,2Y#'2)2y<!2~2{2c@]2^2/2(2_2:2<2[2]2}2H[|2m=1222z ",
"3242522@627282j19202a2b2c2s1d2e2_1f2g2h2i2j2k2~2`1l2m2n2o2p2%2q2=>X%r2s2$<t2u2v2B1w2x2y2z2A2B2C2D2E2_}F2$ G2H2I2J2K2L2;+M2N2O2u2",
"P2Q2R2S2w1T2U2V2W2X2Y2Z2`2 3.3+3@3#3& $3%3A1&3*3=3-3q&;3s<>3,3'3)3!3~3{3]3^3/3(3_._3:3<3j)[3=+~2}3|313>_233.334353Q}63!]73839303",
"a3b3c3d3,^^[e3f3g3h3i3j3k3l3m3n3o3y c p3q3r3s3t3u3v3w3x3y3z3A3B3;3i+C3D3&3E353F3j*G3H3#   I3b J3K3$ L3M3N3l+O3P3=.y2Q3t==+R3S3T3",
"U3V3W3X3Y3,+Z3>[`3 413F+.4+4@4q*F3_+p2#4.#$4%4*1_+&4T1*4=4-4;4>4A[6@#4,4'4>-/3)4!4;3~4e|{4]4l+^4^1/4(4_4:4<4[4}4f.|41424}134C+44",
"O.54X2m36474_+849404a4& b4c4d4e4f4g4h4=+i4j4!*k4.4l4m4n4h1o4}1p4q4r4s4t4u4v4w4#%q('4x4k2y4z4O+A4B4) C4{4D4E4s*%.O+F4G4H4I4J4K4L4",
"M4N4O4v3P4Q4R4S4T4U4U1J3'&V4W4g%X4%*Y453B223Z4`4 5A1.5+543@5#5$5%5&5%5*5=5-5;59.M+#[>5f.,5'5@+)5!5~5{5]5^5/553(5_5:5<5r3[5}5*1|5",
"w$15253545g|=455y<6575859505K4O+a5A1b5x3c5d5J3E3e5=4f5g573P1h5I4q(=4f*i5j5J4k5l5C+m5n543o5p5J.q5]2f%<3r5s5t5u5v5w5x5y5z5D2A5&4B5",
"M+C5D5E5F5f.p3G5=3H5,.13I5J5@#62K5L5M5N5O5q4]2P5Q5R5S5T5k4U5V5=.@+#%W5X5Y5Z5r&`5Y3 6.6+6@6-*n+#6$6[4/3%6u>&6*6k2 2=6d4$#-6;6>6>2"};
