/* XPM */
static char *d9274c9495a94feafc895099f2aabd4c1sNcEqTqAWVLqJfN[] = {
/* columns rows colors chars-per-pixel */
"64 64 180 2 ",
"   c #020201",
".  c #080203",
"X  c #060807",
"o  c #070808",
"O  c #090C0C",
"+  c #0C100F",
"@  c #1D0813",
"#  c #0E1111",
"$  c #121616",
"%  c #131817",
"&  c #151B1A",
"*  c #191E1D",
"=  c #330A1D",
"-  c #360B21",
";  c #3A0D23",
":  c #242425",
">  c #490E2B",
",  c #5A1637",
"<  c #65153C",
"1  c #6F1C3D",
"2  c #711D3E",
"3  c #70203F",
"4  c #673A3C",
"5  c #325D09",
"6  c #2E6304",
"7  c #326404",
"8  c #376B05",
"9  c #3A6E03",
"0  c #396407",
"q  c #3C7205",
"w  c #457704",
"e  c #447A05",
"r  c #4B7B04",
"t  c #46760B",
"y  c #447A08",
"u  c #4D7C0A",
"i  c #57562D",
"p  c #704A3E",
"a  c #685836",
"s  c #5E642C",
"d  c #5B6D2B",
"f  c #5E6530",
"g  c #61672C",
"h  c #626A2C",
"j  c #66722E",
"k  c #606830",
"l  c #6F6938",
"z  c #616332",
"x  c #6B7236",
"c  c #727332",
"v  c #6C1942",
"b  c #721744",
"n  c #751946",
"m  c #791947",
"M  c #7D1A4B",
"N  c #6F2040",
"B  c #722241",
"V  c #7D2D4B",
"C  c #595759",
"Z  c #85733E",
"A  c #821C4E",
"S  c #851D50",
"D  c #8D1E55",
"F  c #911F57",
"G  c #911F58",
"H  c #8A2A4F",
"J  c #8F2057",
"K  c #8D2A52",
"L  c #8F2058",
"P  c #902057",
"I  c #942B54",
"U  c #922159",
"Y  c #9C225E",
"T  c #9A2B5A",
"R  c #9C315C",
"E  c #9A3F58",
"W  c #A32D5E",
"Q  c #9D2260",
"!  c #A32E60",
"~  c #A53462",
"^  c #AC3464",
"/  c #AA3A66",
"(  c #AB3B69",
")  c #B03667",
"_  c #B63569",
"`  c #B9366B",
"'  c #BA396D",
"]  c #B33A69",
"[  c #BF3C71",
"{  c #C23C72",
"}  c #CB3D77",
"|  c #CD3E78",
" . c #D03F7A",
".. c #9F435C",
"X. c #A3455F",
"o. c #A8535F",
"O. c #A25D5C",
"+. c #876F43",
"@. c #8A6F46",
"#. c #8F6D4D",
"$. c #906D4F",
"%. c #867241",
"&. c #897344",
"*. c #8D714A",
"=. c #926F50",
"-. c #947052",
";. c #A84763",
":. c #AD4B66",
">. c #B34569",
",. c #C44176",
"<. c #CD417A",
"1. c #C9487B",
"2. c #C64379",
"3. c #D0417A",
"4. c #D9427F",
"5. c #4B8405",
"6. c #4E8A07",
"7. c #4B840A",
"8. c #4E8A09",
"9. c #468209",
"0. c #528105",
"q. c #538D06",
"w. c #54840D",
"e. c #538D0A",
"r. c #598F08",
"t. c #569105",
"y. c #5B9505",
"u. c #5E9904",
"i. c #56910B",
"p. c #5B950A",
"a. c #5E980A",
"s. c #4F8711",
"d. c #558510",
"f. c #568D12",
"g. c #5F8E15",
"h. c #579111",
"j. c #5B9412",
"k. c #5F9812",
"l. c #629B07",
"z. c #609B05",
"x. c #619C04",
"c. c #629C04",
"v. c #629C05",
"b. c #639D05",
"n. c #629C07",
"m. c #639E05",
"M. c #659F05",
"N. c #649E06",
"B. c #629C04",
"V. c #619A08",
"C. c #619B0B",
"Z. c #629B09",
"A. c #629C09",
"S. c #619C09",
"D. c #659E09",
"F. c #629C0B",
"G. c #689F0D",
"H. c #609715",
"J. c #639B11",
"K. c #699F16",
"L. c #669B18",
"P. c #689E18",
"I. c #66A102",
"U. c #66A004",
"Y. c #69A305",
"T. c #67A10B",
"R. c #69A20B",
"E. c #6AA212",
"W. c #DF4383",
"Q. c #E04283",
"!. c #E04183",
"~. c #E14384",
"^. c #E24385",
"/. c #E14484",
"(. c #E24485",
"). c #E34486",
"_. c #E24585",
"`. c #E34887",
"'. c #E44688",
"]. c #E44888",
/* pixels */
"x.x.u.a.x.b.x.M.Z.a.u.x.u.Z.Z.u.u.x.x.p.Z.p.x.x.Z.p.u.u.x.Z.y.u.u.F.b.B.F.u.u.u.u.u.F.x.u.a.u.a.Z.a.a.b.u.u.b.x.u.p.u.u.x.u.x.u.",
"x.y.u.x.x.u.x.x.F.u.x.x.x.y.x.a.a.b.x.Z.x.y.M.y.b.x.p.b.y.x.y.x.b.y.u.b.x.u.M.x.u.Z.x.x.Z.Z.u.u.Z.b.u.Z.u.x.b.x.x.u.u.b.x.Z.x.u.",
"Z.x.u.u.u.x.a.Z.u.M.x.y.x.x.u.M.Z.Z.u.x.B.b.B.u.u.M.x.u.y.x.x.b.x.x.b.b.u.x.x.u.b.u.u.x.u.x.u.y.B.B.u.b.x.b.u.u.x.x.x.D.u.b.u.u.",
"x.b.b.x.x.x.u.D.u.x.x.F.F.x.b.u.u.F.y.x.x.x.B.u.x.B.b.x.x.B.B.u.x.U.M.y.u.x.Z.u.u.x.M.u.F.B.b.b.B.b.u.B.b.x.u.B.u.x.u.G.u.u.b.x.",
"M.x.x.x.x.B.u.u.u.b.x.u.x.b.Z.u.x.x.x.u.B.u.M.x.u.u.x.u.B.D.x.y.x.u.x.u.u.u.I.B.u.u.y.u.B.u.U.u.B.B.B.B.I.u.b.D.B.B.M.u.Z.b.b.b.",
"u.x.B.y.x.B.u.x.M.u.b.M.y.x.u.u.Z.w.l $.$.=.=.-.$.#.#.#.*.*.*.*.*.&.+.@.&.+.&.+.&.%.%.%.Z %.%.Z Z c C.b.u.x.b.u.u.B.Z.u.b.B.B.b.",
"u.x.y.x.b.x.b.u.x.Z.b.B.b.B.b.B.u U K /.~./.~./.~.~././././././.Q.Q./.~.W.W.~.~.~././.W././.~./.Q.^ J.u.B.x.x.u.M.u.u.B.u.B.u.x.",
"u.B.y.u.G.b.x.B.y.x.x.x.B.B.M.x.p.V A ) W./.~.~././.~./.~./.~.~.~.~.Q.Q.~.~.W.~.~.~.Q./.~./.~.'.} a x.b.Z.u.x.x.u.B.B.x.x.b.B.u.",
"x.x.u.B.x.y.u.b.b.B.B.u.I.B.b.x.b.d.4 v n M M M M M M M M m M M M M M M M M M M M M M M M M M m 0 p.x.u.b.B.u.u.u.I.x.M.B.u.M.b.",
"p.x.B.M.b.p.Z.x.x.u.B.y.B.B.x.u.B.b.g U | /.3.<.} | <.<.<.<.<.<.<.<.<.<.<.<.<.} } } } { { { /.].w u.F.y.u.u.x.u.y.I.u.I.B.u.B.B.",
"E.u.x.M.M.u.x.u.b.x.M.x.b.B.u.x.x.x.h U | ~.B = = - - - ; ; - - - ; ; ; ; ; ; - = = , n < m /./.r u.F.b.B.u.b.x.x.u.u.u.B.u.u.x.",
"y.M.x.Z.F.M.C.u.B.M.M.M.M.I.b.B.b.b.g U  ./.2     X % & O                     > n U Y Y n M /.].r M.I.B.u.x.B.u.u.y.u.u.u.B.u.B.",
"u.B.C.Z.u.B.y.u.M.D.Z.b.x.x.u.u.u.B.g U  .~.1   O & O                 O   < J Y Y Y Y Y n M ].].r I.b.u.u.u.B.B.B.b.u.U.u.M.b.u.",
"u.u.F.B.u.u.x.b.D.x.B.B.u.B.u.y.x.y.g U | ~.B O & X         X O O O X     M Y Y U S n Y n M /./.w I.u.u.y.b.x.M.B.x.u.M.u.u.M.u.",
"x.x.x.u.y.u.B.x.a.y.y.B.M.u.M.B.b.b.h J  ./.N &       X % * * * * * * * # M S A S Y M Y n M ]./.r B.M.u.B.y.M.u.x.x.x.B.u.B.u.B.",
"y.D.Z.M.y.y.x.u.u.u.u.B.x.a.u.u.x.y.s U | /.B       # * * # O         X O M A Y Y Y M Y n A /.].r u.I.I.Y.u.B.x.B.B.B.x.u.x.B.u.",
"b.u.B.u.B.y.B.u.x.U.u.u.u.M.u.u.u.u.s U | /.2     % * %                   A S Y Y Y M Y n A /./.r b.I.F.M.u.B.x.u.M.I.B.x.D.B.u.",
"I.y.B.B.B.y.B.u.B.B.B.u.u.B.y.u.I.Z.g U  ./.2   % * O                     M A Y Y Y M Y n A /.].r x.B.M.x.u.y.b.u.u.B.B.b.y.B.u.",
"B.u.u.B.B.B.x.u.u.u.B.t.u.B.u.y.B.y.g U | /.1 O * O       O % & * % % #   M S Y Y Y M Y n A /./.r y.M.x.u.x.B.u.M.u.y.x.M.y.B.u.",
"u.B.B.u.u.u.u.b.y.t.u.u.t.u.u.u.u.B.g J | /.2 & %       & & # X         O M A Y Y Y M Y n A ]./.0.u.u.u.u.u.u.b.u.I.M.u.y.x.B.u.",
"B.u.M.u.x.B.x.B.u.B.B.u.B.y.u.u.u.B.g U | /.3 *     X & %                 M S Y Y Y M Q n A ]./.0.B.x.u.u.M.y.t.y.x.u.y.B.D.u.u.",
"x.y.u.x.u.x.B.u.u.y.B.y.u.x.b.y.M.B.h J  ./.B #     & #         O O X     M S Y Y Y M Y n A /./.r u.b.u.u.u.t.u.u.y.y.B.x.p.u.y.",
"t.u.b.y.x.x.u.B.B.y.y.F.t.b.u.b.t.u.s P | /.3     % %         X   O % %   M S Y Y Y M Y n A /./.r y.u.x.u.b.u.Z.x.y.t.D.y.x.u.b.",
"u.B.B.y.x.y.B.y.x.x.u.B.u.M.u.b.y.F.s U | /.2   X &       O % % % % X O & M S Y Y Y A Y n A ]./.w u.u.p.I.u.b.y.B.x.y.y.y.u.u.u.",
"I.b.u.M.y.B.M.a.I.y.u.B.x.u.M.y.u.y.g J | /.1   # #     O #         % X O M S Y Y Y M Y n A /./.r B.u.y.M.x.t.b.M.q.x.t.u.B.b.M.",
"I.y.u.y.b.y.x.x.B.M.M.y.b.y.u.b.M.u.h L | /.2   & X   O O             %   M A Y Y Y M Y n A ]./.r u.u.x.u.B.B.y.x.q.M.M.u.B.x.B.",
"y.B.b.u.u.b.y.y.b.u.u.u.x.u.u.M.u.x.h J | /.2   &     #         X     # X M S Y Y Y M Y n A /./.w b.M.t.x.y.b.y.t.y.p.U.u.u.u.J.",
"y.M.x.y.y.b.u.u.I.u.x.M.x.b.x.x.u.u.s P | /.b X %     O X         X   O + M A Y Y Y M Y n A ]./.w u.B.y.u.p.u.M.u.t.u.x.D.a.D.K.",
"y.p.q.I.y.u.u.u.x.x.y.u.t.b.I.C.y.u.s P } ~.2 O %   X O X         O   O # M M D F Y A Y n A ].Q.e u.y.u.y.y.M.u.u.y.B.x.y.a.B.Z.",
"G.t.M.x.u.t.u.y.y.y.x.t.x.u.Z.M.y.x.h U | ~.2   %     O X         O   O # b U D J S A Y n A /./.r B.b.x.a.p.u.u.B.u.u.u.y.u.y.u.",
"a.u.Y.B.x.p.p.u.x.u.x.y.M.p.u.u.u.x.s D } /.2   &     O           O   # * C n Y Y Y Y Y n A `./.e u.t.B.u.u.b.M.p.u.u.y.b.u.u.u.",
"y.M.y.u.y.U.t.M.y.u.b.y.D.T.u.t.x.b.s J } Q.1   % X     X       O     % : C @ G Y Y Y Y n A ]./.r q.u.x.u.b.a.x.a.x.p.x.M.F.u.u.",
"y.y.u.y.y.y.T.M.t.p.u.u.u.x.x.C.u.x.h D | /.1   X %       X O O     O O   b Y Y Y Y Y Y n A /./.w.t.t.B.p.t.D.t.b.u.x.M.M.x.p.y.",
"b.t.u.F.p.u.M.t.y.u.y.y.a.a.x.t.U.u.s D | /.2     # O               #   X M m M A M A Y n A ]./.r p.y.u.x.y.u.u.u.t.M.u.u.u.p.B.",
"U.y.P.q.U.p.T.y.p.t.y.Z.L.x.y.y.t.D.h J } /.2       # #           O     % M S Y Y Y M Y n A /./.r b.u.T.y.x.y.u.y.x.q.y.y.x.u.u.",
"x.Z.a.t.C.p.b.p.t.C.x.F.p.u.D.u.q.b.h J | /.3 O         O O X         % # M S Y Y Y M Y n A /./.r y.Z.G.i.u.y.y.a.y.y.C.q.u.x.C.",
"y.y.p.a.p.u.y.a.y.p.u.Z.x.i.b.G.C.y.s D } W.2 &                     % &   M A Y Y Y M Y n A ]./.t b.y.b.K.u.q.Z.y.u.u.u.y.y.y.y.",
"p.T.u.C.y.t.a.u.x.T.q.J.y.y.p.G.y.y.g D | /.2 % %               # & %     M A Y Y Y M Y n A `.~.y p.x.p.y.y.t.t.x.b.y.x.b.u.y.y.",
"p.E.Y.a.u.x.a.p.J.C.p.T.F.F.q.E.y.y.s J | /.1   % &   X O % % & % O       M A Y Y Y M Y n S /.~.t t.b.x.u.b.y.Z.u.y.p.x.u.M.p.y.",
"y.y.y.M.t.T.t.p.k.q.D.y.t.G.q.q.p.p.h D | W.1     $ & #                 X M A Y Y Y M Y n S `.~.u q.y.q.u.q.M.y.u.p.p.t.y.F.t.6.",
"y.p.p.t.y.F.q.p.a.L.i.C.p.a.p.p.p.q.g D } /.2       X # % % # O       X & M A Y Y Y M Y n S `.Q.t p.a.i.b.F.q.a.p.y.C.q.p.x.u.p.",
"i.t.i.t.y.e.y.h.Z.t.t.i.u.e.i.y.p.x.j D | W.2 #                     O & # M A Y Y Y M Y n S /./.u Y.a.q.a.y.q.u.u.E.q.y.t.p.u.b.",
"G.e.F.e.u.h.a.b.a.a.y.p.D.y.Z.y.u.F.s D } W.2 O & #             O % * #   M S Y Y Y M Y n S `./.u D.q.y.q.i.u.b.q.D.t.t.b.y.y.i.",
"x.p.y.p.T.y.Z.a.T.y.u.u.F.q.a.t.u.b.s D | /.2   X % * & & % & * * & O     M A Y Y Y M Y n S /.Q.t Z.F.Y.y.t.b.x.y.F.t.i.t.y.y.u.",
"x.t.p.U.e.i.Z.i.G.x.p.a.y.i.Y.p.y.x.g D | W.1         O # $ # O X         M A Y Y Y M Y n S `./.t M.e.G.p.t.b.i.a.M.y.p.y.t.J.p.",
"Z.i.F.F.k.G.q.F.p.F.K.i.a.e.y.e.y.p.h D | W.2 O                       X % M M Y Y Y M Y n S `.Q.t t.j.Z.p.y.p.i.F.y.a.u.p.y.y.p.",
"a.q.t.p.p.J.a.D.j.p.a.y.t.p.h.y.f.y.k D } W.2   O O                 # & O M U A M J M Y n S `./.u t.p.p.q.Z.a.p.p.q.i.a.T.t.y.q.",
"y.y.t.Z.R.i.p.q.Z.h.y.F.p.j.p.F.i.p.j D | /.2       X O X     O $ % #     n Y Y Y D v Y n S `./.u e.p.i.y.u.p.a.p.6.e.b.u.a.i.q.",
"p.u.t.p.a.i.t.y.u.q.j.a.a.C.e.p.x.a.j D } W.2               O O             > A Y Y Y Y n S `./.t i.e.i.t.t.8.y.y.i.p.j.u.t.p.t.",
"e.p.t.b.p.i.p.D.6.i.i.p.p.a.p.u.p.p.s D } /.2                                   ; M Y Y n S `./.w.u.q.f.i.u.q.5.b.q.e.p.y.b.q.i.",
"J.h.8.p.t.K.e.p.t.p.p.F.e.p.D.e.p.t.j D | /.2                   X X               . = n n S `./.w.a.6.a.i.Z.T.e.e.e.C.a.p.i.y.p.",
"b.C.p.p.q.F.Z.i.Z.J.i.k.y.t.p.8.U.e.s D <./.I K H K I I R R ~ / ( / ^ ^ ) ' [ ,.,.,.{ ` T W /./.u u.u.p.p.q.a.b.t.t.t.i.p.i.h.L.",
"p.t.R.p.e.i.U.p.6.a.y.e.q.r w e q.a D < ^ ` ^ ^ ,.1.2.{ ` ` ` { ,.,.,.' _ ` ' ,.,.[ _ _ _ [ } { o.g.y.F.t.a.p.b.i.Z.p.H.p.y.J.p.",
"a.e.u.a.p.i.p.q.5.e e q e 9 e e 7 U J ' W./././././././././././.W.Q./././././.W.W.W./././././.W.W.O.q.p.u.C.t.u.a.i.p.F.7.u.e.p.",
"p.e.i.q.Z.i.7.y 9.q q q q q q y 5 Y ! W./././.4.| | | | } { [ ' _ _ _ _ ] >.>.:.;.X...E { /./.W.W.' q.p.e.e.y.F.7.a.p.y.p.t.x.p.",
"p.p.e.p.D.i.i.J.i.p.y q.5.e 7.e y i ~ | | | } p 7 7 7 7 7 t q 7 7 7 8 9 8 9 q q 7 6 q 6 9 i z f x d e.e.T.t.y.a.e.p.p.C.C.u.y.p.",
"T.e.F.i.q.i.Z.Z.i.y.i.t.q.q.a.F.p.e.d.q.e e.w.9.e.y.q.7.q.p.j.7.j.r.7.e.p.5.q.e.p.e.t.q.C.F.p.D.y.p.K.Z.u.t.a.a.p.p.C.p.Z.q.t.p.",
"p.p.F.e.i.p.p.b.e.e.x.y.e.b.t.p.p.p.Z.b.i.U.G.p.p.a.u.p.a.p.a.a.D.p.e.h.k.e.Z.j.e.b.q.y.y.p.e.y.y.p.y.q.p.b.a.t.p.t.e.t.e.Z.i.q.",
"i.e.M.6.T.p.q.e.J.p.i.F.7.p.Z.p.y.a.e.y.x.y.p.p.J.M.a.D.p.p.p.x.b.p.q.K.i.e.b.C.f.b.p.x.y.a.j.R.t.u.Z.p.p.T.i.J.p.x.i.K.q.p.J.y.",
"j.j.p.p.G.k.t.K.i.p.e.t.j.h.y.e.p.p.p.e.p.a.e.e.p.a.e.M.e.Z.F.p.p.y.e.i.t.e.t.G.q.D.p.p.C.j.q.p.e.q.J.i.a.p.e.j.F.T.J.p.e.G.a.a.",
"D.i.q.R.a.F.i.p.i.i.G.p.p.p.e.a.p.y.T.T.f.p.q.q.C.y.e.e.t.p.u.7.t.Z.p.f.u.i.e.p.p.T.K.p.F.t.x.i.i.J.p.p.t.Y.e.t.F.t.e.p.p.G.i.U.",
"F.u.t.p.Z.u.p.C.e.q.D.p.i.y.t.U.e.u.y.y.e.q.e.q.8.B.p.e.q.p.p.i.p.Z.y.e.q.b.p.i.i.G.u.U.F.t.U.e.p.K.p.C.i.b.p.y.p.p.y.e.x.p.F.M.",
"p.p.Z.i.i.C.e.t.p.T.t.x.e.T.t.b.e.q.e.a.Z.M.y.y.8.u.F.i.p.9.x.p.p.q.t.C.e.x.p.s.T.t.p.u.e.a.F.t.D.8.p.R.e.p.T.y.q.p.M.a.q.p.p.8.",
"a.p.i.R.J.p.q.i.C.y.a.x.e.i.C.q.p.i.q.i.e.p.t.y.i.u.e.t.u.8.y.J.J.q.i.p.p.J.p.H.G.e.p.a.7.i.t.Z.y.e.y.D.t.q.i.i.q.t.u.D.q.p.i.e."
};
