/* XPM */
static char *_55d923335a74ef389cba6f4d278a76aBWMxepTVx9t3GNsq[] = {
/* columns rows colors chars-per-pixel */
"64 64 225 2 ",
"   c #2E3826",
".  c #313B27",
"X  c #313429",
"o  c #323A29",
"O  c #561F09",
"+  c #5B3A0C",
"@  c #58390C",
"#  c #532B0D",
"$  c #613D0B",
"%  c #762C0A",
"&  c #334E1F",
"*  c #325619",
"=  c #2F481E",
"-  c #2B6A01",
";  c #2D6C0D",
":  c #2A670B",
">  c #336E0D",
",  c #386F0E",
"<  c #2F720B",
"1  c #277202",
"2  c #3B7B05",
"3  c #31740C",
"4  c #3A740C",
"5  c #3B780A",
"6  c #2E6B12",
"7  c #2F6A19",
"8  c #396718",
"9  c #397312",
"0  c #2F4521",
"q  c #324423",
"w  c #354927",
"e  c #3A473A",
"r  c #38582E",
"t  c #366928",
"y  c #376238",
"u  c #3F7129",
"i  c #5C450E",
"p  c #5A470D",
"a  c #595A0C",
"s  c #5C5E10",
"d  c #65440C",
"f  c #654B0D",
"g  c #6A4C0D",
"h  c #69440C",
"j  c #68570D",
"k  c #755C0E",
"l  c #71530D",
"z  c #655111",
"x  c #7C4C0D",
"c  c #57690B",
"v  c #447D0B",
"b  c #4A780E",
"n  c #557B0A",
"m  c #577709",
"M  c #446D1A",
"N  c #4A7D14",
"B  c #457716",
"V  c #567B14",
"C  c #7A650A",
"Z  c #6A7B0E",
"A  c #796A12",
"S  c #6A760D",
"D  c #415F3D",
"F  c #437122",
"G  c #586B36",
"H  c #497735",
"J  c #476C3D",
"K  c #636D3D",
"L  c #667636",
"P  c #3F4949",
"I  c #3D6643",
"U  c #424D4D",
"Y  c #495859",
"T  c #475E4D",
"R  c #537E48",
"E  c #476C52",
"W  c #4E7257",
"Q  c #557B58",
"!  c #446B4D",
"~  c #6A6C42",
"^  c #737248",
"/  c #5A7969",
"(  c #5D7575",
")  c #55676C",
"_  c #617D73",
"`  c #627C7B",
"'  c #60747D",
"]  c #87390C",
"[  c #8D5D0C",
"{  c #83690A",
"}  c #8B760C",
"|  c #957C0C",
" . c #8C7912",
".. c #8F6C0F",
"X. c #897F35",
"o. c #A36D0D",
"O. c #89714F",
"+. c #986C62",
"@. c #9A7263",
"#. c #AC7370",
"$. c #BA7678",
"%. c #C1727C",
"&. c #468405",
"*. c #498706",
"=. c #4D8B06",
"-. c #468309",
";. c #4B830B",
":. c #4E8B09",
">. c #538E06",
",. c #548C0B",
"<. c #5B8E09",
"1. c #588608",
"2. c #559406",
"3. c #599605",
"4. c #5C9905",
"5. c #559409",
"6. c #599609",
"7. c #5C9909",
"8. c #4D8614",
"9. c #548E1B",
"0. c #559114",
"q. c #599512",
"w. c #58931B",
"e. c #4F9004",
"r. c #6A8B0B",
"t. c #609B05",
"y. c #62950A",
"u. c #6D930A",
"i. c #619C0A",
"p. c #679606",
"a. c #7A960B",
"s. c #619613",
"d. c #7C8910",
"f. c #4E8226",
"g. c #548D24",
"h. c #568D2B",
"j. c #568A24",
"k. c #579123",
"l. c #5B9327",
"z. c #578A38",
"x. c #5B9137",
"c. c #6A8E29",
"v. c #5B8A49",
"b. c #588646",
"n. c #598453",
"m. c #598258",
"M. c #5D8164",
"N. c #5E816A",
"B. c #61836C",
"V. c #638374",
"C. c #66817C",
"Z. c #9A840B",
"A. c #89990C",
"S. c #989D0D",
"D. c #858713",
"F. c #989713",
"G. c #8E8B12",
"H. c #A5890A",
"J. c #A89A0F",
"K. c #B5990A",
"L. c #A38B13",
"P. c #AB9D13",
"I. c #A59813",
"U. c #B39314",
"Y. c #9EA30E",
"T. c #9CA110",
"R. c #A7A30E",
"E. c #BAA40A",
"W. c #A9A514",
"Q. c #B3A313",
"!. c #BCA717",
"~. c #B3912D",
"^. c #BAA32D",
"/. c #8B9522",
"(. c #C4A909",
"). c #CEB40B",
"_. c #C8B207",
"`. c #D7BC07",
"'. c #C4AE15",
"]. c #C8AD19",
"[. c #C5B114",
"{. c #CBB313",
"}. c #CFB11F",
"|. c #D4BB13",
" X c #D0B715",
".X c #CDB12C",
"XX c #DDC210",
"oX c #E3C504",
"OX c #E8C902",
"+X c #DFC53E",
"@X c #8B9052",
"#X c #B39346",
"$X c #B7AA5C",
"%X c #B2A767",
"&X c #96A46C",
"*X c #C69A52",
"=X c #C3AD46",
"-X c #D7BE44",
";X c #CB8E6E",
":X c #D0936D",
">X c #CCBB77",
",X c #C4B26E",
"<X c #DBC35B",
"1X c #DDC769",
"2X c #DCCA7D",
"3X c #667D83",
"4X c #687F86",
"5X c #677C86",
"6X c #C97883",
"7X c #D07F84",
"8X c #698185",
"9X c #6C838C",
"0X c #678082",
"qX c #9EAC80",
"wX c #B1B38B",
"eX c #DA818D",
"rX c #DF9282",
"tX c #E1878E",
"yX c #D4C794",
"uX c #D7CDA8",
"iX c #D6CEAF",
"pX c #E4DABB",
"aX c #E1D291",
"sX c #E6DEC3",
"dX c #EBE3C6",
/* pixels */
"7.4.t.t.t.t.4.i.i.7.4.4.i.i.7.7.7.4.7.7.t.4.4.4.t.t.4.t.t.i.7.4.7.7.i.t.7.7.7.4.7.7.7.7.7.7.i.7.7.7.i.i.7.4.4.t.4.7.4.4.4.i.7.4.",
"t.4.4.4.4.7.7.i.i.4.4.7.7.7.7.7.7.7.7.7.7.7.4.4.4.4.4.4.4.7.4.4.7.i.i.i.4.7.7.4.4.7.7.4.7.7.7.7.7.7.i.7.7.4.4.4.4.4.t.4.4.7.7.7.",
"t.4.4.7.7.7.7.7.i.t.7.7.7.7.7.7.4.7.7.7.7.7.4.4.4.4.4.7.6.6.6.<.6.s.s.<.<.6.7.t.4.t.4.4.7.7.7.7.7.t.t.t.t.4.4.4.4.4.t.7.7.7.7.7.",
"4.7.7.7.7.t.7.7.4.t.i.7.7.7.7.7.7.7.4.4.4.t.4.4.4.4.4.5.1.m c c s s s a c n 6.4.4.7.4.4.i.i.4.i.i.i.t.t.4.4.4.t.t.4.7.7.7.i.t.4.",
"t.4.7.7.4.t.4.4.4.t.i.i.t.4.7.7.7.4.4.4.4.4.4.4.4.7.1.n c a f d + + + @ p a n <.4.i.7.4.i.i.4.i.i.i.t.4.4.4.4.i.t.t.7.7.7.t.4.4.",
"t.4.4.4.4.t.4.4.4.4.t.t.4.4.7.7.7.4.4.4.4.4.4.7.7.1.c a i d d g g l l g d i c 1.4.i.7.4.4.4.4.4.t.t.4.4.4.4.4.i.i.t.4.t.4.4.4.4.",
"4.7.7.4.4.4.4.4.4.4.t.t.t.7.7.7.4.4.t.t.4.4.4.4.>.m j d d $ g k } | | | C z c 1.4.4.i.4.4.4.t.t.4.t.4.4.7.7.4.7.7.7.t.4.4.t.t.4.",
"4.4.7.4.4.4.4.4.4.4.4.t.4.4.4.7.4.t.4.4.4.4.4.4.1.c f h g C | K.E.(.(.(.U. .S 1.4.4.4.4.4.4.t.t.4.4.4.4.7.7.4.7.7.t.t.4.4.4.4.4.",
"4.4.4.4.4.4.4.4.4.4.4.4.4.4.4.7.4.4.4.4.4.4.3.4.m a g h k Z.(.oXoXoXoXoX`.E.A.<.7.4.4.4.4.4.4.4.4.4.4.4.4.4.4.4.4.t.4.4.4.4.4.4.",
"4.4.4.t.4.4.4.4.4.4.4.4.4.7.4.4.4.4.4.4.4.4.4.4.m p g $ { E.`.OXOXOXOXOXoX`.S.u.7.4.4.4.4.4.7.4.4.4.4.4.3.4.4.4.4.4.4.4.4.4.4.4.",
"4.4.4.t.4.4.4.4.4.4.4.4.4.y.a.A.A.u.t.4.4.4.4.4.m i h $ }  X+X<X1X<X.X}.-X<X$X@Xs.4.4.4.4.4.7.4.4.4.4.4.3.3.4.4.4.4.4.4.4.t.4.3.",
"4.4.7.4.4.4.4.4.4.t.4.4.p.a.S.W.W.A.u.4.4.4.4.4.c + h $ } }.1XyXuXyX>X$X>XyXwX&Xl.4.4.7.4.4.t.4.4.4.4.4.4.4.4.4.4.4.4.4.4.t.4.4.",
"4.4.7.4.4.4.4.4.7.4.4.p.A.Q.[.[.!.P.a.7.4.4.4.4.c @ h $ { .XaXpXiXpXpXiXiXpXiXqXl.3.4.7.4.4.4.4.4.4.4.4.4.4.4.4.4.4.4.4.4.4.4.4.",
"4.4.4.4.4.4.4.4.7.4.4.u.Q. X|.{.'.'.T.u.4.4.4.4.m f k f C ^.yXsXsXdXdXiXuXuXuXqXl.3.t.4.4.4.4.4.4.4.t.4.4.4.4.4.4.4.4.4.4.4.4.4.",
"4.4.4.4.4.4.4.4.4.4.>.r._.XX|.'.[.|.E.A.t.4.4.4.Z A  .k C ^.>XuXdXsXuX,X=X=X%X@Xw.4.t.4.4.4.4.4.t.t.4.4.4.4.4.4.4.4.3.4.4.4.4.4.",
"4.4.4.4.4.4.4.4.4.4.>.r.E.|.{.!.'.{.R.a.t.4.4.4.d.F.I. .{ '.-X1X2X>X%X^.E.K.X.L ,.4.4.4.4.4.4.4.t.t.4.t.4.4.4.4.4.4.4.4.4.4.4.4.",
"4.4.4.4.4.4.4.4.4.4.>.r.J.'.'.'.!.P.A.u.4.4.4.4.a.F.P.L.H.).`._.E.H.Z.H.H.Z.k a m <.4.4.4.4.4.4.4.4.4.4.4.4.4.4.4.4.4.4.4.4.4.4.",
"4.4.4.4.4.4.4.4.4.4.2.n d.I.(.!.I. .r.i.4.4.4.4.1.S Z.K.).`.(.L.{ l g l l l i i a 1.4.4.4.4.4.4.4.3.4.4.4.4.4.4.4.4.4.4.4.4.4.4.",
"4.4.4.4.4.4.4.4.4.4.2.N b Z D.D.Z c 1.7.4.4.4.4.<.m A E.`.K.} j p # @ z j a a a c 1.4.4.4.4.4.4.4.4.4.4.4.4.4.4.4.4.4.4.4.4.4.4.",
"4.4.4.4.4.4.4.4.4.4.,.N 4 ; ; ; : : ;.7.4.4.4.4.7.1.S E.).} + O O # p A S n n n 1.5.4.7.4.4.4.4.4.4.4.4.4.4.4.4.4.4.4.4.4.4.4.4.",
"4.4.4.4.4.4.4.4.4.4.,.v 4 < < < ; > ;.5.7.2.2.4.4.s.c.Q.!.[ % ] ] x C D.a.3.3.3.3.4.4.7.4.4.4.4.4.4.4.4.3.3.3.4.4.4.4.3.3.4.4.4.",
"4.4.4.4.4.4.4.4.3.4.,.v 4 < 3 3 < ; 4 v ;.v v v v L @.#X!.o.[ o.H.U.Q.P.A.t.4.4.4.4.4.4.4.4.4.4.4.3.4.4.3.3.4.2.3.3.4.4.4.4.4.4.",
"4.4.4.4.4.4.4.4.3.4.5.;.5 < 3 3 < ; ; > 4 > : : - ^ $.;X*X~.U.K.(.[.].~./.y.4.4.4.4.4.3.3.4.4.4.4.3.4.4.3.4.4.4.3.3.4.4.4.4.4.2.",
"3.4.4.3.4.4.4.4.4.4.4.,.5 < 3 < < < < < 3 3 < < 1 ^ $.7X;X*X.X}.}..X#XO.L 1.3.4.4.7.4.3.2.4.4.3.3.4.4.4.4.3.3.3.3.3.2.2.2.4.4.4.",
"4.4.4.4.4.4.4.4.4.4.4.5.v 4 3 < 3 3 < < 3 3 3 3 1 G +.6XtXrX:X:X:X;X$.+.~ N >.4.4.4.4.3.4.4.4.4.4.4.4.4.4.4.4.4.4.2.2.2.3.4.3.3.",
"4.4.4.4.4.4.3.4.4.4.4.4.:.v 4 3 3 3 < 3 3 3 < < ; u ~ #.eXeX6X$.%.6X$.+.K 9 ;.5.3.4.4.3.4.4.4.3.3.3.4.4.4.4.3.4.4.4.2.2.3.4.4.3.",
"4.4.4.4.4.4.4.4.4.4.4.4.3.>.;.4 > 3 3 3 3 3 ; : : ; F ^ @.$.#.+.+.+.O.G 8 3 4 ;.3.3.3.4.t.t.4.3.3.4.4.4.4.3.3.4.4.2.2.4.4.3.4.4.",
"4.4.4.4.4.4.4.4.4.4.4.4.4.4.,.,.;.v ;.;.-.v > ; ; < < F K ^ ^ K ~ K G 8 ; 3 3 -.2.3.4.t.u.a.A.S.R.Y.a.2.3.3.3.4.4.4.2.4.4.2.4.4.",
"2.4.4.4.4.4.4.4.4.3.3.3.4.4.4.4.4.>.6.6.,.v 4 3 < < 3 3 3 3 9 3 3 3 3 6 ; < < 5 ;.>.2.<.a.F.Q.'.{.[.S.6.2.3.3.3.2.4.4.4.2.2.3.4.",
"3.4.7.4.4.2.2.3.4.3.3.3.3.3.4.4.4.4.4.4.2.v > 3 3 < 3 3 < < < < < < < 6 ; < < > > 5 4 b D.P.{. X X).R.u.2.3.3.3.2.2.3.4.2.4.2.3.",
"4.4.4.4.4.2.2.4.4.4.4.2.3.4.4.4.4.4.4.4.>.v 3 3 3 < 3 3 3 3 3 3 3 3 3 ; ; < < ; : > ; M G.Q.'.{.|.|.R.u.4.4.4.3.2.2.3.3.4.4.2.2.",
"2.2.4.4.4.2.4.4.4.4.4.2.4.4.4.4.2.4.4.5.;.4 3 3 3 3 3 3 3 < 3 3 < 3 3 3 ; ; < 3 3 3 ; b G.Q.!.{.|.|.Y.y.4.4.4.2.4.4.3.4.4.4.2.2.",
"4.4.4.4.2.3.4.4.4.2.2.4.4.4.4.4.4.4.4.2.v 3 3 < 3 3 < 3 3 3 3 3 3 3 3 3 ; : < 3 3 3 < B d.P.[.{.[.!.A.4.2.2.2.2.2.4.4.4.4.4.2.6.",
"4.4.4.4.4.4.4.2.2.2.4.4.4.4.4.2.2.4.4.,.4 3 3 3 3 3 3 3 3 3 3 3 3 3 3 3 > ; ; < 3 < < > V D.I.J.R.A.u.2.2.2.2.2.2.2.2.3.3.4.4.6.",
"4.4.7.7.7.4.4.2.2.2.4.4.4.4.4.2.2.4.4.:.> ; 3 3 3 3 3 3 3 3 3 3 3 3 < 3 4 4 , 4 3 4 3 4 , b Z r.u.4.4.4.2.2.2.4.4.2.2.3.4.4.2.2.",
"4.4.4.4.4.4.4.2.2.4.4.4.7.7.4.4.2.2.2.*.> ; 3 < 3 3 3 3 3 3 3 3 3 3 3 3 4 v ;.;.v v v ;.;.1.7.7.4.4.7.7.2.2.3.4.4.2.4.4.4.7.7.2.",
"2.2.4.4.4.7.6.6.4.4.4.4.4.4.4.4.2.2.2.:.4 > < < 3 3 3 3 3 3 3 3 3 3 3 3 4 v >.2.,.,.,.,.,.7.t.4.4.4.7.7.2.2.2.4.4.7.4.4.4.7.6.2.",
"2.4.4.4.7.i.5.6.4.4.4.4.4.4.4.2.2.2.7.0.B 9 6 < < < 3 3 3 3 3 3 < < < < 5 v >.4.7.7.7.2.4.4.4.4.2.4.7.4.2.2.2.2.7.7.6.2.4.4.2.2.",
"4.4.4.2.7.7.5.5.4.4.7.7.4.2.2.4.4.7.2.0.f.u t 6 ; ; < 3 3 3 3 3 < ; ; : 4 ;.2.4.4.4.4.4.i.7.2.2.2.4.4.4.4.2.2.2.4.7.2.4.4.4.2.2.",
"4.7.7.2.6.6.6.6.4.4.4.7.4.2.2.4.4.7.4.k.b.Q W ! y t 6 - - - - - 7 t I ! W b.g.4.4.2.2.4.i.7.2.5.6.7.4.4.2.2.2.2.4.4.6.6.4.4.2.2.",
"7.7.7.2.2.2.6.6.4.4.4.7.2.2.4.4.4.4.4.x.Q ` 3X( / E I y y y y y I E / ( ` / b.g.5.2.4.t.7.7.2.6.6.7.7.4.2.6.3.2.7.7.6.6.2.4.2.2.",
"2.7.7.2.2.2.2.2.2.4.4.6.4.4.4.4.4.4.3.v._ 4X9X8X3X` ` ` ` ( ( ` ` ` 3X8X9X0X_ n.g.2.4.7.4.4.4.6.6.7.7.2.6.6.7.4.4.7.6.2.2.4.4.4.",
"2.2.4.6.2.2.4.4.7.7.4.7.7.7.2.4.4.6.9.n.3X9X9X9X9X9X0XC.V._ _ ` 9X9X9X9X9X9X5X_ n.h.3.7.4.4.7.2.2.7.4.4.4.7.7.4.4.4.2.2.2.4.7.7.",
"e.2.6.7.7.7.4.7.7.7.7.7.4.2.2.4.4.0.z.M.8X9X9X9X9X8X/ n.z.H H W ` 9X9X9X9X9X9X4X_ v.q.7.4.7.7.2.2.7.7.7.4.4.7.4.4.4.2.2.2.2.7.7.",
"e.2.6.6.6.7.6.6.7.7.7.4.2.2.2.4.4.w.n._ 9X9X9X9X9XC.v.k.0.8.9.h.n._ 8X9X9X9X9X9X8XM.z.q.t.i.7.4.2.2.6.7.7.7.7.4.4.4.6.2.2.2.7.7.",
"2.2.2.2.7.7.6.6.7.6.6.2.6.6.7.2.3.k.M.3X9X9X9X9X3XN.h.3.7.2.4.7.g.n.V.8X9X9X9X9X9X_ n.9.4.7.7.2.2.2.6.7.7.7.7.4.4.6.6.2.2.4.2.2.",
"4.4.4.4.4.6.2.2.2.2.2.7.7.7.7.6.2.h.B.9X9X9X9X9X_ n.g.3.6.6.7.7.0.g.v.V.4X9X9X9X9X3XM.g.3.7.5.2.2.5.6.7.2.2.7.4.7.6.7.6.6.7.2.e.",
"2.4.4.6.6.5.5.2.7.5.2.4.2.6.6.6.9.b.V.9X9X9X9X9X/ z.0.4.7.6.2.6.6.4.h.m.` 9X9X9X9X9XB.g.3.2.2.7.7.5.6.6.2.2.2.2.5.6.6.2.4.7.6.2.",
"2.2.7.5.5.5.5.2.7.6.2.2.6.6.6.7.h.Q C.9X9X9X9X3Xm.9.6.4.4.7.6.6.6.4.9.b./ 9X9X9X9X9XV.j.3.2.2.7.7.7.7.7.7.2.2.e.2.2.5.2.4.7.6.2.",
"2.2.6.0.q.7.7.2.2.6.6.5.6.7.7.2.z.Q C.9X9X9X9X` n.5.4.7.6.6.7.7.6.6.5.f.M.9X9X9X9X9XB.j.2.7.7.2.4.i.7.7.4.7.6.6.2.2.2.2.4.7.6.2.",
"6.6.6.5.5.7.2.2.6.7.7.6.4.7.6.4.z./ 3X9X9X9X8X_ v.5.7.6.7.7.7.7.6.2.2.8.M.9X9X9X9X9XN.g.3.7.2.2.2.7.7.7.7.7.6.3.2.2.2.4.7.7.2.2.",
"6.7.7.5.6.4.2.6.6.7.7.4.2.2.6.4.v.( 5X9X9X9X8XB.b.6.7.6.6.7.7.7.2.2.5.f.M.9X9X9X9X4XN.g.3.7.4.2.2.2.6.6.7.7.4.3.6.6.7.7.7.7.7.2.",
"7.7.7.6.7.7.7.4.2.2.2.2.2.2.7.4.v.` 4X9X9X9X8XM.x.6.7.7.2.2.7.7.6.4.w.z.B.9X9X9X9X3XM.g.3.7.7.2.2.7.6.6.7.7.7.4.7.7.7.7.7.6.7.6.",
"7.7.7.7.6.6.2.4.4.2.2.2.2.7.7.3.v.` 4X9X9X9XC.n.h.5.7.6.6.7.7.7.7.3.k.b.V.9X9X9X9X` m.k.3.4.7.7.7.7.6.6.7.7.7.7.7.6.6.6.5.6.7.4.",
"7.7.7.6.2.2.4.4.7.2.2.2.4.7.7.>.R ( 5X9X9X9X` n.h.5.6.6.6.7.7.7.2.3.k.R / 3X5X5X3X( Q 9.3.4.7.7.7.6.6.6.7.7.7.7.6.5.6.2.2.6.4.4.",
"6.7.4.2.2.6.7.7.7.5.2.4.4.7.q.;.J ) ( 3X3X' / R g.5.5.5.6.7.4.2.2.3.9.J Y ) ) ) ) Y D M ;.2.2.2.2.2.4.7.6.7.7.7.6.5.7.4.7.7.7.2.",
"7.7.4.2.6.7.7.6.6.5.2.2.=.;.B 8 r U Y Y Y Y T H N -.-.-.&.*.*.&.&.&.N r e P U U P e w & 8 N ,.2.2.2.4.7.6.7.4.7.6.6.4.4.7.7.7.2.",
"7.7.6.2.7.7.6.5.5.6.=.&.-.9 &   X X X X     w 8 4 2 2 2 2 2 2 2 2 2 > & . . q . o   o o q 8 :.5.6.4.4.7.7.6.2.4.2.2.4.4.4.7.4.4.",
"7.7.7.2.2.4.2.2.5.6.:.-.5 8 q o o o o 0 = 0 * > 2 2 2 2 2 2 2 2 2 2 4 6 * * * * & q q w & 9 ,.6.6.7.7.i.i.2.2.4.4.2.4.4.2.2.2.2.",
"6.6.7.6.7.2.6.6.7.6.2.:.,.8.M M M M M M B 9 9 v &.*.*.&.&.&.:.:.*.&.-.8.N v v N N N N N N 8.5.6.6.7.6.7.i.4.2.6.5.2.7.7.2.2.2.2.",
"6.2.7.7.7.6.6.7.7.7.2.5.6.6.,.,.1.,.,.,.:.=.=.=.>.5.,.=.*.,.6.7.2.=.5.q.5.=.e.7.7.7.7.7.7.7.6.6.6.6.6.6.7.7.2.5.:.2.7.6.5.2.4.7.",
"4.7.6.6.6.7.6.6.6.7.2.2.6.6.5.7.7.7.7.6.2.2.2.2.4.6.2.e.2.6.5.5.2.2.2.5.5.2.2.4.7.7.4.2.4.7.7.7.7.6.5.e.6.6.6.7.2.2.7.5.5.7.7.7.",
"7.7.6.6.2.2.2.6.7.4.2.2.2.2.6.7.7.4.7.7.2.2.2.7.6.6.2.2.2.7.6.2.2.5.5.7.2.2.4.4.4.4.4.2.4.7.7.4.2.6.5.2.2.6.7.7.2.2.7.5.2.4.7.6.",
"7.6.5.6.6.2.2.4.7.2.2.2.2.4.7.6.2.2.2.5.2.2.4.7.5.5.5.4.4.4.2.2.2.5.5.7.4.2.7.7.2.6.6.6.6.6.2.2.2.5.2.2.2.7.7.4.2.2.4.2.2.2.7.6."
};
