/* XPM */
static char *_c251a74f00b48e8dd96d4d3045739bdEIHoIKY5lXQYBVgM[] = {
/* columns rows colors chars-per-pixel */
"97 64 256 2 ",
"   c #4B9436",
".  c #478826",
"X  c #448C0B",
"o  c #539B13",
"O  c #54A313",
"+  c #54A30B",
"@  c #4CA305",
"#  c #54A302",
"$  c #5BA402",
"%  c #3B8830",
"&  c #579927",
"*  c #5AA526",
"=  c #5CAB0B",
"-  c #5CB206",
";  c #4C9413",
":  c #4C9B01",
">  c #64B303",
",  c #6CB30B",
"<  c #73B40C",
"1  c #63A402",
"2  c #539C02",
"3  c #499717",
"4  c #54A928",
"5  c #478917",
"6  c #67A837",
"7  c #549C1B",
"8  c #4B8C01",
"9  c #438C01",
"0  c #6BAC0C",
"q  c #639C05",
"w  c #6CB302",
"e  c #73B403",
"r  c #64AB02",
"t  c #64B30B",
"y  c #6BBA07",
"u  c #5CAB02",
"i  c #4C9B0B",
"p  c #348301",
"a  c #3C9304",
"s  c #63A413",
"d  c #6BAC1B",
"f  c #73B413",
"g  c #7BBC0C",
"h  c #4A9526",
"j  c #3A8526",
"k  c #377917",
"l  c #538B18",
"z  c #66A41A",
"x  c #73AC05",
"c  c #63A40B",
"v  c #7CC30C",
"b  c #6BAC02",
"n  c #7BB91A",
"m  c #63AC13",
"M  c #449708",
"N  c #5BA436",
"B  c #66A827",
"V  c #539401",
"C  c #3C8B01",
"Z  c #5BA40B",
"A  c #63AC0B",
"S  c #55AA05",
"D  c #449301",
"F  c #5CAA13",
"G  c #5B9C0B",
"H  c #5BA413",
"J  c #5B9C02",
"K  c #599746",
"L  c #68A747",
"P  c #6BAC13",
"I  c #4B9401",
"U  c #54A915",
"Y  c #6AB426",
"T  c #3A8616",
"R  c #398709",
"E  c #3C8401",
"W  c #7BBB03",
"Q  c #7CC313",
"!  c #64AB1B",
"~  c #6AA505",
"^  c #368C16",
"/  c #539C0C",
"(  c #74BB03",
")  c #74BB0B",
"_  c #74BB13",
"`  c #438401",
"'  c #85BA57",
"]  c #78B747",
"[  c #579817",
"{  c #58A71A",
"}  c #74AC17",
"|  c #74AB38",
" . c #76AD6B",
".. c #69A756",
"X. c #77B827",
"o. c #7BBC13",
"O. c #7AB506",
"+. c #2C8303",
"@. c #4B940C",
"#. c #77B737",
"$. c #85B94A",
"%. c #74AB27",
"&. c #649B27",
"*. c #589837",
"=. c #297709",
"-. c #76AA58",
";. c #75AB47",
":. c #6CB34A",
">. c #5CA448",
",. c #5CA31B",
"<. c #6CB31B",
"1. c #79C306",
"2. c #68B616",
"3. c #6CB313",
"4. c #87B76F",
"5. c #8CB68B",
"6. c #679856",
"7. c #2B6C01",
"8. c #347C01",
"9. c #247301",
"0. c #2C7B01",
"q. c #37790B",
"w. c #569408",
"e. c #649A38",
"r. c #6B9431",
"t. c #84BA37",
"y. c #6BB436",
"u. c #3B7C01",
"i. c #659A47",
"p. c #558A37",
"a. c #387827",
"s. c #2A7616",
"d. c #73B41B",
"f. c #83BC06",
"g. c #7AC426",
"h. c #92CA6E",
"j. c #337401",
"k. c #79B657",
"l. c #ACE66A",
"z. c #CCF1A5",
"x. c #A2BC73",
"c. c #2C7301",
"v. c #488836",
"b. c #488709",
"n. c #1C6300",
"m. c #0A5702",
"M. c #83C30B",
"N. c #84BB27",
"B. c #88C647",
"V. c #74BB1B",
"C. c #D3F3CC",
"Z. c #A9D48F",
"A. c #548B27",
"S. c #83C413",
"D. c #246B01",
"F. c #94CA08",
"G. c #528B4D",
"H. c #397836",
"J. c #316D2D",
"K. c #B0DEA2",
"L. c #49784B",
"P. c #84BC17",
"I. c #236401",
"U. c #457A37",
"Y. c #6DC211",
"T. c #286816",
"R. c #286826",
"E. c #88B130",
"W. c #92CD50",
"Q. c #196B0C",
"!. c #96CA8C",
"~. c #88C707",
"^. c #94CB17",
"/. c #145B00",
"(. c #6B976B",
"). c #356A17",
"_. c #7BC436",
"`. c #88C818",
"'. c #3D8347",
"]. c #589066",
"[. c #1C6B01",
"{. c #447B04",
"}. c #538B04",
"|. c #639B18",
" X c #457A28",
".X c #97D637",
"XX c #87C727",
"oX c #3B7401",
"OX c #A7D670",
"+X c #A5D74E",
"@X c #87C737",
"#X c #79C419",
"$X c #8FCF31",
"%X c #91D210",
"&X c #7CC34A",
"*X c #145400",
"=X c #176505",
"-X c #2B6401",
";X c #18580B",
":X c #28680B",
">X c #377048",
",X c #185816",
"<X c #0C5300",
"1X c #7DC36A",
"2X c #1C6627",
"3X c #ADE64C",
"4X c #8AB508",
"5X c #07470B",
"6X c #94CB27",
"7X c #0D4A16",
"8X c #023B00",
"9X c #447B17",
"0X c #29592B",
"qX c #1B5C00",
"wX c #1B5401",
"eX c #70C52A",
"rX c #6B940D",
"tX c #336C01",
"yX c #3DA007",
"uX c #97D418",
"iX c #134C00",
"pX c #356906",
"aX c #034300",
"sX c #265A16",
"dX c #0B4400",
"fX c #235C01",
"gX c #044B00",
"hX c #0C4B00",
"jX c #A5D92D",
"kX c #97D527",
"lX c #77A785",
"zX c #95B9A2",
"xX c #7CC482",
"cX c #ACE530",
"vX c #ABE21F",
"bX c #A6D611",
"nX c #013400",
"mX c #145028",
"MX c #0B3C00",
"NX c #265905",
"BX c #164803",
"VX c #012C00",
"CX c #4B7432",
"ZX c #49720C",
"AX c #073707",
"SX c #2A530A",
"DX c #002400",
"FX c #063A25",
"GX c #0B390E",
"HX c #295A44",
"JX c #50765F",
"KX c #001A00",
"LX c #C7EF3D",
"PX c #062A06",
"IX c #000E00",
"UX c #405D1A",
/* pixels */
"o 7 5 + ,.& 1 $ + c 0 ; b 0 $ 3 Z ,.! m ,.m / @.Z 0 ! A ! H 0 5 7 s $ [ N ! 6 e o P ! r ! F H m O * *.I F 7 & m ,.! Z / *.*.,.A *.F N * B Z ! m Z 7 L m B d ; o o $ ; N Z 7 6 h / k.7 7 ,.@./ h 7 ",
"h o / P / ,.d i H Z #.+ Z ! / + O O N Y L s O ! B Z & B ! H & 7 A y.,.c * d.m A e Z 7 m B A $ ! ! d 7 Z K c Z B 3 3 B B 7 *.O 1 F ; Z Z ..s Z 7 N t o & *.B *.7 & * * ! 3 O A 7 / o L 3 | m : h 3 ",
"/ / c 7 0 s O / m o i.,.* 7 A z * o 5 z h h 7 s 6 & ! B s A O 7 0 d Z , Y %.B F * & $ i 7 & G e & H * <.! ,.r o 3 A ,.* d Z ,.Z * / 7 s & H 6 H H ,.7 3 ,.,.* L N H ! B h { 3 h 7 Z * & 6 7 o Z 7 ",
"& w.Z 3 @.c r / h ,.; / B 7 m ; o / @.@.o h * ,.,.H m ,.y.A Z m B O 0 m F = i 3 ! B $ Z / Z ; Z * 2 o Z s c A c 6 s Z F d.c 0 H / 0 3 + O ! * y.O *.7 3 m *.+ N 7 6 s 6 ; & & 6 7 c 3 B N 3 O m & ",
"5 ; 1 2 7 r Z 6 7 Z G $ s 6 & s o O r 0 / 7 3 7 , m O o & s m * B 7 6 h & A H 7 c N c m Z w.! 3 @.H s f < H + i m r ; 0 B 5 w.+ 2 Z i * B 7 ; e.= 6 * d O h & H / P A * Z + & v.6 & 7 ,.3 3 * N * ",
"5 B c Z w.o 7 3 & H & ! c *.& c + H 0 i @.G @.o G o s X.,.* 0 H ;.H ,.H . / H s X . L d Z Z + Z 7 3 c H ,.A 2 ; ; G < d o R o 2 1 ! X o s ; + H / o A ,.O o L / * B Z L m A 7 L 7 & 6 H & 3 & Z Z ",
"X 7 h = @.H c o Z 7 A [ 7 ,.@.A : c d X [ Z X / H 5 s [ z 7 d B <.d.& r 6 ; 0 o + 3 d H . 7 / 3.7 r Z 3 | ,.+ 0 . ,.%.7 Z & ,.[ * }.5 ; o G c Z Z = m s / d *.I h & ,.o Z f ; B & m B ; * * : &.B ",
"3 ; / X ; & 0 H ; L ! o h 3 o / 7 B & & e.,.X 3 / & Z A 3.= m r A 6 ; * N o Z Z Z ; 3.i 3 F ! , A + H d , <.%., & * B <.H & *.m / b.@.. / [ s H o O 3 6 y.O Z / i.7 O ; d B 6 3 N s @.h & * i.& B ",
"/ / X * 6 6 c Z m * 2 ,.m = m + ; d & h B H / [ X o s X.,.Z A s ,.N ,.,.7 H H 3.,.6 s P i.N y.B F P 7 * 7 P H / 7 0 Z h A o ,.! 2 G 5 & + e.& H 3 z / 3 i.& + A K o + X ,.* ,.& H r c N . F * N ,.",
"7 ! ; 7 P H A Z c 7 , 6 r P N s , A B z ! o c s & c [ ,.* [ Z *.X.& e.3 & N ,.w e.* ! ,.N 7 *.3   * 0 H o 0 H / m Z ,.o A A Z B F / G ,.o d.7 * b o o o h G c c ,.& A H d 7 & Y h & b & ,.o V H s ",
"s 7 %.c [ / Z s |.B 3 ; / B & ,.! & <.B H ,.7 Z Z P s & *.. ,.o H O 7 s & . 0 m . . 7 H / & ,.o K 5 < 7 ! * ; N c H 7 A Y c H * & r %./ ; %.H s c %.m h / H *.& A o O B ,.,.* & ; A [ 6.-.; ,.* X ",
"l o Z c 0 ; G G 7 7 # Z & . Y o s z & d.|.[ *.+ < H %.H h & L d & [ . H [ ,.H <.o 3 ,./ ,.H d N i.H B 6 & 5 H H X.c Z s 7 s o * m d.G 0 @.d z H f 6 %.3 c B &.H m z p.& c o / ,.m m ; . & / 6 7 *.",
"H X d 2 G Z / s ; c P / A.h G ,.0 /   o.. H & G , h O H i / h 7 ,.5 X N & P A / H &.& Z F B ,.  i.0 z 6 F 6 B m < Y s , & 7 3 6 ,.N [ <.o P [ / s 0 h . ,.*.B ; c H j @.6 B + 7 7 Z h k / o -.v.. ",
"; T 7 X @.c r m ,.Y g 6 H ! i R A / & #.& ; ,.7 6 T & @./ B . ; H T ; [ & ! @.,.,.6 h ,.7 B c 5 ; d d.H & e.A 6 d 6 o c L * & 7 h h *.H ,.<.G Z 0 c 5 L & / m l 0 8 @.G A.%.2 Z @.H R [ 6 | . 5 9X",
"l k 5 @.s 0 = z 7 u 0 0 ,.& 7 z Z 0 7 ,.H , & * A.! * & b.3 *.R o ; ! e.A.6 [ o s B 7 N * [ m ,.p.B X.; H s A 6 B B * Z s m ! B ; ; K 6 e.& ; B L 6 H L H B B [ c / G ; & i.: & 7 7 Z ; L | ; ; o ",
"7 G X @.@./ G l & o w B 3.[ d.%.X.c i m H H H 3.n s P s 5 f s 7 *.Z ; *.,.* &.i B ,.d ,.d A., ,.H & H L ,.P 7 & e.5 7 f %.d ,.l o B L ! . 3 *.* A.*., & &.*.d w.z 5 b.w.5 ; %.e.6 ,.Z 7 ,./ 5 5 * ",
"[ ,.p.o l & P %.& Z o.3 ,.,.m f 3.s z s $ B 7 [ s Z < X d 0 ! e.l N B y.} H & [ Z B h [ c & G K & 5 z B d P O H 5 s &.P ;.&.h c G 7 . H 7 & a.B O *.A & &.X.| [ [ G c c [ & f ; ,.3 ; z Z G X e.A.",
"Z s l / 7 7 [ s ,.s P = & B , H Z Z Z s P | ; p.s Z m [ c ,.s F B 7 & Z [ X B &.& ; H 7 & *.G & 7 & g ;.& < ,.B o B . ; s [ [ b.Z m ; 3 s &./ & Z A G e.,.6 ! 6 s P c n * h 0 P P &.e.d.s R H ] . ",
"@.c A b.s / f 7 7 @.& H & j d Z B ; [ A / B A.& <.s 0 &.P / = ; ; c / 3 z o 6 & j A K 5 & s c ,.* | & 7 5 X.[ H G B X *.7 7 ! P s & X 7 z ; 5 * z ,.H  XT | B *.o 0 ,.f B s P X.0 X.  s Z h 7 [ -.",
". o Z w.3.5 z 7 z m [ c 5 5 [ Y i.s o c Z |.*.,.5 H z & G / 7 i z [ H [ *.7 o A 2 P G.5 z P 7 7   | v.& U.| & H 7 & & . 7 5 & O 7 & @.d B ; & m #.A d T 9XH ..i.P B 6 P s %.] k.z & ,.z [ & X *.*.",
"e.& 5 ,.,.s 7 B H A 0 0 l l / s T . P 5 s s o P , / b.A H 5 . 3 . ,.@.s *.Z O ,.d Z 5 & o o p.d . ,.& & & K @.s ,.i &.h B v.7 X B & d z N [ *.#.&.* 6 / A.| i.*.& e.s g &.i.-.7 7 K s & & . X 7 & ",
"/ 7 *.[ z 7 H B P G s c [ d 2 <.l |.; G ,./ P 3.g Z $.f |.[ & l O . 5 d i 0 ,.  P < ,.*.s &.& %.h &  X*.K [ ,.& , 7 l s *.a.[ ,. X5 3.| N ,.7 ,.d o %.* ..h K . l K X.d & & l h N i.o 6.e.A.5 ,.[ ",
"G 7 & < & h 5 9Xc G 5 5 [ *./ d A.A A.! 6 ,.d ,.c 0 z ; s o l [ [ &.z  X5 / 3  X& 0 . z z l l 6 o & G.k B A.A.& &.A . 7 *.7 H 7 9X& d B H A.B o *.* 6 6 & X *.B %.a.} H c s [ p.3 . B K *.K ; s [ ",
"H [ } g o O @.[ o |.o s ; p.|.0 6 / s %.|.U.z & H P o e.e.5 B e.& c z [ 3 + A.%./ 7 ,.&.& 6 p.  5 5 . ; ,.A.& p.*.H [ 3 z ! s l & 5 * B 5 i.; d e.{ o L & & K e.B . ; q.P l 5 ,.Z o ! A.,.l 5 [ G ",
"%.7 o.f s / H ! z i.7 ,.[ . s d ;.,.B n p.7  Xz o.f 0 i.z [ %.p.5 d.z ,.; z 7 & h ; N &.o 7 B 7 5 l <.& ,.& ,.v.z b.*.,.,.! ,.A.& & s & & a.5 #.. 5 d v.k 7 . B B &.5 5 ;.k p.7 &.T.H A./ B [ s z ",
"] *.,.%.[ ,.B d *.v.. ,.* K z & 5 7 / P & ; | %.d.B B . &.[ d . B [ B m ,.d *   A.; / d ; d s H s ,.' K B U.7 K |.l & B d H ,.6 *.,.e.*.z [ U.,.5 A.e.k p.s . e.&.& ; h  XA. X,.; k 5 l [ . ,.|.d ",
" X&.a.A.& [ 5 &.7 ; & & B &.e.s m e.,.| 0 * *.B e.e.; &.& [ c |.& . z s i H & . B n 5 &.7 ;.B s s [ e.A.[ ; 5 5 |.A.l 5 * e.*.[ j   . l s B & &  X Xv.. e., 5 7 &.d.G o & A.9X& k T ).&.; ; 9X6 } ",
"l A.k G.&.; h z O O T P K B p.h } o l 6 d H U.B 6 e.. e.d d 9X< 5 ; m & ; H ! J.A.9X,.l z G.&.. <.5 [ d A.& & @.; [ z [ & 6.[ p.[ 0Xa.X B * s i.e.v.U.G.  f 7 ! e.} Z i 7 k &.|.0XT.. d |.7 [ i.,.",
"c | 6 5 . G & d / [ <.Z e.*.5 h ,.,.,.6 9Xo 5 &.[ ,.B l d B v.P 7 Z H L + 7 z & l 7 l ,.p.p.& ;.& 5 |.e.J.& A.T |.s ,.L   6 5 . A.A.h / A.& |.e.K . H 6 h 7 ,.A.& [ ,.Z O * s l l G.p.[ s A.5 5 & ",
"B | d.A.o G 7 } G P 5 l z z 6 P [ ,.* ..[ s j *.a.H 9Xf / . ,.l ; P ! B = [ ;.|.l 7 *.%.6 ,.K *.l ; &.a.& A.A.A.n B s p.l |.. B v.e.& [ 5 5 &.& . ,.l 7 *.7 [ & l & z o 2 P p. Xp.6.*.P 7 v.; p.. ",
"L.%.s z l ; ; d.0 d B e.s ! & } s e.| [ f . A.B l B ).&.} B Z k  XH 9X< F & *.e.} A.A.L A.[ A.s |.[  X5 A.& A.d f A.z k 9XZ ).5 p.K &.e.d.& h 5 B e.l [ %.z [ | ).*.@.l s &.p.h 5 K G.6 &.k 5 H.o ",
"[ v.r.O.& + O z [ 7 l B 5 z 0 [ #.p.& o d & p.e.& [  Xd l A.[  X X[ P s 0 z ,. Xl & %.z &.; %.d [ l [ B L * [ } d  X%.T A.|.l / . B [ p.z B 7 5 p.& P z z [ s & e.& [ [ e.i.*.A.l A. Xp.*.A.*.k c ",
"Z . *.s |.F l L.v.K &.z ; d & *.;.%.k s &.B . |.z T a.d v.e.& & & f z z &.B ,.|.|.d.} , [ &.CXf [ i.z & N [ z B l i.*.& l s &.& h P ,.l . &.; l v.Z z ] & ] k [ H e.7  X5 G.p.7 9Xs ;.*.,.d p.h [ ",
"[ s H &.z G %.U.K %.&.B l  X. &.; } ; &.e.e.h ,.,.5 X B a.&.P / B } 6 z l 9Xo s f z P |.p.%.|.z A 9Xe.& & [ d e.e.i.5 & %.5 d  XB z G P d *.*.l [ [ *.L K -.|.m H ..H 9XT A.A.5 ; |.] 5 *.s &.v.& ",
"[ A o p.a.&.%.5 } p.|.j ,.. z |.[ P.,.L &.z 5 m 7 m A f e.. z P A.%.6 & l A.l l d l %.   X|.&.|.0 ; G.K 5 &.| &.| &.6.& * v.s z 7 d P $.d G.l 9Xi.e.l p.K A.n %.[ G.B |.9Xs 9Xs 9X[ z ; & f & H.& ",
"l m 5 5 K A.&.,.d & & H.*.) s P } d.H |.5 ,.& s z P s B i.p.&.P ; ,.%.h A.*.|.s f G z 9XA.p.n z } z ..v.l z [ . ,...G.p.5 e.5 &.[ [ ] e.f v.,.G.(.A.&. X*.. |.H 9Xp.|.).A.[ ).+ 9X, c P & H & A.A.",
"} s ! U.v.9X/ d d.H d.J.A.d H o.} 5 } & l &.e.%.z z z [ n 7 6 l d.[ %.[ e.*.f S.|.P f s H  Xf P %.s p.H 5 |.[ ,.6 Z & &.).z A.s @.& *.p.s 5 B ].U. X[ l ! & & }  X. &. X5 5 5 X G d o P.A.p.6.[ [ ",
"l k & L ).[ *.H | [ d.&.d.d *.< H l |.P %.*.&.9X|.A.#., [ A.| d.[ B *.c & 7 z o.0 o.s < = A.Z f %.H [ d d s d.|.< } z 5 k 7 &.M.Z p.[ |.s z %.p.U.l e.i.m G.e.s  X5 6.).p.l [ 5 G.& i P ;.U. X9X. ",
"|.A.*.,.l &.&.m &. Xn 6 z %. Xs / l l } L.k Z s s L L o.d.d.&.P s |.& c A i l o.|.[ z s Z | } B %.c [ d.H l A 6.%.| A.& [ o &.g Z ; [ P s B p.; z  X).. ; p.p.[ ; &.i.e.e.9X,.[ U.z N [ i.. k 9X[ ",
"; < & N . . l &.&.. |.O.; 5 H 9XG } d A.& ; $ Z &.p.e.d } 0 & ,.B [ m c c , G |.| sXP A.6 ..f &.|.s r.X.& s Z 4.&.i.d l A + 5 P.P 7 d 3.+ p.K l P  X5 h [ &.e.&.& p.[ -.! 9X%.o T B *.s U.. k k z ",
"9Xf B .  X&.l f |.l |.} A.-.7 9Xb.} d . z A Z [ ,.s h P P f G d &.3.*., o c 0 z A.& s K & P A &.z [ & #.& o i B } e.f |.0 Z B S.P 5 | d [ H ; 5 3.l s k } 0 H l * v.G.G.|.CXA.& ; B . [ v.5 l z f ",
"5 z z T A.|.|.o.|.[ f l a. X6 k b.< z [ & s s z } , [ |.X.7 g < f } & c A A f P ; &.s |.c ) 0 & B d...%.l s [ [ P & ,.|./ G 9X@Xs i.z f G A 5 9X0 A.|.).} %.c [ ,.|.L.j |.SXX ,.& 7 ; v.. H . P z ",
"&.l o ; 9X9Xl P.9Xs H l ).h | 9Xz B * P.e.z s G &.c g 9X6 Z , e ) [ P [ , Z f [ 5 & s o , x } l e.P l [ s } l ,.z A.p.@.s ; U.#.9Xv.6 | n & h p.P [ i.o } 6 w.d.0 P  X@.s |.0 o 7 / O 7 K s 6.s e.",
"v.7 A m 5 9Xl P.5 |.z [ l s 6 A.* z B &.& 7 / z 4.; e z i.X.,.g s 6 %./ [ G 0 b.q.[ 5 & 0 P |.B z f l 7 l n &.A.*.%.p.A s p.|.< / 5 A.z ..5 i.K } B A.* -.B l ,.[ |.A.7 &.n |.& Z > i m *.z U.@.l ",
"s & P , T  Xn o.G 5 z 9X} Z } A.X ~.e.,.@.T 5 P | l s f ' A . s B e.%.< f G s s ; & d 6 5 A.B z ; A l i z %.B [ b.z s < 6 & |.&.g {.[ K J.. 6 a.s B d &.i.P  X& d |.J.l *.z [ b.Z A pXl i.e.R.l T.",
"+ H [ z 8 & 6X|.< *.& R.A.d |.H.3 `.w.s H X 5 ;.[ 5 ; B } [ k h B v.P d c 0 0 b.s & < z 6 T %.H g [ [ c f s *., g } w.} B l K P @XB [ 6.k G s a.s ' l d H 0 k Z 0 5 |.|.-.|.&.@.( c [ G.-.p.X @.o ",
"d b.k [ B + f l g . l :Xl  X|.pX7 P.0 z [ X %.-.s e.9XG P l ; T k  X5 P 5 s G 9X& ;.d.5 i.@.t./ g s G w 8 ] w.< s |.[ G 0 q.G.B #.;.A...9XG sX5 ;.6 9X} s d . # H  XP.|.G.e.e.s ( 0 l ].|.|.i w.&.",
"g X SX[ * . A w.g 9Xd X &.5 m V c H X c G X *.X.;.o [ s l P 1 Z @.s.& e.).& z 5  .;.b.d & #.L Z 0 , ~ $ ! B w.%.[ &.s 0 G < A.-.;.d v.6 c @.).i.| l c } z < c o |...< G 6.6 5 P Z / w.k c }.h G c ",
"} A G.&., / c c w.@.0 0 [ # 0 G 7 A @.G < h a.A Z A s g l f } H = :Xe.5 |.h K 5 p.&.9X< . ..3 }.c r i S w 2 o i.B 6 w.< b.< 5 5 o ~ T 0 A l [ B &.l 0 s | w.H B p.&.; s (.d A.[ o i q.@.:Xw.s w.o ",
"z ) v.[ o 2 [ o.< Z |.d.I + ( Z 5 A o P s X / i W Z < ~.@.} / c s i.;.l &.A.p.@.f &.@.< a.p.;.} s c / S A [ 5 G.v.s c G @.c X & @.X i [ d.K ! E.v.; o [ ; q.c &.. < s e.a.e.T ; & Z a.l 9Xw.b.. |.",
"l A  X[ k 5 / s > I *.P 2 Z W Z @.2 - [ &.u 0 T ( b., c G |.0 < i.&.B X 5 l %.B q.l w.o 0 k.k.i s o P # b.c . T X o ~ 0 fX/ &.5 & [ i -.B i.@.z ).9X,.v.G k & 2 Z e 0 5 &...i , . c 9XT.l [ |.. [ ",
").b.5 H . w.P c 2 X &.s / c c A , pXt c [ w S.w.< G c @.0 0 l d -.f c s 0 ! d G @.G l s &.5 I 9 / o ~ $ q.w.5 9 & ;.| w.pX| %.e.& 0 0   A.l ; |.sXq.e.K b.a.5 H ) c c 7 K v.* c B ,.P q.9X6 |. XZX",
"b.X q., q./ ) w.@.q.3.[ : @./ b r b.i w.w m l 5 d f.w.[ q.Z ' i.A.@.z w.X.l A b.1 d |.e. Xw.w.b. Xz t.w.X I [ R K & b.}.l ;.s ;.[ c @.q.c l . &.p.w.a.G E  X. / c c * . G.X |.w.Z . 0 b. X*.j.; l ",
". P q.g R ; z b.G i < l 2 Z X Z c 5 :Xb.%.[ ).G &.g b.p.6.+ G.9Xb.` M.0 s J.d 6 e < q e.T.G / 9XU.P -.w.b.E w.5 . G pX@.l p.|.i . z G fXs &.9X@.*.|.X 0 c @.).$ {.w.& 5 U.2 b.Z 5 ).0 P 9X9XpXe.b.",
"&.+ R g X @.s w.c ) , A.Z s @.@.G Z :XoX6 | SX%.K {.q.p.p.X & $ Z 7.s 2 / pXx } f.0 G 4.. rXd b.0 &.e.< 9XX e. .| @.k @.7 R }.7 [ c @.wX5 *.  &.s c w J b q }.w.E G 0 s 5 @.c |.v.NX& < 9X:Xp.*.l ",
"~ i 0 z pX4XA.w.w.M.G 9X/ q.R w.@.c w.a.).l l 6 a.9X5 l T.q.> $ / 7.G @.@.G P.o.c G ;.6.5 P.G Z n 5 < l 5 R ..G.; @.G.l ,.{.c q.9XA o ).p.9X* t.P V r D G s 0 @.G [ M.P c q.w.&.v.; 9Xc b.:XU.SXG.",
"P N w.q.{.} a.U.b.0 + b.X / k / @.b.P J.BXl @.q.NXX I X b.2 / G q.` g ,.A.z M.F.9X< A.5 z 0 o X.e.w.c b.G Y J.; ; & e.X.; ; &.l a.0 I / K 8 3 |.5 pX> # j.. o.{.0 & P w.G D.G |.X E q.G X ; l sXH.",
"& 5 k k G q.X T.q n E 0 2 pX).7 I.q.o 9XL.K G u.u.5 8 G G ( Z ; q.5 e m & L e f.D ( {.q w.W @.U.5 e f.*.0 P 2 r b.] l & / G w.;.l f.b b.5 6 T & q.i w.r @.l S.2 / s :Xw.{.@. X[ S b.M / c e.w.p.G ",
"& c 8 s h 2 [ }.q w.X $ c q.a.3 u.I A s L.v.< 8 2 0 : 1 c A b.{.u.6 #.W s 9Xr x u u 7 G l ~ q.5 5 c Z s XX$ ! B K *.@.T Z H &.k :X|.> 8./ i |.{.` Z l 8 Z 9XG u.k 5 ;Xs e.H G.SXu w.i , &.v.5 & w.",
"7 1 $ A ; r R G BXl [ G M.[ & . }.1 y c 9X[ c I Z }.R / G 9 NXsX@.s X.Z e [ 0 ~.> u < & l w.X r H h H o ( > f B i.X o . j.J [ *.l A.` q.I : c q.: oX Xw.0 ZX&.q.b.G Q.-...T >X).$ w.2 2 A.T ; & $ ",
" Xr ~ ~ c $ q.9X;X XG.x @Xp.9XR H O.r @.| x ~ G w.k p.i oX/ )...Z g r I G G < ;.A H W A.b.c I < r H 5 > w 3.W.5 7 $ o 3 {.b.o.5 8 $ 2 9 1 9X/ 9X@.A.b.1 < A.v.l c Z J.A.p.a.  5 $ 5 r E I Z i. Xz ",
"T.7 x ~.0 w T.BX-XJ.A.P.e.5 q.@.3 c 8.;.XXx f.G }.pXb.c l u.b.; ~ n A 2 R J O. .Z i b w.: r {.$ I c k 2 ! L | &.+ d P 2 w.L.t.@.O.2 r $ # k.,. XZ  X}.V 0 p.L.[ > 1 k oX8 . b.7.Z U., / V 0 a.b.J ",
"7.A.l , 5 g I.NXw.@.A.P.; ; c 1 R X  X| 0 } c A w.b.b.~ 0 {.*.s ; s &.|.: H s G.q.G }.~ u 8 9Xo j.f G R [ v.. o pX;.g X @.U.G $ < @.# 1 ! e.t.u.c 0X5 2 0 a.].Z w G b.q.D X b.@.5 k g q.2 c u.{.s ",
"Z @.w.J U.< G u.A @.0 e $ R Y 1 u.R . 0 | } w.$ G w.{.J e b.G.~ a.b.w.G 8 I [ s k c b.w A J.[ w.[ t.c ` w.K q.9 . K w.7 5 0XB r 0 b.: $ c U.X.V 0 pXa.@./ k H.0 e w.).9X: q.b.w.R 8.< w.X E : }.V "
};
