/* XPM */
static char *_298402dc9f14bb4d71ac0413f28f0c6WjFvuVy6AfyuBK30[] = {
/* columns rows colors chars-per-pixel */
"64 64 222 2 ",
"   c black",
".  c #281F02",
"X  c #2D3D1F",
"o  c #313B25",
"O  c #315A14",
"+  c #2B5210",
"@  c #286501",
"#  c #357B01",
"$  c #3A7C02",
"%  c #377403",
"&  c #376316",
"*  c #327102",
"=  c #3C452C",
"-  c #395828",
";  c #3C4435",
":  c #3F5433",
">  c #3A7529",
",  c #555204",
"<  c #466A06",
"1  c #497A03",
"2  c #557908",
"3  c #426F18",
"4  c #696903",
"5  c #787804",
"6  c #70740A",
"7  c #434C3A",
"8  c #425835",
"9  c #425E2E",
"0  c #496D2C",
"q  c #735D09",
"w  c #304C4F",
"e  c #1D6279",
"r  c #25637C",
"t  c #2E6973",
"y  c #316860",
"u  c #4C5642",
"i  c #535E4A",
"p  c #56614D",
"a  c #59634F",
"s  c #5B6450",
"d  c #4F6041",
"f  c #7F7B4A",
"g  c #7E7A6C",
"h  c #5D1317",
"j  c #BF3038",
"k  c #CB353C",
"l  c #847803",
"z  c #987A04",
"x  c #A27D03",
"c  c #A15C26",
"v  c #806C2D",
"b  c #C15933",
"n  c #D63941",
"m  c #E13C44",
"M  c #917C4A",
"N  c #3D8402",
"B  c #3F8C02",
"V  c #448302",
"C  c #4B8403",
"Z  c #438B02",
"A  c #4C8C03",
"S  c #4D820F",
"D  c #528504",
"F  c #538C03",
"G  c #598607",
"H  c #469202",
"J  c #4B9502",
"K  c #4E9802",
"L  c #4D940A",
"P  c #539303",
"I  c #5A9403",
"U  c #549C02",
"Y  c #5A9E01",
"T  c #579D09",
"R  c #5F8E14",
"E  c #6E8705",
"W  c #71830A",
"Q  c #619F02",
"!  c #798C19",
"~  c #668415",
"^  c #57A002",
"/  c #5CA102",
"(  c #5CA209",
")  c #5BA110",
"_  c #63A301",
"`  c #68A701",
"'  c #65A902",
"]  c #6AA901",
"[  c #62A408",
"{  c #68A608",
"}  c #4E8332",
"|  c #7B8026",
" . c #3C8170",
".. c #408170",
"X. c #7D8E6B",
"o. c #718A5A",
"O. c #898603",
"+. c #9A8208",
"@. c #95961A",
"#. c #8E970E",
"$. c #A88706",
"%. c #B58C03",
"&. c #B38E0C",
"*. c #B89507",
"=. c #A89613",
"-. c #BA9914",
";. c #AD970C",
":. c #BBA307",
">. c #B7A71E",
",. c #9C922E",
"<. c #B3882E",
"1. c #BBA73B",
"2. c #B5A925",
"3. c #C39502",
"4. c #C89D05",
"5. c #C5A605",
"6. c #DBAA03",
"7. c #D5A804",
"8. c #CBB206",
"9. c #D6B804",
"0. c #C8A415",
"q. c #DCB514",
"w. c #D6AD15",
"e. c #E1AE03",
"r. c #E6B202",
"t. c #EBBB00",
"y. c #E8B801",
"u. c #E6BA16",
"i. c #E8BB16",
"p. c #E5B815",
"a. c #D3BC26",
"s. c #CBB42E",
"d. c #DEC203",
"f. c #DBC216",
"g. c #E3C303",
"h. c #EEC401",
"j. c #ECCC03",
"k. c #F2CC01",
"l. c #F0C600",
"z. c #F7D300",
"x. c #F5D101",
"c. c #F7D400",
"v. c #F6D400",
"b. c #F6D300",
"n. c #F7D507",
"m. c #F3D41B",
"M. c #E8CC1B",
"N. c #DAC323",
"B. c #E0C828",
"V. c #96815A",
"C. c #B39550",
"Z. c #BCA45C",
"A. c #B3A542",
"S. c #8A9C78",
"D. c #89877D",
"F. c #AA9C73",
"G. c #B8AA77",
"H. c #A9A17C",
"J. c #C0B068",
"K. c #115C89",
"L. c #116699",
"P. c #136798",
"I. c #0F6397",
"U. c #277498",
"Y. c #377897",
"T. c #2F6884",
"R. c #136EA4",
"E. c #1777AD",
"W. c #167AB7",
"Q. c #177CB7",
"!. c #257DA3",
"~. c #5B7B97",
"^. c #637B82",
"/. c #39828B",
"(. c #1F89BB",
"). c #1C83B6",
"_. c #2A84AE",
"`. c #278CBB",
"'. c #5684A3",
"]. c #7A93A8",
"[. c #1C8AC4",
"{. c #218FC3",
"}. c #2694C7",
"|. c #2299D1",
" X c #2A9DD2",
".X c #34A2D6",
"XX c #9A9886",
"oX c #928F84",
"OX c #B7B29B",
"+X c #B2A990",
"@X c #8494A0",
"#X c #989EA1",
"$X c #AAABA3",
"%X c #B1AFA4",
"&X c #B8B5A6",
"*X c #BFBCB1",
"=X c #AFB0A1",
"-X c #C1B791",
";X c #C2BCA8",
":X c #C2BFB3",
">X c #C5C2B5",
",X c #C9C6BB",
"<X c #CBC8BA",
"1X c #D2CEBC",
"2X c #D9D3BE",
"3X c #C7C2AE",
"4X c #CFCCC0",
"5X c #DAD5C1",
"6X c #DDD9CD",
"7X c #D8D4C7",
"8X c #DFDCD1",
"9X c #D0CDC1",
"0X c #E3DDCC",
"qX c #E1DDD0",
"wX c #E5E2D5",
"eX c #E9E5D5",
"rX c #EEE9DB",
"tX c #E9E6D8",
"yX c #F1EDDE",
"uX c #F4EFE1",
"iX c #F7F2E4",
"pX c #F8F3E4",
/* pixels */
"_ _ _ _ Q _ _ _ _ _ _ _ _ _ _ _ / _ _ Y _ Y _ _ _ Y _ _ _ _ Q _ Y _ _ _ _ / _ Y Y / _ _ _ _ _ Q _ Y _ _ Y _ _ _ / Y _ Q _ _ _ _ ",
"_ _ _ _ Q _ _ _ _ _ _ _ _ _ _ Q Q _ _ _ _ Q _ Y _ _ Y _ Y _ Q _ _ Y _ _ _ _ { _ _ _ _ Y _ { / _ _ _ _ _ _ _ _ _ _ Y _ _ _ _ Y _ ",
"_ _ Y _ Y _ Y _ ` ` _ _ _ _ Q _ _ _ _ _ _ _ _ _ _ _ I Y Q _ _ _ _ _ _ _ _ _ Q Q { _ _ Y _ _ _ / _ _ Y _ _ _ _ _ _ _ _ ` Y _ Y / ",
"_ ` _ _ _ ` _ _ _ ` _ ` _ _ Q _ Y _ _ / _ _ ` _ F 1 1 D 1 _ _ _ _ ` _ _ _ _ _ _ Y / _ Y { _ _ _ _ _ Y _ _ _ _ _ ] _ _ { _ _ Y _ ",
"` _ _ _ _ _ _ Q _ _ _ ` _ _ _ _ _ _ _ / _ _ ] < C < , #.;.=.@.2 Y _ _ _ _ _ _ _ Y Y _ _ _ _ ] _ ` _ _ _ _ _ _ _ ` _ _ _ { ` _ _ ",
"_ _ _ Y _ _ _ _ _ _ _ ` _ _ _ _ _ ` _ _ _ _ Q D < %.h.z.z.z.c.m.2.F _ _ _ _ _ Q _ _ ] _ _ _ _ _ _ _ _ _ Y / _ Y _ _ _ _ _ _ _ _ ",
"_ _ _ _ _ _ { Q ` _ ] _ _ _ _ _ Y _ _ _ _ _ Y 4 4.y.z.c.c.c.c.c.z.s.I _ { _ _ _ _ _ ` _ ` _ _ _ _ _ _ / _ _ _ _ ` _ _ _ / _ _ _ ",
"_ _ _ _ _ Y _ _ _ _ _ _ _ _ ` _ _ _ _ _ _ ` G *.h.c.z.z.c.c.c.c.c.n.@._ _ _ / _ _ _ _ ] _ _ ` ` _ { _ { _ _ _ _ _ _ _ ` _ _ ] _ ",
"` _ _ ` _ Y _ _ _ _ _ _ _ ` ` _ _ Y _ _ _ Q x r.z.c.c.c.c.c.c.c.c.c.N.6 _ _ _ _ _ / _ _ _ _ ` / _ _ _ _ _ _ _ Y _ ` _ / ` _ _ _ ",
"Y _ _ _ _ Y _ _ ` _ / _ _ _ _ Y _ _ _ _ Y D 7.t.c.c.c.c.c.c.z.c.c.c.j.a.G ] { Y _ _ _ / _ / _ Y / / _ _ Y Y _ / Y _ _ Y _ _ _ Y ",
"_ _ _ ` ` _ _ Y _ _ _ _ / _ _ _ _ _ ] _ Y 1 6.t.c.c.c.z.z.8.:.8.j.G.<X6X=XI _ _ _ _ _ / _ I _ Y _ _ Y / _ Y ` _ Y _ _ _ _ _ _ _ ",
"Y _ _ _ _ _ _ _ _ _ _ ] / ] _ _ _ _ _ _ _ F 4.t.c.c.c.k.+XtXpXtXXXrXpXpXuX=X] _ _ _ _ _ { _ _ _ _ _ _ Y _ _ _ _ / _ _ _ _ _ _ ` ",
"_ _ Y _ _ _ / / _ _ _ ] / _ / / / _ _ _ _ Y $.r.z.z.z.J.iXpXpXpXtX>XpXpX4X%XY _ _ _ _ Y _ _ ` _ / ` _ Y _ _ _ / _ _ Y _ _ _ _ Y ",
"_ _ { / _ _ _ Y ` / _ ` _ _ _ Y { Y _ _ _ _ 4 r.7.z.c.;XpXpXpXpX$X,XpXrXwX4XQ _ _ Y _ _ _ _ _ _ / ] _ / Y _ / _ _ _ / _ _ Y _ Y ",
"_ Y _ Y _ _ _ _ _ Y Y _ _ _ ] _ _ Y _ _ _ _ D 3.x 5.c.OXpXpXpXpXpX+X1.8.f.| _ _ _ ] _ _ _ _ _ _ _ ` _ _ _ Y / _ / _ _ _ _ _ _ _ ",
"_ Y _ / Y _ _ / Y / Y _ _ / / _ _ / Y _ _ _ D 5 $.%.z.s.6XpXpXpX6X9.c.c.c.=._ _ / _ Y _ _ / _ _ _ _ _ _ ] / Y _ _ _ _ _ _ _ _ ] ",
"_ _ _ Y / Y _ _ _ { _ _ / _ _ _ _ / _ _ _ ` I C , e.9.c.a.-X*X-Xq.c.j.8.5.-.,.I / _ / _ _ Y _ Y _ _ _ _ _ _ _ Y _ / _ Y _ _ _ _ ",
"_ _ _ _ _ Y _ / _ _ _ _ _ _ / / _ / _ _ _ ] _ F 2 3.h.c.z.c.c.x.5.-.0.q.i.i.i.s.R _ _ _ _ Y _ / / _ ( _ _ / / Y Y _ _ Y _ Y _ _ ",
"_ _ Y ] _ _ Y Y _ / _ Y / _ _ Y _ Y _ Y Y _ / Y %.g.j.c.c.z.d.-.p.i.i.i.i.i.i.p.W _ _ _ _ _ _ _ / / { / _ _ / Y _ _ / _ _ Y _ _ ",
"_ _ _ _ / _ / _ _ U _ / U / / / _ _ _ Y _ _ _ I 4.*.z.k.z.g.4.i.i.i.u.w.0.-.$.E _ _ Y _ _ _ _ _ _ _ / / Y Y / _ _ _ _ _ U _ _ _ ",
"_ / _ / / _ / Y _ / / / Y / / / / _ Y _ { _ / _ 5 %.7.l.z.%.p.p.-.q . =.1 Y _ _ _ _ Y { / / _ _ _ / / _ U _ / Y / Y Y Y _ / / _ ",
"/ Y Y / [ _ _ U / U _ U Y Y _ Y / / / / _ _ / _ ] l r.z.8.w.p.q     z +._ _ _ / / ` _ _ Y Y U / _ / _ / _ Y / Y _ Y Y _ Y U / Y ",
"U _ Y Y / _ / _ _ Y / ( U { / Y Y / _ / _ _ _ _ P z t.c.:.p.&.      $.! _ _ _ / _ U _ Y Y Y _ / _ / _ Y / / / ( _ U Y _ Y U / _ ",
"Y _ / Y _ Y _ / ` _ / / _ / _ ( ( _ _ Y _ _ _ / XX<.t.c.:.p.+.h j k c 0.! _ ` _ / / _ U _ _ _ / Y / / ( _ / _ / _ Y Y Y U / / _ ",
"_ _ / _ / _ _ / _ Y Y / / / _ / _ _ _ Y / _ _ Y &X+X6.z.d.4.0.n m b <.0.@.Y _ _ _ _ _ _ _ _ _ / _ _ _ U _ / Y _ _ U Y U Y _ / _ ",
"_ / / / / Y / Y / _ _ / / / _ _ ] / _ Y U _ _ F 1X5X;X7.z.*.q.0.0.i.u.+.I / / Y / / _ _ _ _ / _ _ _ / _ / / Y / Y U / / Y _ / / ",
"/ _ _ Y Y _ U ( _ Y / _ Y _ _ _ _ _ / I 0 XX+XX.3X5XyX6XG.5.%.&.-.&.v 1XX._ _ Y _ Y _ _ _ _ Y / / ` _ Y _ U / Y Y / Y / Y / / _ ",
"Y ] _ Y / _ Y { _ Y _ / Y _ / / Y _ F XX2XwXiXpX:X;XeXpXpXwXV.e.6.y.F.;X%XS.S Y ` Y Y / / _ _ / U P _ U / Y / / / U _ K _ Y _ _ ",
"_ / Y ] Y / _ / / _ / Y / _ _ / U F OX5XyXpXpXpXpXD.1XpXpX,XrXG.z.j.g %X8XqXyX>XS.Y _ / U / / C :.N.D U Y U _ / U Y _ U _ U _ / ",
"_ Y _ _ / U _ U Y Y / U / ` / _ U +X5XrXpXpXpXpXpX&X7X>XrX>XpXrXZ.1.tX6X$XtXpX6Xf C _ ` / U P 5.c.8.P / Y U Y / U Y / / _ U Y / ",
"Y _ _ _ / Y Y / Y Y / U / / / / P &X0XpXpXpXpXpXpX*XpXyX:XuXpXpXwX7XpXpX%XpXuXZ.n.M.>.@.@.~ :.c.m.< % 2 2 A _ / U / / Y _ U / K ",
"( / Y / / ] Y / _ [ / U / _ Y Y 5 C.qXpXpXpXpXpXiX*XpXiXpXpXpXpXpXpXpXpX%XpX>Xh.z.z.z.c.z.j.c.c.z.m.m.n.n.s.I / [ Y Y / / [ Y U ",
"_ U _ / _ U _ / / Y / / _ _ _ P 3.r.Z.wXpXpXpXpX,XtXpXpXpXpXpXpXpXpXpXpX&XrXZ.k.c.z.z.c.z.c.9.g.c.c.5.#.O.W _ K ] Y Y / _ / / / ",
"_ U _ / Y / _ U Y Y / / ( / _ 6 r.h.k.0.OX6XpXuX&XpXpXpXpXpXpXpXpXpXpXpX,X=X4.z.z.z.z.z.c.g.k.j.j.c.a.@.D Y Y U _ U / Y / _ U _ ",
"/ / _ U ` / _ / U K U _ [ _ Y $.r.z.z.c.k.%.XX&XyXpXpXpXpXpXpXrX9X7X7XuXpX,X%.r.h.k.z.z.z.k.z.c.c.9.9.z.B.C U K Y Y Y U U / U _ ",
"Y Y / U / Y / / K / Y _ / _ F 4.t.z.z.z.k.F.5XrXpXpXpXpXpXpXpXpXpXpXpXpXpXpXoX+.3.6.r.y.6.%.6.k.z.2.V O.:.$ U / / / U / U U U _ ",
"/ / / U U Y U Y K _ U / _ U 1 r.k.z.z.z.0.<X6XpXpXpXpXpXpXpXpXpXpXpXpXpXpXpX8XC P A V C C P P C 5.m.! _ Y / U / Y U U U U T U U ",
"/ ` Y / U Y Y / Y ` U / U _ 5 r.z.z.z.z.H.5XeXpXpXpXpXpXpXpXpXpXpXpXpXpXpXpXpXX.U U U / U / _ U 2 *.E U U U K U K U / U ( / / U ",
"U ` _ _ / / ( U / / Y _ / _ +.y.c.z.z.9.;X5XyXpXpXpXpXpXpXpXpXpXpXpXpXpXpXpXpX&X_ Y / / / Y K U / U / Y _ / U U / U / U / _ / / ",
"U Y / / U / / U U K / Y U U z t.c.z.z.1.5X2XpXpXpXpXpXpXpXpXpXpXpXpXpXpXpXpXpX,XY / Y U U U / U / U / U _ U / / / U / / U / U Y ",
"/ K / K U / U / U T U / U U %.h.z.z.z.G.2X2XpXpXpXpXpXpXpXpXpXpXpXpXpXpXpXpXpX>X_ / Y U / / / U U U / T / U K / / / / U / _ U / ",
"U U U U H K ^ U / U U J Y 2 e.h.z.z.z.A.OX2XyXpXpXpXpXpXpXpXpXpXpXpXpXpXpXpX9Xo.U U / U U / / U U ' / U / K U U _ _ J J U U U _ ",
"/ U _ K U U K / U ( U U _ O.r.h.z.z.z.m.,.T.#X,XwXpXpXpXpXpXpXpXpXpXwX<X$X'.T.U Y K U K / / / U / _ U U ( J / K J ` J J / T U U ",
"/ U U / / U ^ / _ / / U P 3.6.y.z.z.g.g.m.^.Q.).E.P.~.].@X@X@X].].U.E.{.|.}.} Y K / U J / ( Y _ U / U ' / U / ( J / J K U ^ U U ",
"' U H ] U U _ K / / U ^ z r.+.t.8.j.8.G M Y.Q.|.|.|.|.|.|.|.|.|.|.|.|.|.|.}././ K U U U / U / U U / K / U K ` K U / H ^ / U U / ",
"/ U Y / ^ U K / Y T U U l l $.t.$.l.;./ t W.W.|.|.|.|.|.|.|.|.|.|.|.|.|.|.|.}.A K U U U / / / ( ^ K _ U J U K J / / U U U Y U U ",
"_ K U U ^ U U / _ J ^ U U U z $.z h.E ( > W.Q.|.|.|.|.|.|.|.|. X`._.{.|.|.|.|...U ^ _ J U / U ( U Y / J Y / J / / U / ^ / / U J ",
"Y U U _ ( U K / U Y _ U / U K / A C / T A R.W.|.|.|.|.|.|.!. .K.E.|.|.|.|.|.|.!.Y U Y U U U U K / J U U U U U U U U K ' U U U U ",
"K / J / ^ U H / J U ( J / ^ U ' U U / / P I.W.|.|.|.|.|.|._.T r W.|.|.|.|.|.|.}.A J U H ( T U U T H H ^ H K K K J U U U K J Y U ",
"U U U U K / U ( H T U K U U Y ' H U U Y J I.W.|.|.|.|.|.|._.[ > W.[.|.|.|.|.|.}.F U U H / T U U ( U K J U / ( J / J U K U _ K U ",
"/ K / U J _ U U K ^ U / U U _ U K J ( ^ Z R.Q.|.|.|.|.|.|.U./ A R.[.|.|.|.|.|..X% / K U / / U H _ U J ^ Y / U U U J _ U K U U U ",
"/ / / Y J _ / U / ^ U ^ ^ / U K / K K Y C E.).|.|.|.|.|.|.Y./ P L.).|.|.|.|.|..XC / U U U K T ^ ( U / U U K / U K / J U K U U T ",
"/ U / U U U / U H U _ K ( U H U U ( U K y W.[.|.|.|.|.|.|.t / Z L.Q.|.|.|.|.|..XF U U / U J U U / U U / H U K U J U H ( U U ^ J ",
"U U U U Y U K U / U Y K / K / ^ U T K U e W.[.|.|.|.|.|. X} Y P R.W.|.|.|.|.|.{.$ / J _ U J ^ U J ' K U K / K / U K U ( L ( U J ",
"U ^ T K / J K H / U K / / U / ^ U / U U K.P.(.|.|.|.|.|.`.P U F K.L.).).).).(.!.J U U / U U ( T K _ K U K U / U U U ^ Y / U U ( ",
"^ / J U _ H ^ U U / H / / / / / U _ ^ % E.W.(.).`.`.`.(.U._ U % L.W.|.|.|.|.}.e Z H ( H T J U U U U K H _ U K U U U U ( / U K ( ",
"U / U U U U U K U Y U U U K ( ( ^ U U & w I.{.|.|.|.|.(.w P U O = w r r t w 7 s s 9 / U ^ / U / K T / U _ J U / / U ( U ^ U Y / ",
"U / U U T U U U U Y ^ U K Z Z $ $ $ $ X = 7 7 ; w ; 7 i s d $ + = u p p p p p p p s 0 Y U U K U K U / J U U U U U U U H J U / U ",
"U K _ J / K U H ( U U / N # $ $ # # # o = i p p p p p p p a 8 + o u ; u i p p p p p 7 / / U K _ K / U U K / ) U U Y K ^ T U / U ",
"J J Y U _ K / _ K K U U ^ H J Z $ # # @ X ; o u i p p p p p u * * @ @ @ O - : : 9 3 P T ( ^ K U H / K U K ( U J ` ^ ^ / U Y U ^ ",
"/ U H _ / / U U J U U / U T J U U U U P N N N * & - 8 : 9 & V N N P J L U J J U / ' / / ( K / U H _ T / U / U U ( U U U ( U U / ",
"` / K / U / U J U J U / T Y J _ U U U U U J K U J U U K K U T ^ U _ / J J U U U T / / / U U / U U ( U U ^ U K / U K U J / K ` U ",
"( K ^ H K / H K / ( K _ U _ K _ H U U U U ` U U J U ^ J U B Y U _ K / T U ^ U H _ U / / H ^ / J _ U U _ U U ^ / U K ^ U J U U U ",
"/ U J ^ Y U H U / U T / K U ^ U H U K K K / K Y K / J U / H U Y ( U U U / _ U T ^ U / ` B T U U U ^ U ' U K K K U T / T / / U U "
};
