/* XPM */
static char * wall2_xpm[] = {
"64 64 1807 2",
"  	c #6CA905",
". 	c #69A703",
"+ 	c #6BA903",
"@ 	c #67A507",
"# 	c #69A702",
"$ 	c #6FAB03",
"% 	c #6BA905",
"& 	c #71AD02",
"* 	c #6BA806",
"= 	c #68A607",
"- 	c #68A603",
"; 	c #6BA80A",
"> 	c #65A405",
", 	c #6CA906",
"' 	c #66A403",
") 	c #68A604",
"! 	c #6CAA04",
"~ 	c #68A608",
"{ 	c #62A10A",
"] 	c #6AA709",
"^ 	c #66A30F",
"/ 	c #67A508",
"( 	c #67A506",
"_ 	c #6BA808",
": 	c #68A509",
"< 	c #65A307",
"[ 	c #6BA802",
"} 	c #69A607",
"| 	c #67A40A",
"1 	c #66A408",
"2 	c #60A007",
"3 	c #70AC09",
"4 	c #6DA906",
"5 	c #67A502",
"6 	c #6EAB04",
"7 	c #66A407",
"8 	c #67A505",
"9 	c #63A206",
"0 	c #65A409",
"a 	c #67A504",
"b 	c #69A704",
"c 	c #6DA90D",
"d 	c #69A50C",
"e 	c #68A50F",
"f 	c #69A60B",
"g 	c #65A30B",
"h 	c #69A708",
"i 	c #70AC04",
"j 	c #65A406",
"k 	c #67A509",
"l 	c #69A705",
"m 	c #66A504",
"n 	c #67A503",
"o 	c #68A605",
"p 	c #63A205",
"q 	c #6CA903",
"r 	c #6AA805",
"s 	c #64A308",
"t 	c #6DAA03",
"u 	c #66A502",
"v 	c #6AA705",
"w 	c #6CAA02",
"x 	c #64A304",
"y 	c #69A508",
"z 	c #68A507",
"A 	c #65A403",
"B 	c #68A602",
"C 	c #65A404",
"D 	c #65A407",
"E 	c #6CA904",
"F 	c #68A606",
"G 	c #6BA803",
"H 	c #65A308",
"I 	c #63A202",
"J 	c #6AA703",
"K 	c #6CA902",
"L 	c #64A20C",
"M 	c #62A108",
"N 	c #66A503",
"O 	c #609F0C",
"P 	c #66A505",
"Q 	c #66A402",
"R 	c #64A208",
"S 	c #6DA810",
"T 	c #69A60C",
"U 	c #65A402",
"V 	c #65A210",
"W 	c #68A512",
"X 	c #66A409",
"Y 	c #66A40A",
"Z 	c #6BA80D",
"` 	c #69A706",
" .	c #69A70A",
"..	c #66A404",
"+.	c #69A604",
"@.	c #6BA809",
"#.	c #6CA90A",
"$.	c #66A40D",
"%.	c #68A50E",
"&.	c #64A307",
"*.	c #6CA80D",
"=.	c #67A408",
"-.	c #68A50B",
";.	c #69A60E",
">.	c #64A306",
",.	c #69A605",
"'.	c #69A606",
").	c #61A005",
"!.	c #61A008",
"~.	c #6DAA04",
"{.	c #65A408",
"].	c #62A009",
"^.	c #62A103",
"/.	c #66A406",
"(.	c #63A203",
"_.	c #64A207",
":.	c #6AA802",
"<.	c #62A107",
"[.	c #5D9D09",
"}.	c #64A403",
"|.	c #64A402",
"1.	c #67A603",
"2.	c #63A105",
"3.	c #66A405",
"4.	c #69A60D",
"5.	c #6AA706",
"6.	c #62A105",
"7.	c #67A602",
"8.	c #6BA805",
"9.	c #68A508",
"0.	c #6BA902",
"a.	c #60A004",
"b.	c #61A004",
"c.	c #67A50A",
"d.	c #69A707",
"e.	c #61A00A",
"f.	c #65A30A",
"g.	c #62A00C",
"h.	c #63A204",
"i.	c #67A606",
"j.	c #6BA804",
"k.	c #69A60F",
"l.	c #609F0A",
"m.	c #62A203",
"n.	c #69A609",
"o.	c #61A006",
"p.	c #68A504",
"q.	c #5D9D0B",
"r.	c #63A108",
"s.	c #61A102",
"t.	c #62A106",
"u.	c #68A702",
"v.	c #5F9F05",
"w.	c #63A20A",
"x.	c #68A50C",
"y.	c #5D9D04",
"z.	c #62A204",
"A.	c #68A609",
"B.	c #63A207",
"C.	c #6CA807",
"D.	c #6AA708",
"E.	c #6AA704",
"F.	c #62A10C",
"G.	c #6DAA02",
"H.	c #63A302",
"I.	c #64A303",
"J.	c #5F9E05",
"K.	c #69A515",
"L.	c #609F12",
"M.	c #6DAB02",
"N.	c #63A110",
"O.	c #60A003",
"P.	c #64A205",
"Q.	c #5F9F04",
"R.	c #62A104",
"S.	c #67A50B",
"T.	c #609F09",
"U.	c #61A104",
"V.	c #5FA002",
"W.	c #66A30A",
"X.	c #61A009",
"Y.	c #63A10C",
"Z.	c #6AA803",
"`.	c #69A802",
" +	c #6BA906",
".+	c #61A015",
"++	c #66A50A",
"@+	c #6AA804",
"#+	c #5E9F03",
"$+	c #64A20B",
"%+	c #64A302",
"&+	c #68A703",
"*+	c #5E9E06",
"=+	c #5F9F03",
"-+	c #6FAB04",
";+	c #63A303",
">+	c #67A40F",
",+	c #619F0C",
"'+	c #65A304",
")+	c #68A506",
"!+	c #65A306",
"~+	c #62A00B",
"{+	c #5F9E07",
"]+	c #61A105",
"^+	c #6DA90C",
"/+	c #68A60B",
"(+	c #6EAB02",
"_+	c #61A103",
":+	c #5D9C0C",
"<+	c #6EAA07",
"[+	c #5C9C05",
"}+	c #64A30D",
"|+	c #63A20C",
"1+	c #65A214",
"2+	c #70AD02",
"3+	c #6AA70B",
"4+	c #64A406",
"5+	c #64A113",
"6+	c #64A305",
"7+	c #69A613",
"8+	c #65A20E",
"9+	c #60A002",
"0+	c #69A608",
"a+	c #65A30E",
"b+	c #609F07",
"c+	c #5C9D06",
"d+	c #6FAC03",
"e+	c #63A209",
"f+	c #61A003",
"g+	c #65A503",
"h+	c #6EAA05",
"i+	c #64A206",
"j+	c #67A310",
"k+	c #5F9E0E",
"l+	c #62A10F",
"m+	c #63A10F",
"n+	c #62A205",
"o+	c #5E9E05",
"p+	c #5D9C08",
"q+	c #61A107",
"r+	c #62A202",
"s+	c #66A40C",
"t+	c #63A304",
"u+	c #5F9F06",
"v+	c #5E9E08",
"w+	c #619F0F",
"x+	c #6DAA06",
"y+	c #5D9D06",
"z+	c #66A602",
"A+	c #61A106",
"B+	c #5A9B07",
"C+	c #5F9E0C",
"D+	c #65A502",
"E+	c #67A411",
"F+	c #5A9B06",
"G+	c #63A10E",
"H+	c #66A507",
"I+	c #63A208",
"J+	c #63A107",
"K+	c #5F9E09",
"L+	c #64A20A",
"M+	c #5B9D02",
"N+	c #6AA902",
"O+	c #65A40B",
"P+	c #64A405",
"Q+	c #65A305",
"R+	c #65A30D",
"S+	c #6CA90C",
"T+	c #6FAD02",
"U+	c #64A309",
"V+	c #5C9C04",
"W+	c #63A109",
"X+	c #60A005",
"Y+	c #67A50D",
"Z+	c #5C9D05",
"`+	c #609F0E",
" @	c #5FA003",
".@	c #6CA813",
"+@	c #5C9C08",
"@@	c #62A207",
"#@	c #5E9E03",
"$@	c #62A109",
"%@	c #5E9F02",
"&@	c #67A50C",
"*@	c #5D9E04",
"=@	c #579903",
"-@	c #599A06",
";@	c #6FAC02",
">@	c #5C9C06",
",@	c #64A30A",
"'@	c #63A20B",
")@	c #609F05",
"!@	c #599A08",
"~@	c #5B9C06",
"{@	c #62A10D",
"]@	c #5F9F0D",
"^@	c #6BA904",
"/@	c #5E9D0E",
"(@	c #61A00D",
"_@	c #68A415",
":@	c #5D9D0E",
"<@	c #68A60A",
"[@	c #60A008",
"}@	c #6EAB03",
"|@	c #62A206",
"1@	c #66A40B",
"2@	c #6BA718",
"3@	c #579908",
"4@	c #5D9E07",
"5@	c #5D9E03",
"6@	c #71AE02",
"7@	c #65A312",
"8@	c #5E9E07",
"9@	c #62A00A",
"0@	c #68A514",
"a@	c #60A009",
"b@	c #589A04",
"c@	c #5A9B04",
"d@	c #5B9B09",
"e@	c #64A209",
"f@	c #64A212",
"g@	c #5E9E12",
"h@	c #70AD03",
"i@	c #609F0D",
"j@	c #67A50E",
"k@	c #60A103",
"l@	c #5F9F08",
"m@	c #5C9C14",
"n@	c #62A011",
"o@	c #60A006",
"p@	c #5E9D0B",
"q@	c #66A508",
"r@	c #559803",
"s@	c #60A00A",
"t@	c #5F9F09",
"u@	c #5C9E02",
"v@	c #62A302",
"w@	c #67A314",
"x@	c #579809",
"y@	c #6BAA02",
"z@	c #66A413",
"A@	c #59990E",
"B@	c #61A202",
"C@	c #6FAB09",
"D@	c #5E9D10",
"E@	c #63A402",
"F@	c #5A9B08",
"G@	c #6BA80F",
"H@	c #63A104",
"I@	c #60A102",
"J@	c #65A309",
"K@	c #5A9C02",
"L@	c #5E9E0A",
"M@	c #5B9C05",
"N@	c #5E9D04",
"O@	c #599A07",
"P@	c #5A9B03",
"Q@	c #589A06",
"R@	c #68A802",
"S@	c #62A102",
"T@	c #5D9D03",
"U@	c #609F06",
"V@	c #61A10B",
"W@	c #6DAB03",
"X@	c #62A303",
"Y@	c #5B9C09",
"Z@	c #6AA707",
"`@	c #5D9E05",
" #	c #61A00C",
".#	c #599A0D",
"+#	c #5B9C03",
"@#	c #61A007",
"##	c #549703",
"$#	c #5E9F04",
"%#	c #5C9D03",
"&#	c #599B03",
"*#	c #61A108",
"=#	c #69A805",
"-#	c #5A9C03",
";#	c #5D9C0D",
">#	c #519505",
",#	c #509403",
"'#	c #559802",
")#	c #5E9E04",
"!#	c #5B9A0A",
"~#	c #6AA903",
"{#	c #6DAB05",
"]#	c #55960A",
"^#	c #69A803",
"/#	c #5A9B09",
"(#	c #66A50B",
"_#	c #65A504",
":#	c #5C9D04",
"<#	c #6AA807",
"[#	c #5C9E03",
"}#	c #67A702",
"|#	c #5B9C04",
"1#	c #5A9A0A",
"2#	c #56930A",
"3#	c #4F8607",
"4#	c #508206",
"5#	c #4D7E0A",
"6#	c #497A07",
"7#	c #4E8109",
"8#	c #578B04",
"9#	c #649D06",
"0#	c #589A05",
"a#	c #5B9C08",
"b#	c #599A04",
"c#	c #5A9B05",
"d#	c #64A404",
"e#	c #65A314",
"f#	c #4F9304",
"g#	c #549608",
"h#	c #5B9B08",
"i#	c #5B9507",
"j#	c #3D6C07",
"k#	c #3C4F2C",
"l#	c #606463",
"m#	c #777C7A",
"n#	c #828886",
"o#	c #888E8B",
"p#	c #8B918F",
"q#	c #828987",
"r#	c #6A6F6D",
"s#	c #414E3B",
"t#	c #487305",
"u#	c #679F09",
"v#	c #5F9E0A",
"w#	c #5B9D04",
"x#	c #69A808",
"y#	c #66A603",
"z#	c #70AE04",
"A#	c #5F9F07",
"B#	c #5B9D03",
"C#	c #599B04",
"D#	c #549706",
"E#	c #67A604",
"F#	c #5D9D0A",
"G#	c #5A9A0F",
"H#	c #62A111",
"I#	c #569304",
"J#	c #365D06",
"K#	c #565B59",
"L#	c #8A908E",
"M#	c #A1A8A6",
"N#	c #A1A9A6",
"O#	c #A2A9A7",
"P#	c #A2AAA7",
"Q#	c #A0A8A5",
"R#	c #878D8B",
"S#	c #364135",
"T#	c #477704",
"U#	c #6BA90D",
"V#	c #5FA005",
"W#	c #63A118",
"X#	c #5FA004",
"Y#	c #5F9F02",
"Z#	c #5C9C07",
"`#	c #569904",
" $	c #609E15",
".$	c #5C9D09",
"+$	c #589A02",
"@$	c #5F9F0A",
"#$	c #549704",
"$$	c #559804",
"%$	c #65A413",
"&$	c #5F9E10",
"*$	c #579906",
"=$	c #5B9D05",
"-$	c #599A0B",
";$	c #509309",
">$	c #528508",
",$	c #414941",
"'$	c #8C9290",
")$	c #A2A9A6",
"!$	c #A1A8A7",
"~$	c #A0A7A5",
"{$	c #848D8A",
"]$	c #454D48",
"^$	c #3C6204",
"/$	c #549506",
"($	c #5B9A13",
"_$	c #609F08",
":$	c #599A05",
"<$	c #579904",
"[$	c #5C9C0B",
"}$	c #539505",
"|$	c #569806",
"1$	c #68A704",
"2$	c #61A10D",
"3$	c #589B03",
"4$	c #6CAA03",
"5$	c #549603",
"6$	c #519405",
"7$	c #63A00A",
"8$	c #529403",
"9$	c #5E9F06",
"0$	c #5B9E02",
"a$	c #5E9E09",
"b$	c #569903",
"c$	c #2A5B04",
"d$	c #5C605F",
"e$	c #9FA7A4",
"f$	c #A0A8A6",
"g$	c #949D99",
"h$	c #68746E",
"i$	c #48514C",
"j$	c #426805",
"k$	c #63A404",
"l$	c #589907",
"m$	c #50930C",
"n$	c #63A305",
"o$	c #559703",
"p$	c #559704",
"q$	c #6EAC02",
"r$	c #579905",
"s$	c #579A04",
"t$	c #599A09",
"u$	c #5F9E06",
"v$	c #5EA003",
"w$	c #63A403",
"x$	c #69A709",
"y$	c #549606",
"z$	c #4C7607",
"A$	c #676C6B",
"B$	c #929997",
"C$	c #67746E",
"D$	c #68756F",
"E$	c #404844",
"F$	c #437605",
"G$	c #5A9A08",
"H$	c #5B9B07",
"I$	c #60A00F",
"J$	c #599907",
"K$	c #529408",
"L$	c #60A00B",
"M$	c #57990A",
"N$	c #62A10B",
"O$	c #539607",
"P$	c #609E14",
"Q$	c #58980B",
"R$	c #5C9C09",
"S$	c #5C9C0A",
"T$	c #518607",
"U$	c #555958",
"V$	c #9FA7A5",
"W$	c #9AA09E",
"X$	c #9DA5A2",
"Y$	c #67746D",
"Z$	c #2A3722",
"`$	c #65A007",
" %	c #64A311",
".%	c #4C8F04",
"+%	c #62A00D",
"@%	c #68A028",
"#%	c #599A03",
"$%	c #5D9D07",
"%%	c #5C9B0A",
"&%	c #55970A",
"*%	c #549708",
"=%	c #62A015",
"-%	c #71AE04",
";%	c #65A303",
">%	c #5A9A0D",
",%	c #5B9C0C",
"'%	c #54950C",
")%	c #559511",
"!%	c #4A8D0D",
"~%	c #5D9B08",
"{%	c #334129",
"]%	c #9AA19F",
"^%	c #A1A8A5",
"/%	c #979E9C",
"(%	c #969E9B",
"_%	c #535C57",
":%	c #4A7707",
"<%	c #569705",
"[%	c #559506",
"}%	c #55960C",
"|%	c #5F9D16",
"1%	c #6BA80C",
"2%	c #58990B",
"3%	c #609E0A",
"4%	c #549607",
"5%	c #57980B",
"6%	c #6DAA0B",
"7%	c #5F9F0B",
"8%	c #6FAB07",
"9%	c #6BA814",
"0%	c #589908",
"a%	c #6AAA03",
"b%	c #5B9B04",
"c%	c #72AF03",
"d%	c #5D9D05",
"e%	c #589707",
"f%	c #64A111",
"g%	c #599813",
"h%	c #447105",
"i%	c #7F8583",
"j%	c #A0A7A6",
"k%	c #9EA5A3",
"l%	c #88918D",
"m%	c #68756E",
"n%	c #67736D",
"o%	c #66736C",
"p%	c #2C4019",
"q%	c #59990A",
"r%	c #589909",
"s%	c #5E9D0D",
"t%	c #519404",
"u%	c #5D9D08",
"v%	c #63A308",
"w%	c #629F1B",
"x%	c #6BA909",
"y%	c #5B9B0A",
"z%	c #539609",
"A%	c #4B8F05",
"B%	c #599908",
"C%	c #71AE03",
"D%	c #65A116",
"E%	c #579610",
"F%	c #5A9C05",
"G%	c #649A29",
"H%	c #5E9D0C",
"I%	c #65A108",
"J%	c #3B4438",
"K%	c #A0A7A4",
"L%	c #717C77",
"M%	c #3C433F",
"N%	c #528F09",
"O%	c #4F920A",
"P%	c #62A208",
"Q%	c #55960D",
"R%	c #4E9208",
"S%	c #599910",
"T%	c #589A03",
"U%	c #599906",
"V%	c #589B02",
"W%	c #5D9B15",
"X%	c #549705",
"Y%	c #578809",
"Z%	c #777D7B",
"`%	c #8C9592",
" &	c #505955",
".&	c #3E7206",
"+&	c #56960C",
"@&	c #619F08",
"#&	c #529504",
"$&	c #589903",
"%&	c #5E9C0D",
"&&	c #559706",
"*&	c #5F9F0F",
"=&	c #52940B",
"-&	c #67A703",
";&	c #51940B",
">&	c #62A209",
",&	c #5D9C0E",
"'&	c #55960F",
")&	c #5FA006",
"!&	c #539508",
"~&	c #4E9108",
"{&	c #6DAA0C",
"]&	c #64A30F",
"^&	c #3B5F09",
"/&	c #99A09D",
"(&	c #959C99",
"_&	c #9CA3A1",
":&	c #9AA29F",
"<&	c #6B7770",
"[&	c #69756F",
"}&	c #69766F",
"|&	c #5B6560",
"1&	c #2A4F05",
"2&	c #4A7C0B",
"3&	c #49770B",
"4&	c #4B7D0B",
"5&	c #467F06",
"6&	c #5E9C08",
"7&	c #6DAA05",
"8&	c #5A9A06",
"9&	c #579808",
"0&	c #5E9E15",
"a&	c #65A40F",
"b&	c #5D9821",
"c&	c #60A108",
"d&	c #5B9B0C",
"e&	c #5C9B0B",
"f&	c #569711",
"g&	c #66A509",
"h&	c #5C9B0E",
"i&	c #5F9D05",
"j&	c #6CA909",
"k&	c #5E9C1A",
"l&	c #59970C",
"m&	c #444B44",
"n&	c #9DA4A2",
"o&	c #727D78",
"p&	c #68746D",
"q&	c #56615C",
"r&	c #4A514D",
"s&	c #686D6B",
"t&	c #919795",
"u&	c #979D9B",
"v&	c #6A716E",
"w&	c #2D382C",
"x&	c #487106",
"y&	c #67A206",
"z&	c #579806",
"A&	c #579813",
"B&	c #5F9E0D",
"C&	c #53940E",
"D&	c #599B07",
"E&	c #6FAC0A",
"F&	c #62A004",
"G&	c #579810",
"H&	c #50920D",
"I&	c #458904",
"J&	c #6CAA08",
"K&	c #498D08",
"L&	c #64A10F",
"M&	c #5A9A09",
"N&	c #55960E",
"O&	c #68A613",
"P&	c #558A14",
"Q&	c #686D6C",
"R&	c #9BA3A1",
"S&	c #717D77",
"T&	c #58625D",
"U&	c #444947",
"V&	c #9FA6A4",
"W&	c #848E8A",
"X&	c #56605B",
"Y&	c #2E3B26",
"Z&	c #3F7506",
"`&	c #599814",
" *	c #50910F",
".*	c #579710",
"+*	c #6FAD04",
"@*	c #5B9B05",
"#*	c #539506",
"$*	c #5F9C17",
"%*	c #6BA322",
"&*	c #619F0D",
"**	c #4F9104",
"=*	c #589904",
"-*	c #64A10E",
";*	c #68A707",
">*	c #589808",
",*	c #64A409",
"'*	c #569808",
")*	c #7F8683",
"!*	c #949C99",
"~*	c #6E7A74",
"{*	c #64706A",
"]*	c #3B423F",
"^*	c #727876",
"/*	c #707C76",
"(*	c #39403C",
"_*	c #3B6B05",
":*	c #559611",
"<*	c #64A30B",
"[*	c #5A9B11",
"}*	c #65A507",
"|*	c #5A9C08",
"1*	c #4E9105",
"2*	c #619E1A",
"3*	c #5E9E0D",
"4*	c #73B004",
"5*	c #569707",
"6*	c #5D9C0F",
"7*	c #4B8F0D",
"8*	c #579509",
"9*	c #558908",
"0*	c #396808",
"a*	c #406B07",
"b*	c #355308",
"c*	c #535856",
"d*	c #808684",
"e*	c #8F9593",
"f*	c #9BA2A0",
"g*	c #808A86",
"h*	c #616D67",
"i*	c #3B403E",
"j*	c #8E9492",
"k*	c #86908C",
"l*	c #3B433F",
"m*	c #43740B",
"n*	c #5D9817",
"o*	c #57970F",
"p*	c #5E9D0F",
"q*	c #55970F",
"r*	c #61A00B",
"s*	c #6BA90B",
"t*	c #66A113",
"u*	c #4A8E04",
"v*	c #5E9E0B",
"w*	c #5E9D16",
"x*	c #52920F",
"y*	c #578408",
"z*	c #49504A",
"A*	c #7B817F",
"B*	c #949A98",
"C*	c #949B99",
"D*	c #909795",
"E*	c #797E7C",
"F*	c #585D5B",
"G*	c #787E7B",
"H*	c #9EA6A3",
"I*	c #939C99",
"J*	c #7D8783",
"K*	c #65706A",
"L*	c #404542",
"M*	c #969C9A",
"N*	c #2A312D",
"O*	c #59910B",
"P*	c #6CA520",
"Q*	c #589807",
"R*	c #5C9A16",
"S*	c #6CAB02",
"T*	c #619D1B",
"U*	c #579708",
"V*	c #5A9A04",
"W*	c #56960A",
"X*	c #559708",
"Y*	c #59980C",
"Z*	c #609E09",
"`*	c #549407",
" =	c #70AB15",
".=	c #609E0E",
"+=	c #599707",
"@=	c #254806",
"#=	c #7A817E",
"$=	c #959D9A",
"%=	c #56605A",
"&=	c #4B504E",
"*=	c #8C9491",
"==	c #8F9894",
"-=	c #8C9591",
";=	c #848D89",
">=	c #79847F",
",=	c #303633",
"'=	c #8E9793",
")=	c #5E6963",
"!=	c #2B4B06",
"~=	c #478906",
"{=	c #5E9D0A",
"]=	c #6AA904",
"^=	c #569704",
"/=	c #5C9A19",
"(=	c #559505",
"_=	c #5B9C14",
":=	c #56960B",
"<=	c #579606",
"[=	c #6BA714",
"}=	c #64A112",
"|=	c #6CAA0C",
"1=	c #589615",
"2=	c #395907",
"3=	c #828986",
"4=	c #979F9C",
"5=	c #5D6862",
"6=	c #353B38",
"7=	c #6B7670",
"8=	c #505A55",
"9=	c #747977",
"0=	c #808A85",
"a=	c #3F4743",
"b=	c #508609",
"c=	c #66A506",
"d=	c #609F04",
"e=	c #54950F",
"f=	c #67A306",
"g=	c #5A990A",
"h=	c #699E2A",
"i=	c #5C9817",
"j=	c #6EAA11",
"k=	c #4B8B0A",
"l=	c #6DA911",
"m=	c #48740A",
"n=	c #797F7D",
"o=	c #939C98",
"p=	c #59635E",
"q=	c #4A514E",
"r=	c #5E6964",
"s=	c #353937",
"t=	c #9BA3A0",
"u=	c #6A7670",
"v=	c #616C66",
"w=	c #2C5304",
"x=	c #66A315",
"y=	c #509010",
"z=	c #5C9A13",
"A=	c #569605",
"B=	c #498E07",
"C=	c #619F1C",
"D=	c #639D21",
"E=	c #539408",
"F=	c #609E13",
"G=	c #55930F",
"H=	c #60990B",
"I=	c #464A48",
"J=	c #7E8883",
"K=	c #3F4643",
"L=	c #656F6A",
"M=	c #59645F",
"N=	c #6E7472",
"O=	c #989F9D",
"P=	c #7A847F",
"Q=	c #626E68",
"R=	c #343836",
"S=	c #55910B",
"T=	c #5E9A18",
"U=	c #599817",
"V=	c #498B07",
"W=	c #589811",
"X=	c #609D0B",
"Y=	c #65A019",
"Z=	c #579812",
"`=	c #629F0F",
" -	c #446F07",
".-	c #848A88",
"+-	c #929996",
"@-	c #66736D",
"#-	c #616B66",
"$-	c #434B47",
"%-	c #646F69",
"&-	c #545E59",
"*-	c #444C48",
"=-	c #888E8C",
"--	c #7C8681",
";-	c #636F69",
">-	c #555D58",
",-	c #39720B",
"'-	c #5F9C05",
")-	c #64A10A",
"!-	c #4F910D",
"~-	c #589711",
"{-	c #5B9B06",
"]-	c #59970F",
"^-	c #72AD0F",
"/-	c #64A108",
"(-	c #619F0B",
"_-	c #55930E",
":-	c #334325",
"<-	c #6B7871",
"[-	c #6D7973",
"}-	c #272C2A",
"|-	c #555F5A",
"1-	c #424845",
"2-	c #666B69",
"3-	c #808583",
"4-	c #767C7A",
"5-	c #5C615F",
"6-	c #575C5A",
"7-	c #99A19E",
"8-	c #747F7A",
"9-	c #5E6762",
"0-	c #3A6906",
"a-	c #619E0E",
"b-	c #6FAA11",
"c-	c #639D1B",
"d-	c #569809",
"e-	c #70AA17",
"f-	c #619F04",
"g-	c #619F0E",
"h-	c #45820B",
"i-	c #525755",
"j-	c #697670",
"k-	c #66726C",
"l-	c #454A48",
"m-	c #636E68",
"n-	c #3E4341",
"o-	c #828785",
"p-	c #757E7A",
"q-	c #3A423E",
"r-	c #6E7371",
"s-	c #A1A9A7",
"t-	c #838D88",
"u-	c #6D7772",
"v-	c #325B05",
"w-	c #5C9C03",
"x-	c #599810",
"y-	c #69A40F",
"z-	c #5F9C08",
"A-	c #65A30F",
"B-	c #5D9C05",
"C-	c #559707",
"D-	c #59990F",
"E-	c #548D18",
"F-	c #464E4A",
"G-	c #89938E",
"H-	c #9EA6A4",
"I-	c #919A97",
"J-	c #77827D",
"K-	c #313633",
"L-	c #575B59",
"M-	c #818B87",
"N-	c #4A534F",
"O-	c #929A97",
"P-	c #606B65",
"Q-	c #3B6309",
"R-	c #63A307",
"S-	c #639F10",
"T-	c #6CA811",
"U-	c #498C06",
"V-	c #569807",
"W-	c #5E9D06",
"X-	c #5D980D",
"Y-	c #333A37",
"Z-	c #75807B",
"`-	c #75807A",
" ;	c #65716B",
".;	c #565A59",
"+;	c #9FA6A5",
"@;	c #7C8782",
"#;	c #464F4A",
"$;	c #4E5853",
"%;	c #5A655F",
"&;	c #6B7771",
"*;	c #66716C",
"=;	c #5C6661",
"-;	c #69746E",
";;	c #6C7872",
">;	c #636D67",
",;	c #3E690C",
"';	c #3E840A",
");	c #4F9306",
"!;	c #5A9A05",
"~;	c #4D900A",
"{;	c #569414",
"];	c #52920B",
"^;	c #304B07",
"/;	c #626D68",
"(;	c #65716A",
"_;	c #2A2F2C",
":;	c #787E7C",
"<;	c #3F4442",
"[;	c #4B534F",
"};	c #51870C",
"|;	c #50910A",
"1;	c #3B8202",
"2;	c #579907",
"3;	c #5E9D15",
"4;	c #5B9A0C",
"5;	c #4A8D11",
"6;	c #4F8F13",
"7;	c #363D3A",
"8;	c #4E5652",
"9;	c #9CA4A1",
"0;	c #6F7A74",
"a;	c #4D5652",
"b;	c #56615B",
"c;	c #454E4A",
"d;	c #6B706E",
"e;	c #79837E",
"f;	c #49524D",
"g;	c #57605B",
"h;	c #0C3602",
"i;	c #135A01",
"j;	c #3C7D05",
"k;	c #3A7B04",
"l;	c #458B03",
"m;	c #569906",
"n;	c #579607",
"o;	c #5F9D0D",
"p;	c #68A708",
"q;	c #58970C",
"r;	c #2D7102",
"s;	c #307303",
"t;	c #265F03",
"u;	c #202F1F",
"v;	c #47504C",
"w;	c #5F6964",
"x;	c #78837D",
"y;	c #74807A",
"z;	c #636D68",
"A;	c #525A56",
"B;	c #383D3A",
"C;	c #041203",
"D;	c #525D57",
"E;	c #2F3532",
"F;	c #535D58",
"G;	c #5F6A64",
"H;	c #5A645F",
"I;	c #414944",
"J;	c #134102",
"K;	c #246B01",
"L;	c #145E01",
"M;	c #256B02",
"N;	c #135D01",
"O;	c #45880B",
"P;	c #4D8F09",
"Q;	c #5E9C0C",
"R;	c #5E9B05",
"S;	c #65A208",
"T;	c #59961B",
"U;	c #498B0E",
"V;	c #448216",
"W;	c #3C7C03",
"X;	c #1C6301",
"Y;	c #286C02",
"Z;	c #1C5A02",
"`;	c #164602",
" >	c #164403",
".>	c #113A02",
"+>	c #092F02",
"@>	c #052A01",
"#>	c #032801",
"$>	c #093001",
"%>	c #174003",
"&>	c #154602",
"*>	c #1A4D02",
"=>	c #135202",
"->	c #135C02",
";>	c #042703",
">>	c #939B98",
",>	c #919A96",
"'>	c #7B8681",
")>	c #65726B",
"!>	c #4A534E",
"~>	c #154704",
"{>	c #134E02",
"]>	c #073C02",
"^>	c #113E03",
"/>	c #052C01",
"(>	c #020E02",
"_>	c #78837E",
":>	c #1D5103",
"<>	c #1B6301",
"[>	c #2B6C02",
"}>	c #3F7A06",
"|>	c #3C8103",
"1>	c #4B8D0D",
"2>	c #5B980F",
"3>	c #589407",
"4>	c #599A18",
"5>	c #5FA009",
"6>	c #4E9014",
"7>	c #619D1A",
"8>	c #4D8F14",
"9>	c #458903",
"0>	c #558F0A",
"a>	c #3C7C08",
"b>	c #397904",
"c>	c #2A6E03",
"d>	c #357703",
"e>	c #196001",
"f>	c #1B6202",
"g>	c #1A5E02",
"h>	c #1A6301",
"i>	c #266C01",
"j>	c #256A01",
"k>	c #2F7204",
"l>	c #2C6E02",
"m>	c #256A02",
"n>	c #134702",
"o>	c #505854",
"p>	c #737E78",
"q>	c #77827C",
"r>	c #76817C",
"s>	c #6F7B75",
"t>	c #4C5550",
"u>	c #162C15",
"v>	c #1D6402",
"w>	c #196201",
"x>	c #216702",
"y>	c #2A6B02",
"z>	c #092E07",
"A>	c #959D99",
"B>	c #828C88",
"C>	c #464C48",
"D>	c #195902",
"E>	c #367806",
"F>	c #6EAC06",
"G>	c #5D990C",
"H>	c #4F900E",
"I>	c #609C1B",
"J>	c #62A005",
"K>	c #549609",
"L>	c #559405",
"M>	c #509204",
"N>	c #5D9B0F",
"O>	c #4F910F",
"P>	c #44870B",
"Q>	c #66A50D",
"R>	c #5A9906",
"S>	c #539406",
"T>	c #5E9923",
"U>	c #59980B",
"V>	c #579317",
"W>	c #609D0C",
"X>	c #50920C",
"Y>	c #2C7107",
"Z>	c #1E6504",
"`>	c #124C02",
" ,	c #1F3918",
".,	c #4C524F",
"+,	c #525955",
"@,	c #5D6661",
"#,	c #57615B",
"$,	c #58635D",
"%,	c #525C57",
"&,	c #4D5651",
"*,	c #3C4440",
"=,	c #212623",
"-,	c #0C3102",
";,	c #114702",
">,	c #1B6102",
",,	c #1D6401",
"',	c #549015",
"),	c #3B7704",
"!,	c #266602",
"~,	c #19440D",
"{,	c #475249",
"],	c #535956",
"^,	c #616764",
"/,	c #575E5A",
"(,	c #353F38",
"_,	c #2B4328",
":,	c #0B4102",
"<,	c #1B5B02",
"[,	c #186001",
"},	c #428105",
"|,	c #539310",
"1,	c #5C9D07",
"2,	c #4B8E07",
"3,	c #569607",
"4,	c #6BA70F",
"5,	c #529605",
"6,	c #56940D",
"7,	c #609E08",
"8,	c #5D9B10",
"9,	c #5D961E",
"0,	c #59990B",
"a,	c #5A980C",
"b,	c #639F0B",
"c,	c #529309",
"d,	c #609E16",
"e,	c #55930A",
"f,	c #427F05",
"g,	c #3C7C02",
"h,	c #286C03",
"i,	c #286603",
"j,	c #175302",
"k,	c #184F03",
"l,	c #144902",
"m,	c #144A03",
"n,	c #0E4502",
"o,	c #215703",
"p,	c #1C5502",
"q,	c #125402",
"r,	c #236804",
"s,	c #2D6F04",
"t,	c #31710B",
"u,	c #418002",
"v,	c #549204",
"w,	c #5B9912",
"x,	c #5C9B07",
"y,	c #5B9A0D",
"z,	c #5C9A04",
"A,	c #4A8703",
"B,	c #4D8B05",
"C,	c #317405",
"D,	c #387906",
"E,	c #458205",
"F,	c #3C7F04",
"G,	c #4B8B04",
"H,	c #56940B",
"I,	c #5D9A0D",
"J,	c #599909",
"K,	c #508F0F",
"L,	c #4F8F11",
"M,	c #4C8E0B",
"N,	c #549405",
"O,	c #52930E",
"P,	c #569905",
"Q,	c #529507",
"R,	c #5B9804",
"S,	c #66A208",
"T,	c #56950D",
"U,	c #66A40F",
"V,	c #4C8C08",
"W,	c #569609",
"X,	c #65A118",
"Y,	c #5E9D07",
"Z,	c #589710",
"`,	c #579614",
" '	c #5C9B06",
".'	c #5B9A06",
"+'	c #529307",
"@'	c #4E8F07",
"#'	c #4A8702",
"$'	c #619D0B",
"%'	c #4B8B07",
"&'	c #4A8A05",
"*'	c #5B9A05",
"='	c #5E9B04",
"-'	c #3F8402",
";'	c #599905",
">'	c #5B9907",
",'	c #4D8E0A",
"''	c #5A9A03",
")'	c #63A103",
"!'	c #5B9B14",
"~'	c #438908",
"{'	c #4D9006",
"]'	c #5C9B0C",
"^'	c #589905",
"/'	c #6FAC05",
"('	c #519307",
"_'	c #4D8F08",
":'	c #488A07",
"<'	c #5F9D08",
"['	c #3E8202",
"}'	c #4F9204",
"|'	c #569706",
"1'	c #5D981F",
"2'	c #659E1D",
"3'	c #458A09",
"4'	c #68A804",
"5'	c #519207",
"6'	c #589902",
"7'	c #4E8D0C",
"8'	c #62A006",
"9'	c #5EA004",
"0'	c #51930A",
"a'	c #64A10D",
"b'	c #498E03",
"c'	c #509004",
"d'	c #569606",
"e'	c #539409",
"f'	c #559507",
"g'	c #539507",
"h'	c #488B0E",
"i'	c #65A40E",
"j'	c #55940B",
"k'	c #5E9C17",
"l'	c #5C9A08",
"m'	c #58990E",
"n'	c #5B9B0B",
"o'	c #4E8F06",
"p'	c #569703",
"q'	c #5B9C07",
"r'	c #589A07",
"s'	c #5B9A07",
"t'	c #629F02",
"u'	c #609E12",
"v'	c #4B8E03",
"w'	c #5E9A05",
"x'	c #529304",
"y'	c #5A9C07",
"z'	c #609F03",
"A'	c #4F8C0E",
"B'	c #438807",
"C'	c #559412",
"D'	c #579707",
"E'	c #438806",
"F'	c #4E9009",
"G'	c #54950B",
"H'	c #3D8306",
"I'	c #6AA806",
"J'	c #5F9E08",
"K'	c #4C8F05",
"L'	c #5D9B07",
"M'	c #55950C",
"N'	c #509304",
"O'	c #448905",
"P'	c #45890E",
"Q'	c #649E1D",
"R'	c #509205",
"S'	c #549505",
"T'	c #5C9B0F",
"U'	c #64A503",
"V'	c #4C8D11",
"W'	c #64A507",
"X'	c #64A00D",
"Y'	c #619F10",
"Z'	c #559606",
"`'	c #458902",
" )	c #4A8B0C",
".)	c #669D23",
"+)	c #448803",
"@)	c #59970A",
"#)	c #61A204",
"$)	c #4B8D06",
"%)	c #529114",
"&)	c #5B9B0E",
"*)	c #58990D",
"=)	c #519305",
"-)	c #579805",
";)	c #539606",
">)	c #4E900C",
",)	c #68A803",
"')	c #3D8303",
"))	c #519208",
"!)	c #5D9D0C",
"~)	c #4D900B",
"{)	c #538A1F",
"])	c #519206",
"^)	c #519408",
"/)	c #6EAB05",
"()	c #4A8B0F",
"_)	c #509207",
":)	c #549206",
"<)	c #589708",
"[)	c #629C21",
"})	c #559409",
"|)	c #66A118",
"1)	c #589419",
"2)	c #64A204",
"3)	c #5A9B0D",
"4)	c #66A40E",
"5)	c #529503",
"6)	c #629E09",
"7)	c #6DA90F",
"8)	c #4C8E09",
"9)	c #599902",
"0)	c #6CA71E",
"a)	c #4C8C04",
"b)	c #4D8F0D",
"c)	c #509009",
"d)	c #3F8408",
"e)	c #458710",
"f)	c #679A2D",
"g)	c #478B06",
"h)	c #4B8D07",
"i)	c #4C9005",
"j)	c #559603",
"k)	c #54970A",
"l)	c #408504",
"m)	c #519104",
"n)	c #5A9709",
"o)	c #59980F",
"p)	c #5A9A11",
"q)	c #589805",
"r)	c #549208",
"s)	c #519109",
"t)	c #52950A",
"u)	c #5D9C09",
"v)	c #599B02",
"w)	c #81AB36",
"x)	c #418807",
"y)	c #69A804",
"z)	c #4C9007",
"A)	c #5E9E0C",
"B)	c #569612",
"C)	c #509211",
"D)	c #539603",
"E)	c #5E9D03",
"F)	c #53950D",
"G)	c #539602",
"H)	c #5A9B0B",
"I)	c #5E9B12",
"J)	c #6AA41D",
"K)	c #4E9103",
"L)	c #55960B",
"M)	c #50900B",
"N)	c #4E9006",
"O)	c #5D9F04",
"P)	c #498D04",
"Q)	c #5F9D15",
"R)	c #569603",
"S)	c #579511",
"T)	c #63A014",
"U)	c #519303",
"V)	c #5E9D11",
"W)	c #4E9004",
"X)	c #50910B",
"Y)	c #448805",
"Z)	c #5E9F05",
"`)	c #639C04",
" !	c #63A010",
".!	c #549510",
"+!	c #62A008",
"@!	c #63A114",
"#!	c #5A9907",
"$!	c #47890B",
"%!	c #42860B",
"&!	c #579704",
"*!	c #6FA919",
"=!	c #509306",
"-!	c #498B09",
";!	c #599904",
">!	c #619F12",
",!	c #589906",
"'!	c #4C8F03",
")!	c #64A00F",
"!!	c #6CAB03",
"~!	c #5D9E06",
"{!	c #50930A",
"]!	c #498C03",
"^!	c #5B9C0A",
"/!	c #6DA224",
"(!	c #4B900B",
"_!	c #468903",
":!	c #6FAC06",
"<!	c #4A881C",
"[!	c #61A205",
"}!	c #539311",
"|!	c #6AA80D",
"1!	c #4F9203",
"2!	c #56960D",
"3!	c #367F04",
"4!	c #539509",
"5!	c #458805",
"6!	c #64A502",
"7!	c #4A8E07",
"8!	c #4A8F04",
"9!	c #5FA104",
"0!	c #559404",
"a!	c #5E9D18",
"b!	c #62A112",
"c!	c #62A10E",
"d!	c #539403",
"e!	c #589A08",
"f!	c #5C9A15",
"g!	c #5B9A03",
"h!	c #61A203",
"i!	c #488B02",
"j!	c #5C961F",
"k!	c #4B8F04",
"l!	c #629F06",
"m!	c #4D8F02",
"n!	c #4B8F03",
"o!	c #6BA80B",
"p!	c #629C15",
"q!	c #5A9D02",
"r!	c #40840C",
"s!	c #66A11A",
"t!	c #498C09",
"u!	c #488D03",
"v!	c #4C8B18",
"w!	c #77A923",
"x!	c #69A807",
"y!	c #4D9007",
"z!	c #5A9804",
"A!	c #63A106",
"B!	c #569803",
"C!	c #529404",
"D!	c #4D9004",
"E!	c #70AD04",
"F!	c #61A206",
"G!	c #5D9B0A",
"H!	c #569702",
"I!	c #4B8B14",
"J!	c #6AA80A",
"K!	c #498C07",
"L!	c #5A9A0E",
"M!	c #4E9106",
"N!	c #74AA20",
"O!	c #458A03",
"P!	c #589803",
"Q!	c #50910C",
"R!	c #65A01D",
"S!	c #60A202",
"T!	c #63A017",
"U!	c #4F8F16",
"V!	c #4E8E05",
"W!	c #599809",
"X!	c #5C9D02",
"Y!	c #73AE04",
"Z!	c #4E8E04",
"`!	c #4E9104",
" ~	c #398103",
".~	c #639F0F",
"+~	c #529105",
"@~	c #599C02",
"#~	c #539504",
"$~	c #4F9106",
"%~	c #3F8603",
"&~	c #6FAE03",
"*~	c #519403",
"=~	c #4F9403",
"-~	c #69A210",
";~	c #56970C",
">~	c #53940D",
",~	c #6BA71B",
"'~	c #488C05",
")~	c #448A06",
"!~	c #468B05",
"~~	c #4E8F04",
"{~	c #5D9C04",
"]~	c #5B9918",
"^~	c #6AA01E",
"/~	c #4E910A",
"(~	c #488B06",
"_~	c #529209",
":~	c #478A05",
"<~	c #6FAC0E",
"[~	c #3F8504",
"}~	c #669F17",
"|~	c #6DA70C",
"1~	c #649C20",
"2~	c #59951D",
"3~	c #6FAC0B",
"4~	c #539210",
"5~	c #619623",
"6~	c #5C9B02",
"7~	c #5D9F02",
"8~	c #6EAC03",
"9~	c #519304",
"0~	c #5A9B0C",
"a~	c #4E9202",
"b~	c #468B02",
"c~	c #579804",
"d~	c #579705",
"e~	c #488A06",
"f~	c #67A605",
"g~	c #4C9002",
"h~	c #4E8D0F",
"i~	c #4C9004",
"j~	c #388005",
"k~	c #498E04",
"l~	c #3E8503",
"m~	c #62A305",
"n~	c #549605",
"o~	c #5C9D08",
"p~	c #6BAA03",
"q~	c #5C9A0B",
"r~	c #659F24",
"s~	c #4A8E08",
"t~	c #509203",
"u~	c #69A903",
"v~	c #4D9003",
"w~	c #5B9902",
"x~	c #5C9C02",
"y~	c #5C9B03",
"z~	c #468C02",
"A~	c #5E9E02",
"B~	c #3F8602",
"C~	c #569804",
"D~	c #5D9C03",
"E~	c #3E8302",
"F~	c #61A002",
"G~	c #448602",
"H~	c #67A405",
"I~	c #539209",
"J~	c #4A8F03",
"K~	c #609B14",
"L~	c #519108",
"M~	c #498C02",
"N~	c #619C0A",
"O~	c #509305",
"P~	c #55940F",
"Q~	c #478B02",
"R~	c #6DAC04",
"S~	c #408303",
"T~	c #6BA908",
"U~	c #73B102",
"V~	c #599C03",
"W~	c #599903",
"X~	c #68A21B",
"Y~	c #559602",
"Z~	c #599803",
"`~	c #468A0B",
" {	c #70AC02",
".{	c #64A40C",
"+{	c #4D9103",
"@{	c #559702",
"#{	c #72AF02",
"${	c #4A8C02",
"%{	c #4A8E03",
"&{	c #549604",
"*{	c #589A0B",
"={	c #498D02",
"-{	c #65A202",
";{	c #4D8F03",
">{	c #60A00C",
",{	c #428803",
"'{	c #6CA803",
"){	c #398002",
"!{	c #59951F",
"~{	c #579A02",
"{{	c #6AA115",
"]{	c #539605",
"^{	c #5C9B0D",
"/{	c #3F8404",
"({	c #4C8E07",
"_{	c #468C03",
":{	c #4D9002",
"<{	c #438902",
"[{	c #4C8F02",
"}{	c #69A123",
"|{	c #6A9D2A",
"1{	c #428706",
"2{	c #5A9905",
"3{	c #539604",
"4{	c #559705",
"5{	c #64A006",
"6{	c #6DA71C",
"7{	c #458B02",
"8{	c #5EA002",
"9{	c #509202",
"0{	c #337E02",
"a{	c #69A902",
"b{	c #52930B",
"c{	c #619F02",
"d{	c #529502",
"e{	c #6EAD02",
"f{	c #367F03",
"g{	c #5F9D03",
"h{	c #337C02",
"i{	c #509303",
"j{	c #468B04",
"k{	c #4F910E",
"l{	c #5F9D12",
"m{	c #6BAA05",
"n{	c #529505",
"o{	c #478C03",
"p{	c #509404",
"q{	c #62A002",
"r{	c #2F7A03",
"s{	c #458905",
"t{	c #689D29",
"u{	c #589417",
"v{	c #4D8A1E",
"w{	c #4A8D02",
"x{	c #66A604",
"y{	c #579902",
"z{	c #438A02",
"A{	c #549502",
"B{	c #3D8504",
"C{	c #50920A",
"D{	c #589802",
"E{	c #549602",
"F{	c #569902",
"G{	c #468A02",
"H{	c #4F8E04",
"I{	c #488D02",
"J{	c #3A8302",
"K{	c #549702",
"L{	c #4F9303",
"M{	c #65A602",
"N{	c #418602",
"O{	c #519502",
"P{	c #5D9D02",
"Q{	c #4D9102",
"R{	c #509402",
"S{	c #579703",
"T{	c #519202",
"U{	c #4F9002",
"V{	c #478B08",
"W{	c #5B9812",
"X{	c #3C8303",
"Y{	c #418705",
"Z{	c #72B102",
"`{	c #64A504",
" ]	c #4F920D",
".]	c #61A302",
"+]	c #438903",
"@]	c #5A9B02",
"#]	c #4F9102",
"$]	c #5B9C02",
"%]	c #73B002",
"&]	c #418702",
"*]	c #5B9903",
"=]	c #4C900A",
"-]	c #6BA61A",
";]	c #559504",
">]	c #4C8E02",
",]	c #5F9E02",
"']	c #549802",
")]	c #398102",
"!]	c #529405",
"~]	c #70AE03",
"{]	c #62A013",
"]]	c #377F07",
"^]	c #579A03",
"/]	c #478D04",
"(]	c #6DA915",
"_]	c #5F9D0A",
":]	c #498E02",
"<]	c #498D0A",
"[]	c #74AF05",
"}]	c #428705",
"|]	c #3F850B",
"1]	c #4E8F02",
"2]	c #539402",
"3]	c #53950A",
"4]	c #478C02",
"5]	c #468D02",
"6]	c #559607",
"7]	c #3A8303",
"8]	c #418604",
"9]	c #51920D",
"0]	c #488C03",
"a]	c #5E9C11",
"b]	c #418404",
"c]	c #3E8507",
"d]	c #4C9105",
"e]	c #5B9B02",
"f]	c #3D8502",
"g]	c #4F9302",
"h]	c #4B8F02",
"i]	c #6FAD08",
"j]	c #68A611",
"k]	c #458C03",
"l]	c #418508",
"m]	c #68A21E",
"n]	c #4D9008",
"o]	c #529305",
"p]	c #4A8F02",
"q]	c #3D8403",
"r]	c #6AAA02",
"s]	c #468B06",
"t]	c #4E9109",
"  . + @ # $ % & * = - ; > , = ' ) ! ~ { ] ^ / ( _ ) : < [ } | 1 2 3 4 5 6 7 8 9 . 0 a b 8 c d e f g h i j k l m n o p 5 . q r s ",
"t u - v w x @ a y - - z A B m C D E ' F G H # I J K L o M N O P n Q K R 8 m S 7 8 T u U V W X Y Z ` P  .` D > b X p ..$ +.@.#.$.",
"%.&.@ *.=.-.;.>.,.' '.).!.N > ~.{.'.].^.. /.m (._.:.<.U [.}.o 9 x |.w 1.2.3.4.> 5.6.u 7.e o >.x 8.o 9.,.&.0.u a.v . b.c./.d.e.f.",
"g.' h.5 l i.j.>.k.~   l.*.} = ) m.n.o.+ P /.l (.p.7.q.U r.B w s.t.u.- v.@ w.x.. A y.:.z.A.# B.C.a D.E.# F.G.H.I.C J.m K.L.M.N.9.",
"n |.O.u.i.H.B 7.j e N ).P.>.g 1.1.# Q.> u.U G.7.R.u (.7.B F S.(.p T.B o.,.U.- N V.W.X.(.3.B @ Y.u Z.:.u `.Z.G.` u.#  +~ .+` ++@+",
"> ` #+m.$+b B %+&+*+m ~.=+N j u C m m -+;+^.N >+,+' >.'+3.@+)+f.) !+E.!+E # ~+{+= r {.'.C t ]+>.^+/+A o U @ j ..m (+'._+m + 1.n ",
"' J :+F )+U <+[+* }+v I.|+u.Z.7.1+A ^.2+O._+5 3+T.2.E [ N - 4+5+5 Q.:.F.f.x 6+j.7+/ K.8+x q 9+u H.0+Y T Z.p a+E ~ b+(.N c+d+C j ",
"m B z.@ b s.- %+v.e+- f+|.g+h+v.,.;+X.&+# A i+u - j+r L k+l+X m+z.U y.F n+o+Q.1.B x p+q+O.I.u.I.r+A.&.{+s+t+i+D u+v+%+~.w+x+l t.",
"P Q p ;+&+y+h.G E.u A ;+z+U b u+6+[.A+X.H B+C+D+I.E+=+j.F+G++ 5 H+0 _.E N 6+I+8 A U._+;+J+_+[ s.A K+!+y.x Z.L+M+u.N+u - O+P++ ' ",
"c+Q+R+S+N ].D Q T+r+C z.m.) U+a.V+W+X+* ;+!.Y+7.Z+1 `+7. @C s v.e.x I.r+F '..@+@3.H.G.A @@x (+r+e.w+8 #@Q.a.$@%@/ G.>.7 ) R.P u ",
":.7.&@!+&+*@a.=@H+-@;@6+( >@,@N f+h.&+. D+{+&.!+a+'@)@h._+h.!@~@F+7 H x {@]@L+v+o Q.^@/@> (@8._@s+:@<@[@7.|.^ A 3.N t }.}@. f.9+",
"|@:.M G+1@U 2@3@>.4@. m 5@6@7@8@/.H &.h...P 9@@ m.H.0@A.a@C b@r.A+c@_+m d@e@  I.N+{@~ f@^ g@h@E+a n.1.i@U u c.j@k@k@#+p &.+ l@=+",
"' 0.m@n@u D+o@p@$+q@o@M.r@r l@s@I+C C+t@1 a.u@N ^.# l.O.m.}.U.r.v@w@^.a.6+x@u.y@Z+z@&+A@@+B@C@D@, b x.e+h.E@N+F@m.@ c@x.f.n+G@l@",
"H@5 L.*@I@*@n+J@;.;+%+`.K@) P L@F M@N@O@8@t.B.#+P@m.Q@R@m.C m O@:.@ S@b.( T@|. @U@V@W@X@9 ;+I.Y@Z@u &+U.`@ #9 .#F q@+#u @###:.k ",
"/.A #+$#K@r+z+%#` &#u@H.M.*#&@@#=#q+ @-#;#7.o+S.>#I.,#;+@+6+%@1.t / &+'#N *+a.)#z.<@- U !#).~#t.e+;+{#%@5@]#Y+o.g+^#*@s./#O.A k@",
"s - (#_#:#a@<#K@7 [#}#=+_+t.#+r+e+~@|#a.1#w ).:#O.*+_.2#3#4#5#6#7#8#9#q+u X+|#u 0#6+~+`.Q.|#`.7.a#b#t.u.. c#<#h.N+u.5 d#m j D+O.",
"g+Q ^@t.8@b.u Q.T.e#m.*@f#N ;+R@^#g#b.6+h#&+|.s.i#j#k#l#m#n#o#p#q#n#r#s#t#u#y.1.Z+<.v#;+I.y.u.H.w#j :.x t V.x#U@&+y#z#A#Z.S.D+B#",
"u b._#s.w+U.U.C#D#U.E#_+F#c+5@r+^@G#v#,.H#H+I#J#K#L#M#N#O#P#Q#O#N#M#O#O#R#S#T#U#V#t.#+W#t+X#z+u 5@Y#X+Z#`.`# $L .$h j +$w @$g+6.",
":#n #$Z+F.z.$$=@)#;+%#%$&$*$x K@=$+@-$F+;$>$,$'$)$M#M#M#O#M#Q#!$O#~$~$Q#M#{$]$^$/$p h.($_$*#H.`.:$<$[$}$7.|$:# @1$2$_+ @# 3$) (.",
"4$- %@x 8@o.:#|@u.5$6$7$8$##9$0$t.~#a$b$c$d$e$Q#N#M#Q#M#f$~$Q#M#f$M#M#Q#N#g$h$i$j$k$l$m$<@n$)@I.- Q@o$*$n+p$F#b Q.A q$~@r$e.Z.9+",
"&+s$6.I.-.t.v@Z+g+~@t$u$}.v$:#w$Z+x$y$z$A$M#M#M#M#N#)$M#M#~$~$M#Q#B$N#Q#~$~$C$D$E$F$$#G$z+ @0 =#v c+6.H$I$Z.[$}.J$2 X#K$L$C A#u+",
"#@M$G#@+N$I.a.=@:#O$P$Q$|#u R$~@S$<.T$U$e$M#f$M#Q#M#M#Q#N#M#V$f$~$W$M#M#N#X$Y$C$Y$Z$`$ %b+ @.%+%a @%=#:$w 5@#%D $%b$F+F %%A#&%[$",
"*%u+=%a@Z#-%x ;%w >%u+,%'%$%)%O !%~%{%]%f$M#~$Q#V$M#Q#M#M#Q#~$M#^%M#~$/%M#(%h$Y$h$_%:%<%[%[+}%|%1%2%E#3%~#R 4%5%-@g#:$6%b#7%t+8%",
"-#t.9%0%R$I.a%b%c%#+N d%N #+e%f%g%h%i%M#M#f$M#M#M#~$Q#M#M#M#M#M#j%~$k%e$M#l%m%h$n%o%p%q%F#r%s%r$t%u%v%w%x%y%:+z%9$u+A%B%u%b@t+C%",
">.D%g+E%F%t+N G%$#V+X+n+_+M@H%[$I%J%K%~$O#!$N#M#M#~$M#~$Q#e$Q#~$M#~$M#M#j%L%m%Y$h$m%M%N%O%q.. r@b#3.P%Q%v+I.d%l.1 R%S%c@o+T%G+^@",
"c%Z#s%U%P M$V%W%X%..[+X+Z+d@y+q%Y%Z%M#M#M#f$Q#f$f$M#M#M#M#M#M#M#~$M#~$M#`%n%n%m%Y$m% &.&+&@&D #&R.> $&%&&&E#`@*&o+=&v#-&;&s @#*+",
"8 U%| p H+>&,&'&)&!&~&{&&$v+]&6.^&/&M#M#Q#(&_&f$Q#M#N#M#f$^%f$M#j%M#~$:&<&Y$[&h$}&m%|&1&2&3&4&5&6&7&2 8&%#9&0&a&f#t+b&c&H O.]+d&",
"e&f&b+6+n$:@g&h&h.!@i&j&k&g.p l&m&M#Q#M#N#]%]%M#M#M#Q#Q#M#M#M#~$f$~$n&o&n%p&m%h$q&r&s&n#t&u&R#v&w&x&y&>@z&A&B&o C&D&y+C#E&n+F&G&",
"+@H&I&J&U+K&L&` >@q+M&u$N&O&E#P&Q&O#Q#M#M#M#O#O#Q#~$Q#Q#~$M#~$M#~$R&S&m%h$m%T&U&i%V&N#M#M#M#M#Q#W&X&Y&Z&-@`&Q+Q. *.*+*2 @*#*$*%*",
"&***~.^@=*y%-*;*'%>*,*'*> v#z.7#)*M#Q#!$M#f$f$M#~$e$N#Q#~$M#Q#M#!*~*Y$n%{*]*^*k%O#~$M#M#M#M#~$M#e$/*o%(*_*:*y+<*[*Q$}*!@|*1*2*3*",
"]@d.4*x%5*6*Z@~#7*,%@@8*9*0*a*b*c*d*e*M#Q#M#M#~$M#M#M#O#~$Q#f*g*Y$n%m%h*i*j*j%M#f$M#M#O#~$O#M#M#N#k*Y$Y$l*m*r  #n*o*i@p*d#q*r*V.",
"T.s*t*l@u*v*w*L+x*H y*z*A*B*f*~$C*D*E*F*G*V&M#Q#~$~$~$H*I*J*n%n%n%m%K*L*M*M#~$M#~$~$f$M#M#f$M#Q#~$`%m%h$n%N*O*/$P*Q*R*!+S*T*U*V*",
"W*X*x.Y*Z*`* =.=+=@=#=O#M#O#M#O#M#N#N#$=%=&=*===-=;=>=}&h$h$C$C$h$n%,=D*Q#~$M#~$N#M#M#O#~$~$M#M#M#'=n%Y$n%)=!=~=}*B%{=l ]=^=/=(=",
"_=:=<=[=}=I$|=1=2=3=Q#P#O#M#M#Q#M#M#Q#4=h$5=6=7=Y$n%Y$Y$h$o%h$h$n%8=9=M#M#~$M#~$~$V$M#Q#f$V&M#f$~$0=h$m%h$C$a=b=c=K+s*d=*@e=6*u$",
"f=g=h=i=j=k=l=m=n=~$M#O#M#M#M#M#~$M#M#o=h$n%p=q=C$h$r=Y$h$n%n%h$h$s=n&M#N#V$P#t&M#Q#~$M#Q#e$~$~$t=u=Y$Y$Y$Y$v=w=/.x=y=z=A=}=C B=",
"L C=D=E=F=G=H=I=Q#O#M#N#M#M#M#Q#~$O#Q#J=h$h$Y$K=L=h$h$Y$h$n%h$C$M=N=M#M#M#M#_&O=/&M#~$Q#M#Q#f$~$P=Y$m%Q=m%p&[&R=S=T=:+U=V=p+Q+W=",
"' X=Y=Z=`=X= -.-M#M#M#O#O#M#M#+-k%M#I*@-Y$Y$h$#-$-Y$h$m%m%%-M=&-*-=-M#O#M#Q#~$e$M#f$M#M#~$Q#~$--Y$Y$C$;-[&h$n%>-,-'-)-!-~-{-1 ]-",
"a ^-@*/-(-_-:-~$M#O#f$O#N#M#Q#P#Q#(%<-C$h$D$Y$[-}-h$h$|-1-2-3-R#4-5-6-t&~$M#~$~$~$e$Q#Q#~$7-8-Y$p&n%n%@-Y$n%Y$9-0-V*1#a$a->%b-c-",
"d-e-> f-g-h-i-M#M#M#O#O#M#O#Q#O#==j-k-[&h$Y$Y$p&l-m-n-o-K%O#N#)$O#M#p-q-r-V&M#~$Q#M#s-:&t-h$@-Y$Y$Y$h$h$n%h$n%u-v-w-x-X#B%y-z-A-",
"B-5*m.C-D-E-F-G-V&M#M#f$V$H-I-J-h$p&;-h$Y$o%Y$h$K-L-f*M#~$M#M#M#M#M#M-D$N-5-7-7-O-l%J-n%Y$Y$Y$n%Y$Y$n%n%@-Y$Y$P-Q-R-S-5%g.T-U-V-",
"*+Q%).E=W-X-Y-n%Y$Z-Z-Z-`-o%h$m%Y$ ;h*n%n%Y$h$T&.;+;O#N#Q#O#N#M#M#M#@;Y$h$#;$;n%h$C$Y$%;Y$h$Y$&;*;=;-;;;m%Y$n%>;,;*#y ';l+'.);M ",
"&&!;~;{;o.];^;/;m%Y$n%n%h$m%[&n%Y$n%Y$Y$m%n%(;U&^%M#M#Q#O#N#N#O#~$4=&;o%Y$Y$_; ;o%n%n%Y$Y$n%=;U&4-.-:;<;9-u=n%[;};0@|;1;2;j@^=> ",
"3;4;r*5;!;6;4#7;k-h$Y$n%m%p&h$Y$C$Y$Y$Y$h$Y$8;.-O#M#Q#M#O#O#O#Q#9;0;n%n%n%C$a;b;n%m%h$Y$m%c;d;~$M#M#Q#e;f;F-g;h;i;j;k;l;9&F#m;n;",
"o;p;e&q;x=r;s;t;u;v;w;{*x;m%m%<-y;%-z;=;A;B;C;Q#M#N#M#M#~$M#M#!*~*h$n%h$h$C$D;E;F;G;P-&;H;2-N#M#Q#N#^%8-h$I;J;K;L;M;N;O;P;Q;:=R;",
"S;A+T;L&U;V;W;X;Y;Z;`; >.>+>@>#>$>%>&>*>=>->;>>>M#~$^%O#9;,>'>Y$)>@-G;Y$h$m%!>~>{>]>^>/>(>_&O#)$M#t=_>Y$m%p=:><>[>}>|>1>2>3>4>9 ",
"@.5>6><*7>8>9><#0>a>b>c>d>e>f>g>h>i>j>k>l>m>n>o>p>q>r>s>h$Y$n%Y$Y$o%;-n%h*t>u>v>w>x>X;y>z>A>;=B>>=)>n%Y$m-C>D>E>F>G>H>2 I>J>|#K>",
"p@L>M>N>&$O>a$v w+P>Q>R>U%S>T>U>V>'@W>X>G$Y>Z>`> ,.,+,@,#,|-$,X&%,&,*,=,-,;,>,,,l>',B-),!,~,{,],^,/,(,_,:,<,[,},!#+&|,n$V#A 1,2,",
"3,J.Z+4,*#5,v+C X.6,+*4+7,8,9,!.0,a,b,c,*@d,e,f,g,h,i,j,k,l,m,n,o,p,q,r,s,t,u,v,H@w,M&x,y,z,d>A,B,C,D,E,F,G,H,I,J,K,L,:##@Y*M,N,",
"O,A P,7$Q,9$&#a w#R,S,k$T,U,V,W,`@X,Y,Z,`,F@ 'u+.'+'J>@'#'$'%'&'*'='-';'>',''')'!'~'~+{']'b.^'/'('_':'<'['}'Z+|'#+1'2'3'4'5'y=6'",
"7'8'$#9'0'a'F+!.b'9$c'V.d'e'f'g'h'i'3%j'k'^# +l'm'n'o'K>p'T.^#B. @}$q'z&r'g+s't'u'E=(.v'w'x'y'^@~%z'A%A'B'g+s.:'7.C'D'E'z'l F'G'",
"t@]'$&|#H'I'J'5'K'L'5'M'N'O'E P'Q'R'f.q;y'V#_+].S'T'<.m$b#:$s.*#U'V'W'+@=&!;X'X.:#Y'Z'`'F&v.)& ).)V.+)C @)n$#)$)N'%)&)*)=)-);)>)",
",):+g=m.')]=h.))4@!)~){)!@])u%^)/)()_):)v#'*Q.<)[)})U'u*|)1)R@2)A+z&<=5,3)J,:#1,u$4)-)M>Z#5)6)7)8)5@9)0)*@a)b#v$Q$-)#$b)c)d)e)f)",
"m.g)[=b@h)q+i)j)Z+k)f&l)0 m)n)o)5@p)E=q)o$b#r)s)t)!+u)v)w)x)y)z)g#+#A)#+B)C)D)Z+E)0,=*c%:=F)=)x G)H)I)J)K)L)M)~#N)O)P)e Q)R)S)T)",
"U)S>b#6$y+V)W);'S*X)(=Y)Z)`)a. !$$K'.!+!x'@!#!]'$!6.%!t.&!V**!=!-!;!^=9+>!,!a%'!b')!p'!!~!{!f&u+]!^!/!W)8$|+I&8 (!_!E):!<![!}!|!",
"1!N@2!3!_#4!R*5!6!7!8!5+9!{.0!a!b!!;c!d!o$r*e!J,f!Z'g!h!i!j!|!T.k!l!m!$#a#n!%@o ~%r%&&5$o!U.p!q!r!s!8,U)B#t!u!e!v!w!x!,!y!z!A!k ",
"B!)#C!D!E!X)F!G!H!.'I!n$y'J!K!O@^#).L!M!K)N!O!P!|@Q!R!S!i!T!~.U!u V!W!_+p$5)X!Y!Z!`!F) ~.~3$+~@~#~c+$~%~&~.%*~=~-~;~g >~,~R):#s%",
"n$'~R.#%k+)~m.!~~~{~u*=@]~^~/~~#=+(~_~v$:~<~**[~}~|~1~b@6!@@A-2~3~4~5~>@S'6~7~8~'+1*z!Y#e.|#9~h!}.0~M>a~(.b~6!#+1%c~` j+y+H!d~d=",
"!;e~f~g~;~h~/.i~j~.*=!m.k~^.q!;!'~l~E)m~S.M+E.$~@*2+&#n~S*o~e@B&p~q~r~S$s~t~}#_+5*u~v~w~x~y~N'z~B@y+A~B~6$C~B@S!)#w-~@D~E~F~U*G~",
"H~I~+ J~A#K~L~M~N~{ O~j d~P~H.{+Q~#~9~^!R~S~T~|.4@U~c#V~A~C~^#W~I@X~p)X+Y~Z~y#p'`~g+b~Y# {.{+{O.@{R@#{${p'@@%{Q.&{1.*{d.={-{e.;{",
"p+>{;+<%~#4,,{'{){@{o$Y#*~!{~{}#{{#+]{^{1$/{$%v@({D+_{h!:{I@4$<{[{}{|{1{X!2{3{4{5{w$9>2+R.6{7{A~P)8{,)9{V.7.0{Z+w-a{b{%@I@c{J.c#",
"&#c+d{^#N+e{f{g{h{i{-&z+j{k{7{I@l{I@}#m{n{o{5@A~>#u!t%V*X!p{q{r{s{t{u{v{:$w{O>|@w x{*+;%A~@ &#y{z{q'g!#%u A{B{' C{H.5@D{#+x~z+T@",
"E{t+F{u.!!z+G{M@H{I{!!v@9~J{K{8{L{I@M{%+##N{O{P{Q{R{S{T{+$O{U{V{%#W{9+X{Y{s.$&1$T@V%Z{K@|#`{6!1=k~3* ]A#.]+]+)h@|'@]@{#]J~$]%]:{",
"a!L{Q;r+a~}.&]5$B-<$=+&+C!*]@~1.=]v@M+-];]>],]O!<$[{c+Y~'])],]!]~]#%a{{]]]D~^]B&n i{N+O{/](]I@_{_]:]<][]G)g~1.6~s.}]R@K@|]S@1]2]",
"i.I{V*!!3]D{G)4]W~5]6]q$7]8]p d#9]B@0]a]1]b]8@c]8$d{d]e]V%f]g])#A.h]Y#i]!~W-V~j]! k]s.M{l]m]F{n]o]p]@{C%M~v)&+q]s.'~r]s]5)Q t]F~"};
